<?xml version="1.0"?>
<VTKFile type="ImageData" version="0.1" byte_order="LittleEndian" header_type="UInt32" compressor="vtkZLibDataCompressor">
  <ImageData WholeExtent="0 159 0 159 0 0" Origin="0 0 0" Spacing="1 1 1" Direction="1 0 0 0 1 0 0 0 1">
  <Piece Extent="0 159 0 159 0 0">
    <PointData Scalars="wind_speed">
      <DataArray type="Float32" Name="wind_speed" format="ascii" RangeMin="0.0518798828125" RangeMax="25.159461975097656">
        13.156532287597656 12.76589298248291 13.608200073242188 15.323341369628906 16.870628356933594 17.313148498535156
        17.459640502929688 17.69158172607422 17.84722137451172 18.23480987548828 19.351783752441406 21.088287353515625
        22.598953247070312 23.071990966796875 22.440261840820312 21.033355712890625 19.473861694335938 18.10968017578125
        17.566452026367188 17.99371337890625 18.26837921142578 17.252111434936523 15.997802734375 16.20532989501953
        16.24805450439453 12.128059387207031 6.851402282714844 6.830039978027344 10.809654235839844 14.944915771484375
        17.77397918701172 19.110687255859375 19.8461856842041 20.709861755371094 20.856346130371094 19.110687255859375
        17.099517822265625 16.272470474243164 16.0496826171875 15.436264038085938 14.413894653320312 13.190101623535156
        11.108734130859375 10.03753662109375 10.397659301757812 10.687583923339844 9.216591835021973 4.162727355957031
        3.2990493774414062 1.5869598388671875 1.7304000854492188 6.704917907714844 12.161628723144531 15.549179077148438
        18.17987823486328 20.51453971862793 20.645774841308594 19.428085327148438 18.16461944580078 15.567488670349121
        13.473922729492188 13.644829750061035 14.658042907714844 15.326394081115723 15.573593139648438 15.707878112792969
        15.9886474609375 15.8970947265625 14.581741333007812 12.994781494140625 12.460708618164062 12.900176048278809
        13.852349281311035 14.63057804107666 14.896087646484375 14.926605224609375 14.804527282714844 14.984588623046875
        15.466781616210938 15.848259925842285 14.661094665527344 12.314216613769531 11.9876708984375 13.565475463867188
        15.210427284240723 15.317237854003906 14.575637817382812 13.690605163574219 12.872710227966309 12.744529724121094
        12.997833251953125 12.781150817871094 12.979522705078125 13.849296569824219 14.481033325195312 13.608200073242188
        14.197212219238281 16.34265899658203 18.27448272705078 19.138160705566406 19.8309268951416 20.859397888183594
        21.094390869140625 19.9774169921875 18.62238883972168 17.615280151367188 17.181922912597656 17.423019409179688
        18.18903350830078 19.63561248779297 21.92144775390625 23.584701538085938 23.603012084960938 23.346656799316406
        22.586746215820312 21.051666259765625 19.37620735168457 18.43012809753418 18.20734405517578 18.15851593017578
        17.85637664794922 17.261268615722656 16.052734375 14.496292114257812 13.504440307617188 13.644828796386719
        14.661094665527344 15.756705284118652 15.985595703125 15.814688682556152 15.839103698730469 15.601058959960938
        15.14633846282959 15.247047424316406 15.540023803710938 15.054779052734375 13.97747802734375 13.17179012298584
        12.598037719726562 12.314216613769531 12.289802551269531 12.234870910644531 12.591933250427246 13.538009643554688
        14.453567504882812 14.816734313964844 14.813682556152344 14.893035888671875 14.911346435546875 14.947966575622559
        15.314186096191406 15.9031982421875 16.461685180664062 16.922517776489258 17.105621337890625 16.986602783203125
        16.711938858032227 16.498306274414062 16.409805297851562 16.28467559814453 13.086334228515625 12.210456848144531
        11.774040222167969 12.182991027832031 13.376266479492188 14.621414184570312 16.35181427001953 18.36298179626465
        19.507431030273438 19.202247619628906 19.620346069335938 21.561325073242188 23.145240783691406 23.120819091796875
        22.12897300720215 20.0201416015625 16.476943969726562 14.432204246520996 16.23889923095703 18.848228454589844
        20.28565216064453 20.41383171081543 18.485061645507812 16.541030883789062 12.750633239746094 7.6052093505859375
        6.7598490715026855 8.151496887207031 9.588913917541504 11.456648826599121 13.791313171386719 16.0679931640625
        17.612228393554688 18.18903350830078 18.24091339111328 17.947938919067383 17.73735809326172 17.91741943359375
        18.10052490234375 17.526779174804688 16.31519317626953 13.318275451660156 8.0965576171875 5.90228271484375
        6.903289794921875 8.377334594726562 8.929718017578125 7.4129486083984375 5.203407287597656 2.905364990234375
        1.095611572265625 3.3509292602539062 7.947021484375 12.411881446838379 15.445418357849121 18.01507568359375
        19.354835510253906 17.947938919067383 15.213478088378906 13.498335838317871 13.641777038574219 14.984588623046875
        16.467788696289062 17.151405334472656 16.702781677246094 15.723137855529785 15.375227928161621 15.103608131408691
        13.687553405761719 12.585830688476562 13.110748291015625 14.07818603515625 14.639732360839844 15.039520263671875
        15.19516658782959 15.143287658691406 15.448470115661621 15.878785133361816 16.19007110595703 15.543075561523438
        12.744529724121094 11.239967346191406 12.515640258789062 14.450515747070312 15.472885131835938 15.286720275878906
        14.755699157714844 14.236885070800781 13.757743835449219 13.223670959472656 13.12296199798584 13.550216674804688
        14.07208251953125 14.02020263671875 13.647880554199219 12.546157836914062 12.695701599121094 13.96221923828125
        15.9886474609375 18.32331085205078 20.30701446533203 21.82988739013672 22.547073364257812 20.865501403808594
        17.99676513671875 16.891998291015625 17.65801239013672 18.939788818359375 20.34363555908203 21.366004943847656
        22.431106567382812 22.980438232421875 22.760704040527344 22.757652282714844 22.20526885986328 20.673240661621094
        18.973358154296875 17.90521240234375 17.73430633544922 17.89300537109375 18.04559326171875 18.03033447265625
        16.806541442871094 14.752647399902344 13.690605163574219 13.721121788024902 13.90728759765625 14.343697547912598
        15.225685119628906 16.0802001953125 16.403701782226562 16.22364044189453 16.071044921875 16.0618896484375
        15.796379089355469 15.176856994628906 14.307075500488281 13.342689514160156 12.494277000427246 11.911376953125
        11.169776916503906 10.840171813964844 11.679435729980469 13.214516639709473 14.618362426757812 15.414902687072754
        15.652946472167969 15.567489624023438 15.344703674316406 15.323341369628906 15.619369506835938 16.022216796875
        16.388442993164062 16.684471130371094 16.898101806640625 16.989652633666992 16.83400535583496 16.617324829101562
        16.446426391601562 16.0740966796875 14.761801719665527 13.357948303222656 10.834068298339844 9.808646202087402
        11.322364807128906 13.739433288574219 16.422012329101562 19.238868713378906 20.520647048950195 19.129005432128906
        18.552200317382812 20.468767166137695 22.28766632080078 22.379226684570312 21.64678192138672 18.753623962402344
        14.151435852050781 12.662131309509277 14.63362979888916 17.941835403442383 20.71596336364746 21.89398193359375
        21.268348693847656 19.113739013671875 14.288764953613281 8.398695945739746 5.325477600097656 5.078277587890625
        6.585891246795654 8.374283790588379 9.579756736755371 11.120941162109375 13.364051818847656 15.506454467773438
        16.943878173828125 18.042539596557617 19.171728134155273 19.84618377685547 19.8858642578125 19.360939025878906
        18.23480987548828 15.012054443359375 9.527877807617188 6.06097412109375 5.227821350097656 6.421096324920654
        8.465836524963379 9.845268249511719 8.352912902832031 4.5442047119140625 1.4709930419921875 1.2176895141601562
        4.782249450683594 10.388504028320312 14.703819274902344 16.724143981933594 16.898103713989258 14.349800109863281
        11.954102516174316 12.71401309967041 14.612258911132812 15.851309776306152 17.184974670410156 17.98760986328125
        17.029327392578125 15.402694702148438 14.258247375488281 13.418992042541504 12.839133262634277 12.973420143127441
        14.06903076171875 15.13107967376709 15.341651916503906 15.28671932220459 15.488142967224121 15.616317749023438
        15.863517761230469 15.961181640625 15.576644897460938 13.397628784179688 11.014129638671875 11.795402526855469
        14.08734130859375 15.790275573730469 15.897095680236816 15.536972045898438 15.463730812072754 14.954071044921875
        13.766900062561035 12.726219177246094 12.933746337890625 14.270454406738281 15.424057960510254 14.889984130859375
        13.788261413574219 13.068023681640625 12.619400024414062 12.228766441345215 14.252143859863281 18.11578369140625
        21.179847717285156 21.91534423828125 21.033355712890625 18.15241241455078 15.341651916503906 15.463729858398438
        17.66716766357422 19.86144256591797 21.509445190429688 21.67730140686035 21.402633666992188 21.494184494018555
        21.78716468811035 21.99163818359375 21.469772338867188 20.645774841308594 19.83702850341797 19.125951766967773
        18.875701904296875 18.549148559570312 18.06695556640625 17.91741943359375 17.447433471679688 15.814689636230469
        14.06903076171875 13.528854370117188 13.818778991699219 14.441359519958496 15.460677146911621 16.486099243164062
        16.919464111328125 16.766868591308594 16.455581665039062 15.952027320861816 15.350807189941406 15.088348388671875
        14.896086692810059 14.371162414550781 13.809623718261719 13.025298118591309 11.569564819335938 10.550247192382812
        11.203346252441406 12.912384986877441 14.639732360839844 15.674308776855469 15.869621276855469 15.613265991210938
        15.588851928710938 15.848258972167969 15.933716773986816 15.759758949279785 15.674308776855469 15.808586120605469
        16.022216796875 16.22364044189453 16.33960723876953 16.25110626220703 15.8726806640625 15.387434959411621
        14.603102684020996 11.728264808654785 8.584854125976562 8.423110961914062 10.699790954589844 13.193154335021973
        15.536972045898438 17.954038619995117 18.842124938964844 17.514572143554688 17.020170211791992 18.878753662109375
        20.825828552246094 20.950958251953125 19.82482147216797 17.499313354492188 15.048674583435059 13.504440307617188
        13.534956932067871 15.848258972167969 19.287694931030273 21.82378387451172 22.772911071777344 21.89398193359375
        18.802452087402344 11.358985900878906 4.1077880859375 3.2349627017974854 5.6031951904296875 8.279670715332031
        10.184028625488281 11.471908569335938 12.897125244140625 15.082244873046875 17.047637939453125 18.21039581298828
        19.373153686523438 20.566421508789062 21.335487365722656 21.436203002929688 20.773948669433594 19.336524963378906
        15.787223815917969 9.106719970703125 4.983673095703125 4.770042419433594 6.646934509277344 9.262367248535156
        10.663169860839844 10.480056762695312 7.3915863037109375 3.2166519165039062 3.1952896118164062 7.275611877441406
        12.0181884765625 13.824882507324219 12.765891075134277 11.474959373474121 11.621444702148438 13.104644775390625
        15.036467552185059 16.18701934814453 16.910308837890625 17.017120361328125 16.052734375 14.999847412109375
        14.215522766113281 13.98663330078125 14.615310668945312 15.207374572753906 15.530868530273438 15.869621276855469
        16.0771484375 15.94287109375 16.0191650390625 16.18701934814453 15.723136901855469 14.670249938964844
        13.19925594329834 10.992767333984375 10.916473388671875 13.199257850646973 15.674307823181152 16.776023864746094
        16.403701782226562 16.35486602783203 16.574600219726562 15.439315795898438 13.21756649017334 12.1219482421875
        12.622459411621094 14.00799560546875 15.634636878967285 15.961181640625 15.149391174316406 14.636680603027344
        13.96832275390625 12.829978942871094 14.172799110412598 17.600021362304688 20.12696075439453 20.047607421875
        18.66512107849121 16.21143341064453 14.304023742675781 15.073088645935059 17.91131591796875 20.20325469970703
        20.737329483032227 20.728172302246094 21.326332092285156 21.121856689453125 19.962158203125 19.458602905273438
        19.77599334716797 20.31922149658203 20.395523071289062 20.078126907348633 19.75157928466797 19.083221435546875
        18.494216918945312 18.472854614257812 17.996763229370117 16.632591247558594 15.488143920898438 15.109711647033691
        15.094452857971191 15.445418357849121 16.0313720703125 16.608171463012695 16.852317810058594 16.577651977539062
        15.997802734375 15.347755432128906 15.036468505859375 15.292823791503906 15.594955444335938 15.619369506835938
        15.598007202148438 14.990692138671875 13.397628784179688 11.804557800292969 11.703849792480469 12.717063903808594
        13.882872581481934 14.679405212402344 15.005950927734375 15.149391174316406 15.533919334411621 15.784172058105469
        15.448470115661621 14.783164978027344 14.435256958007812 14.456618309020996 14.670249938964844 15.015106201171875
        15.448471069335938 15.585800170898438 15.314186096191406 15.152443885803223 9.94598388671875 7.654045104980469
        5.5757293701171875 6.317329406738281 8.871726989746094 11.633659362792969 14.148384094238281 16.31519317626953
        17.270423889160156 17.233802795410156 17.249061584472656 17.74346160888672 18.34772491455078 17.98455810546875
        16.678367614746094 15.536972999572754 14.407792091369629 12.762839317321777 12.591935157775879 14.590896606445312
        17.435226440429688 20.0048828125 21.76580047607422 21.93670654296875 20.0994873046875 14.426102638244629
        6.906341552734375 4.962311267852783 7.232887268066406 9.811698913574219 12.009033203125 13.650932312011719
        14.996795654296875 16.800437927246094 18.25006866455078 18.829917907714844 19.293800354003906 20.593887329101562
        22.22052764892578 22.852256774902344 22.556228637695312 21.292762756347656 18.875701904296875 12.448502540588379
        6.216621398925781 3.4760591983795166 3.8666913509368896 6.6469340324401855 9.530929565429688 10.306098937988281
        8.447525024414062 4.934844493865967 1.7456589937210083 3.5218350887298584 6.2990193367004395 7.574692249298096
        8.923614501953125 11.008026123046875 12.732322692871094 14.123970031738281 15.704825401306152 16.971343994140625
        17.596969604492188 17.465744018554688 16.834007263183594 16.0008544921875 15.659049987792969 16.17176055908203
        17.084259033203125 17.413864135742188 17.24601173400879 17.069000244140625 16.815696716308594 16.461685180664062
        16.394546508789062 16.15345001220703 15.057830810546875 13.406784057617188 12.021240234375 11.429183959960938
        12.533950805664062 14.08123779296875 15.405746459960938 15.921509742736816 16.34876251220703 17.27042579650879
        17.401657104492188 15.280616760253906 12.875762939453125 12.234869956970215 12.527847290039062 13.513594627380371
        15.18906307220459 16.30603790283203 16.28467559814453 15.698722839355469 14.551223754882812 13.718070983886719
        14.984588623046875 17.487106323242188 18.799400329589844 18.494216918945312 17.487106323242188 15.842155456542969
        14.700767517089844 15.668205261230469 18.375198364257812 20.078125 19.82482147216797 20.13916778564453
        21.347694396972656 20.767845153808594 19.403671264648438 19.330421447753906 20.04150390625 20.16968536376953
        19.287696838378906 18.683433532714844 18.741416931152344 18.753623962402344 18.982513427734375 19.013029098510742
        17.87469482421875 16.818748474121094 16.623435974121094 16.373184204101562 15.808586120605469 16.110719680786133
        16.800437927246094 16.919464111328125 16.458633422851562 15.96728515625 15.540022850036621 15.308082580566406
        15.573594093322754 16.18396759033203 16.647850036621094 16.791282653808594 16.733299255371094 16.19312286376953
        15.018158912658691 13.461715698242188 12.155526161193848 11.606185913085938 12.0487060546875 12.866600036621094
        13.696708679199219 14.477981567382812 14.944915771484375 14.810629844665527 14.249092102050781 13.760796546936035
        13.480026245117188 13.452560424804688 13.641777038574219 13.99273681640625 14.358955383300781 14.563430786132812
        14.822837829589844 15.399641990661621 4.4923248291015625 3.5187838077545166 2.6978378295898438 3.039642333984375
        4.315315246582031 7.248146057128906 11.529891967773438 15.738395690917969 17.81670379638672 18.03643798828125
        17.429122924804688 16.0130615234375 14.71602725982666 14.444411277770996 14.462722778320312 14.166695594787598
        13.092436790466309 11.722159385681152 12.155526161193848 14.218574523925781 16.22669219970703 17.75566864013672
        19.022186279296875 19.458602905273438 18.466751098632812 15.671257972717285 11.841178894042969 10.07720947265625
        9.88800048828125 10.617385864257812 12.283699989318848 14.368111610412598 16.516616821289062 18.77498435974121
        20.26428985595703 20.587783813476562 20.20020294189453 20.307016372680664 21.518600463867188 22.708824157714844
        22.824790954589844 21.976381301879883 20.798362731933594 16.0252685546875 7.388535022735596 2.957244634628296
        3.051849365234375 5.5513153076171875 8.697776794433594 9.002959251403809 7.391585826873779 5.880919933319092
        3.6835858821868896 2.7069931030273438 3.4333343505859375 5.89923095703125 9.518722534179688 11.91748046875
        12.939850807189941 14.233833312988281 16.19007110595703 17.493209838867188 17.911317825317383 17.392501831054688
        16.25415802001953 15.475937843322754 16.0283203125 17.142250061035156 18.33551788330078 18.933685302734375
        18.689537048339844 18.173776626586914 17.74651336669922 17.554244995117188 17.380294799804688 16.565444946289062
        14.712974548339844 13.196205139160156 12.796409606933594 13.351845741271973 14.08734130859375 14.551222801208496
        15.103607177734375 15.890992164611816 17.020172119140625 17.93878173828125 17.310096740722656 14.816734313964844
        12.945953369140625 12.326423645019531 11.914427757263184 12.573623657226562 14.398635864257812 15.9794921875
        16.599014282226562 16.26026153564453 15.265357971191406 14.77095890045166 15.421005249023438 16.507461547851562
        16.895050048828125 16.650901794433594 15.9947509765625 14.865562438964844 14.154486656188965 15.335548400878906
        17.99981689453125 19.614240646362305 19.553205490112305 19.931640625 20.966215133666992 20.917388916015625
        20.35279083251953 19.68444061279297 18.686485290527344 17.78313446044922 17.154457092285156 17.282630920410156
        17.94183349609375 18.460647583007812 18.671226501464844 18.185983657836914 17.374191284179688 16.803489685058594
        16.17786407470703 15.787222862243652 16.052734375 16.882843017578125 17.404708862304688 17.197181701660156
        16.498306274414062 16.0374755859375 16.034423828125 16.31824493408203 16.660057067871094 17.227699279785156
        17.74346160888672 17.77092742919922 17.300941467285156 16.769920349121094 16.1015625 14.868614196777344
        12.909332275390625 11.322364807128906 11.056853294372559 11.651970863342285 12.564468383789062 13.519699096679688
        13.837088584899902 13.422042846679688 13.083282470703125 13.116851806640625 13.269447326660156 13.412887573242188
        13.498336791992188 13.617355346679688 13.757742881774902 13.861502647399902 14.304023742675781 15.243995666503906
        2.5238800048828125 2.4109649658203125 2.4658966064453125 2.6764755249023438 2.3834989070892334 2.5696563720703125
        7.214576721191406 13.266395568847656 16.406753540039062 15.698722839355469 14.203315734863281 12.933746337890625
        12.341683387756348 12.991729736328125 13.89813232421875 13.769950866699219 13.013092041015625 12.945952415466309
        14.239936828613281 16.14734649658203 17.81060218811035 18.817710876464844 19.6569766998291 20.23072052001953
        20.023193359375 19.003877639770508 17.389450073242188 14.282661437988281 10.141304016113281 9.201332092285156
        10.812705993652344 12.543106079101562 14.709922790527344 17.83196258544922 20.48707389831543 21.240882873535156
        20.35279083251953 19.217504501342773 19.6569766998291 21.515548706054688 22.470779418945312 22.440261840820312
        21.597944259643555 18.29584503173828 9.750663757324219 3.073211669921875 3.3051528930664062 6.06402587890625
        6.778160095214844 5.853446960449219 6.222724914550781 7.116912841796875 7.4282073974609375 7.2481465339660645
        7.4526214599609375 8.914459228515625 10.174873352050781 11.111785888671875 12.417984008789062 13.94085693359375
        16.0191650390625 17.450485229492188 17.554244995117188 16.672264099121094 15.26840877532959 14.859457969665527
        16.13819122314453 17.65496063232422 18.881805419921875 19.70580291748047 19.528793334960938 18.811607360839844
        18.659021377563477 18.500320434570312 17.520675659179688 15.796379089355469 13.675346374511719 13.309120178222656
        14.398635864257812 15.216529846191406 14.957122802734375 15.115813255310059 15.802482604980469 16.556289672851562
        17.136146545410156 17.160560607910156 16.412857055664062 14.85945987701416 13.303016662597656 11.886962890625
        10.892059326171875 11.31320858001709 13.092437744140625 15.030364990234375 16.29383087158203 16.418960571289062
        15.793327331542969 15.329444885253906 15.131080627441406 14.957122802734375 14.999846458435059 15.161598205566406
        14.612258911132812 13.23282527923584 12.686546325683594 14.142280578613281 16.922515869140625 18.689537048339844
        18.655967712402344 18.924531936645508 19.84313201904297 19.84313201904297 18.939786911010742 18.14020538330078
        18.03948974609375 18.759727478027344 19.202247619628906 18.771934509277344 18.24396514892578 18.03948974609375
        17.86248016357422 17.462692260742188 17.212440490722656 16.928619384765625 16.37012481689453 16.26636505126953
        16.870628356933594 17.221595764160156 17.069000244140625 17.123939514160156 17.255165100097656 17.175819396972656
        17.203285217285156 17.471847534179688 17.511520385742188 17.74346160888672 18.10968017578125 17.935731887817383
        17.267372131347656 16.608169555664062 15.964234352111816 15.036468505859375 13.718070983886719 12.561417579650879
        11.883912086486816 11.676384925842285 11.9998779296875 12.546157836914062 12.717062950134277 12.506484985351562
        12.579727172851562 13.083282470703125 13.663139343261719 13.96527099609375 13.93780517578125 13.96221923828125
        13.901183128356934 13.678398132324219 13.815727233886719 14.603103637695312 2.08746337890625 2.014220952987671
        2.04779052734375 2.2614212036132812 2.3255081176757812 1.87994384765625 3.7324140071868896 7.9683837890625
        10.568557739257812 11.120941162109375 11.746575355529785 12.726219177246094 13.315223693847656 13.864554405212402
        14.700767517089844 15.082243919372559 15.707879066467285 16.766868591308594 17.88995361328125 19.019134521484375
        20.25208282470703 21.292762756347656 21.89398193359375 21.604049682617188 20.493179321289062 19.315162658691406
        17.78923797607422 13.547165870666504 9.402755737304688 9.20743465423584 10.199287414550781 9.89715576171875
        10.928680419921875 14.313179016113281 17.67022132873535 18.524734497070312 17.92962646484375 17.712942123413086
        18.649864196777344 21.185949325561523 23.279518127441406 23.584699630737305 22.504348754882812 20.773948669433594
        13.592942237854004 4.055908203125 3.6225507259368896 4.947052001953125 3.9124755859375 4.08642578125
        5.996887683868408 7.867668628692627 9.332557678222656 10.226754188537598 11.105682373046875 11.581770896911621
        10.388504028320312 10.461746215820312 12.686545372009277 15.048676490783691 16.690574645996094 17.78923797607422
        17.70378875732422 16.544082641601562 15.237892150878906 14.685508728027344 15.582748413085938 17.575607299804688
        19.20530128479004 19.9896240234375 20.020139694213867 19.183937072753906 18.03643798828125 16.742454528808594
        15.259254455566406 13.861503601074219 13.034454345703125 13.858452796936035 15.298927307128906 15.710929870605469
        15.27756404876709 15.918456077575684 16.830955505371094 17.358924865722656 17.349769592285156 16.730247497558594
        16.1015625 15.421005249023438 13.788261413574219 11.679435729980469 10.818809509277344 11.133155822753906
        11.9449462890625 13.263343811035156 14.883880615234375 15.601058959960938 15.295875549316406 15.366065979003906
        15.759757995605469 15.628532409667969 15.530868530273438 15.533919334411621 14.304023742675781 12.643821716308594
        12.680442810058594 14.191109657287598 15.869622230529785 16.287729263305664 16.22364044189453 17.215492248535156
        18.15851593017578 16.724143981933594 14.902190208435059 15.96728515625 18.787193298339844 20.944854736328125
        20.941801071166992 19.86144256591797 19.037445068359375 18.31110191345215 17.71904754638672 17.441329956054688
        17.142250061035156 17.078155517578125 17.230751037597656 17.181922912597656 16.733299255371094 16.20838165283203
        16.406753540039062 17.450485229492188 18.19208526611328 18.14325523376465 17.79228973388672 17.560348510742188
        17.450485229492188 17.569503784179688 17.66106414794922 17.261268615722656 16.36707305908203 15.424057960510254
        14.734336853027344 14.362007141113281 14.01715087890625 13.519699096679688 12.771995544433594 11.94189453125
        11.502426147460938 11.484115600585938 11.685539245605469 12.1036376953125 12.732322692871094 13.470870971679688
        14.02935791015625 14.279609680175781 14.389480590820312 14.371162414550781 14.05072021484375 13.742485046386719
        13.870658874511719 14.426101684570312 1.94708251953125 1.489303708076477 1.6846235990524292 2.3651809692382812
        2.7954940795898438 2.2797317504882812 1.8585737943649292 3.1647720336914062 5.3163228034973145 8.294929504394531
        11.273536682128906 13.507492065429688 14.865562438964844 15.649895668029785 16.28772735595703 16.989654541015625
        17.114776611328125 16.27857208251953 16.13208770751953 17.447433471679688 19.458602905273438 21.097442626953125
        21.76885223388672 20.859397888183594 18.863487243652344 16.669212341308594 13.666191101074219 9.96429443359375
        9.283729553222656 10.84322452545166 11.197242736816406 9.265419006347656 8.835105895996094 10.968352317810059
        13.025298118591309 13.638725280761719 15.280616760253906 17.82891082763672 19.550155639648438 21.155433654785156
        23.200172424316406 23.69762420654297 23.319190979003906 22.24188995361328 20.471817016601562 12.952055931091309
        3.146461248397827 0.6073150634765625 1.3061903715133667 3.9185791015625 7.5472259521484375 10.696738243103027
        12.448501586914062 13.193153381347656 13.672293663024902 12.872711181640625 11.004974365234375 11.081267356872559
        13.232826232910156 15.985595703125 17.221595764160156 17.74651336669922 18.02423095703125 17.371131896972656
        16.446426391601562 15.665153503417969 15.509507179260254 16.998809814453125 19.003875732421875 19.87059783935547
        20.029296875 19.458602905273438 17.386398315429688 15.118865013122559 14.12091064453125 13.507492065429688
        13.14432430267334 13.721121788024902 14.636680603027344 14.877777099609375 15.173805236816406 16.28772735595703
        17.246009826660156 17.459640502929688 17.123939514160156 16.513565063476562 15.985595703125 15.396592140197754
        13.873719215393066 12.335578918457031 11.9632568359375 11.9083251953125 11.572616577148438 11.529891967773438
        12.341683387756348 13.376266479492188 14.246040344238281 15.390488624572754 16.379287719726562 16.528823852539062
        16.24500274658203 15.488143920898438 13.834037780761719 12.68349552154541 12.927641868591309 13.550216674804688
        14.307075500488281 15.213478088378906 16.25720977783203 17.551193237304688 17.75261688232422 15.8848876953125
        14.822836875915527 16.452529907226562 18.695640563964844 19.68749237060547 19.62950897216797 19.85228729248047
        20.1177978515625 19.034393310546875 17.532882690429688 17.172767639160156 17.481002807617188 17.83196258544922
        18.22565460205078 18.15241241455078 17.316200256347656 16.748558044433594 17.169715881347656 18.05780029296875
        18.27753448486328 18.01202392578125 17.78923797607422 17.65496063232422 17.548141479492188 17.258214950561523
        16.663108825683594 15.768913269042969 14.609207153320312 13.589889526367188 13.281654357910156 13.562422752380371
        13.834037780761719 13.827935218811035 13.287757873535156 12.106689453125 11.105682373046875 10.916473388671875
        11.267433166503906 11.9327392578125 12.872711181640625 13.711967468261719 14.136177062988281 14.352851867675781
        14.459671020507812 14.261298179626465 14.02020263671875 14.102601051330566 14.368110656738281 14.609207153320312
        2.7283554077148438 2.362128973007202 2.5940704345703125 2.993865966796875 2.706993341445923 1.9348756074905396
        1.2939834594726562 1.6754685640335083 3.9613037109375 7.358009338378906 10.840170860290527 13.592942237854004
        15.555282592773438 16.351816177368164 16.373184204101562 15.689567565917969 12.918487548828125 10.153511047363281
        9.732353210449219 11.822868347167969 15.24094295501709 17.62444305419922 18.692588806152344 19.342628479003906
        19.382307052612305 18.182931900024414 14.831993103027344 9.646904945373535 8.337654113769531 10.165718078613281
        10.632652282714844 9.018218994140625 8.075194358825684 8.407852172851562 8.621475219726562 10.11077880859375
        13.678398132324219 18.097471237182617 20.221567153930664 20.538955688476562 22.22357940673828 24.15845489501953
        24.54603385925293 23.969236373901367 22.827842712402344 19.775991439819336 11.471908569335938 3.7476730346679688
        3.103729248046875 5.92974853515625 9.250160217285156 12.607192993164062 14.938812255859375 15.829948425292969
        15.152442932128906 12.665183067321777 11.398666381835938 12.390518188476562 13.867608070373535 15.131081581115723
        15.94287109375 16.684471130371094 18.02423095703125 18.851280212402344 18.23786163330078 17.032379150390625
        15.851310729980469 15.887939453125 17.242958068847656 18.31110191345215 18.634605407714844 18.50337028503418
        17.423019409179688 16.24195098876953 15.659049987792969 14.584793090820312 13.574630737304688 13.699760437011719
        14.502395629882812 15.036468505859375 15.500349998474121 16.20227813720703 16.827903747558594 16.800437927246094
        16.620376586914062 16.794334411621094 16.553237915039062 15.494247436523438 14.163643836975098 13.17179012298584
        12.625511169433594 12.222663879394531 11.853385925292969 11.362038612365723 11.117889404296875 11.9449462890625
        13.788261413574219 15.591903686523438 16.29383087158203 16.36707305908203 16.0771484375 15.131081581115723
        13.702812194824219 12.826927185058594 12.698753356933594 12.842185974121094 13.99884033203125 16.18701934814453
        18.12799835205078 19.336524963378906 18.808555603027344 16.660057067871094 15.384383201599121 15.775016784667969
        16.24500274658203 16.806541442871094 18.25312042236328 19.64781951904297 19.61119270324707 18.27753448486328
        16.986602783203125 16.965240478515625 17.902162551879883 18.509477615356445 18.747520446777344 18.750572204589844
        18.09747314453125 17.438278198242188 17.25211524963379 17.276527404785156 17.120882034301758 16.971343994140625
        16.983551025390625 17.090362548828125 16.968292236328125 16.28162384033203 15.228736877441406 14.154487609863281
        13.080230712890625 12.198249816894531 12.0029296875 12.646873474121094 13.443406105041504 13.806571960449219
        13.629570007324219 12.927642822265625 12.045654296875 11.636711120605469 11.770988464355469 12.329475402832031
        13.13516902923584 13.87677001953125 14.218573570251465 14.276557922363281 14.169746398925781 14.05987548828125
        14.246040344238281 14.612258911132812 14.743491172790527 14.734336853027344 3.6408615112304688 3.9185791015625
        3.8148117065429688 2.996917724609375 2.05694580078125 1.049835205078125 0.7354965209960938 1.2543106079101562
        3.3906095027923584 6.341742992401123 9.89410400390625 13.22977352142334 15.33249568939209 15.323342323303223
        14.166695594787598 11.621444702148438 7.736442565917969 6.170845031738281 6.851402282714844 9.045684814453125
        12.976470947265625 16.772972106933594 19.113739013671875 20.908233642578125 21.66204071044922 19.8797607421875
        15.833000183105469 9.421066284179688 6.05792236328125 7.095550537109375 7.8890380859375 7.245093822479248
        6.982635974884033 7.040618896484375 6.894134521484375 8.597061157226562 11.535995483398438 15.744498252868652
        18.695640563964844 19.550155639648438 21.56437873840332 24.481948852539062 25.159461975097656 23.862417221069336
        22.440263748168945 20.743431091308594 16.998809814453125 11.133155822753906 7.5258636474609375 8.862571716308594
        10.10162353515625 12.253180503845215 14.917448997497559 16.0740966796875 13.98663330078125 11.490220069885254
        11.871697425842285 13.794364929199219 14.203315734863281 13.135169982910156 14.06903076171875 16.592910766601562
        18.909269332885742 20.26123809814453 19.65392303466797 18.04559326171875 16.562393188476562 15.698723793029785
        15.747550964355469 16.19922637939453 16.559341430664062 16.983551025390625 17.200233459472656 17.279579162597656
        16.904205322265625 15.738395690917969 14.889983177185059 14.917449951171875 15.399641990661621 15.655998229980469
        16.0191650390625 16.20838165283203 16.35791778564453 16.446426391601562 16.803489685058594 17.212440490722656
        17.148353576660156 16.415908813476562 15.414900779724121 14.145332336425781 13.119903564453125 12.543106079101562
        11.9571533203125 11.471908569335938 11.749627113342285 12.64077091217041 13.867607116699219 14.993743896484375
        15.509507179260254 15.701774597167969 15.848258018493652 15.625480651855469 14.831993103027344 13.94696044921875
        13.361000061035156 13.049713134765625 13.95306396484375 16.0252685546875 17.83501434326172 18.558303833007812
        17.377243041992188 15.439314842224121 14.835044860839844 15.149391174316406 15.359962463378906 16.422012329101562
        18.03643798828125 18.964202880859375 18.741416931152344 18.14020347595215 17.615280151367188 17.358924865722656
        17.386398315429688 17.545087814331055 17.84111785888672 18.195138931274414 17.65190887451172 16.827903747558594
        16.605117797851562 16.65395164489746 16.492202758789062 16.18396759033203 15.948975563049316 15.710929870605469
        15.192115783691406 14.358954429626465 13.644828796386719 13.153480529785156 12.80861759185791 12.381362915039062
        12.027344703674316 12.234870910644531 12.860496520996094 13.516647338867188 13.96832275390625 13.97442626953125
        13.547164916992188 13.089386940002441 12.967315673828125 13.180947303771973 13.678397178649902 14.230781555175781
        14.487136840820312 14.392532348632812 14.221626281738281 14.273505210876465 14.615309715270996 14.963227272033691
        15.124977111816406 15.161598205566406 3.692741632461548 3.9857177734375 3.6225509643554688 2.1485064029693604
        0.891143798828125 0.33570095896720886 0.0518798828125 2.4292752742767334 4.4251861572265625 6.802574157714844
        9.411911010742188 11.755729675292969 12.921539306640625 12.689598083496094 11.835075378417969 9.588912963867188
        6.863609313964844 6.5553741455078125 7.6509928703308105 9.125038146972656 11.426132202148438 14.587844848632812
        16.86147117614746 17.429122924804688 17.285682678222656 16.794334411621094 15.781121253967285 12.854393005371094
        7.232887268066406 4.419083118438721 4.297004699707031 5.523849964141846 7.217628002166748 7.535018444061279
        6.717124938964844 7.5106048583984375 9.463790893554688 13.306069374084473 17.69768524169922 20.523696899414062
        22.663047790527344 24.558244705200195 24.140146255493164 21.84514617919922 20.389419555664062 19.89501953125
        18.488115310668945 15.9215087890625 13.96832275390625 13.586837768554688 11.822868347167969 9.851370811462402
        10.309150695800781 11.297950744628906 10.779136657714844 10.821861267089844 11.9632568359375 13.162635803222656
        12.204354286193848 11.224708557128906 13.544113159179688 17.70684051513672 20.23682403564453 20.603044509887695
        19.718008041381836 18.25617218017578 17.313148498535156 17.123939514160156 17.139198303222656 17.191078186035156
        17.203285217285156 17.102571487426758 16.76381492614746 16.660057067871094 16.736351013183594 16.559341430664062
        16.20838165283203 16.21143341064453 16.403701782226562 15.9886474609375 15.778068542480469 15.955078125
        16.23584747314453 16.788230895996094 17.603073120117188 17.67327117919922 17.566452026367188 17.51152229309082
        17.273475646972656 16.467788696289062 15.631584167480469 14.676353454589844 12.790306091308594 10.748618125915527
        10.696739196777344 11.96630859375 13.464767456054688 14.838096618652344 15.771965026855469 16.17176055908203
        16.409805297851562 16.385391235351562 15.8726806640625 14.926605224609375 13.837088584899902 13.165687561035156
        13.464767456054688 14.352850914001465 14.941864013671875 15.030364990234375 14.590896606445312 14.447463989257812
        15.32944393157959 15.9642333984375 16.510513305664062 18.29584503173828 20.09033203125 20.859397888183594
        20.752586364746094 20.435195922851562 19.565414428710938 18.11883544921875 16.650901794433594 15.99169921875
        15.875732421875 15.894042015075684 15.958130836486816 16.29383087158203 16.699729919433594 16.852317810058594
        16.501358032226562 15.894043922424316 15.301979064941406 14.758749961853027 14.099547386169434 13.31522274017334
        12.537002563476562 12.259284973144531 12.640769958496094 12.939850807189941 12.854393005371094 12.790306091308594
        13.028350830078125 13.687553405761719 14.401687622070312 14.767906188964844 14.789268493652344 14.548171043395996
        14.139228820800781 13.901185035705566 14.148383140563965 14.761802673339844 15.195167541503906 15.088348388671875
        14.893035888671875 14.841147422790527 14.911345481872559 15.091400146484375 15.26230525970459 15.210426330566406
        4.3977203369140625 4.245124816894531 3.2685320377349854 1.91656494140625 1.034576416015625 1.1261367797851562
        2.4994659423828125 4.5106353759765625 5.5940399169921875 6.698814868927002 8.377334594726562 10.312201499938965
        11.899169921875 12.616348266601562 12.393569946289062 10.559402465820312 8.279670715332031 7.327491760253906
        7.770011901855469 8.362068176269531 8.627586364746094 9.622489929199219 11.420027732849121 13.086334228515625
        15.042572975158691 18.01202392578125 19.80956268310547 18.924531936645508 13.132118225097656 4.254280090332031
        3.6530685424804688 4.950103282928467 7.5228118896484375 7.760857105255127 6.927703857421875 7.245094299316406
        8.517715454101562 12.140266418457031 17.70378875732422 22.186960220336914 23.64269256591797 23.9783935546875
        23.569440841674805 21.83599090576172 20.1116943359375 19.183937072753906 18.23786163330078 17.358924865722656
        16.751609802246094 16.754661560058594 14.670248985290527 8.233894348144531 5.401778697967529 6.970428466796875
        9.436324119567871 10.705894470214844 11.017181396484375 10.699790954589844 9.225746154785156 9.729301452636719
        12.372199058532715 16.507461547851562 20.0506591796875 21.027252197265625 19.9163818359375 17.90826416015625
        17.102569580078125 17.70684051513672 18.063905715942383 18.07916259765625 17.97845458984375 17.377243041992188
        16.30603790283203 15.582748413085938 15.598007202148438 16.08935546875 16.31519317626953 16.428115844726562
        16.537979125976562 16.046630859375 15.533920288085938 16.00390625 16.849266052246094 17.316200256347656
        17.78923797607422 17.78923797607422 17.889955520629883 18.35382843017578 19.080169677734375 19.119844436645508
        18.33856773376465 17.001861572265625 14.880829811096191 12.063965797424316 10.901214599609375 11.777091979980469
        13.422042846679688 14.752647399902344 15.646842956542969 16.33655548095703 16.736351013183594 16.641746520996094
        16.12598419189453 15.124978065490723 14.117857933044434 13.97442626953125 14.526809692382812 15.22568416595459
        15.634635925292969 15.915406227111816 15.9520263671875 15.9215087890625 16.27552032470703 16.13208770751953
        16.522720336914062 18.646812438964844 20.85329246520996 21.460617065429688 21.564376831054688 22.03436279296875
        21.201210021972656 19.315162658691406 17.67937469482422 16.940826416015625 16.391494750976562 15.900145530700684
        16.30603790283203 17.218544006347656 17.300941467285156 16.885894775390625 16.1656551361084 15.042572975158691
        14.191108703613281 13.882874488830566 13.635673522949219 13.110749244689941 12.234870910644531 11.719107627868652
        12.094482421875 12.494278907775879 12.671287536621094 13.159584045410156 13.88592529296875 14.539016723632812
        15.076140403747559 15.466780662536621 15.521713256835938 15.19821834564209 14.801475524902344 14.636680603027344
        14.752647399902344 15.14939022064209 15.463729858398438 15.28366756439209 15.057830810546875 14.996795654296875
        14.807578086853027 14.636680603027344 14.423050880432129 13.898133277893066 3.9124755859375 3.5798187255859375
        3.070159912109375 2.6459579467773438 2.6886825561523438 3.6011810302734375 4.782249450683594 5.3743133544921875
        5.114899158477783 5.023345947265625 6.4241485595703125 9.146400451660156 11.685539245605469 12.555313110351562
        12.1097412109375 10.965301513671875 9.518722534179688 8.319343566894531 7.770011901855469 7.119964599609375
        6.509597301483154 7.3458027839660645 10.354928016662598 14.07513427734375 17.239906311035156 19.69054412841797
        20.758691787719727 19.513534545898438 14.340644836425781 4.754783630371094 4.687644958496094 4.806663513183594
        5.90838623046875 6.222724914550781 6.311225891113281 6.982635974884033 8.325447082519531 11.401719093322754
        16.476945877075195 20.780052185058594 22.18085479736328 22.70271873474121 23.33750343322754 22.757652282714844
        20.3466854095459 17.84722328186035 17.255165100097656 17.94793701171875 18.436233520507812 18.36603546142578
        16.507461547851562 10.510573387145996 6.1922078132629395 6.796470642089844 8.944976806640625 10.254219055175781
        10.580764770507812 9.988709449768066 8.127082824707031 8.136238098144531 10.229804992675781 13.757743835449219
        17.377243041992188 18.927581787109375 18.07916259765625 15.9215087890625 14.719078063964844 15.665153503417969
        17.203285217285156 17.621383666992188 17.79228973388672 17.502365112304688 16.17786407470703 14.654990196228027
        13.913390159606934 14.310127258300781 15.12802791595459 15.564437866210938 15.762808799743652 15.796379089355469
        15.9276123046875 16.696678161621094 17.435226440429688 17.383346557617188 17.349769592285156 17.511520385742188
        17.87469482421875 18.521682739257812 19.62645721435547 19.962158203125 19.214454650878906 18.05169677734375
        16.611221313476562 15.073089599609375 14.554276466369629 14.490188598632812 14.563430786132812 14.798423767089844
        15.091400146484375 15.616317749023438 16.12598419189453 16.14124298095703 15.625481605529785 15.070037841796875
        15.109710693359375 15.8909912109375 16.718040466308594 17.142250061035156 17.252113342285156 17.438278198242188
        16.843162536621094 15.9520263671875 15.887940406799316 16.086301803588867 16.64174461364746 17.96624755859375
        19.345680236816406 19.89501953125 20.19409942626953 20.462661743164062 19.583724975585938 18.677330017089844
        18.717002868652344 19.318214416503906 19.15342140197754 18.14936065673828 17.42302131652832 17.007966995239258
        16.0802001953125 15.137184143066406 14.227730751037598 13.068023681640625 12.604141235351562 12.982575416564941
        13.367103576660156 13.525802612304688 13.507492065429688 13.361000061035156 13.086334228515625 12.613296508789062
        12.451553344726562 13.101593017578125 14.10565185546875 14.737388610839844 15.192115783691406 15.564438819885254
        15.439315795898438 15.076140403747559 15.036467552185059 15.146339416503906 15.079192161560059 15.100554466247559
        15.100556373596191 14.828941345214844 14.609207153320312 14.517654418945312 14.200263977050781 13.736381530761719
        13.061919212341309 12.195198059082031 4.4801177978515625 4.0009765625 3.5523531436920166 3.7263104915618896
        4.5503082275390625 5.258338928222656 5.4658660888671875 5.078277587890625 3.93994140625 3.2136001586914062
        4.3824615478515625 7.6662516593933105 10.544143676757812 11.133155822753906 9.842216491699219 8.505508422851562
        8.404800415039062 8.590957641601562 8.575698852539062 7.4587249755859375 6.866661071777344 8.276618957519531
        11.047698974609375 14.246040344238281 16.36707305908203 16.736351013183594 16.611221313476562 15.948974609375
        13.348793983459473 7.159645080566406 3.955199956893921 3.5615084171295166 3.8819580078125 4.718162536621094
        5.221717834472656 5.752739429473877 7.4190521240234375 10.242012023925781 13.882874488830566 17.76482391357422
        20.770896911621094 21.90008544921875 21.83293914794922 20.438247680664062 17.404708862304688 15.640739440917969
        16.492202758789062 18.121889114379883 19.385360717773438 19.312110900878906 17.77397918701172 12.057861328125
        5.95111083984375 6.259345531463623 8.0233154296875 9.805595397949219 10.769981384277344 10.702842712402344
        8.816795349121094 7.6021575927734375 8.856468200683594 11.28269100189209 13.150428771972656 13.870658874511719
        14.575638771057129 14.569534301757812 13.904236793518066 14.212471008300781 15.912353515625 16.922517776489258
        17.230751037597656 17.084259033203125 15.655998229980469 13.93475341796875 13.275550842285156 13.547164916992188
        13.977477073669434 13.989684104919434 13.547165870666504 13.449508666992188 14.392532348632812 15.692619323730469
        16.12903594970703 16.22974395751953 16.772972106933594 17.120880126953125 17.560348510742188 18.14020347595215
        18.948944091796875 19.501327514648438 19.571517944335938 19.071014404296875 18.09747314453125 17.117828369140625
        16.772972106933594 16.27857208251953 15.701774597167969 15.524765968322754 15.332496643066406 15.091400146484375
        15.027314186096191 14.767906188964844 14.377273559570312 14.68550968170166 15.753653526306152 16.882843017578125
        17.508468627929688 17.441329956054688 16.965240478515625 16.437271118164062 15.378280639648438 14.688560485839844
        15.295875549316406 16.611221313476562 17.98455810546875 19.046600341796875 19.446395874023438 19.263282775878906
        18.881807327270508 18.225656509399414 17.590866088867188 18.04254150390625 19.595932006835938 21.008941650390625
        20.651878356933594 18.976409912109375 17.566452026367188 16.867576599121094 15.9703369140625 14.413894653320312
        13.22977352142334 12.881866455078125 13.122962951660156 13.760795593261719 14.450515747070312 15.149391174316406
        15.814689636230469 15.9886474609375 15.405746459960938 14.410841941833496 13.657035827636719 13.507492065429688
        13.620407104492188 13.715019226074219 14.081236839294434 14.551224708557129 14.664146423339844 14.648887634277344
        14.82894229888916 14.868614196777344 14.804527282714844 14.831993103027344 14.926604270935059 14.682456016540527
        14.090394020080566 13.449507713317871 12.942901611328125 12.579727172851562 12.231820106506348 11.731316566467285
        5.059967041015625 5.154579162597656 5.319374084472656 5.6428751945495605 5.6154022216796875 5.4597625732421875
        5.343788146972656 4.867698669433594 3.7415695190429688 3.097625732421875 3.4485933780670166 5.774101257324219
        7.5716400146484375 7.003997802734375 5.041656494140625 4.3977203369140625 6.421097278594971 8.478042602539062
        9.768974304199219 8.883941650390625 6.982635021209717 6.646934509277344 7.812736511230469 9.472945213317871
        11.261329650878906 12.744529724121094 13.681449890136719 14.01104736328125 13.22977352142334 10.64486026763916
        5.664237976074219 3.3845062255859375 3.2715837955474854 4.641868591308594 5.6215057373046875 5.880920886993408
        6.4363555908203125 7.809685230255127 10.605178833007812 15.268409729003906 19.55931282043457 20.932645797729492
        20.31616973876953 18.524734497070312 16.760765075683594 16.391494750976562 17.069000244140625 18.424026489257812
        19.983522415161133 20.14832305908203 18.961149215698242 15.009002685546875 7.272560119628906 5.444503307342529
        6.4577178955078125 9.036529541015625 10.910369873046875 11.358985900878906 10.541091918945312 9.292884826660156
        9.149452209472656 9.96429443359375 11.017181396484375 11.612289428710938 12.668235778808594 13.647879600524902
        13.492234230041504 13.089385986328125 14.111756324768066 15.756706237792969 16.403701782226562 16.1046142578125
        15.201271057128906 14.264350891113281 13.96832275390625 14.099547386169434 13.888978004455566 12.930694580078125
        11.194190979003906 10.336616516113281 11.188087463378906 12.448501586914062 13.132119178771973 13.87982177734375
        14.981536865234375 15.756706237792969 16.785179138183594 17.94488525390625 19.025238037109375 19.8980712890625
        20.517593383789062 20.3283748626709 19.67528533935547 18.652915954589844 17.63054656982422 17.026275634765625
        16.675315856933594 16.495254516601562 16.14429473876953 15.509506225585938 14.648887634277344 13.858451843261719
        13.669242858886719 14.355903625488281 15.414901733398438 16.29993438720703 16.672264099121094 16.522720336914062
        15.884888648986816 14.978484153747559 14.166694641113281 14.09954833984375 15.012054443359375 16.666160583496094
        18.60713005065918 20.1177978515625 20.722070693969727 20.941802978515625 20.63661766052246 19.132057189941406
        17.474899291992188 17.429122924804688 18.729209899902344 19.351783752441406 18.787193298339844 17.67937469482422
        16.965240478515625 16.687522888183594 15.787223815917969 14.221625328063965 13.644828796386719 14.365058898925781
        15.34775447845459 15.91845703125 16.452529907226562 17.090362548828125 17.410812377929688 17.285682678222656
        16.721092224121094 16.0985107421875 15.646843910217285 15.16159725189209 14.545120239257812 13.989684104919434
        13.684501647949219 13.632620811462402 13.653983116149902 13.791313171386719 14.07513427734375 14.355903625488281
        14.526809692382812 14.584792137145996 14.548171997070312 14.06903076171875 13.147377014160156 12.149421691894531
        11.416975975036621 11.273536682128906 11.612288475036621 11.496322631835938 5.148475646972656 5.777153015136719
        5.969421863555908 5.755790710449219 5.270545482635498 5.4719696044921875 5.618454456329346 4.870750427246094
        3.6927413940429688 3.4211273193359375 3.4363861083984375 3.8880615234375 4.239020824432373 3.7324140071868896
        3.079315423965454 3.9246826171875 6.729331970214844 9.335609436035156 11.001922607421875 9.88189697265625
        5.91143798828125 4.599136829376221 6.656089782714844 9.237953186035156 11.27048397064209 12.756736755371094
        13.321327209472656 13.486129760742188 14.062926292419434 14.511550903320312 11.34677791595459 4.956207275390625
        3.643913507461548 5.108795166015625 6.4241485595703125 7.119964599609375 7.330543518066406 7.6204681396484375
        9.36307430267334 13.003937721252441 16.21753692626953 16.614273071289062 15.436264038085938 14.774009704589844
        15.494247436523438 16.35791778564453 16.901153564453125 17.609176635742188 18.955047607421875 19.74242401123047
        19.519638061523438 17.352819442749023 8.993804931640625 4.681541919708252 5.777153491973877 7.846305847167969
        10.519729614257812 11.978516578674316 12.479019165039062 12.060912132263184 10.962249755859375 10.464797973632812
        11.355934143066406 12.323370933532715 12.646873474121094 13.168739318847656 13.574630737304688 13.193153381347656
        12.955108642578125 13.595993041992188 14.227729797363281 14.230781555175781 14.380325317382812 14.801475524902344
        14.911346435546875 14.896087646484375 14.407791137695312 13.037506103515625 11.243019104003906 10.156562805175781
        10.01922607421875 10.223701477050781 10.73641300201416 11.456649780273438 12.338631629943848 13.501387596130371
        15.265358924865723 17.212440490722656 18.430130004882812 19.058807373046875 19.84923553466797 20.19104766845703
        20.28260040283203 20.0323486328125 19.351783752441406 18.74751853942871 18.173776626586914 17.456588745117188
        16.824851989746094 16.119873046875 15.146339416503906 14.584792137145996 14.435257911682129 14.468826293945312
        14.676353454589844 15.124977111816406 15.494247436523438 15.713981628417969 15.8818359375 15.710929870605469
        15.36606502532959 15.182961463928223 15.500351905822754 16.644798278808594 18.22260284423828 19.522689819335938
        20.432144165039062 21.167640686035156 20.892974853515625 18.994720458984375 16.702781677246094 16.119873046875
        17.25516700744629 17.93572998046875 17.72515296936035 17.154455184936523 16.599014282226562 14.963226318359375
        12.375260353088379 11.798454284667969 13.452560424804688 15.350807189941406 17.188026428222656 18.27753448486328
        18.796348571777344 18.793296813964844 18.204294204711914 17.600021362304688 17.078155517578125 16.757713317871094
        16.852317810058594 16.910308837890625 16.699731826782227 16.23279571533203 15.350807189941406 14.267403602600098
        13.293861389160156 12.701805114746094 12.762840270996094 13.367104530334473 13.794364929199219 13.577682495117188
        12.836082458496094 12.015137672424316 11.444442749023438 11.011077880859375 10.702842712402344 10.931732177734375
        11.252174377441406 10.742514610290527 4.989776611328125 5.655082702636719 6.350898742675781 5.945007801055908
        5.2217183113098145 5.542159557342529 5.5665740966796875 4.623558044433594 3.665275812149048 3.4333341121673584
        3.2837905883789062 3.2349624633789062 3.103729248046875 3.030487060546875 3.2624282836914062 4.968414306640625
        8.0294189453125 10.69063663482666 12.0303955078125 10.782188415527344 7.113861083984375 6.357002258300781
        8.417007446289062 10.785240173339844 12.277595520019531 13.455611228942871 13.852348327636719 13.742485046386719
        14.130073547363281 14.346748352050781 11.151466369628906 6.335639953613281 5.3620991706848145 5.92669677734375
        6.5584259033203125 7.2115254402160645 7.736442565917969 7.9012451171875 8.456680297851562 9.805595397949219
        10.614335060119629 10.174873352050781 10.431228637695312 12.775046348571777 15.753654479980469 17.419967651367188
        17.764822006225586 17.78313446044922 18.405715942382812 19.440292358398438 19.67528533935547 16.547134399414062
        9.121978759765625 4.864646911621094 5.4689178466796875 5.914490222930908 8.264411926269531 11.066009521484375
        13.223670959472656 14.07818603515625 13.669243812561035 12.80556583404541 12.588882446289062 13.159584045410156
        13.354896545410156 13.818778991699219 14.343696594238281 13.97137451171875 13.058868408203125 12.433242797851562
        12.652976036071777 13.614303588867188 14.572585105895996 15.451522827148438 15.598007202148438 15.161598205566406
        14.465774536132812 13.541060447692871 12.555313110351562 11.667228698730469 10.556351661682129 9.363076210021973
        9.302040100097656 10.03143310546875 10.733360290527344 11.563461303710938 13.156532287597656 15.112762451171875
        15.964232444763184 16.26636505126953 17.322303771972656 18.579666137695312 19.495223999023438 20.12696075439453
        20.26734161376953 20.0689697265625 19.620346069335938 18.738365173339844 17.69158172607422 16.711936950683594
        16.01611328125 16.0557861328125 15.768913269042969 14.862510681152344 14.06903076171875 13.809623718261719
        13.87371826171875 14.679405212402344 16.21753692626953 17.151405334472656 17.212440490722656 16.855369567871094
        16.486101150512695 16.760766983032227 17.67327117919922 18.671226501464844 19.29990577697754 19.211402893066406
        18.29584503173828 16.959136962890625 15.94287109375 15.9825439453125 17.151405334472656 18.11273193359375
        18.13409996032715 17.346717834472656 15.878783226013184 12.894073486328125 9.811698913574219 10.235908508300781
        13.141274452209473 15.9520263671875 18.34162139892578 19.901124954223633 20.22766876220703 19.425033569335938
        18.27143096923828 17.526779174804688 16.977445602416992 16.702781677246094 16.962188720703125 17.447433471679688
        17.70378875732422 17.365028381347656 16.25110626220703 14.639732360839844 12.607192993164062 10.809654235839844
        10.675376892089844 11.807609558105469 12.466812133789062 11.786247253417969 10.449539184570312 9.604171752929688
        9.604171752929688 9.87274169921875 10.333564758300781 11.130104064941406 11.337623596191406 10.525832176208496
        5.108795166015625 5.148475646972656 5.340736389160156 5.93280029296875 6.07012939453125 5.4750213623046875
        4.657127380371094 4.129158020019531 3.5859220027923584 3.7842938899993896 3.2227554321289062 2.6398544311523438
        2.932830810546875 3.1617202758789062 3.7476730346679688 5.194252014160156 8.0538330078125 11.175881385803223
        12.582778930664062 11.255226135253906 7.803581237792969 6.436355113983154 7.3854827880859375 9.155555725097656
        10.571609497070312 12.0609130859375 12.927642822265625 12.594985961914062 12.0303955078125 11.624504089355469
        10.159613609313965 7.953125 6.237983703613281 5.148475646972656 5.264442443847656 6.079285144805908
        6.952117919921875 7.5228118896484375 7.507553577423096 7.165748119354248 6.717124938964844 6.894134521484375
        8.822898864746094 12.356941223144531 15.9459228515625 18.21039581298828 18.826866149902344 18.20124053955078
        17.069000244140625 16.15955352783203 13.748588562011719 10.522781372070312 9.216590881347656 7.986693859100342
        5.1362690925598145 5.5055389404296875 6.357002258300781 8.352912902832031 11.139259338378906 13.666191101074219
        14.935760498046875 14.74349308013916 13.425095558166504 12.579727172851562 12.802513122558594 13.797416687011719
        14.471878051757812 14.117857933044434 13.107695579528809 12.350838661193848 12.958160400390625 14.719078063964844
        15.536972045898438 15.729240417480469 15.564437866210938 14.722129821777344 13.92864990234375 13.687553405761719
        13.501389503479004 12.897125244140625 11.465805053710938 9.570603370666504 8.658103942871094 8.978546142578125
        9.680473327636719 10.391554832458496 11.319313049316406 11.9327392578125 11.859488487243652 12.524795532226562
        14.374221801757812 16.507461547851562 17.996763229370117 19.083221435546875 19.80345916748047 20.13001251220703
        20.056760787963867 19.293800354003906 18.08221435546875 17.090362548828125 16.763816833496094 17.130043029785156
        17.246009826660156 16.568496704101562 15.259254455566406 13.608199119567871 12.503433227539062 13.104644775390625
        15.100555419921875 16.788230895996094 17.542037963867188 17.66106414794922 17.261268615722656 17.059844970703125
        17.587812423706055 18.375198364257812 18.308053970336914 17.432174682617188 16.754661560058594 16.595962524414062
        16.806541442871094 17.398603439331055 18.29889678955078 19.116790771484375 19.272438049316406 18.22870635986328
        16.437271118164062 14.401687622070312 12.253181457519531 11.9754638671875 14.11785888671875 16.681419372558594
        18.460647583007812 19.418930053710938 19.32737159729004 18.47285270690918 17.752614974975586 17.352821350097656
        17.001861572265625 16.858421325683594 17.154457092285156 17.590866088867188 17.65496063232422 16.922515869140625
        15.515608787536621 13.538010597229004 10.504470825195312 8.06298828125 8.645896911621094 10.702842712402344
        11.752678871154785 11.291847229003906 10.122993469238281 9.045684814453125 8.426162719726562 8.581802368164062
        9.588912963867188 10.745567321777344 10.980561256408691 10.434280395507812 5.4261932373046875 5.270545959472656
        5.291907787322998 5.737480163574219 6.5828399658203125 5.719169616699219 4.553360462188721 4.174934387207031
        4.3855133056640625 3.7141036987304688 2.969451904296875 2.2736282348632812 3.076263427734375 3.4272308349609375
        3.942992925643921 4.239021301269531 5.859550952911377 8.615371704101562 10.544143676757812 10.797446250915527
        9.463791847229004 7.718132019042969 7.220680236816406 7.730339050292969 8.453629493713379 9.244056701660156
        9.717095375061035 9.823905944824219 10.312202453613281 11.197242736816406 11.584823608398438 9.839164733886719
        5.627616882324219 3.2959976196289062 3.7018966674804688 4.776145935058594 5.3834686279296875 5.90838623046875
        6.5401153564453125 6.714073181152344 6.167793273925781 6.173896789550781 7.9073486328125 10.757773399353027
        14.389480590820312 18.02423095703125 19.888916015625 19.388412475585938 17.181922912597656 11.896119117736816
        6.991790771484375 8.0294189453125 10.473953247070312 11.694694519042969 7.9989013671875 4.986724853515625
        6.01519775390625 6.329536437988281 8.0477294921875 11.029389381408691 13.809623718261719 15.274513244628906
        15.005950927734375 13.885926246643066 13.562423706054688 14.291817665100098 14.84420108795166 14.130073547363281
        12.790306091308594 11.9449462890625 12.234870910644531 13.669242858886719 14.801475524902344 15.186012268066406
        15.27451229095459 14.621414184570312 13.818778991699219 13.742485046386719 13.95306396484375 13.760794639587402
        12.610244750976562 10.440383911132812 8.0599365234375 7.3763275146484375 8.569595336914062 10.11383056640625
        10.711997985839844 9.89105224609375 8.938874244689941 9.28372859954834 11.224708557128906 13.97442626953125
        16.36402130126953 17.90521240234375 18.771934509277344 19.22056007385254 19.113739013671875 18.405717849731445
        17.590866088867188 17.169715881347656 17.166664123535156 17.566452026367188 18.15241241455078 18.527786254882812
        18.31110382080078 16.995758056640625 14.456618309020996 12.540054321289062 13.055815696716309 14.966278076171875
        16.702781677246094 17.78923797607422 17.94793701171875 17.612228393554688 17.590866088867188 17.413864135742188
        16.0924072265625 15.210426330566406 16.0283203125 17.343666076660156 18.405715942382812 19.376205444335938
        20.1116943359375 20.477920532226562 20.33448028564453 19.235816955566406 17.96624755859375 16.788230895996094
        15.323341369628906 14.505448341369629 15.22568416595459 16.748558044433594 17.80449676513672 18.30194854736328
        18.18903350830078 17.70989418029785 17.38640022277832 17.328407287597656 17.346717834472656 17.44133186340332
        17.71904945373535 17.85637664794922 17.291786193847656 16.08935546875 14.413894653320312 11.755728721618652
        8.792381286621094 7.818840026855469 8.76491641998291 10.02227783203125 10.989715576171875 11.432235717773438
        11.053802490234375 10.01312255859375 8.743553161621094 8.246101379394531 8.981597900390625 9.720146179199219
        9.848320007324219 9.98565673828125 5.334632873535156 5.261390686035156 5.093536376953125 5.4384002685546875
        5.291908264160156 5.325477600097656 4.992828369140625 4.5350494384765625 4.251228332519531 3.872802734375
        2.954193115234375 2.2553176879882812 3.2715835571289062 3.91552734375 4.086425304412842 3.3997652530670166
        2.8717880249023438 3.6408615112304688 5.673393249511719 8.267463684082031 10.339667320251465 10.629600524902344
        9.039581298828125 7.074188709259033 6.753746509552002 7.919555187225342 9.344765663146973 10.01007080078125
        10.504470825195312 11.130104064941406 11.185035705566406 9.88800048828125 6.5034942626953125 4.242073059082031
        3.8178634643554688 4.3855133056640625 4.776145935058594 5.304115295410156 6.4333038330078125 7.202369689941406
        6.6072540283203125 5.667289733886719 5.90838623046875 7.4648284912109375 11.600082397460938 17.011016845703125
        20.32532501220703 20.545061111450195 18.506423950195312 11.044647216796875 4.901275634765625 6.146430969238281
        9.137245178222656 11.688591003417969 10.956146240234375 6.09149169921875 5.4811248779296875 6.393631458282471
        7.818840026855469 9.802543640136719 11.984619140625 13.995787620544434 14.966279029846191 14.783164024353027
        14.185005187988281 13.614303588867188 13.159584999084473 12.833030700683594 12.686546325683594 12.570571899414062
        12.0731201171875 11.822868347167969 12.677391052246094 13.90728759765625 14.789268493652344 15.018157958984375
        14.535964965820312 13.843193054199219 13.595993041992188 13.724175453186035 13.248085021972656 11.484115600585938
        8.398696899414062 6.427199840545654 7.650993347167969 9.799491882324219 10.419021606445312 9.198280334472656
        7.663200378417969 7.278663158416748 9.329505920410156 12.677391052246094 15.567489624023438 17.007965087890625
        17.456588745117188 17.447433471679688 17.102571487426758 16.797386169433594 16.837059020996094 17.007963180541992
        17.087310791015625 17.133094787597656 17.578659057617188 18.573564529418945 19.531845092773438 19.113739013671875
        16.876739501953125 14.746543884277344 14.716026306152344 15.744499206542969 17.261268615722656 18.768882751464844
        19.263282775878906 18.573562622070312 17.529830932617188 16.20227813720703 15.030364990234375 15.817741394042969
        17.78923797607422 19.058807373046875 19.60203742980957 20.17884063720703 20.581680297851562 20.62441062927246
        20.36194610595703 19.412826538085938 18.16766929626465 17.13614845275879 16.510513305664062 15.9306640625
        15.543075561523438 15.8848876953125 16.592910766601562 16.989656448364258 16.977447509765625 17.069000244140625
        17.383346557617188 17.66411781311035 17.609176635742188 17.62749481201172 17.868581771850586 17.68547821044922
        16.87062644958496 15.866569519042969 14.285714149475098 11.377304077148438 9.274574279785156 9.091461181640625
        8.716087341308594 7.9989013671875 8.432265281677246 9.289833068847656 9.668266296386719 9.591964721679688
        9.137245178222656 8.780174255371094 8.914459228515625 9.006011962890625 9.326455116271973 10.184028625488281
        5.059967041015625 5.5177459716796875 5.041656494140625 5.023345947265625 4.950103759765625 5.5665740966796875
        6.030457019805908 5.719169616699219 4.919586181640625 4.220710754394531 4.138313293457031 4.330574035644531
        4.123054504394531 3.982666015625 3.6805343627929688 2.960296630859375 2.6306991577148438 2.5513458251953125
        3.3509292602539062 5.7313761711120605 8.999908447265625 10.821861267089844 10.238960266113281 8.560440063476562
        7.751701354980469 8.514663696289062 10.138252258300781 11.325416564941406 11.389511108398438 10.449539184570312
        9.067047119140625 8.365119934082031 7.5868988037109375 6.4119415283203125 4.705955505371094 3.9674072265625
        3.860588312149048 4.116942882537842 4.684593200683594 5.285804748535156 5.89617919921875 5.99993896484375
        5.856499195098877 6.500442028045654 9.94293212890625 15.326393127441406 19.254127502441406 19.925537109375
        18.36298370361328 11.334571838378906 5.182044982910156 6.09149169921875 8.792381286621094 11.166725158691406
        11.914429664611816 8.444472312927246 5.4109344482421875 6.933807373046875 8.417007446289062 10.364083290100098
        11.688591003417969 12.771995544433594 13.724175453186035 14.474929809570312 14.639732360839844 13.492234230041504
        12.256233215332031 12.710960388183594 13.98968505859375 14.68856143951416 14.142280578613281 12.372200012207031
        11.157569885253906 11.880859375 13.464768409729004 14.471878051757812 14.596999168395996 13.721122741699219
        12.787254333496094 12.72316837310791 12.811668395996094 11.819816589355469 9.665214538574219 7.135231018066406
        7.052826404571533 8.752708435058594 9.469894409179688 8.929718017578125 7.6754069328308105 6.5797882080078125
        8.020263671875 11.319314002990723 14.343697547912598 15.680412292480469 16.058837890625 15.9886474609375
        15.759757995605469 15.753654479980469 16.16870880126953 16.611221313476562 16.678367614746094 16.35181427001953
        16.437271118164062 17.444381713867188 18.24091339111328 17.80144500732422 17.194129943847656 17.474899291992188
        18.875701904296875 19.565414428710938 20.407730102539062 21.616254806518555 21.96112060546875 21.362953186035156
        20.752586364746094 19.9957275390625 19.370094299316406 19.63561248779297 19.84313201904297 19.608139038085938
        19.379257202148438 19.550155639648438 19.76683807373047 19.72411346435547 19.266334533691406 18.32941436767578
        17.343666076660156 16.803489685058594 16.962188720703125 17.215492248535156 17.020172119140625 16.660057067871094
        16.415908813476562 16.18091583251953 16.0130615234375 16.467788696289062 17.435226440429688 18.03948974609375
        17.73736000061035 17.313148498535156 17.230751037597656 16.974395751953125 16.56239128112793 16.15650177001953
        15.143287658691406 12.994781494140625 10.156562805175781 7.6631999015808105 6.1861042976379395 5.383469104766846
        5.236976623535156 5.822929382324219 7.434310436248779 9.247108459472656 10.168769836425781 10.345771789550781
        10.223702430725098 10.135199546813965 10.547195434570312 10.992767333984375 4.4373931884765625 5.087433338165283
        5.664238452911377 5.142372131347656 4.742576599121094 4.5442047119140625 5.346839904785156 5.5269012451171875
        5.627617359161377 5.218666076660156 4.901275634765625 4.916534423828125 4.4709625244140625 4.08642578125
        3.4241790771484375 2.7436141967773438 3.030487060546875 3.3692400455474854 3.6378095149993896 4.727317810058594
        7.2908711433410645 9.637748718261719 9.872740745544434 8.661155700683594 8.093505859375 9.079254150390625
        10.724205017089844 11.960205078125 12.021240234375 11.001922607421875 9.167762756347656 7.736442565917969
        7.190162658691406 6.500442028045654 5.5452117919921875 4.864646911621094 4.281745910644531 3.4577484130859375
        3.033538818359375 3.7537765502929688 5.822929859161377 7.94091796875 8.883941650390625 8.984649658203125
        10.299995422363281 13.608199119567871 17.114776611328125 18.22565460205078 17.029327392578125 12.930694580078125
        7.4190521240234375 6.4149932861328125 7.831047058105469 9.91546630859375 11.035491943359375 9.360023498535156
        6.259346008300781 7.031463623046875 7.855461120605469 9.659111022949219 11.181983947753906 12.244027137756348
        13.135169982910156 13.724174499511719 14.09649658203125 14.166695594787598 13.412887573242188 12.915434837341309
        13.498335838317871 14.096495628356934 14.191108703613281 13.773001670837402 12.247078895568848 11.191139221191406
        11.847282409667969 12.845237731933594 13.422042846679688 13.467819213867188 12.83608341217041 12.186042785644531
        11.9388427734375 11.688591003417969 10.946991920471191 8.664207458496094 6.4729766845703125 6.497390270233154
        7.095550537109375 8.044677734375 8.1209716796875 6.4333038330078125 6.338691234588623 8.618423461914062
        11.664176940917969 13.425094604492188 14.09649658203125 14.239936828613281 14.346748352050781 14.664146423339844
        15.460678100585938 16.26636505126953 16.577651977539062 16.26026153564453 16.022216796875 16.21753692626953
        16.415908813476562 16.29688262939453 16.437271118164062 17.297889709472656 19.217506408691406 20.404678344726562
        21.500289916992188 22.821739196777344 23.676259994506836 23.63964080810547 23.23984718322754 22.20526885986328
        21.167640686035156 20.511489868164062 19.571517944335938 18.829917907714844 18.561355590820312 18.689537048339844
        18.863487243652344 18.683433532714844 18.10662841796875 17.39555549621582 16.925567626953125 16.846214294433594
        17.163612365722656 17.496261596679688 17.569503784179688 17.212440490722656 16.397598266601562 15.689567565917969
        15.546127319335938 16.1015625 16.925567626953125 17.328407287597656 17.209388732910156 16.968292236328125
        16.834009170532227 16.693626403808594 16.470840454101562 16.1046142578125 15.466781616210938 15.009002685546875
        12.823875427246094 8.11181640625 5.624565124511719 5.749687671661377 5.130165100097656 4.986724853515625
        6.939910888671875 9.366127014160156 10.678428649902344 11.346778869628906 11.890013694763184 12.204354286193848
        12.125008583068848 11.410873413085938 4.730369567871094 4.940948486328125 4.681541442871094 5.490279674530029
        5.4963836669921875 4.660179138183594 4.718162536621094 5.264441967010498 5.4048309326171875 5.551314830780029
        5.4292449951171875 4.876861572265625 4.5014801025390625 4.4618072509765625 4.055908203125 3.878906488418579
        4.07421875 3.6439130306243896 3.5706634521484375 3.4424893856048584 4.260383605957031 6.439407825469971
        7.290870189666748 6.5248565673828125 6.967377185821533 9.024322509765625 11.117889404296875 12.222663879394531
        12.381362915039062 11.9449462890625 10.782188415527344 9.006011962890625 7.611312389373779 6.5736846923828125
        6.295966625213623 5.594039440155029 4.4099273681640625 2.7375106811523438 2.7192001342773438 4.1077880859375
        6.4821319580078125 9.790336608886719 12.524795532226562 13.476974487304688 13.113800048828125 13.229774475097656
        14.587844848632812 15.781120300292969 15.305030822753906 13.418992042541504 9.854423522949219 7.049774169921875
        7.174903869628906 8.752708435058594 9.738456726074219 9.280677795410156 7.034515380859375 6.454665660858154
        6.6164093017578125 7.773063659667969 10.04364013671875 12.167732238769531 13.397628784179688 13.541061401367188
        13.31827449798584 13.763847351074219 14.07208251953125 13.605148315429688 12.817771911621094 12.158576011657715
        12.1219482421875 12.897125244140625 12.979523658752441 11.709953308105469 11.142311096191406 11.764883995056152
        12.521743774414062 13.156533241271973 13.272499084472656 12.552261352539062 11.9998779296875 12.155525207519531
        12.0670166015625 10.87069034576416 8.0751953125 5.331580638885498 4.709007263183594 6.4210968017578125
        7.684562683105469 6.4272003173828125 5.325477600097656 6.4546661376953125 9.082305908203125 10.910369873046875
        11.252174377441406 11.319314002990723 12.054808616638184 13.180946350097656 14.606155395507812 15.793327331542969
        16.406753540039062 16.446426391601562 16.425064086914062 16.522720336914062 16.956085205078125 16.537979125976562
        15.634636878967285 15.622420310974121 16.67226219177246 17.98150634765625 19.69969940185547 21.378219604492188
        22.34870147705078 22.23273468017578 21.543014526367188 20.487075805664062 19.70580291748047 19.217506408691406
        18.68648338317871 18.405715942382812 18.37213897705078 18.33551788330078 18.17987823486328 18.04559326171875
        18.118837356567383 18.13105010986328 18.00592041015625 17.86553192138672 17.612228393554688 17.163612365722656
        16.827903747558594 16.440322875976562 15.781120300292969 15.32028865814209 15.402694702148438 15.912353515625
        16.553237915039062 17.011016845703125 17.477951049804688 17.93572998046875 17.97845458984375 17.584762573242188
        17.133094787597656 16.675315856933594 16.489151000976562 16.443374633789062 15.118865966796875 12.344734191894531
        10.583816528320312 9.866630554199219 8.560440063476562 7.4343109130859375 7.3885345458984375 8.389541625976562
        9.939881324768066 11.612290382385254 12.952056884765625 13.397628784179688 12.991729736328125 12.323372840881348
        5.035552978515625 5.786308288574219 5.5085906982421875 4.461807727813721 4.696800231933594 4.733421325683594
        4.5381011962890625 5.020294189453125 5.380416393280029 5.6154022216796875 5.4536590576171875 5.096588134765625
        4.953155517578125 4.727317810058594 4.251228332519531 4.208503723144531 4.165779113769531 3.91552734375
        3.8453292846679688 2.8656845092773438 2.10882568359375 2.8443222045898438 4.269538879394531 5.117950439453125
        6.274604797363281 8.273567199707031 10.489212036132812 11.658073425292969 12.140266418457031 12.134162902832031
        11.697747230529785 10.849327087402344 9.750663757324219 8.0355224609375 6.4455108642578125 5.188148498535156
        3.3112564086914062 2.1362991333007812 3.3906099796295166 5.273597717285156 7.4495697021484375 10.898163795471191
        13.96832275390625 15.247047424316406 14.862510681152344 13.965271949768066 14.00799560546875 15.073089599609375
        15.268409729003906 14.322334289550781 12.198249816894531 8.526871681213379 6.930756092071533 7.4312591552734375
        8.481094360351562 9.195228576660156 7.721183776855469 5.96026611328125 6.186103820800781 7.052825927734375
        9.189125061035156 11.746574401855469 13.544113159179688 13.89813232421875 13.13516902923584 12.710960388183594
        13.083283424377441 13.791314125061035 14.10260009765625 13.96221923828125 13.278602600097656 12.552261352539062
        12.0029296875 11.108735084533691 11.017181396484375 12.341683387756348 13.556319236755371 13.904234886169434
        13.522750854492188 12.247077941894531 11.398666381835938 11.560409545898438 11.9144287109375 11.859488487243652
        10.626548767089844 7.959228515625 5.856498718261719 5.4506072998046875 5.835136890411377 5.291908264160156
        4.818870544433594 5.652030944824219 7.4190521240234375 8.542129516601562 8.438369750976562 8.270515441894531
        9.280677795410156 11.053802490234375 13.043609619140625 14.728232383728027 15.771965026855469 16.12903594970703
        16.22974395751953 16.544082641601562 17.007965087890625 16.22669219970703 15.378280639648438 15.814689636230469
        16.467788696289062 17.020172119140625 18.378250122070312 19.351783752441406 19.159521102905273 18.506423950195312
        18.21955108642578 18.32941436767578 18.582717895507812 18.729209899902344 18.692588806152344 18.573562622070312
        18.466751098632812 18.27753448486328 18.09747314453125 18.35688018798828 19.006925582885742 19.418930053710938
        19.418930053710938 19.071014404296875 18.32636070251465 17.377243041992188 16.586807250976562 15.817741394042969
        15.112762451171875 14.569535255432129 14.181953430175781 14.423049926757812 15.558333396911621 17.044586181640625
        18.408767700195312 19.238868713378906 19.342628479003906 19.016082763671875 18.665122985839844 18.420974731445312
        18.073060989379883 17.169715881347656 15.350807189941406 12.823875427246094 11.023284912109375 10.455642700195312
        10.458694458007812 9.97344970703125 8.706932067871094 8.365119934082031 9.735404968261719 11.563461303710938
        12.628562927246094 12.744529724121094 12.811668395996094 13.074127197265625 5.435348987579346 5.609299182891846
        5.941955089569092 5.032501697540283 3.5157318115234375 4.3946685791015625 4.5869293212890625 4.696800231933594
        4.5869293212890625 4.876861572265625 5.017242431640625 5.362098693847656 5.3987274169921875 4.840232849121094
        4.293952941894531 4.0772705078125 3.6927413940429688 3.6561203002929688 3.5462491512298584 2.2003860473632812
        1.5747528076171875 2.3194046020507812 3.6256027221679688 4.742576599121094 5.786308288574219 7.202369689941406
        9.298988342285156 10.650962829589844 11.407821655273438 11.862540245056152 12.198249816894531 12.356941223144531
        12.155526161193848 10.901214599609375 7.5685882568359375 4.852439880371094 3.3967132568359375 3.118988037109375
        4.6174468994140625 6.3997344970703125 8.243049621582031 11.056854248046875 13.672295570373535 15.106658935546875
        15.002900123596191 14.120909690856934 13.87982177734375 14.679405212402344 14.886932373046875 14.230781555175781
        12.894073486328125 9.149452209472656 6.689659118652344 6.930756092071533 8.438369750976562 9.726249694824219
        8.688621520996094 6.237983226776123 6.4058380126953125 7.034515380859375 8.127082824707031 10.242012023925781
        12.744529724121094 14.239936828613281 14.288764953613281 13.330482482910156 12.399673461914062 12.512588500976562
        13.690605163574219 15.228737831115723 15.9947509765625 15.22263240814209 13.35794734954834 11.774040222167969
        11.239967346191406 12.567520141601562 14.392532348632812 14.474929809570312 13.028350830078125 11.447494506835938
        10.284736633300781 9.88800048828125 10.74556827545166 11.816764831542969 12.277595520019531 11.719108581542969
        9.729301452636719 7.068084716796875 5.349891662597656 4.281745910644531 4.232917785644531 5.264442443847656
        6.265449523925781 6.680503845214844 7.058929443359375 7.4800872802734375 8.276618003845215 9.414962768554688
        11.166725158691406 13.464767456054688 15.375228881835938 15.909300804138184 15.259254455566406 14.258246421813965
        13.309120178222656 13.101593017578125 14.09039306640625 15.8726806640625 17.139198303222656 17.380294799804688
        17.86858367919922 17.554244995117188 16.776023864746094 16.727195739746094 17.126991271972656 17.636648178100586
        18.408767700195312 19.141212463378906 19.421981811523438 19.299903869628906 19.025238037109375 18.750572204589844
        18.848228454589844 19.418930053710938 20.117799758911133 20.453506469726562 20.380264282226562 19.9224853515625
        19.15036964416504 18.20124053955078 17.148353576660156 16.022216796875 15.021209716796875 14.08428955078125
        13.403732299804688 13.513596534729004 14.590896606445312 16.449478149414062 18.31720733642578 19.186988830566406
        19.49827766418457 19.89501953125 19.9560546875 19.486068725585938 18.744468688964844 17.529830932617188
        15.762809753417969 13.638725280761719 11.9022216796875 11.102630615234375 10.821860313415527 10.568557739257812
        10.229804992675781 10.269477844238281 10.861534118652344 11.731315612792969 12.131111145019531 12.320320129394531
        13.003936767578125 13.470870971679688 5.5360565185546875 5.5391082763671875 5.4414520263671875 5.288856506347656
        4.495376110076904 4.260383605957031 4.638816833496094 4.5075836181640625 4.293952941894531 4.132209777832031
        4.5869293212890625 5.038604736328125 5.008087158203125 4.4312896728515625 3.921630859375 4.019286632537842
        4.132209777832031 4.0345458984375 3.173927068710327 1.6266402006149292 1.4923553466796875 2.6764755249023438
        3.921630859375 4.577773571014404 5.209510803222656 6.4180450439453125 8.612319946289062 10.208442687988281
        10.876800537109375 11.413925170898438 12.356941223144531 13.480027198791504 13.794364929199219 13.022247314453125
        9.607223510742188 5.93890380859375 4.6113433837890625 4.919586181640625 6.01519775390625 7.123023986816406
        8.691673278808594 10.928680419921875 12.576675415039062 13.275550842285156 13.144326210021973 12.674339294433594
        12.628562927246094 13.385421752929688 14.04461669921875 14.349801063537598 13.531906127929688 9.009063720703125
        6.4912872314453125 7.437362194061279 9.656059265136719 11.014129638671875 9.89715576171875 6.753746032714844
        6.4607696533203125 7.089447021484375 7.4434661865234375 8.398695945739746 10.72725772857666 13.431197166442871
        15.079192161560059 14.676353454589844 13.257240295410156 12.164680480957031 12.0181884765625 12.796409606933594
        14.02020263671875 14.743492126464844 14.703818321228027 14.615310668945312 13.806571960449219 13.428146362304688
        14.04461669921875 13.830986022949219 12.625511169433594 11.761832237243652 9.653007507324219 8.520767211914062
        10.303047180175781 12.268440246582031 13.074128150939941 13.046661376953125 13.19010066986084 12.421035766601562
        9.375288963317871 6.723228931427002 5.932799816131592 6.161689758300781 5.4200897216796875 5.001983642578125
        6.277656555175781 8.0965576171875 9.152503967285156 9.118927001953125 9.723197937011719 12.125007629394531
        14.648887634277344 15.085296630859375 13.495285034179688 10.879852294921875 8.594009399414062 8.648948669433594
        10.632652282714844 13.083282470703125 15.210427284240723 16.046630859375 16.730247497558594 16.895050048828125
        16.574600219726562 16.476943969726562 16.501358032226562 16.846214294433594 17.99981689453125 19.275487899780273
        19.9072265625 19.9713134765625 19.73326873779297 19.626455307006836 20.0048828125 20.645774841308594
        21.103546142578125 21.185951232910156 20.929595947265625 20.31616973876953 19.449447631835938 18.44233512878418
        17.438278198242188 16.544082641601562 15.765861511230469 15.021210670471191 14.621414184570312 14.600051879882812
        14.64888858795166 15.204322814941406 16.406753540039062 17.554244995117188 18.710899353027344 19.69054412841797
        19.62645721435547 18.762779235839844 18.08221435546875 17.316200256347656 15.808586120605469 14.102601051330566
        13.15958309173584 12.897125244140625 12.497330665588379 11.722160339355469 10.803550720214844 10.571609497070312
        11.346779823303223 12.460709571838379 13.34268856048584 13.87982177734375 14.328437805175781 14.343696594238281
        5.352943420410156 5.2888569831848145 5.3773651123046875 5.316322326660156 5.96942138671875 5.3956756591796875
        4.0284423828125 4.4160308837890625 4.364143371582031 4.318367004394531 4.5503082275390625 4.4557037353515625
        4.043701171875 3.994873046875 3.8117599487304688 4.208503723144531 4.889068603515625 4.791404724121094
        3.7171554565429688 2.7466659545898438 2.5177764892578125 3.3387222290039062 4.327522277832031 4.623558044433594
        4.901275634765625 5.865653991699219 7.9439697265625 9.796440124511719 10.525832176208496 10.910369873046875
        12.131111145019531 14.178901672363281 15.149391174316406 14.78316593170166 11.597030639648438 6.2715535163879395
        4.6021881103515625 6.00604248046875 7.583846569061279 8.0477294921875 8.838156700134277 10.641807556152344
        12.591934204101562 13.589889526367188 13.418990135192871 12.704856872558594 11.908324241638184 12.231818199157715
        13.87677001953125 15.521714210510254 15.405745506286621 10.248115539550781 6.833091735839844 7.8524088859558105
        10.69368839263916 12.326424598693848 11.615341186523438 7.861564636230469 6.10980224609375 6.683555603027344
        7.187110424041748 7.6204681396484375 8.676414489746094 10.940887451171875 13.370155334472656 14.453567504882812
        14.297920227050781 13.696708679199219 12.814720153808594 11.685539245605469 11.111786842346191 11.587875366210938
        12.961212158203125 14.651939392089844 15.369117736816406 15.164649963378906 15.286720275878906 15.390487670898438
        14.413894653320312 12.552261352539062 8.893096923828125 8.343757629394531 11.050750732421875 13.238929748535156
        13.824882507324219 13.846243858337402 13.290809631347656 10.693687438964844 8.700828552246094 9.094512939453125
        9.817802429199219 9.683525085449219 7.156593322753906 4.916534423828125 5.285804748535156 7.675407409667969
        9.445480346679688 9.308143615722656 8.902252197265625 10.254219055175781 12.186042785644531 12.466813087463379
        11.200294494628906 8.789329528808594 6.283760070800781 5.88702392578125 7.300025463104248 9.234901428222656
        11.505476951599121 13.278602600097656 14.978485107421875 16.3396053314209 16.522720336914062 16.1015625
        15.9215087890625 16.37012481689453 17.569503784179688 18.829917907714844 19.367042541503906 19.287696838378906
        19.257179260253906 19.91943359375 20.807518005371094 21.427047729492188 21.610153198242188 21.506393432617188
        21.14933204650879 20.404680252075195 19.415878295898438 18.555253982543945 18.08221435546875 17.72209930419922
        17.282630920410156 16.85231590270996 16.595962524414062 16.394546508789062 15.878785133361816 15.689567565917969
        16.32740020751953 17.325355529785156 18.25922393798828 18.695640563964844 18.21955108642578 17.64885711669922
        17.526779174804688 17.017120361328125 15.683464050292969 14.584793090820312 14.462722778320312 15.027313232421875
        15.27756404876709 14.401687622070312 12.469863891601562 11.001922607421875 11.243019104003906 12.598036766052246
        13.913390159606934 14.539016723632812 14.694664001464844 14.545120239257812 4.696800231933594 4.687644958496094
        4.855491638183594 5.194252014160156 5.6154022216796875 5.8534464836120605 4.300055980682373 3.3448259830474854
        3.790397882461548 3.8300704956054688 3.814811944961548 3.903320550918579 3.8483808040618896 4.5289459228515625
        4.760887145996094 4.831077575683594 5.246131896972656 4.995880126953125 4.202400207519531 4.4190826416015625
        4.647972106933594 4.919586181640625 4.934845447540283 4.541153430938721 4.644920349121094 5.078277587890625
        6.299018383026123 8.511611938476562 10.01312255859375 11.038543701171875 12.375259399414062 14.325386047363281
        15.775015830993652 15.655998229980469 14.365058898925781 10.257270812988281 5.975524425506592 6.2135701179504395
        8.099609375 8.133186340332031 7.608261585235596 8.87172794342041 11.517684936523438 13.525802612304688
        13.589889526367188 12.878815650939941 11.9541015625 12.103636741638184 14.03546142578125 15.997802734375
        16.18091583251953 10.809654235839844 6.314277648925781 7.101654052734375 10.367134094238281 12.860496520996094
        13.553268432617188 10.657066345214844 6.198310852050781 5.5757293701171875 6.320381164550781 7.8829345703125
        8.682518005371094 9.228797912597656 10.892059326171875 13.318275451660156 14.700767517089844 15.155495643615723
        15.048675537109375 13.690605163574219 11.059906005859375 8.822898864746094 9.509567260742188 12.0853271484375
        14.264350891113281 15.213478088378906 16.476943969726562 18.07916259765625 17.578659057617188 14.004942893981934
        7.812736988067627 6.5706329345703125 9.698783874511719 12.643821716308594 13.791313171386719 13.751640319824219
        10.486160278320312 6.411942005157471 6.665245532989502 8.679466247558594 10.495315551757812 11.304054260253906
        10.324409484863281 8.401748657226562 6.1281208992004395 6.225776195526123 7.535018444061279 8.456680297851562
        8.264411926269531 8.444473266601562 9.390548706054688 10.00396728515625 10.223701477050781 9.283729553222656
        6.176948547363281 4.831077575683594 6.4882354736328125 8.032470703125 9.439376831054688 10.992767333984375
        12.723167419433594 14.545120239257812 15.179908752441406 15.009002685546875 15.189064025878906 15.9703369140625
        17.303993225097656 18.29279327392578 18.439285278320312 17.90521240234375 17.88385009765625 19.190040588378906
        20.32837677001953 20.844139099121094 21.134069442749023 21.274450302124023 21.069976806640625 20.37110137939453
        19.55320930480957 19.046600341796875 18.900115966796875 18.66512107849121 18.23480987548828 17.76787567138672
        17.48405647277832 17.236854553222656 16.492202758789062 15.762810707092285 16.0313720703125 17.014070510864258
        17.80754852294922 18.27753448486328 18.32636260986328 18.17987823486328 18.04559326171875 17.474899291992188
        16.595962524414062 16.30908966064453 16.760766983032227 17.368080139160156 17.340614318847656 16.13208770751953
        14.01409912109375 11.648919105529785 10.531936645507812 11.166725158691406 12.430191040039062 13.315224647521973
        13.544113159179688 13.583786010742188 4.5533599853515625 4.5899810791015625 4.5655670166015625 4.6540751457214355
        4.568619251251221 4.4434967041015625 4.834129810333252 3.6225507259368896 3.051849365234375 4.153572082519531
        3.8941650390625 4.068115234375 4.647972106933594 5.2400288581848145 5.630668640136719 5.343788146972656
        4.889068603515625 4.187141418457031 4.031494140625 5.362098693847656 5.5238494873046875 4.837181091308594
        4.367195129394531 4.382461071014404 4.882965087890625 4.8432841300964355 4.522841930389404 5.5391082763671875
        7.315284729003906 9.686575889587402 11.743521690368652 13.107696533203125 14.346749305725098 15.085296630859375
        14.929656982421875 13.104644775390625 8.926666259765625 6.042664051055908 6.5309600830078125 6.808677673339844
        6.060974597930908 6.5279083251953125 8.493301391601562 10.779136657714844 11.8778076171875 12.366096496582031
        12.756736755371094 13.272499084472656 14.459671020507812 15.29587459564209 14.963226318359375 9.830009460449219
        4.944000244140625 5.639823913574219 9.237953186035156 12.964263916015625 14.920500755310059 13.852349281311035
        7.751701831817627 4.709007263183594 5.102692127227783 7.641838073730469 9.683525085449219 9.854423522949219
        10.217597961425781 12.253180503845215 14.404738426208496 15.390488624572754 15.628533363342285 14.954071044921875
        12.161629676818848 7.968383312225342 7.077239990234375 9.140296936035156 11.612289428710938 13.211463928222656
        15.179908752441406 17.767873764038086 18.21955108642578 15.533920288085938 8.722190856933594 5.114898681640625
        7.260353088378906 10.534988403320312 12.094482421875 11.621444702148438 7.6235270500183105 5.090485095977783
        6.479080677032471 8.291877746582031 9.671318054199219 10.165718078613281 10.534988403320312 10.962249755859375
        9.717094421386719 8.124031066894531 6.985687255859375 6.503493785858154 5.838188171386719 6.640830993652344
        8.697776794433594 10.641807556152344 12.210456848144531 11.697746276855469 5.4445037841796875 3.3936614990234375
        6.680504322052002 8.856468200683594 9.042633056640625 9.591964721679688 10.69063663482666 12.036498069763184
        12.68654727935791 12.964263916015625 13.733329772949219 15.106658935546875 16.672264099121094 17.621383666992188
        17.914365768432617 17.545089721679688 17.444381713867188 18.32636260986328 19.013031005859375 19.559310913085938
        20.395523071289062 20.954010009765625 20.773948669433594 20.22766876220703 19.75768280029297 19.513534545898438
        19.455551147460938 19.159521102905273 18.494216918945312 17.85332489013672 17.64275360107422 17.188026428222656
        15.985595703125 14.896087646484375 15.213479042053223 16.541030883789062 17.389450073242188 17.98150634765625
        18.628501892089844 18.62238883972168 18.15241241455078 18.033384323120117 18.14936065673828 18.36603546142578
        18.814659118652344 18.842124938964844 18.10662841796875 16.962188720703125 15.298927307128906 13.068023681640625
        11.096527099609375 10.303046226501465 11.178932189941406 12.485122680664062 12.84523868560791 13.006988525390625
        4.855491638183594 4.968414306640625 4.5625152587890625 4.126106262207031 3.8026046752929688 3.7934494018554688
        4.193244934082031 4.971466064453125 2.880950927734375 3.1678237915039062 4.278694152832031 4.879913806915283
        5.328529357910156 5.4780731201171875 5.810722351074219 5.5299530029296875 4.742576599121094 3.9857177734375
        4.0528564453125 5.551315784454346 5.877869129180908 5.368202209472656 5.084381103515625 5.182044982910156
        5.032501220703125 4.0711669921875 3.1647720336914062 2.923675537109375 3.5462493896484375 6.4638214111328125
        9.817802429199219 11.493270874023438 12.231819152832031 12.991729736328125 13.205361366271973 12.643820762634277
        10.834068298339844 6.970428466796875 4.5960845947265625 4.821922302246094 5.679497241973877 6.286811828613281
        7.2084736824035645 8.822898864746094 10.403762817382812 11.639762878417969 12.723167419433594 13.476975440979004
        14.395584106445312 14.951019287109375 14.908294677734375 11.291847229003906 5.243080139160156 5.200355052947998
        8.667259216308594 12.744528770446777 15.118865966796875 15.16770076751709 9.756768226623535 4.1016845703125
        4.367195129394531 6.741539001464844 9.94598388671875 11.029388427734375 10.846275329589844 11.642814636230469
        13.730277061462402 15.256203651428223 15.704826354980469 15.421006202697754 13.397628784179688 9.201332092285156
        7.113861083984375 8.133186340332031 10.220649719238281 11.819817543029785 13.333534240722656 15.680413246154785
        17.126991271972656 16.35486602783203 12.234870910644531 6.912445068359375 5.850395679473877 7.943970203399658
        9.793387413024902 9.109771728515625 6.05487060546875 5.8076701164245605 7.89208984375 9.88800048828125
        10.425125122070312 9.332557678222656 9.063995361328125 10.138252258300781 11.407821655273438 12.134162902832031
        10.632652282714844 6.03045654296875 4.190193176269531 7.199317932128906 11.441390991210938 14.380326271057129
        15.451521873474121 12.933746337890625 4.306159973144531 2.954193115234375 5.020294189453125 7.4190521240234375
        8.401748657226562 9.451583862304688 10.632651329040527 11.413925170898438 11.651969909667969 11.532943725585938
        12.128060340881348 13.602097511291504 15.137184143066406 16.440322875976562 17.532882690429688 18.10662841796875
        18.482009887695312 18.900115966796875 19.043548583984375 19.388412475585938 20.18799591064453 20.35279083251953
        19.55015754699707 19.13816261291504 19.461654663085938 19.96826171875 20.398574829101562 20.1757869720459
        19.058805465698242 18.002866744995117 17.435226440429688 16.13819122314453 14.493239402770996 14.03546142578125
        14.902191162109375 16.32740020751953 17.481002807617188 18.466753005981445 19.113739013671875 18.851280212402344
        18.405715942382812 18.912322998046875 19.68138885498047 19.64476776123047 19.400619506835938 18.854331970214844
        18.042539596557617 17.410812377929688 16.33960723876953 14.597000122070312 13.235877990722656 12.369149208068848
        11.996826171875 12.204354286193848 12.491225242614746 12.692649841308594 5.1698384284973145 4.779197692871094
        4.336677551269531 3.8392257690429688 3.6622235774993896 3.8178634643554688 4.123054504394531 4.910430908203125
        4.4770660400390625 2.7954940795898438 4.165779113769531 4.916534423828125 5.090484619140625 5.209510803222656
        5.346839904785156 5.334632873535156 4.895172119140625 4.3794097900390625 4.315315246582031 4.730369567871094
        4.840232849121094 5.5848846435546875 5.99993896484375 5.633720874786377 4.5197906494140625 2.4658966064453125
        2.00811767578125 2.6001739501953125 3.3112564086914062 5.182044982910156 8.584854125976562 10.937835693359375
        11.395614624023438 10.840170860290527 10.09857177734375 10.171820640563965 10.931732177734375 10.385452270507812
        6.787315368652344 4.0406494140625 5.5024871826171875 7.5563812255859375 8.380386352539062 8.670310974121094
        9.298988342285156 10.153511047363281 10.922575950622559 11.825921058654785 13.434249877929688 14.868614196777344
        15.308082580566406 14.00494384765625 9.363075256347656 6.625572204589844 8.032470703125 10.675376892089844
        12.808616638183594 13.870658874511719 10.452590942382812 3.982665777206421 4.0650634765625 5.7283244132995605
        9.387496948242188 11.471908569335938 11.407821655273438 10.827964782714844 11.804557800292969 13.727226257324219
        14.612259864807129 14.258247375488281 12.613296508789062 9.723197937011719 8.514663696289062 9.604172706604004
        11.310157775878906 12.582778930664062 13.135169982910156 13.92559814453125 15.308082580566406 15.478988647460938
        13.705863952636719 9.808647155761719 6.283760070800781 6.875823974609375 9.695733070373535 10.583816528320312
        8.771018981933594 7.760856628417969 8.725242614746094 10.144355773925781 10.678428649902344 10.11993408203125
        9.96734619140625 10.339668273925781 11.059906005859375 12.338630676269531 11.899169921875 7.019256114959717
        5.3773651123046875 8.441421508789062 11.9754638671875 14.285713195800781 14.471878051757812 11.828972816467285
        4.742576599121094 2.850425958633423 3.4241790771484375 5.4872283935546875 7.4373626708984375 8.957183837890625
        10.510575294494629 11.807609558105469 12.619400024414062 12.402725219726562 12.485122680664062 13.095489501953125
        13.888976097106934 15.088349342346191 16.67836570739746 18.22870635986328 19.544052124023438 20.2002010345459
        20.19409942626953 19.80956268310547 19.229713439941406 18.18598175048828 17.212438583374023 17.462692260742188
        18.74751853942871 19.980466842651367 20.667137145996094 20.407730102539062 19.125953674316406 17.465744018554688
        15.686514854431152 13.818778991699219 13.226722717285156 14.276557922363281 15.823843955993652 17.215492248535156
        18.31720733642578 19.000823974609375 19.125953674316406 19.031341552734375 19.296852111816406 19.85839080810547
        20.029296875 19.580671310424805 19.043548583984375 18.27448272705078 17.471847534179688 16.949981689453125
        16.01611328125 14.429153442382812 13.821830749511719 13.92559814453125 13.281654357910156 12.393569946289062
        11.944947242736816 10.922576904296875 4.4953765869140625 3.927734136581421 4.187141418457031 4.0162353515625
        3.93994140625 3.973510503768921 4.400771617889404 4.947052001953125 5.6154022216796875 4.116943359375
        2.6459579467773438 4.5136871337890625 5.154579162597656 5.182044982910156 4.910430908203125 4.940948486328125
        5.081329345703125 5.114898681640625 5.063019275665283 4.5136871337890625 4.248176574707031 5.4475555419921875
        5.706962585449219 4.950103759765625 4.287849426269531 2.3712844848632812 1.99285888671875 3.3845062255859375
        4.5045318603515625 5.349891662597656 8.124031066894531 10.748619079589844 11.636710166931152 11.166726112365723
        9.512619018554688 8.600112915039062 9.662163734436035 11.230812072753906 10.516677856445312 7.135230541229248
        5.5818328857421875 6.769004821777344 8.056884765625 8.285774230957031 8.185065269470215 8.511611938476562
        9.335609436035156 11.026336669921875 13.385421752929688 14.889985084533691 15.005950927734375 14.337593078613281
        12.137215614318848 8.780174255371094 6.524856090545654 7.089446544647217 9.424118041992188 11.801506996154785
        10.779136657714844 4.824974060058594 3.8666915893554688 4.709007263183594 7.831047058105469 10.235908508300781
        10.998870849609375 10.141304016113281 9.341712951660156 10.504470825195312 12.424088478088379 13.238929748535156
        12.927642822265625 11.328468322753906 10.116881370544434 10.956147193908691 12.854393005371094 14.703819274902344
        15.582748413085938 15.17990779876709 15.274513244628906 15.445420265197754 14.435256958007812 10.03753662109375
        4.290900707244873 4.5777740478515625 7.916503429412842 10.03143310546875 10.510574340820312 10.312202453613281
        10.312202453613281 8.972443580627441 9.051788330078125 10.425125122070312 11.810661315917969 12.253182411193848
        11.352882385253906 10.592971801757812 9.707939147949219 7.4526214599609375 6.3936309814453125 7.034515380859375
        9.292884826660156 12.08837890625 13.650931358337402 13.403732299804688 9.195228576660156 4.162727355957031
        2.8687362670898438 5.209510803222656 6.875823974609375 8.093505859375 9.460739135742188 10.843222618103027
        12.192146301269531 13.171792030334473 14.233832359313965 14.499344825744629 14.246041297912598 14.545120239257812
        15.839103698730469 17.64885711669922 19.363990783691406 20.17578887939453 20.28260040283203 20.0079345703125
        19.394515991210938 18.475906372070312 17.72209930419922 17.529830932617188 18.03948974609375 19.016082763671875
        19.568466186523438 19.046600341796875 17.73125457763672 16.12598419189453 14.612259864807129 13.88897705078125
        14.438308715820312 15.585800170898438 16.644798278808594 17.63054656982422 18.402664184570312 18.62238883972168
        18.674278259277344 19.211402893066406 19.9468994140625 20.389419555664062 20.593887329101562 20.429092407226562
        19.589828491210938 18.28974151611328 17.014068603515625 15.454574584960938 13.486129760742188 12.573623657226562
        13.361000061035156 14.242988586425781 14.059876441955566 13.309120178222656 11.725212097167969 8.532974243164062
        3.5309906005859375 3.6896893978118896 4.138313293457031 4.290900707244873 4.333625793457031 4.309211254119873
        4.5075836181640625 5.130165100097656 5.5726776123046875 5.053863525390625 1.5472869873046875 3.2136001586914062
        4.937896728515625 4.998931884765625 4.397720813751221 4.5045318603515625 5.124061584472656 5.5116424560546875
        5.334632873535156 4.745628356933594 4.675437927246094 5.197303771972656 4.779197692871094 4.275641918182373
        4.696800231933594 3.7324142456054688 2.633751153945923 4.1413655281066895 4.660179138183594 4.882964611053467
        6.772056579589844 9.717094421386719 11.352882385253906 11.624504089355469 9.753715515136719 7.791374206542969
        8.273567199707031 10.147407531738281 11.352882385253906 9.375289916992188 6.369209289550781 5.786308288574219
        7.058928966522217 7.861564636230469 7.733390808105469 7.861564636230469 8.877838134765625 10.824913024902344
        13.019196510314941 14.02325439453125 13.834038734436035 13.464766502380371 12.952056884765625 9.750662803649902
        4.455704212188721 3.2807388305664062 5.5452117919921875 8.221687316894531 9.024322509765625 5.569625377655029
        3.7720870971679688 3.7110519409179688 5.349891662597656 7.351905822753906 8.868675231933594 9.198280334472656
        8.056884765625 7.9989013671875 10.220649719238281 12.317269325256348 13.028351783752441 11.9296875
        10.187080383300781 10.397659301757812 12.680442810058594 15.927613258361816 18.579666137695312 18.497268676757812
        16.617324829101562 14.758749961853027 13.531906127929688 9.772026062011719 4.5045318603515625 3.7537763118743896
        5.362098693847656 8.236947059631348 11.172828674316406 12.561417579650879 12.802513122558594 8.444473266601562
        5.7802042961120605 7.321388244628906 9.628593444824219 11.099578857421875 11.023284912109375 8.902252197265625
        5.810722351074219 4.751731872558594 4.815818786621094 5.328529357910156 7.229835510253906 9.823905944824219
        12.518691062927246 14.166693687438965 13.193154335021973 8.877838134765625 5.111846923828125 5.5146942138671875
        6.2135701179504395 7.6174163818359375 8.807640075683594 9.564498901367188 10.663169860839844 12.454605102539062
        14.429154396057129 14.917449951171875 14.648887634277344 14.984588623046875 16.098512649536133 17.310096740722656
        18.448440551757812 19.21750831604004 19.67833709716797 19.974365234375 19.989625930786133 19.63256072998047
        19.180885314941406 18.842126846313477 18.475906372070312 18.11578369140625 17.79229164123535 17.093414306640625
        16.034423828125 15.31113338470459 15.073089599609375 15.20432186126709 15.622421264648438 16.022216796875
        16.33045196533203 16.812646865844727 17.508468627929688 18.18598175048828 18.897064208984375 19.739370346069336
        20.31311798095703 20.41077995300293 20.447402954101562 20.21240997314453 19.217506408691406 18.063905715942383
        16.74855613708496 14.929656982421875 13.406784057617188 12.936798095703125 13.055816650390625 13.348793983459473
        13.608200073242188 13.486128807067871 12.640769958496094 10.855430603027344 3.5767669677734375 3.7568283081054688
        4.211555480957031 4.4526519775390625 4.730369567871094 4.922637939453125 4.678489685058594 4.828025817871094
        5.5330047607421875 5.8137736320495605 3.2380142211914062 1.6327439546585083 3.833122491836548 4.4129791259765625
        4.1016845703125 4.4557037353515625 4.879912853240967 5.130165100097656 5.111846923828125 5.069122314453125
        5.4628143310546875 5.340736389160156 4.5747222900390625 4.226814270019531 4.889069080352783 4.776145935058594
        4.141365051269531 4.773094177246094 3.839226007461548 4.5289459228515625 6.06402587890625 8.883941650390625
        11.236915588378906 11.563460350036621 9.781181335449219 7.858512878417969 7.739494323730469 9.006011962890625
        10.06805419921875 9.97955322265625 8.740501403808594 7.6876139640808105 7.4587249755859375 7.864616394042969
        7.980590343475342 8.008056640625 8.648948669433594 9.988707542419434 11.566512107849121 12.433242797851562
        12.289801597595215 11.807608604431152 10.794395446777344 6.4760284423828125 2.5482940673828125 2.7832870483398438
        3.4974210262298584 5.157630920410156 7.016204833984375 6.4333038330078125 4.019287109375 3.2166519165039062
        3.1983413696289062 4.611342906951904 6.4729766845703125 8.151496887207031 8.630638122558594 8.627586364746094
        9.735404968261719 11.535995483398438 12.247077941894531 11.224709510803223 9.372238159179688 8.667259216308594
        10.580764770507812 14.673301696777344 18.506423950195312 19.7851505279541 18.09136962890625 14.853355407714844
        12.173836708068848 10.171820640563965 8.301033020019531 7.235939025878906 7.794426441192627 9.710990905761719
        11.627555847167969 13.006987571716309 13.858452796936035 10.449539184570312 5.5726776123046875 4.4251861572265625
        5.987731456756592 7.910400390625 9.186073303222656 6.869712829589844 2.6276473999023438 2.7314071655273438
        3.6988449096679688 4.803611755371094 5.5787811279296875 6.5919952392578125 9.317299842834473 12.271492004394531
        14.087340354919434 13.538009643554688 11.117889404296875 6.778160095214844 5.392623424530029 7.367164611816406
        9.137245178222656 9.802543640136719 10.06805419921875 10.989715576171875 12.186042785644531 12.62856388092041
        13.251136779785156 14.429154396057129 15.8909912109375 17.227699279785156 18.451492309570312 19.251075744628906
        19.69969940185547 20.084230422973633 20.419937133789062 20.484024047851562 20.39246940612793 20.29175567626953
        19.82787322998047 19.067962646484375 18.442337036132812 17.62749481201172 16.779075622558594 16.565444946289062
        16.727195739746094 16.718040466308594 16.29993438720703 15.796379089355469 15.655998229980469 15.866569519042969
        16.36707305908203 17.340614318847656 18.515579223632812 19.397565841674805 19.9652099609375 20.21240997314453
        20.18799591064453 19.81871795654297 19.269386291503906 18.56440544128418 17.130043029785156 15.512557029724121
        14.505448341369629 13.556320190429688 12.958160400390625 13.284706115722656 13.727227210998535 13.483078002929688
        13.058868408203125 12.674339294433594 3.8422775268554688 4.303108215332031 4.919586181640625 5.081328868865967
        5.166786193847656 5.264442443847656 5.105743408203125 4.5014801025390625 4.986725330352783 6.744590759277344
        7.559433460235596 5.578780651092529 3.2532730102539062 3.6103363037109375 4.361091613769531 4.806663513183594
        4.5564117431640625 4.745628356933594 5.328529357910156 5.3987274169921875 5.526900768280029 5.352943420410156
        4.763938903808594 4.345832824707031 4.528946399688721 4.696800231933594 4.8707499504089355 4.544204235076904
        3.4943692684173584 4.898223876953125 6.653038024902344 8.954132080078125 10.727256774902344 10.849326133728027
        9.659111022949219 8.365119934082031 7.925659656524658 8.465835571289062 9.121978759765625 9.744560241699219
        10.04669189453125 9.695731163024902 8.700828552246094 7.922607421875 7.809685230255127 8.0294189453125
        8.481094360351562 9.308143615722656 10.260322570800781 10.760826110839844 10.373245239257812 9.286781311035156
        6.720177173614502 3.5157318115234375 2.10272216796875 2.6551132202148438 3.1495132446289062 4.0528564453125
        5.4536590576171875 6.2044148445129395 4.947052001953125 3.2532730102539062 2.6123809814453125 3.4638519287109375
        5.368202209472656 7.5563812255859375 9.350869178771973 10.10162353515625 10.223701477050781 10.730308532714844
        11.084320068359375 10.678428649902344 8.862571716308594 6.833092212677002 7.6143646240234375 11.441390991210938
        16.15345001220703 19.098480224609375 19.403671264648438 17.227699279785156 13.504440307617188 9.92462158203125
        8.648948669433594 9.796440124511719 11.185035705566406 11.441391944885254 11.413925170898438 12.189094543457031
        13.040557861328125 11.215553283691406 6.02435302734375 3.7720870971679688 3.6835858821868896 4.718162536621094
        6.4241485595703125 4.647972583770752 2.01116943359375 2.2186965942382812 2.3102493286132812 2.3987579345703125
        2.4048614501953125 3.2166521549224854 4.843284606933594 7.077239513397217 10.452590942382812 13.083282470703125
        13.550216674804688 8.523818969726562 5.490280628204346 7.263404369354248 9.366127014160156 10.306098937988281
        9.91851806640625 9.601119995117188 9.714042663574219 10.214546203613281 11.386459350585938 12.820823669433594
        14.209419250488281 15.634636878967285 17.041534423828125 18.24396514892578 19.452499389648438 20.419937133789062
        21.024200439453125 21.246986389160156 21.259193420410156 21.079132080078125 20.667137145996094 20.16358184814453
        19.40977668762207 18.34467315673828 17.99981689453125 18.37213897705078 18.643760681152344 18.497268676757812
        17.93267822265625 17.279579162597656 16.940826416015625 16.699731826782227 16.489151000976562 16.776023864746094
        17.389450073242188 17.96319580078125 18.643760681152344 19.409774780273438 19.9041748046875 20.059814453125
        19.9713134765625 19.38841438293457 18.05169677734375 16.528823852539062 15.619369506835938 14.941864013671875
        14.380324363708496 14.453568458557129 14.69161319732666 14.10260009765625 13.257240295410156 12.866600036621094
        4.5472564697265625 4.904327392578125 5.221717834472656 5.166786193847656 4.983673095703125 5.200355529785156
        5.117950439453125 4.3733062744140625 4.2725911140441895 5.4750213623046875 7.690666675567627 8.819847106933594
        6.305122375488281 3.1342544555664062 4.339729309082031 5.169837951660156 4.696800231933594 4.547256946563721
        5.304115295410156 5.166786193847656 4.8188700675964355 4.5594635009765625 4.293952941894531 4.153572082519531
        4.116943359375 4.03759765625 4.318367004394531 4.5442047119140625 5.438399791717529 6.8544535636901855
        8.288825988769531 9.241004943847656 9.488204956054688 9.842216491699219 9.99176025390625 9.793388366699219
        9.564498901367188 9.588912963867188 9.87274169921875 10.351875305175781 10.614334106445312 10.364082336425781
        9.503463745117188 8.374282836914062 7.760856628417969 7.968384265899658 8.670310974121094 9.372239112854004
        9.701835632324219 9.314247131347656 8.398696899414062 7.220680236816406 6.042663097381592 4.4404449462890625
        2.7375106811523438 1.8890992403030396 2.2309036254882812 3.3509292602539062 4.779197692871094 5.6031951904296875
        5.706962585449219 4.791404724121094 3.6011812686920166 3.872802734375 5.5177459716796875 7.425156116485596
        9.094512939453125 10.05584716796875 9.99786376953125 9.98260498046875 10.657065391540527 11.31931209564209
        8.832054138183594 5.3224263191223145 5.749687194824219 8.481094360351562 12.192146301269531 15.17380428314209
        17.511520385742188 18.527786254882812 17.398605346679688 13.724175453186035 10.79134464263916 11.575669288635254
        12.421035766601562 12.256232261657715 11.658073425292969 11.636711120605469 11.947998046875 11.319313049316406
        6.857505798339844 4.4679107666015625 4.0772705078125 4.4801177978515625 5.4780731201171875 4.226814270019531
        1.96539306640625 1.98980712890625 2.3133010864257812 2.6215362548828125 2.1271438598632812 3.012176275253296
        3.7110519409179688 4.4190826416015625 6.949066162109375 9.92767333984375 11.450545310974121 8.310188293457031
        6.216621398925781 7.4312591552734375 9.173866271972656 10.205389976501465 9.97344970703125 9.347816467285156
        9.131141662597656 9.833061218261719 11.160621643066406 12.729270935058594 13.98052978515625 14.328437805175781
        14.584793090820312 15.9581298828125 18.00592041015625 19.79125213623047 21.082183837890625 21.70171356201172
        21.67119789123535 21.14933204650879 20.453506469726562 19.495223999023438 18.30805206298828 17.68852996826172
        18.36603546142578 19.248023986816406 19.846181869506836 20.41993522644043 20.917388916015625 20.847192764282227
        20.15442657470703 18.820762634277344 17.456586837768555 16.821800231933594 16.754661560058594 17.007963180541992
        17.499313354492188 18.19818878173828 19.034391403198242 19.476913452148438 18.991668701171875 17.96624755859375
        17.026275634765625 16.437271118164062 16.507461547851562 16.66005516052246 16.28162384033203 15.970335960388184
        15.875732421875 14.877777099609375 13.327430725097656 12.759788513183594 5.102691650390625 5.178993225097656
        5.133216381072998 4.8066630363464355 4.4984283447265625 4.5869293212890625 4.5594635009765625 4.367195129394531
        4.5777740478515625 4.626609802246094 5.5421600341796875 7.010101318359375 7.055877685546875 3.5889737606048584
        3.4180755615234375 4.913482666015625 4.944000244140625 4.300056457519531 4.6174468994140625 4.358039855957031
        3.8331222534179688 3.7324142456054688 3.8422775268554688 4.141365051269531 4.239021301269531 3.8117599487304688
        4.358039855957031 6.1433796882629395 7.477035045623779 8.624534606933594 9.457688331604004 9.054840087890625
        8.386489868164062 9.222694396972656 10.348823547363281 10.922577857971191 11.175880432128906 11.352882385253906
        11.429183959960938 11.423079490661621 11.261329650878906 10.937835693359375 10.617385864257812 10.193183898925781
        9.692681312561035 9.564499855041504 10.00091552734375 10.470901489257812 10.544143676757812 9.552292823791504
        7.3885345458984375 6.131172180175781 6.7934184074401855 6.826988697052002 4.791404724121094 2.7222518920898438
        2.935882568359375 3.946044921875 4.779197692871094 4.803611755371094 5.5665740966796875 6.149482727050781
        5.945006847381592 5.7954630851745605 6.463821887969971 7.638786315917969 8.713035583496094 8.969391822814941
        8.484146118164062 8.832054138183594 10.122993469238281 11.291847229003906 9.103668212890625 5.233924865722656
        5.4170379638671875 6.826988220214844 8.258308410644531 9.286781311035156 12.549209594726562 16.507461547851562
        18.451492309570312 17.73735809326172 16.0130615234375 15.186012268066406 14.230781555175781 13.480025291442871
        12.811667442321777 11.9876708984375 11.548201560974121 11.441390991210938 8.11181640625 5.822929859161377
        5.4506072998046875 5.096588134765625 5.029449462890625 5.087432861328125 2.5910186767578125 1.0864564180374146
        2.05999755859375 2.5238800048828125 2.1454544067382812 3.9490966796875 3.7202069759368896 3.5126800537109375
        4.904327392578125 6.704917907714844 8.423110961914062 6.979583263397217 6.277656555175781 7.348854064941406
        8.572647094726562 9.613327026367188 10.03143310546875 10.016175270080566 10.403761863708496 11.557357788085938
        13.211463928222656 14.883880615234375 15.463729858398438 14.319282531738281 13.452560424804688 14.285713195800781
        15.924560546875 17.91741943359375 20.1513729095459 21.359901428222656 21.225624084472656 20.706809997558594
        19.800405502319336 17.93878173828125 16.458633422851562 16.806541442871094 18.28058624267578 18.945892333984375
        19.547103881835938 21.018096923828125 22.479934692382812 22.33039093017578 21.054718017578125 19.281593322753906
        17.65801239013672 16.794334411621094 16.434219360351562 16.458633422851562 16.644798278808594 16.528823852539062
        16.0863037109375 15.707878112792969 15.552230834960938 15.213479042053223 15.024262428283691 15.8909912109375
        17.310096740722656 17.91436767578125 17.65801239013672 17.218544006347656 16.711938858032227 15.576645851135254
        14.181952476501465 13.620407104492188 4.995880126953125 4.904327392578125 4.757835388183594 4.449600696563721
        4.412979602813721 4.5350494384765625 4.4923248291015625 4.797508239746094 5.063019275665283 4.4343414306640625
        4.6174468994140625 5.435348033905029 5.273597717285156 3.3509292602539062 3.2441177368164062 4.504531383514404
        4.678489685058594 4.239021301269531 4.144416809082031 3.875854253768921 3.6347577571868896 4.0711669921875
        4.779197692871094 5.5269012451171875 5.868705749511719 5.804618835449219 6.08843994140625 7.126075744628906
        7.150489807128906 7.708976745605469 8.651999473571777 7.800529479980469 6.213569641113281 7.119964599609375
        8.905303955078125 10.208442687988281 11.020233154296875 11.435287475585938 11.490219116210938 11.502426147460938
        11.624504089355469 11.697747230529785 11.673332214355469 11.593977928161621 11.416975975036621 11.194190979003906
        11.221656799316406 11.404769897460938 11.456649780273438 10.635704040527344 8.810691833496094 8.093505859375
        9.179969787597656 10.611282348632812 10.071106910705566 6.3508992195129395 2.945037841796875 2.8321151733398438
        4.257331848144531 4.5747222900390625 5.288856506347656 6.173896789550781 6.909393310546875 7.4465179443359375
        7.8768310546875 8.191169738769531 8.438369750976562 8.191169738769531 7.296973705291748 7.3824310302734375
        8.377334594726562 9.277626991271973 8.737449645996094 6.753746032714844 5.661186218261719 5.8626017570495605
        6.3386921882629395 5.426192760467529 7.708976745605469 11.874755859375 15.515610694885254 16.385393142700195
        15.378280639648438 15.265358924865723 15.765861511230469 15.723136901855469 15.399642944335938 13.852348327636719
        12.500382423400879 11.581772804260254 8.682518005371094 5.883971691131592 4.135261535644531 2.8412704467773438
        2.893157720565796 3.5798187255859375 2.880950927734375 0.6469955444335938 0.8117904663085938 1.7517625093460083
        2.874847173690796 4.248176574707031 2.4292755126953125 2.798546075820923 3.8117599487304688 5.078278064727783
        6.09454345703125 5.853446960449219 5.807670593261719 6.640830993652344 7.629631042480469 8.581801414489746
        9.445480346679688 10.03753662109375 11.209449768066406 12.958160400390625 14.600052833557129 15.704825401306152
        15.158546447753906 14.197212219238281 14.075133323669434 14.72518253326416 15.765861511230469 17.096466064453125
        18.778038024902344 19.78514862060547 19.9224853515625 20.078123092651367 19.71495819091797 18.451492309570312
        17.239906311035156 16.962188720703125 17.511520385742188 17.92047119140625 18.619338989257812 19.962158203125
        21.176795959472656 20.969268798828125 20.041501998901367 19.074068069458008 18.16767120361328 17.822805404663086
        17.97540283203125 18.33551788330078 18.18903350830078 17.392499923706055 16.37623405456543 15.713981628417969
        15.527816772460938 15.457626342773438 15.8970947265625 17.032379150390625 17.97540283203125 18.25006866455078
        18.04864501953125 17.429122924804688 16.745508193969727 16.15955352783203 15.695672035217285 15.466781616210938
        4.757835388183594 4.6082916259765625 4.5197906494140625 4.379410266876221 4.4465484619140625 4.5899810791015625
        4.641868591308594 5.301063537597656 5.316322326660156 4.4465484619140625 4.327522277832031 4.4496002197265625
        3.4211275577545166 2.5666046142578125 4.0467529296875 4.312263488769531 4.043701171875 4.3855133056640625
        4.4496002197265625 4.370246887207031 4.6021881103515625 5.273597717285156 5.676445007324219 5.97857666015625
        6.213569641113281 6.4272003173828125 6.695762634277344 6.820884704589844 5.877869129180908 5.264442443847656
        5.832084655761719 4.657127380371094 2.5574493408203125 3.4852142333984375 5.5116424560546875 7.464828968048096
        8.664207458496094 9.076202392578125 9.512619018554688 10.492263793945312 11.343727111816406 11.874756813049316
        12.0059814453125 11.960205078125 11.9754638671875 12.0548095703125 12.219612121582031 12.253181457519531
        11.984619140625 11.328468322753906 10.574660301208496 10.428176879882812 10.718101501464844 11.355934143066406
        10.687583923339844 5.825981140136719 1.87384033203125 2.783287286758423 4.739524841308594 5.090484142303467
        5.035552501678467 5.059967041015625 6.09149169921875 7.7242350578308105 8.932769775390625 8.771018981933594
        7.934814453125 7.818840503692627 7.3458027839660645 6.604201793670654 6.4455108642578125 6.6408305168151855
        7.068084716796875 7.5563812255859375 5.96331787109375 5.4475555419921875 5.4445037841796875 4.644920349121094
        5.887023448944092 8.529922485351562 11.664176940917969 13.547164916992188 13.18704891204834 13.986632347106934
        16.107666015625 17.258216857910156 17.67327117919922 16.531875610351562 14.960175514221191 10.898162841796875
        7.260353088378906 5.758842468261719 3.3845064640045166 0.933868408203125 0.912506103515625 1.489303469657898
        1.437423825263977 0.5127105712890625 1.3245010375976562 3.2136001586914062 4.800559997558594 5.3620991706848145
        3.115936279296875 3.7903976440429688 4.870750427246094 5.771049976348877 5.6062469482421875 6.4119415283203125
        6.5797882080078125 6.4149932861328125 6.958221912384033 7.470931529998779 8.0599365234375 8.548233032226562
        9.95513916015625 12.0517578125 13.345742225646973 13.199257850646973 12.125007629394531 12.915435791015625
        14.545120239257812 15.494247436523438 16.568496704101562 17.83501434326172 18.491165161132812 18.704795837402344
        19.098482131958008 19.73326873779297 20.0018310546875 20.068967819213867 19.409774780273438 18.23175811767578
        17.79228973388672 18.433181762695312 19.193092346191406 19.84008026123047 20.572525024414062 20.731224060058594
        20.426040649414062 20.227670669555664 19.9713134765625 19.9957275390625 20.706809997558594 21.662038803100586
        21.143224716186523 20.0079345703125 19.254125595092773 18.439285278320312 17.499313354492188 17.032379150390625
        17.365028381347656 18.15851402282715 18.503372192382812 18.23480987548828 17.566452026367188 16.934722900390625
        16.772972106933594 16.849266052246094 16.962190628051758 17.090364456176758 4.593032360076904 4.440445423126221
        4.275642395019531 4.5381011962890625 4.687644958496094 4.937897205352783 5.084381103515625 5.3926239013671875
        4.995880126953125 4.290900707244873 3.970458984375 3.5981292724609375 2.990814208984375 2.7771835327148438
        4.4984283447265625 4.4465484619140625 3.9124755859375 4.4770660400390625 4.861595153808594 4.864646911621094
        5.087432861328125 5.5696258544921875 5.819878101348877 5.93890380859375 6.01824951171875 6.176948070526123
        6.189155578613281 6.05181884765625 5.337684154510498 4.08642578125 3.2685320377349854 1.96844482421875
        1.2054824829101562 2.03558349609375 3.048797369003296 3.8880615234375 4.5716705322265625 4.709007263183594
        6.140327453613281 8.740501403808594 10.889007568359375 11.880859375 12.02734375 11.828971862792969
        11.9541015625 12.482070922851562 13.064971923828125 13.150428771972656 12.723167419433594 12.146369934082031
        11.783195495605469 11.664176940917969 11.410873413085938 10.769981384277344 8.676414489746094 5.276649475097656
        4.1138916015625 5.4231414794921875 5.92364501953125 5.029449462890625 4.599136829376221 4.6998515129089355
        5.95416259765625 7.7852702140808105 9.247108459472656 9.009063720703125 7.2084736824035645 6.3966827392578125
        6.219673156738281 5.5207977294921875 5.285804748535156 5.795463562011719 6.936859607696533 7.870719909667969
        6.903290271759033 5.6489787101745605 4.4465484619140625 4.5258941650390625 5.169837951660156 7.358009338378906
        9.30509090423584 11.102630615234375 11.569564819335938 12.378311157226562 14.520706176757812 16.901153564453125
        18.31110382080078 18.28058624267578 17.099517822265625 10.950042724609375 6.714073181152344 4.910430908203125
        1.5106658935546875 1.1413955688476562 1.2878799438476562 2.975555419921875 3.2227554321289062 3.057952880859375
        4.07421875 5.255287170410156 6.909392833709717 7.9927978515625 8.227790832519531 8.008056640625
        7.8951416015625 8.642845153808594 8.594009399414062 9.137245178222656 9.198280334472656 7.730339050292969
        7.055877685546875 7.052825927734375 6.921600341796875 6.5675811767578125 7.327491760253906 8.929718017578125
        10.07110595703125 10.01922607421875 9.634696960449219 11.090423583984375 13.251136779785156 14.676353454589844
        16.37012481689453 18.11883544921875 18.652915954589844 18.720054626464844 19.226661682128906 19.626455307006836
        19.76378631591797 20.0811767578125 19.6539249420166 18.750572204589844 18.637657165527344 19.67223358154297
        20.661033630371094 20.938751220703125 21.36295509338379 21.75969886779785 21.71697235107422 21.491134643554688
        21.350746154785156 21.552169799804688 22.19611358642578 22.717979431152344 21.427047729492188 19.9346923828125
        20.0750732421875 20.636619567871094 19.846181869506836 18.485061645507812 17.358924865722656 17.096466064453125
        17.136146545410156 16.559343338012695 15.9154052734375 16.083251953125 16.843162536621094 17.389450073242188
        17.563400268554688 17.587814331054688 4.5319976806640625 4.272590637207031 3.9613037109375 4.4587554931640625
        4.504532337188721 4.4557037353515625 4.461807727813721 4.657127380371094 4.367195129394531 3.9735107421875
        4.336677551269531 4.199348449707031 3.900268793106079 3.9613037109375 4.766990661621094 5.056914806365967
        4.345832824707031 4.3763580322265625 4.962310791015625 4.892120361328125 4.864646911621094 5.160682678222656
        5.4750213623046875 5.804618835449219 5.93890380859375 5.853446960449219 5.679496765136719 5.5543670654296875
        5.224769592285156 4.4709625244140625 3.5920257568359375 2.6123812198638916 2.05084228515625 2.6947860717773438
        3.3906097412109375 2.966399908065796 2.5635528564453125 2.08441162109375 3.958251953125 7.101654052734375
        10.11383056640625 11.755730628967285 12.204353332519531 11.9571533203125 11.822868347167969 12.164680480957031
        12.747581481933594 13.16873836517334 13.217567443847656 12.903228759765625 12.506484985351562 12.128059387207031
        11.578721046447754 10.751670837402344 9.555343627929688 8.676414489746094 8.340705871582031 8.0111083984375
        6.735435485839844 5.261390686035156 5.236976623535156 6.009094715118408 7.089446544647217 8.304084777832031
        9.399703979492188 9.463791847229004 7.193214416503906 4.971466064453125 4.0406494140625 4.055908203125
        5.059967041015625 6.357002258300781 7.486191272735596 8.130134582519531 8.539077758789062 7.9866943359375
        6.271553039550781 5.5848846435546875 6.280708312988281 7.797477722167969 8.822898864746094 10.293891906738281
        11.545150756835938 12.509535789489746 13.730278015136719 16.08935546875 18.23175811767578 19.031341552734375
        18.845176696777344 14.728233337402344 8.383438110351562 3.3448257446289062 0.5645905137062073 1.5778045654296875
        2.6306991577148438 5.017242431640625 6.875823974609375 7.324440002441406 7.113861083984375 7.388534069061279
        9.100616455078125 10.516678810119629 11.850333213806152 10.339668273925781 8.371223449707031 9.436325073242188
        10.769981384277344 11.322364807128906 11.255226135253906 9.167762756347656 7.6021575927734375 7.061981201171875
        6.5675811767578125 5.5604705810546875 5.819878101348877 5.676445484161377 5.804618835449219 6.11285400390625
        6.314277648925781 7.480086803436279 9.570601463317871 12.167732238769531 14.877776145935059 16.812644958496094
        17.73430633544922 18.436233520507812 19.260231018066406 19.363990783691406 18.823816299438477 18.427078247070312
        18.28363609313965 18.25312042236328 18.378250122070312 19.348731994628906 20.905181884765625 21.338539123535156
        21.472824096679688 21.95501708984375 22.04046630859375 21.454513549804688 21.356849670410156 21.93365478515625
        22.30597496032715 22.10455322265625 20.648826599121094 19.186986923217773 19.196144104003906 19.67223358154297
        18.781089782714844 17.496261596679688 16.696678161621094 16.559341430664062 16.49525260925293 16.0557861328125
        15.826896667480469 16.18701934814453 16.943876266479492 17.51762580871582 17.398605346679688 17.340614318847656
        4.458755970001221 4.129158020019531 3.9002685546875 4.217658996582031 4.156623840332031 4.043701171875
        4.208503723144531 4.4465484619140625 4.318367004394531 3.994873046875 4.5655670166015625 4.666282653808594
        4.4404449462890625 4.5289459228515625 4.837181091308594 5.5177459716796875 4.5808258056640625 3.6988449096679688
        4.324470520019531 4.4770660400390625 4.5747222900390625 4.910431385040283 5.221717834472656 5.688652038574219
        5.902282238006592 5.645927429199219 5.3987274169921875 5.343787670135498 5.078277587890625 4.837181091308594
        4.394669055938721 3.4363858699798584 2.5452423095703125 2.966400146484375 3.7171554565429688 3.2959976196289062
        2.7039413452148438 2.11492919921875 4.132209777832031 6.933807373046875 9.95208740234375 11.694694519042969
        12.347785949707031 12.433243751525879 12.207405090332031 12.143318176269531 12.469863891601562 13.095489501953125
        13.412887573242188 13.26639461517334 12.945953369140625 12.417984008789062 11.655021667480469 10.989715576171875
        10.284736633300781 9.289834022521973 8.359016418457031 7.91650390625 7.498398303985596 7.193214416503906
        7.434310436248779 7.638786315917969 7.663200378417969 7.788322448730469 8.0233154296875 8.020264625549316
        5.98162841796875 4.031494140625 3.2410659790039062 4.290900707244873 5.633720397949219 7.055877685546875
        7.809685230255127 7.9775390625 9.411911010742188 10.507522583007812 10.08941650390625 8.688621520996094
        8.764915466308594 8.691673278808594 8.896148681640625 10.330513000488281 12.265387535095215 14.242988586425781
        15.561386108398438 16.895051956176758 18.28974151611328 19.360939025878906 19.516586303710938 18.643760681152344
        12.84218692779541 3.4180755615234375 0.7354965209960938 2.09051513671875 3.98876953125 6.283760070800781
        8.337654113769531 9.448532104492188 9.744560241699219 10.04669189453125 10.550247192382812 11.252174377441406
        11.935791015625 9.070098876953125 6.4973907470703125 7.638786315917969 9.89715576171875 11.334571838378906
        11.432235717773438 9.021269798278809 7.055877685546875 6.662193298339844 6.765953063964844 5.893127918243408
        5.005035877227783 4.971466064453125 4.0711669921875 3.7232589721679688 4.156623840332031 4.962311267852783
        6.149482727050781 8.764915466308594 12.1158447265625 14.505446434020996 15.945921897888184 17.221595764160156
        17.78618621826172 17.74651336669922 17.78618621826172 18.29584312438965 18.967254638671875 19.17783546447754
        18.869590759277344 19.043548583984375 19.70275115966797 19.794301986694336 20.1055908203125 20.1971492767334
        19.62340545654297 19.455551147460938 20.28565216064453 21.036405563354492 21.546066284179688 21.62541961669922
        20.819725036621094 19.693593978881836 19.009979248046875 18.55219841003418 17.600021362304688 16.998809814453125
        17.276525497436523 17.91436767578125 18.37824821472168 18.15851593017578 17.471847534179688 17.026275634765625
        16.86757469177246 16.461685180664062 16.22058868408203 16.779075622558594 4.318367004394531 4.0406494140625
        4.104736328125 4.272590637207031 4.141364574432373 3.958252191543579 4.321418762207031 4.3885650634765625
        4.4892730712890625 4.6021881103515625 4.983673095703125 4.8219218254089355 4.4526519775390625 4.504532337188721
        4.901275634765625 5.1667866706848145 4.0223388671875 3.2166519165039062 3.7018964290618896 4.297004699707031
        4.681541442871094 4.864646911621094 4.950103759765625 5.218666076660156 5.362098693847656 5.218666076660156
        5.2583394050598145 5.313270568847656 5.066070556640625 4.791404724121094 4.4709625244140625 3.8514328002929688
        3.115936279296875 3.1647722721099854 3.5615079402923584 3.5340423583984375 3.6194913387298584 3.833122491836548
        5.133216381072998 6.5645294189453125 8.880889892578125 10.614333152770996 11.587875366210938 12.125006675720215
        12.271492004394531 12.439346313476562 12.80556583404541 13.357948303222656 13.678398132324219 13.589890480041504
        13.394576072692871 12.790306091308594 11.813713073730469 11.056854248046875 10.776084899902344 10.461746215820312
        9.677421569824219 8.764915466308594 8.139289855957031 7.9989013671875 7.9256591796875 7.037567615509033
        6.271553039550781 5.673393249511719 5.041656494140625 4.669334411621094 4.0650634765625 4.184089660644531
        4.4923248291015625 5.4231414794921875 6.146430969238281 7.486191272735596 8.270515441894531 7.5716400146484375
        8.743553161621094 10.348823547363281 11.386460304260254 11.362037658691406 11.322364807128906 9.518722534179688
        8.124031066894531 9.433273315429688 11.9937744140625 14.877777099609375 17.542037963867188 19.049652099609375
        19.28464698791504 19.571517944335938 20.16358184814453 19.9407958984375 18.33246612548828 9.653007507324219
        1.6541061401367188 1.1963272094726562 2.932830810546875 4.974517822265625 6.6743998527526855 8.673362731933594
        10.708946228027344 12.0731201171875 12.1005859375 11.30710506439209 9.866629600524902 7.2695088386535645
        6.06707763671875 6.808677673339844 8.566543579101562 10.257271766662598 10.519729614257812 7.7974772453308105
        5.706962585449219 5.810722351074219 6.637779235839844 7.1871113777160645 4.995880126953125 3.4546966552734375
        3.8544845581054688 3.4821622371673584 3.7629318237304688 4.5289459228515625 5.020294189453125 6.216620922088623
        8.450576782226562 10.776084899902344 12.710960388183594 14.917449951171875 16.15039825439453 16.986602783203125
        18.06390380859375 19.528793334960938 20.419939041137695 20.0506591796875 19.208351135253906 18.741416931152344
        18.54304313659668 19.019134521484375 20.041505813598633 19.962158203125 18.866539001464844 18.717002868652344
        19.7119083404541 20.21546173095703 20.880767822265625 21.70171356201172 21.83293914794922 20.954010009765625
        19.71800994873047 18.686485290527344 18.00286865234375 17.97540283203125 18.689537048339844 19.412824630737305
        19.556259155273438 18.915376663208008 17.97540283203125 17.471847534179688 17.212440490722656 16.870628356933594
        16.879791259765625 17.230751037597656 4.0772705078125 4.0040283203125 4.4007720947265625 4.5228424072265625
        4.5289459228515625 4.507583141326904 4.3885650634765625 4.0223388671875 4.193244934082031 4.4953765869140625
        4.785301208496094 4.638816833496094 4.290901184082031 4.348884582519531 4.6113433837890625 4.300056457519531
        3.3539810180664062 3.3173599243164062 3.6225509643554688 4.168830871582031 4.800559997558594 4.834129333496094
        4.727317810058594 4.892120361328125 5.108795166015625 5.127112865447998 5.026397705078125 4.925689697265625
        4.754783630371094 4.486220836639404 3.8361740112304688 3.2288589477539062 3.100677490234375 3.3143081665039062
        3.5645599365234375 3.8605880737304688 4.4648590087890625 5.050811290740967 5.4994354248046875 5.087432861328125
        5.4109344482421875 7.242042541503906 9.164710998535156 10.895111083984375 12.0487060546875 12.717063903808594
        13.174842834472656 13.571578979492188 13.91949462890625 13.87982177734375 13.538009643554688 12.839134216308594
        11.8900146484375 11.386458396911621 11.746575355529785 12.207405090332031 12.0914306640625 11.081268310546875
        9.628593444824219 9.216590881347656 9.088409423828125 8.1026611328125 6.06402587890625 4.159675598144531
        3.176978826522827 2.8656845092773438 3.1617202758789062 4.6021881103515625 5.5299530029296875 5.91143798828125
        6.6194610595703125 7.589950084686279 8.508560180664062 7.510604381561279 7.5228118896484375 8.532974243164062
        10.11383056640625 11.429183959960938 12.137213706970215 10.379348754882812 8.227790832519531 8.767967224121094
        11.072113990783691 13.238929748535156 16.464736938476562 19.074066162109375 19.092376708984375 18.637657165527344
        19.190040588378906 19.76073455810547 19.641714096069336 15.753654479980469 4.4709625244140625 2.5879669189453125
        1.5900115966796875 3.347877264022827 5.789360046386719 8.188117980957031 10.370184898376465 12.216560363769531
        12.649925231933594 10.925628662109375 7.770011901855469 6.08843994140625 6.4912872314453125 6.897185802459717
        7.003997802734375 7.1260762214660645 7.019256591796875 5.655082702636719 5.240028381347656 5.706962585449219
        6.5034942626953125 7.370216369628906 6.5095977783203125 3.5004730224609375 3.097625732421875 3.021331787109375
        3.4882659912109375 4.4862213134765625 5.203406810760498 5.688652038574219 5.941956043243408 7.171851634979248
        9.381393432617188 12.054808616638184 14.090392112731934 16.107666015625 18.16156768798828 19.96826171875
        20.25818634033203 19.067962646484375 17.91741943359375 17.575607299804688 18.10052490234375 19.67223358154297
        20.892972946166992 20.33142852783203 18.744468688964844 18.13715362548828 18.717002868652344 18.970306396484375
        19.64781951904297 21.057771682739258 21.85430145263672 20.975372314453125 19.65697479248047 19.412824630737305
        20.23987579345703 20.834983825683594 21.054718017578125 20.944854736328125 20.13611602783203 18.951993942260742
        18.19208526611328 18.11578369140625 18.393508911132812 18.482009887695312 18.27143096923828 17.78923797607422
        3.7629318237304688 4.0650634765625 4.4282379150390625 4.782249450683594 5.063018798828125 5.029449462890625
        4.608291149139404 4.141365051269531 4.0711669921875 4.2634358406066895 4.367195129394531 4.184089660644531
        3.96435546875 4.4801177978515625 4.882964611053467 4.281745910644531 3.4302825927734375 3.7812423706054688
        4.4099273681640625 4.153572082519531 4.687644958496094 4.861595153808594 4.709007263183594 4.913482666015625
        5.124061584472656 5.105743408203125 4.742576599121094 4.345832824707031 4.11083984375 3.9124755859375
        3.5798187255859375 3.3722991943359375 3.3448257446289062 3.3875577449798584 3.7598800659179688 4.278694152832031
        4.5716705322265625 4.815818786621094 5.145423889160156 4.818870544433594 3.7965011596679688 3.8178634643554688
        5.902283191680908 9.024322509765625 11.529891967773438 12.744529724121094 13.293861389160156 13.519698143005371
        13.687554359436035 13.715019226074219 13.568527221679688 13.205361366271973 12.540055274963379 12.125006675720215
        12.186042785644531 12.485122680664062 12.64382266998291 12.057861328125 11.011077880859375 11.276588439941406
        12.622459411621094 13.708916664123535 11.423081398010254 6.5980987548828125 3.6683270931243896 2.5727083683013916
        3.054901123046875 4.748680114746094 5.313270568847656 5.856498718261719 6.778160572052002 7.669303894042969
        8.587905883789062 8.270515441894531 7.348854064941406 7.168800354003906 8.502457618713379 9.97955322265625
        11.386459350585938 11.230812072753906 9.747611999511719 8.804588317871094 10.672325134277344 11.899169921875
        14.514602661132812 17.026275634765625 17.75261688232422 17.493209838867188 17.596969604492188 18.765830993652344
        19.15647315979004 18.839073181152344 12.262336730957031 3.2532730102539062 1.3092422485351562 3.2715837955474854
        7.208473205566406 9.94293212890625 10.837120056152344 11.108734130859375 10.943939208984375 9.732353210449219
        7.5258636474609375 5.703910827636719 5.4719696044921875 5.838188171386719 5.124061584472656 3.5859222412109375
        2.945037841796875 3.900268316268921 5.624565124511719 6.363105773925781 6.5797882080078125 6.949066162109375
        6.5462188720703125 4.495376110076904 3.9185791015625 3.8300704956054688 4.159675598144531 4.968414306640625
        5.5940399169921875 5.816825866699219 5.273597717285156 4.886016845703125 6.186103820800781 8.569595336914062
        11.288795471191406 14.279610633850098 17.160560607910156 18.475906372070312 17.94793701171875 17.117828369140625
        17.270423889160156 17.90216064453125 18.646812438964844 19.74547576904297 20.0811767578125 19.473861694335938
        18.665122985839844 18.26227569580078 18.62544822692871 19.296852111816406 19.69359588623047 19.888916015625
        19.79125213623047 19.067962646484375 18.488113403320312 19.46470832824707 21.558273315429688 22.60505485534668
        22.25409698486328 21.558273315429688 20.694602966308594 19.77904510498047 19.217506408691406 19.202245712280273
        19.400619506835938 19.382308959960938 18.961151123046875 18.07000732421875 3.6286544799804688 4.245124816894531
        4.3763580322265625 4.712059020996094 5.038604736328125 4.843284606933594 4.5991363525390625 4.4740142822265625
        4.333625793457031 4.245124816894531 4.181037902832031 3.9307861328125 3.9490966796875 4.5991363525390625
        4.852439880371094 4.3855133056640625 4.126106262207031 4.327522277832031 4.8066630363464355 4.828025817871094
        4.324470520019531 4.6021881103515625 4.831077575683594 5.2766499519348145 5.4170379638671875 5.291908264160156
        4.791404724121094 4.150520324707031 3.9796142578125 4.0406494140625 3.9918212890625 3.7842941284179688
        3.4119720458984375 3.2166519165039062 3.6042327880859375 4.239021301269531 4.5686187744140625 4.4190826416015625
        3.897216796875 3.5798187255859375 3.4699554443359375 3.5431976318359375 4.358039855957031 6.442458629608154
        9.448532104492188 11.645866394042969 12.961212158203125 13.501388549804688 13.461716651916504 13.336586952209473
        13.388473510742188 13.592942237854004 13.647880554199219 13.321327209472656 12.332527160644531 11.365089416503906
        10.843222618103027 10.519729614257812 10.412918090820312 11.719108581542969 13.806571960449219 14.578689575195312
        14.319282531738281 10.937835693359375 5.307166576385498 3.2715835571289062 3.4516448974609375 4.0711669921875
        4.4831695556640625 5.829032897949219 6.796470642089844 7.580794811248779 8.435317993164062 8.996856689453125
        8.0782470703125 7.199317932128906 8.325446128845215 9.634696960449219 11.218605041503906 12.11279296875
        11.062957763671875 8.813743591308594 10.565505981445312 12.054810523986816 14.389480590820312 16.17481231689453
        17.334510803222656 17.578659057617188 17.252113342285156 17.67937469482422 18.805503845214844 19.363990783691406
        18.860435485839844 12.436294555664062 4.5075836181640625 3.830070734024048 7.599106311798096 10.669273376464844
        11.319313049316406 10.333564758300781 9.128089904785156 8.627586364746094 8.246101379394531 6.802574157714844
        4.623558044433594 4.06201171875 3.8117597103118896 3.091522216796875 3.326514959335327 4.898223876953125
        6.350898742675781 6.854454040527344 6.7812113761901855 6.5889434814453125 6.00299072265625 5.136268615722656
        4.779197692871094 4.4373931884765625 4.5381011962890625 5.169837951660156 5.224769592285156 5.368202209472656
        5.4231414794921875 4.126106262207031 4.162727355957031 6.167793273925781 9.189125061035156 12.619400024414062
        15.695671081542969 16.425064086914062 15.851310729980469 16.24500274658203 17.76787567138672 18.848228454589844
        19.043548583984375 19.144264221191406 19.351783752441406 19.476913452148438 19.446395874023438 19.272438049316406
        19.66918182373047 20.645774841308594 20.31006622314453 19.504379272460938 19.479965209960938 19.580673217773438
        19.479965209960938 19.8828125 21.005889892578125 21.70476531982422 21.124916076660156 20.21546173095703
        19.672231674194336 19.547103881835938 19.67528533935547 19.9041748046875 20.06591796875 20.053709030151367
        19.68138885498047 18.808555603027344 3.9429931640625 4.242073059082031 4.190193176269531 4.330574035644531
        4.675438404083252 4.699851989746094 4.5899810791015625 4.5381011962890625 4.4068756103515625 4.333625793457031
        4.370246887207031 4.2451252937316895 4.354988098144531 4.815818786621094 4.727317810058594 4.391617298126221
        4.5472564697265625 4.812767028808594 4.879913330078125 4.7730937004089355 3.8087081909179688 3.7018966674804688
        4.257331848144531 4.937896728515625 4.995880126953125 4.577773571014404 4.263435363769531 3.946044921875
        3.933837890625 4.055908203125 4.0284423828125 3.7659835815429688 3.3661880493164062 3.112884521484375
        3.1647720336914062 3.6744308471679688 4.4465484619140625 4.702903747558594 4.0711669921875 3.2959976196289062
        3.6042327880859375 4.0894775390625 4.0009765625 4.007080078125 6.152534484863281 9.668266296386719
        12.302009582519531 13.278602600097656 13.318275451660156 13.174842834472656 13.27860164642334 13.653984069824219
        14.06292724609375 14.01104736328125 12.921539306640625 11.413925170898438 10.187080383300781 9.497360229492188
        9.274574279785156 10.367134094238281 11.9693603515625 12.875762939453125 13.800467491149902 14.487136840820312
        15.027313232421875 12.317268371582031 5.252235412597656 2.4353790283203125 3.8178634643554688 6.01214599609375
        6.781211853027344 7.327491283416748 8.020263671875 8.822898864746094 8.438369750976562 7.5746917724609375
        8.636741638183594 9.833061218261719 11.261329650878906 12.0670166015625 10.803549766540527 8.111817359924316
        9.576704978942871 11.301003456115723 14.10565185546875 16.046630859375 17.621383666992188 18.652915954589844
        18.457595825195312 17.557296752929688 17.648855209350586 18.796348571777344 19.412826538085938 18.78719139099121
        13.660087585449219 8.413955688476562 8.136238098144531 8.566543579101562 9.796440124511719 10.400711059570312
        9.927672386169434 9.118927001953125 8.383438110351562 7.855461120605469 5.749687194824219 3.3509292602539062
        2.8626327514648438 2.938934326171875 3.942993402481079 5.697807312011719 6.860557556152344 7.080291748046875
        6.915496349334717 6.6072540283203125 6.097594738006592 5.645927429199219 5.032501220703125 4.1016845703125
        3.5248870849609375 4.165779113769531 4.11083984375 4.254280090332031 4.6082916259765625 3.6683273315429688
        3.5401458740234375 5.5696258544921875 8.728294372558594 11.890013694763184 13.580733299255371 13.315224647521973
        13.785209655761719 15.869621276855469 18.09136962890625 19.031341552734375 19.214454650878906 19.248022079467773
        19.59898567199707 19.772939682006836 19.9224853515625 20.34363555908203 20.578628540039062 20.389419555664062
        19.608139038085938 19.54100227355957 20.374162673950195 21.234779357910156 21.524703979492188 21.015043258666992
        20.33448028564453 19.8004093170166 18.680381774902344 17.566452026367188 17.334508895874023 17.966245651245117
        19.061859130859375 20.072021484375 20.783103942871094 21.069976806640625 20.764793395996094 20.1177978515625
        4.193244934082031 4.275642395019531 4.156623840332031 4.217658996582031 4.358039855957031 4.4892730712890625
        4.5594635009765625 4.5564117431640625 4.4770660400390625 4.5838775634765625 4.5655670166015625 4.245124816894531
        4.4770660400390625 4.773094177246094 4.5594635009765625 4.4007720947265625 4.678489685058594 4.812767028808594
        4.901275634765625 4.886016845703125 4.300056457519531 3.5035247802734375 3.4272308349609375 4.116943359375
        4.5258941650390625 4.300056457519531 4.272590637207031 4.312263488769531 4.309211730957031 4.257331848144531
        4.0406494140625 3.5981290340423584 3.3143081665039062 3.1495132446289062 3.033538579940796 3.4791104793548584
        4.5045318603515625 5.093536376953125 4.657127380371094 3.6683273315429688 3.7720870971679688 3.976562261581421
        3.7995529174804688 3.2746353149414062 4.019287109375 7.473984241485596 10.956146240234375 12.381362915039062
        12.820823669433594 12.781149864196777 12.775047302246094 13.010040283203125 13.330483436584473 13.428146362304688
        13.12296199798584 12.436293601989746 11.600082397460938 10.531936645507812 9.231849670410156 8.737449645996094
        9.469894409179688 10.910369873046875 13.049714088439941 14.661094665527344 15.457627296447754 10.901215553283691
        4.284797668457031 2.960296630859375 4.263435363769531 6.253242492675781 7.196266174316406 7.733390808105469
        7.9256591796875 8.151496887207031 8.0843505859375 7.312232494354248 7.913451671600342 8.651999473571777
        9.604172706604004 10.400711059570312 9.640800476074219 6.930755615234375 7.5502777099609375 7.745597839355469
        10.02838134765625 12.955108642578125 15.555282592773438 17.65496253967285 18.44843864440918 17.603073120117188
        16.861473083496094 17.450485229492188 18.13715362548828 18.31110382080078 17.526779174804688 15.604110717773438
        12.222663879394531 6.857506275177002 6.8697123527526855 9.634696960449219 11.096527099609375 10.324409484863281
        8.465835571289062 6.970428466796875 6.4424591064453125 4.763938903808594 3.289893865585327 2.7192001342773438
        3.353980779647827 5.273597717285156 6.784263610839844 7.269508361816406 7.251197814941406 6.961273193359375
        6.704917907714844 6.350898742675781 5.362098693847656 4.034546375274658 2.4933624267578125 2.2736284732818604
        3.054901123046875 3.662224054336548 4.0162353515625 4.171882152557373 4.669334411621094 6.256294250488281
        8.636741638183594 9.95819091796875 9.265419006347656 9.497360229492188 11.709953308105469 14.749595642089844
        16.968292236328125 17.82280921936035 18.515579223632812 19.031341552734375 19.339576721191406 19.70580291748047
        20.572525024414062 21.530807495117188 21.127967834472656 20.27649688720703 20.105588912963867 20.511489868164062
        20.972320556640625 21.65593910217285 22.376174926757812 21.90008544921875 20.777000427246094 19.76988983154297
        18.524736404418945 17.429122924804688 17.404708862304688 18.21955108642578 19.418930053710938 20.673240661621094
        21.622360229492188 21.93060302734375 21.63457489013672 21.179847717285156 4.132209777832031 4.205451488494873
        4.199348449707031 4.229866027832031 4.321418762207031 4.3733062744140625 4.4160308837890625 4.4282379150390625
        4.4160308837890625 4.5625152587890625 4.4923248291015625 4.266487121582031 4.4953765869140625 4.5106353759765625
        4.278694152832031 4.315315246582031 4.4953765869140625 4.5167388916015625 4.5411529541015625 4.5258941650390625
        4.358039855957031 3.6011810302734375 2.948089599609375 3.2441177368164062 3.881958246231079 4.132209777832031
        4.348884582519531 4.5258941650390625 4.5045318603515625 4.220710754394531 3.7354660034179688 3.3570327758789062
        3.170875310897827 3.1891863346099854 3.4180755615234375 3.91552734375 4.605240345001221 5.178993225097656
        5.218666076660156 4.635765075683594 4.208503723144531 3.4943695068359375 3.2013931274414062 2.978607177734375
        3.7934494018554688 5.795463562011719 8.764915466308594 10.907318115234375 12.143318176269531 12.457656860351562
        12.399673461914062 12.430191040039062 12.344734191894531 12.259284973144531 12.427140235900879 12.76284122467041
        12.997833251953125 12.488174438476562 10.568557739257812 8.044677734375 7.8249430656433105 9.97039794921875
        12.457656860351562 13.711966514587402 13.342689514160156 8.75576114654541 5.764945983886719 5.273597717285156
        5.719169616699219 6.997894287109375 8.081298828125 8.664206504821777 8.517715454101562 7.824943542480469
        7.5991058349609375 6.817833423614502 6.765953063964844 7.129127502441406 7.4312591552734375 8.383438110351562
        8.612319946289062 5.688652038574219 5.5696258544921875 4.919586181640625 5.075225830078125 7.266456604003906
        9.512619018554688 11.716057777404785 14.148384094238281 15.573593139648438 15.640739440917969 15.237892150878906
        15.219582557678223 15.683464050292969 16.406753540039062 16.815696716308594 15.259254455566406 9.555343627929688
        6.836143493652344 8.716086387634277 11.233863830566406 11.96630859375 10.724204063415527 8.661155700683594
        7.583847522735596 7.095550537109375 6.860557556152344 3.885009765625 3.3967132568359375 4.886017322540283
        6.3753204345703125 7.089447021484375 7.3732757568359375 7.159644603729248 7.031464099884033 6.769004821777344
        5.966370105743408 5.099639892578125 3.1983413696289062 1.91351318359375 2.4811553955078125 4.272590637207031
        5.288856506347656 5.945006847381592 6.521805286407471 7.2359395027160645 7.953124523162842 6.921600341796875
        6.10675048828125 8.08740234375 10.754722595214844 12.765892028808594 14.368111610412598 16.19312286376953
        17.78618621826172 18.771934509277344 19.116790771484375 19.74242401123047 20.75258445739746 20.3710994720459
        19.342628479003906 19.531845092773438 20.36499786376953 20.749534606933594 20.926544189453125 21.414840698242188
        21.948915481567383 21.533859252929688 20.624412536621094 20.072021484375 19.9346923828125 19.62950897216797
        19.336524963378906 19.534896850585938 20.3344783782959 21.143226623535156 21.71086883544922 21.936708450317383
        21.90924072265625 21.65593719482422 4.0650634765625 4.068115234375 4.141365051269531 4.184089660644531
        4.232917785644531 4.205451965332031 4.214607238769531 4.242073059082031 4.3031086921691895 4.4007720947265625
        4.199348449707031 4.0955810546875 4.3946685791015625 4.4282379150390625 4.269538879394531 4.364143371582031
        4.229866027832031 4.2756428718566895 4.4557037353515625 4.623558044433594 4.3794097900390625 3.7995529174804688
        3.1708755493164062 3.079315185546875 3.3875577449798584 4.007080078125 4.364143371582031 4.4099273681640625
        4.3977203369140625 4.217658996582031 3.7751388549804688 3.4791107177734375 3.2624285221099854 3.3112564086914062
        3.677482843399048 4.156623840332031 4.367195129394531 4.5869293212890625 5.032501220703125 5.139319896697998
        4.681541442871094 3.8483810424804688 3.723259210586548 3.1464614868164062 3.5615081787109375 4.4099273681640625
        6.231879711151123 9.012115478515625 11.584823608398438 12.857444763183594 13.064971923828125 12.631614685058594
        11.9052734375 11.389511108398438 11.636711120605469 12.488174438476562 13.23892879486084 13.208412170410156
        12.152473449707031 9.95513916015625 8.615372657775879 9.503463745117188 11.145363807678223 12.0548095703125
        11.517684936523438 8.310188293457031 5.420090198516846 4.657127380371094 6.11285400390625 7.589950084686279
        8.664207458496094 9.234902381896973 9.295936584472656 7.898193359375 7.2054219245910645 6.692710876464844
        6.149482727050781 6.253242492675781 6.4882354736328125 7.4007415771484375 8.0477294921875 6.03350830078125
        4.672386169433594 4.742576599121094 4.5716705322265625 5.4597625732421875 5.597092151641846 5.355995178222656
        7.177955627441406 10.690635681152344 12.997833251953125 12.656028747558594 11.261329650878906 11.511580467224121
        13.467818260192871 15.109711647033691 15.28061580657959 13.092437744140625 10.260322570800781 9.625541687011719
        11.136207580566406 12.561416625976562 12.924591064453125 12.558363914489746 11.996826171875 11.267433166503906
        9.537033081054688 5.865653991699219 5.4445037841796875 7.003997802734375 8.218635559082031 8.655052185058594
        8.578750610351562 7.852409362792969 7.296973705291748 6.7995219230651855 6.167793273925781 6.250190258026123
        6.183052062988281 4.007080078125 2.5543973445892334 3.4913177490234375 5.288856506347656 7.061980724334717
        8.230842590332031 8.404800415039062 7.211524486541748 5.2583394050598145 5.5848846435546875 7.904297351837158
        9.839165687561035 10.818809509277344 12.363044738769531 15.289772033691406 17.447433471679688 18.07916259765625
        18.06695556640625 18.543045043945312 18.680381774902344 17.487106323242188 17.310096740722656 18.732261657714844
        20.27344512939453 21.076082229614258 21.628469467163086 22.016054153442383 22.26325225830078 22.47077751159668
        22.507400512695312 22.01300048828125 21.167640686035156 20.542009353637695 19.84008026123047 19.550155639648438
        20.197153091430664 20.880767822265625 21.347694396972656 21.65288543701172 21.67119598388672 21.317176818847656
        3.930785894393921 3.885009765625 3.8697431087493896 3.8941650390625 3.9979248046875 4.092529296875
        4.123054504394531 4.104736328125 4.0894775390625 3.98876953125 3.6866378784179688 3.659172296524048
        4.113892078399658 4.5167388916015625 4.4984283447265625 4.5655670166015625 4.3946685791015625 4.3733062744140625
        4.4953765869140625 4.5991363525390625 4.196296215057373 3.7873458862304688 3.5859222412109375 3.769035577774048
        3.9185791015625 4.284797668457031 4.5381011962890625 4.5747222900390625 4.757835388183594 4.937897205352783
        4.309211730957031 3.5187838077545166 3.6072843074798584 3.939941167831421 3.8453292846679688 3.9246826171875
        3.87890625 4.055908203125 4.782249450683594 5.3865203857421875 5.212562561035156 4.5899810791015625
        4.333625793457031 3.7018966674804688 3.7507247924804688 4.754783630371094 6.637779235839844 8.633689880371094
        11.307106018066406 13.107696533203125 13.660088539123535 13.165687561035156 12.198249816894531 11.37119197845459
        11.502426147460938 12.344734191894531 13.113800048828125 13.232826232910156 12.62551212310791 11.365089416503906
        9.949036598205566 9.234901428222656 9.524826049804688 10.367134094238281 10.02838134765625 6.955169677734375
        4.626609802246094 5.081329345703125 6.5919952392578125 7.5502777099609375 8.511611938476562 9.387496948242188
        9.88189697265625 8.01416015625 6.714073181152344 6.820884704589844 6.204414367675781 5.871757984161377
        6.216621398925781 6.869712829589844 7.5594329833984375 7.736442565917969 5.954163074493408 5.307167053222656
        6.198310852050781 7.654045104980469 7.5441741943359375 4.184089660644531 2.7527694702148438 5.609299182891846
        9.820854187011719 11.642815589904785 10.626548767089844 9.262367248535156 10.364081382751465 12.845237731933594
        14.529861450195312 14.664145469665527 12.921539306640625 11.130104064941406 10.815757751464844 11.401718139648438
        12.204352378845215 13.165687561035156 13.806571006774902 13.278602600097656 10.901214599609375 7.226783752441406
        6.2257771492004395 7.409897327423096 9.515670776367188 11.035491943359375 11.441391944885254 10.797447204589844
        9.726249694824219 8.484146118164062 6.707969665527344 6.765953063964844 7.953125 7.763908386230469
        5.761894226074219 4.321418762207031 4.980621337890625 7.171851634979248 8.224738121032715 7.687614440917969
        6.192207336425781 4.910431385040283 5.288856506347656 6.384476184844971 7.4160003662109375 8.822898864746094
        11.337623596191406 14.548171043395996 16.571548461914062 16.730249404907227 16.21753692626953 15.652946472167969
        14.471878051757812 14.218574523925781 15.9337158203125 18.686485290527344 20.831932067871094 21.95806884765625
        22.632530212402344 22.782066345214844 23.014009475708008 24.0638427734375 24.546035766601562 23.319190979003906
        20.981475830078125 19.376203536987305 18.698692321777344 18.18903350830078 18.717004776000977 20.0567626953125
        21.094390869140625 21.503341674804688 21.39348030090332 20.889925003051758 3.5828702449798584 3.5584564208984375
        3.4669036865234375 3.5126800537109375 3.7018964290618896 3.921630859375 4.0284423828125 4.0284423828125
        3.9735107421875 3.7690353393554688 3.5431978702545166 3.5523529052734375 4.0162353515625 4.5960845947265625
        4.663230895996094 4.4801177978515625 4.2603840827941895 4.4923248291015625 4.660179138183594 4.4831695556640625
        4.129158020019531 3.9307861328125 4.0955810546875 4.6021881103515625 4.788352966308594 4.858543395996094
        5.047760009765625 5.081329345703125 5.178993225097656 5.038604736328125 4.0009765625 3.5035247802734375
        4.5197906494140625 5.038604259490967 4.1199951171875 3.6011810302734375 3.4607999324798584 3.753776788711548
        4.5075836181640625 5.365150451660156 5.804618835449219 5.5146942138671875 4.831077575683594 4.144416809082031
        4.205451965332031 5.655082702636719 7.727287292480469 9.323403358459473 11.270484924316406 12.628562927246094
        13.318275451660156 13.260292053222656 12.668235778808594 11.923583984375 11.755729675292969 12.021240234375
        12.393569946289062 12.720115661621094 12.668235778808594 12.186042785644531 11.29489803314209 10.02227783203125
        9.137245178222656 8.996855735778809 8.001953125 6.567580699920654 6.869712829589844 7.348854064941406
        7.3213887214660645 7.110809326171875 7.861564636230469 9.137245178222656 9.860526084899902 7.800529479980469
        6.094543933868408 6.524857044219971 6.2471394538879395 5.87481689453125 6.2166218757629395 6.476028919219971
        6.796471118927002 7.9775390625 7.4312591552734375 5.853446960449219 6.274604797363281 7.678459167480469
        9.93377685546875 8.426162719726562 3.8209152221679688 2.8473739624023438 5.813774585723877 9.723197937011719
        11.789299011230469 10.889007568359375 9.622489929199219 10.748619079589844 13.006987571716309 14.490188598632812
        14.285713195800781 12.347784996032715 10.330513954162598 9.640800476074219 10.419021606445312 11.648918151855469
        12.887969970703125 13.830986022949219 14.142280578613281 12.643820762634277 8.1148681640625 4.5869293212890625
        6.277656555175781 9.237953186035156 11.423079490661621 12.454605102539062 12.408828735351562 11.120941162109375
        7.6540446281433105 7.031463623046875 8.935821533203125 10.525833129882812 10.440383911132812 8.566543579101562
        6.769005298614502 6.790367126464844 5.7802042961120605 4.4679107666015625 3.6530685424804688 3.1861345767974854
        3.6591720581054688 3.875854730606079 4.4862213134765625 6.991791248321533 10.745567321777344 13.544113159179688
        14.600052833557129 14.905242919921875 14.966278076171875 13.333534240722656 10.937835693359375 11.661125183105469
        15.045622825622559 19.312110900878906 22.006898880004883 22.373125076293945 21.280553817749023 19.98046875
        19.69054412841797 20.590835571289062 21.173744201660156 21.118804931640625 20.01708984375 18.524736404418945
        17.56035041809082 17.130043029785156 18.00592041015625 19.64476776123047 20.584732055664062 20.883819580078125
        21.045562744140625 21.195106506347656 2.932831048965454 3.091522455215454 3.1434097290039062 3.2593765258789062
        3.4180755615234375 3.5767669677734375 3.7781903743743896 3.9307861328125 3.8453292846679688 3.6256027221679688
        3.6225509643554688 3.8270187377929688 4.144416809082031 4.3763580322265625 4.321418762207031 4.156623840332031
        4.1199951171875 4.351936340332031 4.263435363769531 4.016234874725342 3.8605880737304688 3.9124755859375
        4.239021301269531 4.675437927246094 4.858543395996094 4.928741455078125 4.995880126953125 4.895172595977783
        4.626610279083252 4.297004699707031 3.8087081909179688 4.055908203125 5.310218811035156 5.584884166717529
        4.309211254119873 3.3906099796295166 3.2044451236724854 3.4852139949798584 4.007080078125 4.849388122558594
        5.810722351074219 6.146430969238281 5.313270568847656 4.306159973144531 4.797508239746094 6.933807849884033
        8.468888282775879 10.03143310546875 11.432235717773438 12.393569946289062 13.016144752502441 13.068023681640625
        12.869651794433594 12.677391052246094 12.537002563476562 12.427138328552246 12.479019165039062 12.897125244140625
        13.165688514709473 13.119903564453125 12.674338340759277 11.703848838806152 10.589920043945312 8.917511940002441
        6.839195251464844 6.964324951171875 8.456680297851562 9.057891845703125 8.526870727539062 7.3763275146484375
        7.245094299316406 8.401748657226562 8.899200439453125 7.147438049316406 5.349891662597656 5.5940399169921875
        5.710014343261719 6.195259094238281 6.765953063964844 6.5034942626953125 6.4119415283203125 7.303077697753906
        7.336646556854248 6.11590576171875 5.5238494873046875 4.913482666015625 6.5157012939453125 8.868675231933594
        6.5980987548828125 1.9501341581344604 2.5330355167388916 6.900238513946533 11.743523597717285 13.840141296386719
        12.326423645019531 10.361029624938965 10.889007568359375 12.793357849121094 13.94085693359375 13.135169982910156
        10.522781372070312 7.922607421875 8.392593383789062 10.223701477050781 11.996826171875 13.312171936035156
        14.377272605895996 14.947967529296875 11.490220069885254 5.075225830078125 4.3977203369140625 5.169837951660156
        7.556380748748779 9.787284851074219 11.261329650878906 11.319313049316406 7.989745616912842 6.952117919921875
        9.002960205078125 11.081268310546875 12.03955078125 12.164680480957031 10.919525146484375 7.760856628417969
        3.7903974056243896 2.6123809814453125 2.5788116455078125 2.4689483642578125 2.8290634155273438 2.3010940551757812
        2.5574493408203125 5.557419300079346 9.427169799804688 11.951050758361816 13.089385986328125 14.218573570251465
        14.319282531738281 11.551254272460938 9.335609436035156 10.562454223632812 14.133125305175781 17.80754852294922
        19.293800354003906 17.97235107421875 15.298927307128906 13.754692077636719 14.139228820800781 15.787222862243652
        18.09136962890625 20.413833618164062 20.978424072265625 19.66613006591797 18.08526611328125 16.998809814453125
        16.617324829101562 17.023223876953125 18.05169677734375 19.44944953918457 20.807519912719727 21.75359344482422
        2.3957061767578125 2.4536895751953125 2.4964141845703125 2.7161483764648438 2.945037603378296 3.2074966430664062
        3.5126802921295166 3.7232589721679688 3.7293624877929688 3.6896893978118896 3.8636395931243896 3.970458984375
        4.01318359375 4.126106262207031 4.1077880859375 3.9552001953125 3.970458745956421 4.092529296875
        3.93994140625 3.6774826049804688 3.6561203002929688 3.8941650390625 4.266487121582031 4.4801177978515625
        4.4923248291015625 4.4434967041015625 4.275642395019531 4.220710754394531 4.129158020019531 4.226814270019531
        4.251228332519531 4.6143951416015625 5.197303771972656 5.331581115722656 4.434341907501221 3.3967132568359375
        3.039642333984375 3.2593765258789062 3.5493011474609375 4.309211730957031 5.212562084197998 5.92669677734375
        5.710014343261719 4.858543395996094 5.3987274169921875 7.6174163818359375 9.125038146972656 10.464797973632812
        11.358985900878906 12.128059387207031 12.866600036621094 13.022247314453125 12.906280517578125 13.17179012298584
        13.446456909179688 13.412887573242188 13.495284080505371 13.776054382324219 13.568527221679688 13.220619201660156
        12.985626220703125 12.567520141601562 11.853385925292969 10.647911071777344 9.546189308166504 9.488204956054688
        9.277626037597656 9.179969787597656 9.262367248535156 8.539077758789062 6.894134521484375 7.095550537109375
        7.3854827880859375 6.4882354736328125 4.5777740478515625 4.666282653808594 5.017242431640625 6.222724437713623
        7.235939025878906 6.6225199699401855 6.512649059295654 6.714073181152344 6.753746032714844 6.4912872314453125
        6.097595691680908 5.95111083984375 6.08538818359375 7.657096862792969 7.9561767578125 3.964355707168579
        2.05694580078125 4.4007720947265625 8.691673278808594 12.842185974121094 14.218575477600098 12.381362915039062
        10.159614562988281 10.571609497070312 12.381362915039062 13.016142845153809 11.230812072753906 6.884979724884033
        6.210517406463623 8.709983825683594 11.453598022460938 13.306068420410156 13.602095603942871 13.046661376953125
        11.709953308105469 9.393600463867188 8.0477294921875 4.7181620597839355 4.5716705322265625 6.750694751739502
        8.752707481384277 9.772026062011719 7.635734558105469 5.853446960449219 7.043670654296875 9.018218994140625
        10.547196388244629 11.807608604431152 12.433243751525879 11.627556800842285 9.442427635192871 6.8544535636901855
        3.9185791015625 3.134254217147827 3.3997650146484375 2.6215362548828125 2.5055696964263916 4.5869293212890625
        6.891083240509033 8.822898864746094 11.246070861816406 12.659080505371094 10.693687438964844 8.0111083984375
        8.374282836914062 10.794395446777344 13.345741271972656 14.850303649902344 15.039520263671875 14.181953430175781
        13.440354347229004 13.90423583984375 14.758750915527344 15.659049987792969 17.139198303222656 18.762779235839844
        19.336523056030273 19.089324951171875 18.543045043945312 17.181922912597656 15.503402709960938 15.134132385253906
        16.373184204101562 18.21955108642578 19.479965209960938 19.8980712890625 2.5360870361328125 2.3590774536132812
        2.3926544189453125 2.780235528945923 2.987762689590454 3.2227554321289062 3.4516448974609375 3.6347577571868896
        3.6927411556243896 3.7720870971679688 3.8087081909179688 3.6042325496673584 3.6652753353118896 3.875854730606079
        3.98876953125 3.89111328125 4.0406494140625 4.361091613769531 4.281745910644531 3.7812421321868896
        3.6988449096679688 3.8331222534179688 4.123054504394531 4.5350494384765625 4.6113433837890625 4.263435363769531
        4.000977039337158 4.281745910644531 4.4007720947265625 4.5594635009765625 4.751732349395752 4.937896251678467
        5.059967041015625 5.053863525390625 4.4709625244140625 3.8087081909179688 3.4150238037109375 3.6347579956054688
        3.8544845581054688 4.4557037353515625 5.111847400665283 5.5696258544921875 5.5604705810546875 5.188148498535156
        5.7313761711120605 7.287818908691406 8.774070739746094 10.168768882751465 10.922576904296875 11.615341186523438
        12.613296508789062 13.019195556640625 12.915435791015625 13.205360412597656 13.815727233886719 14.05072021484375
        13.95306396484375 13.687554359436035 13.293861389160156 13.046661376953125 12.961212158203125 12.573623657226562
        12.070068359375 11.972412109375 12.201301574707031 11.9876708984375 10.400711059570312 9.329505920410156
        9.564498901367188 9.698783874511719 6.930755138397217 5.5299530029296875 5.819877624511719 5.948059558868408
        4.0040283203125 4.0101318359375 4.3519368171691895 5.569625377655029 6.189155578613281 5.072174072265625
        5.5726776123046875 5.5238494873046875 5.7679972648620605 5.853446960449219 5.5787811279296875 6.842247009277344
        8.206428527832031 8.975494384765625 9.155555725097656 8.142341613769531 4.144416809082031 3.2227554321289062
        5.081329345703125 9.112823486328125 13.321327209472656 14.545121192932129 12.015137672424316 9.628593444824219
        10.461746215820312 12.125008583068848 12.256232261657715 7.9561767578125 4.837181091308594 6.668296813964844
        9.823905944824219 12.668235778808594 13.794364929199219 12.131111145019531 10.07415771484375 10.431228637695312
        11.282692909240723 9.106719970703125 7.007049083709717 7.086395263671875 7.995849609375 8.713035583496094
        7.589951038360596 5.4780731201171875 5.92669677734375 7.739494323730469 9.088409423828125 9.857475280761719
        10.748619079589844 11.761833190917969 12.143318176269531 10.315254211425781 6.2807087898254395 3.7293624877929688
        2.6215362548828125 2.3712844848632812 2.6795272827148438 3.4546966552734375 3.885009527206421 5.3987274169921875
        8.502457618713379 8.700828552246094 5.783256530761719 5.276649475097656 7.5716400146484375 10.02227783203125
        11.435287475585938 12.466813087463379 13.779107093811035 14.789267539978027 15.213478088378906 15.8787841796875
        16.507461547851562 17.114776611328125 17.563398361206055 17.44438362121582 17.334510803222656 17.75566864013672
        18.26227569580078 18.22870635986328 17.300941467285156 15.735343933105469 14.72518253326416 15.063935279846191
        16.00390625 16.739402770996094 2.1698684692382812 2.5849151611328125 2.917572021484375 3.2136001586914062
        3.5248870849609375 3.5950775146484375 3.6011810302734375 3.6011810302734375 3.5187833309173584 3.5248870849609375
        3.4546966552734375 3.2654800415039062 3.4791104793548584 3.7934494018554688 4.0406494140625 4.116943359375
        4.1016845703125 4.2237629890441895 4.4190826416015625 4.333625793457031 4.177986145019531 4.1077880859375
        4.4648590087890625 4.992828369140625 5.209510803222656 4.730369567871094 4.4465484619140625 4.7639384269714355
        4.712059020996094 4.5442047119140625 4.788352966308594 4.803611755371094 4.654075622558594 4.5319976806640625
        4.5319976806640625 4.812767028808594 4.882965087890625 5.133216857910156 5.2888569831848145 5.5452117919921875
        5.877868175506592 5.94805908203125 5.761894226074219 5.178993225097656 5.5116424560546875 6.2746052742004395
        6.930755138397217 8.560441017150879 9.98260498046875 11.093475341796875 12.381362915039062 13.156532287597656
        13.35794734954834 13.635673522949219 14.154488563537598 14.459670066833496 14.169746398925781 13.748588562011719
        13.742485046386719 13.354896545410156 12.417984008789062 11.606185913085938 11.706901550292969 12.314216613769531
        12.82692813873291 12.533950805664062 10.940886497497559 9.768974304199219 9.833061218261719 10.382400512695312
        8.310188293457031 5.96026611328125 5.041656494140625 5.078277587890625 3.891113042831421 3.3600845336914062
        3.7324142456054688 4.834129333496094 5.084381103515625 4.260383605957031 4.971465587615967 4.5869293212890625
        5.197303771972656 5.5482635498046875 5.093536376953125 5.102691650390625 7.4129486083984375 9.93072509765625
        10.574661254882812 10.614334106445312 8.157600402832031 5.359046936035156 3.3784027099609375 5.5269012451171875
        10.159614562988281 14.453567504882812 14.914397239685059 11.691642761230469 8.960235595703125 10.01617431640625
        11.89306640625 9.646903991699219 4.5960845947265625 3.939941167831421 6.097594738006592 9.173867225646973
        11.243019104003906 10.406815528869629 8.645896911621094 9.121978759765625 10.824913024902344 11.960205078125
        11.8900146484375 11.102630615234375 10.370185852050781 10.03143310546875 9.457687377929688 7.5167083740234375
        5.761894226074219 7.351905345916748 8.801536560058594 9.329505920410156 9.96429443359375 10.71810245513916
        11.279640197753906 11.194190979003906 10.266425132751465 8.606216430664062 5.468918323516846 2.7802352905273438
        2.5452425479888916 2.4292755126953125 2.7344589233398438 3.5798187255859375 5.063018321990967 4.5319976806640625
        3.2807390689849854 4.257331848144531 6.787315368652344 9.814750671386719 11.694694519042969 13.043609619140625
        14.584793090820312 15.427108764648438 14.932709693908691 15.097503662109375 16.406753540039062 17.76787567138672
        18.32941436767578 17.99371337890625 17.511520385742188 17.358924865722656 17.325353622436523 17.264320373535156
        16.75771141052246 15.091400146484375 12.814720153808594 11.597029685974121 11.978516578674316 13.122962951660156
        1.7426069974899292 2.2278518676757812 2.990814208984375 3.4058685302734375 3.756828546524048 3.7141034603118896
        3.6347579956054688 3.628654718399048 3.6347579956054688 3.6500167846679688 3.5554049015045166 3.4638519287109375
        3.848381280899048 4.4648590087890625 4.901275634765625 4.876861572265625 4.687644958496094 4.638816833496094
        4.745628356933594 4.5930328369140625 4.4251861572265625 4.5411529541015625 4.971466064453125 5.368202209472656
        5.5543670654296875 5.2552876472473145 4.879913330078125 4.800559997558594 4.745628356933594 4.5106353759765625
        4.794456481933594 4.815818786621094 4.623558044433594 4.739524841308594 5.273597717285156 5.88702392578125
        6.2410359382629395 6.5553741455078125 6.5614776611328125 6.5675811767578125 6.747642517089844 6.6591410636901855
        6.07928466796875 5.136268615722656 4.846336364746094 5.423141002655029 5.7405314445495605 6.5523223876953125
        8.0263671875 9.692680358886719 11.493270874023438 12.860496520996094 13.803520202636719 14.374222755432129
        14.603104591369629 14.639731407165527 14.423049926757812 14.334540367126465 14.407790184020996 13.217567443847656
        11.114837646484375 10.09246826171875 10.693687438964844 11.700798034667969 12.0364990234375 11.441390991210938
        10.299995422363281 9.747611999511719 9.988709449768066 10.660117149353027 10.678428649902344 9.601119041442871
        5.87481689453125 3.903320550918579 3.98876953125 2.993865966796875 3.7903976440429688 4.8158183097839355
        5.276648998260498 5.032501220703125 4.989776611328125 4.748680114746094 5.5207977294921875 5.88397216796875
        6.216620922088623 4.4801177978515625 5.099639892578125 7.275611400604248 10.348823547363281 11.682487487792969
        11.285743713378906 10.11993408203125 4.6113433837890625 3.842277765274048 6.497391223907471 11.062957763671875
        15.283669471740723 15.149391174316406 11.075164794921875 8.618423461914062 8.966339111328125 9.002960205078125
        5.99078369140625 4.251228332519531 4.5808258056640625 6.6072540283203125 8.243049621582031 7.4678802490234375
        6.668296813964844 8.056884765625 10.00701904296875 11.285743713378906 11.215553283691406 11.114838600158691
        11.761833190917969 12.649925231933594 13.016144752502441 11.761833190917969 7.263404846191406 4.351936340332031
        6.344795227050781 8.194221496582031 9.454635620117188 10.327461242675781 11.313209533691406 12.302009582519531
        12.356941223144531 11.511581420898438 10.589920043945312 7.5289154052734375 3.7568283081054688 2.03253173828125
        2.03558349609375 1.7578659057617188 1.3702774047851562 1.97760009765625 3.1556167602539062 4.4068756103515625
        6.228828430175781 9.671318054199219 12.521744728088379 13.406784057617188 12.826927185058594 12.524795532226562
        13.104644775390625 15.039521217346191 17.95404052734375 20.023191452026367 20.673240661621094 20.52064323425293
        19.876708984375 19.211402893066406 18.747520446777344 18.20429229736328 17.566450119018555 16.647850036621094
        14.835044860839844 11.450546264648438 8.572648048400879 8.536025047302246 1.91656494140625 2.2278521060943604
        2.7344589233398438 3.3234636783599854 3.6439132690429688 3.6408615112304688 3.6164398193359375 3.6866378784179688
        3.6133880615234375 3.6957931518554688 3.8209152221679688 3.7141034603118896 3.9796142578125 4.721214771270752
        5.316322326660156 5.313270568847656 5.136268138885498 4.983673095703125 4.983673095703125 4.800559997558594
        4.638816833496094 4.800559997558594 5.151527404785156 5.4200897216796875 5.4231414794921875 5.053863525390625
        4.666282653808594 4.3794097900390625 4.3733062744140625 4.08642578125 4.235969543457031 4.705955505371094
        4.992828369140625 5.4139862060546875 5.813774108886719 6.10064697265625 6.292915344238281 6.375320911407471
        6.347846984863281 6.6164093017578125 6.939910888671875 6.689659118652344 5.664237976074219 4.840233325958252
        4.660179138183594 5.2674946784973145 5.594040393829346 5.285804748535156 5.697807788848877 7.181007385253906
        9.411911010742188 11.355934143066406 12.903228759765625 13.827934265136719 14.297920227050781 14.676353454589844
        15.097504615783691 15.204322814941406 14.587844848632812 12.799461364746094 10.757774353027344 9.595016479492188
        9.421066284179688 10.242012023925781 10.531936645507812 9.98565673828125 9.87579345703125 10.184028625488281
        10.577713012695312 10.846274375915527 11.264381408691406 11.468856811523438 6.500442981719971 2.8443219661712646
        3.2502212524414062 3.7568283081054688 3.994873285293579 5.261390686035156 4.947052001953125 4.992828369140625
        4.886016845703125 5.224769592285156 6.219673156738281 6.247138977050781 7.110809803009033 5.97247314453125
        4.403823375701904 4.721214771270752 6.958221435546875 10.736412048339844 12.555313110351562 13.644829750061035
        10.01312255859375 3.5279388427734375 5.7283244132995605 7.141334533691406 12.549209594726562 16.614273071289062
        16.21753692626953 13.061919212341309 7.721184253692627 5.151527404785156 6.961273193359375 8.926667213439941
        10.086365699768066 10.824913024902344 10.525832176208496 7.3061299324035645 4.5808258056640625 5.963318347930908
        8.185066223144531 9.375289916992188 8.291877746582031 7.7089762687683105 9.259315490722656 11.783195495605469
        14.017149925231934 14.902190208435059 11.996826171875 4.129158020019531 1.6205291748046875 4.757835388183594
        7.327491760253906 9.271522521972656 10.946991920471191 12.195199012756348 12.424087524414062 11.694694519042969
        10.02532958984375 7.4373626708984375 5.4292449951171875 5.053863525390625 3.4913179874420166 2.03863525390625
        1.89520263671875 2.5940704345703125 3.2959976196289062 4.196296691894531 5.557418346405029 7.9195556640625
        9.90936279296875 10.01312255859375 9.268470764160156 10.425125122070312 13.223670959472656 16.699729919433594
        20.25208282470703 22.30292510986328 22.913299560546875 23.087249755859375 22.830894470214844 22.21137237548828
        21.66509437561035 21.100494384765625 20.700706481933594 20.517593383789062 19.9652099609375 18.442337036132812
        15.732292175292969 12.720115661621094 2.3773956298828125 2.5788118839263916 2.6276473999023438 2.8717877864837646
        3.2410659790039062 3.5096282958984375 3.6530685424804688 3.6805343627929688 3.6256024837493896 3.8178632259368896
        4.080322265625 4.0955810546875 4.4129791259765625 4.968414306640625 5.221717834472656 5.151527404785156
        5.151527404785156 5.121002197265625 5.072174072265625 4.962310791015625 4.806663513183594 4.812767028808594
        4.937896728515625 5.121002197265625 5.038604736328125 4.5106353759765625 3.936889886856079 3.4272308349609375
        3.5798187255859375 3.9124755859375 4.245124816894531 4.727317810058594 5.059967041015625 5.313270568847656
        5.551314830780029 5.92669677734375 6.167793273925781 5.98773193359375 6.04876708984375 6.5157012939453125
        6.5218048095703125 5.865653991699219 4.937896728515625 4.681541442871094 5.166786193847656 5.743583679199219
        5.93585205078125 5.719169616699219 5.807670593261719 6.5340118408203125 8.0782470703125 9.808647155761719
        11.337623596191406 12.350837707519531 13.248085021972656 14.185004234313965 15.237892150878906 15.478988647460938
        14.651939392089844 13.223670959472656 11.9144287109375 10.498368263244629 8.838157653808594 8.310188293457031
        8.230842590332031 8.386489868164062 9.646903038024902 10.928680419921875 11.471909523010254 11.30100154876709
        10.760826110839844 10.733360290527344 6.05487060546875 2.2949905395507812 2.981658935546875 4.794456481933594
        4.324470520019531 5.117950439453125 4.4740142822265625 4.4190826416015625 4.678489685058594 5.865653991699219
        6.5675811767578125 6.5553741455078125 6.799522399902344 7.873778820037842 6.04876708984375 4.205451965332031
        4.339729309082031 7.022308349609375 10.962249755859375 14.194160461425781 14.871665000915527 9.170814514160156
        4.675437927246094 6.881927013397217 9.063996315002441 14.563431739807129 18.19208526611328 19.196144104003906
        15.201271057128906 5.728324890136719 3.3967132568359375 6.799522399902344 11.627555847167969 14.728233337402344
        15.524765014648438 13.739434242248535 7.953125 4.031494140625 4.779197692871094 6.3997344970703125
        6.4302520751953125 5.307167053222656 5.932799816131592 7.931762218475342 10.666221618652344 13.330482482910156
        14.484085083007812 11.322364807128906 5.172889709472656 3.955200433731079 6.631675720214844 9.283729553222656
        10.663169860839844 11.139259338378906 11.221656799316406 11.145362854003906 10.745567321777344 9.768975257873535
        8.117919921875 7.2695088386535645 6.311225891113281 5.209510803222656 4.928741455078125 4.812767028808594
        4.199348449707031 4.159675598144531 4.873809814453125 5.893126964569092 6.744590759277344 6.900237560272217
        7.071136474609375 9.024322509765625 12.649925231933594 16.25415802001953 18.616287231445312 20.010988235473633
        21.234779357910156 22.22663116455078 22.519607543945312 22.25714874267578 22.23578643798828 22.663047790527344
        23.157447814941406 23.487045288085938 23.587753295898438 23.477890014648438 22.81868553161621 21.65288543701172
        2.7893905639648438 2.929779052734375 2.948089599609375 3.018280029296875 3.2441177368164062 3.4852139949798584
        3.6164398193359375 3.6011812686920166 3.6439130306243896 3.9368896484375 4.205451965332031 4.260383605957031
        4.315314769744873 4.5472564697265625 4.6967997550964355 4.821922302246094 4.882965087890625 4.818870544433594
        4.748680114746094 4.763938903808594 4.770042419433594 4.739524841308594 4.858543395996094 5.166785717010498
        4.977569580078125 4.4312896728515625 3.997925043106079 3.7965011596679688 3.91552734375 4.495376110076904
        5.1362690925598145 5.349891662597656 5.240028381347656 5.307167053222656 5.4567108154296875 5.90838623046875
        6.149482727050781 5.713066101074219 5.853446960449219 6.2410359382629395 5.8046183586120605 5.041656494140625
        4.751731872558594 5.139320373535156 5.847343444824219 6.2807087898254395 6.3905792236328125 6.4699249267578125
        6.625572204589844 7.138282775878906 8.191169738769531 9.506515502929688 10.623497009277344 11.639762878417969
        12.689598083496094 13.565475463867188 14.261299133300781 14.10565185546875 13.617355346679688 13.312171936035156
        12.985626220703125 11.755729675292969 9.457686424255371 7.214576244354248 5.890076160430908 6.863609313964844
        9.030426025390625 11.011077880859375 12.134162902832031 12.250129699707031 11.456649780273438 10.898162841796875
        7.8768310546875 3.3539810180664062 3.134254217147827 4.791404724121094 4.623558044433594 2.932831048965454
        3.7446212768554688 4.968414306640625 5.685600280761719 7.412948131561279 7.287818431854248 6.643882751464844
        6.3936309814453125 7.538070201873779 8.661155700683594 5.798515319824219 3.3295669555664062 4.370246887207031
        7.650993347167969 12.192146301269531 15.094451904296875 14.374221801757812 4.986724853515625 6.991790771484375
        7.010101795196533 9.228797912597656 13.827934265136719 17.88385009765625 19.64171600341797 15.655998229980469
        5.4750213623046875 3.5462496280670166 5.215614318847656 11.130104064941406 15.564437866210938 17.410812377929688
        14.716026306152344 5.941956043243408 3.6683273315429688 4.3916168212890625 6.10675048828125 5.789360523223877
        5.679496765136719 6.7232279777526855 8.667259216308594 11.035491943359375 12.863548278808594 13.751640319824219
        12.915435791015625 11.624504089355469 10.480056762695312 9.790336608886719 9.408859252929688 9.595017433166504
        9.915467262268066 10.150459289550781 10.766929626464844 11.777091979980469 11.9541015625 10.251168251037598
        6.3051228523254395 4.0406494140625 5.047760009765625 6.4973907470703125 6.4180450439453125 5.270545959472656
        4.5258941650390625 4.5808258056640625 4.5289459228515625 3.976562261581421 4.3153157234191895 6.6133575439453125
        10.037537574768066 12.836081504821777 14.209419250488281 15.918457984924316 17.89300537109375 19.13511085510254
        19.83092498779297 20.496231079101562 21.350746154785156 22.05572509765625 22.27851104736328 22.571487426757812
        23.172706604003906 23.599960327148438 23.203224182128906 22.870567321777344 2.7771835327148438 2.990814208984375
        3.057952880859375 3.1952898502349854 3.4150238037109375 3.4913175106048584 3.5096282958984375 3.5065765380859375
        3.5645599365234375 3.7232589721679688 3.7995529174804688 3.927734375 4.068115234375 4.4221343994140625
        4.742576599121094 4.980621337890625 5.008087158203125 4.748680114746094 4.5442047119140625 4.5319976806640625
        4.623558044433594 4.751731872558594 4.995880126953125 5.255287170410156 5.1850972175598145 4.846336364746094
        4.354988098144531 4.370246887207031 4.736473083496094 5.3956756591796875 5.816825866699219 5.804618835449219
        5.825981140136719 6.09149169921875 6.201362609863281 6.4302520751953125 6.5553741455078125 6.06097412109375
        5.844291687011719 5.679496765136719 5.313270568847656 5.017242431640625 5.029449462890625 5.5330047607421875
        6.03350830078125 6.256293773651123 5.835136413574219 5.215614318847656 5.3498921394348145 6.137275695800781
        7.422104358673096 8.935821533203125 10.10162353515625 11.072113037109375 11.972412109375 12.201301574707031
        11.288795471191406 10.287788391113281 11.023284912109375 12.503433227539062 13.293861389160156 12.833030700683594
        11.871695518493652 9.552291870117188 6.201362609863281 6.4699249267578125 8.297981262207031 10.232856750488281
        11.862541198730469 12.729270935058594 12.604141235351562 11.9327392578125 10.02838134765625 4.763938903808594
        3.033538818359375 4.119994640350342 3.2349627017974854 0.8026351928710938 1.6632614135742188 5.206459045410156
        7.4953460693359375 8.780174255371094 8.670310020446777 7.9134521484375 7.049774169921875 6.985687255859375
        8.417007446289062 8.929718017578125 4.333625793457031 3.927734136581421 4.275642395019531 8.438369750976562
        13.019195556640625 15.518661499023438 8.575697898864746 5.417038440704346 6.314277648925781 5.4536590576171875
        7.1260762214660645 11.606185913085938 16.0313720703125 19.22971534729004 15.320289611816406 3.8331222534179688
        2.951141119003296 4.196296691894531 10.766929626464844 14.734336853027344 15.9306640625 10.144354820251465
        3.3234634399414062 4.623558521270752 5.99078369140625 6.845298767089844 7.1321797370910645 7.861564636230469
        9.509567260742188 11.493269920349121 12.442398071289062 12.634666442871094 13.040557861328125 13.541061401367188
        13.049713134765625 11.017181396484375 8.0233154296875 6.924652099609375 7.831047058105469 9.173866271972656
        10.196235656738281 11.029388427734375 11.722160339355469 10.867637634277344 7.495345592498779 4.944000720977783
        4.928741455078125 6.09759521484375 7.123023986816406 6.982635974884033 5.838188171386719 4.147468566894531
        2.4384307861328125 1.9714964628219604 2.868736505508423 4.837181091308594 6.891082763671875 8.221687316894531
        9.448532104492188 12.170783996582031 15.497299194335938 17.63665008544922 18.884857177734375 19.60814094543457
        19.78209686279297 19.263282775878906 18.381301879882812 18.460647583007812 19.226661682128906 19.931640625
        20.392471313476562 21.485031127929688 2.05694580078125 2.2339553833007812 2.5940701961517334 3.045745849609375
        3.3814542293548584 3.4730069637298584 3.3814544677734375 3.3051528930664062 3.3814544677734375 3.6713790893554688
        3.91552734375 4.007080078125 4.202400207519531 4.3855133056640625 4.4038238525390625 4.5167388916015625
        4.638816833496094 4.5564117431640625 4.5106353759765625 4.5472564697265625 4.849388122558594 5.255287170410156
        5.371253967285156 5.331581115722656 5.124061584472656 4.669334411621094 4.358039855957031 4.748680114746094
        5.490280628204346 6.05792236328125 6.04571533203125 5.780205249786377 6.00909423828125 6.4333038330078125
        6.793418884277344 6.811729431152344 6.5431671142578125 6.08843994140625 5.801567077636719 5.6001434326171875
        5.4017791748046875 5.200355529785156 5.105743408203125 5.346839904785156 5.624565124511719 5.777153491973877
        5.5726776123046875 4.748680114746094 4.330574035644531 4.593033313751221 5.731376647949219 7.5563812255859375
        8.932769775390625 9.350868225097656 9.286782264709473 8.716087341308594 6.5614776611328125 5.4384002685546875
        7.5594329833984375 10.547195434570312 12.417983055114746 13.13211727142334 13.525803565979004 12.280647277832031
        8.621475219726562 7.318336486816406 7.8829345703125 9.210487365722656 10.803549766540527 12.244026184082031
        13.022247314453125 12.939848899841309 11.535995483398438 6.213569164276123 3.5554046630859375 3.927734613418579
        3.7812423706054688 1.94708251953125 0.7995834946632385 2.960296869277954 7.211524963378906 9.421066284179688
        9.863578796386719 10.09857177734375 9.414962768554688 7.666252136230469 6.823936462402344 8.481094360351562
        8.752708435058594 5.261390686035156 2.874847412109375 4.0040283203125 9.485153198242188 13.678398132324219
        12.198249816894531 5.767997741699219 4.907379150390625 4.919586181640625 4.0650634765625 5.648979187011719
        9.90325927734375 14.889984130859375 18.518630981445312 12.936798095703125 1.5350799560546875 2.2034378051757812
        4.5411529541015625 9.759819030761719 12.234870910644531 9.662162780761719 4.763938903808594 5.298011779785156
        6.137275695800781 7.092499256134033 7.849357604980469 8.200325012207031 9.546188354492188 11.880859375
        13.049713134765625 12.063965797424316 10.708946228027344 10.971405029296875 12.0426025390625 12.240974426269531
        10.171821594238281 7.4861907958984375 6.540114879608154 7.4098968505859375 8.972441673278809 9.649956703186035
        8.795433044433594 7.4556732177734375 6.848350524902344 6.811729431152344 6.958221435546875 7.025360107421875
        7.446517467498779 7.776115417480469 7.885986328125 8.0904541015625 7.6052093505859375 5.911437511444092
        4.312263488769531 4.5106353759765625 5.5269012451171875 6.311225891113281 7.144386291503906 8.813743591308594
        11.297950744628906 13.827934265136719 16.25110626220703 18.128000259399414 18.942840576171875 19.138160705566406
        19.156469345092773 19.248023986816406 18.964202880859375 18.900115966796875 19.415878295898438 19.9591064453125
        1.6907272338867188 1.5991668701171875 1.7212448120117188 2.142402410507202 2.6368024349212646 2.935882568359375
        2.8534772396087646 2.7527694702148438 3.061004400253296 3.5950775146484375 3.7354660034179688 3.8575363159179688
        4.116943359375 4.171882629394531 3.900268316268921 3.909423828125 4.214607238769531 4.4099273681640625
        4.425186634063721 4.712059020996094 5.139320373535156 5.5818328857421875 5.5085906982421875 5.258338928222656
        4.754783630371094 4.0833740234375 4.217658996582031 5.050811767578125 5.767997741699219 5.92669677734375
        5.4597625732421875 5.4109344482421875 6.152534484863281 6.842247009277344 7.071136474609375 6.677452087402344
        6.03656005859375 5.96331787109375 5.786308288574219 5.6001434326171875 5.276649475097656 5.047759532928467
        5.032501220703125 5.246131896972656 5.325477600097656 5.215614318847656 4.7669901847839355 4.4953765869140625
        4.159675598144531 3.4669039249420166 3.7293624877929688 5.3865203857421875 6.7934184074401855 5.719169616699219
        3.7751388549804688 2.908416748046875 2.01116943359375 2.06610107421875 4.144416809082031 7.226783752441406
        10.354926109313965 12.607192993164062 13.678399085998535 12.961212158203125 10.180976867675781 8.169807434082031
        7.739494323730469 8.661155700683594 10.177925109863281 11.737419128417969 13.016143798828125 13.605148315429688
        13.861504554748535 11.13620662689209 6.250190734863281 6.03045654296875 9.527877807617188 11.291847229003906
        7.550277233123779 1.98980712890625 7.4160003662109375 10.05584716796875 9.515670776367188 10.101624488830566
        10.831016540527344 9.714042663574219 6.656090259552002 6.268501281738281 9.094512939453125 8.590957641601562
        3.3997652530670166 1.3641738891601562 4.257331848144531 9.860527038574219 12.033447265625 6.5279083251953125
        3.878906488418579 4.6174468994140625 3.7995529174804688 3.3112564086914062 4.998931884765625 9.195228576660156
        14.453567504882812 17.456588745117188 10.641807556152344 0.6927719712257385 0.8026351928710938 4.654075622558594
        7.831047058105469 7.071136474609375 4.995880126953125 5.682548522949219 6.741539001464844 7.718132019042969
        8.529922485351562 8.273567199707031 7.797477722167969 9.271523475646973 11.734367370605469 12.378311157226562
        10.605178833007812 8.700828552246094 8.359016418457031 9.787284851074219 11.645867347717285 11.9693603515625
        10.647910118103027 8.429215431213379 6.796470642089844 6.5767364501953125 6.695762634277344 7.217628479003906
        8.243049621582031 8.536026000976562 8.648948669433594 8.697776794433594 8.734397888183594 8.893096923828125
        8.975494384765625 8.902252197265625 8.166755676269531 6.784263610839844 5.4292449951171875 4.721214294433594
        4.480118274688721 4.791404724121094 5.648979663848877 6.527908802032471 7.403792858123779 9.091460227966309
        11.685539245605469 14.05682373046875 15.598007202148438 16.675315856933594 17.389450073242188 17.51152229309082
        16.962188720703125 16.644798278808594 17.059844970703125 17.66411590576172 1.7426069974899292 1.5289764404296875
        1.3519667387008667 1.6388473510742188 2.1546096801757812 2.4842071533203125 2.5269317626953125 2.4567413330078125
        2.5482943058013916 2.8077011108398438 3.3600845336914062 3.933837890625 4.190193176269531 4.171882629394531
        3.8819580078125 3.906372308731079 4.324470520019531 4.5625152587890625 4.4740142822265625 4.919586181640625
        5.4109344482421875 5.4963836669921875 5.047760009765625 4.5838775634765625 4.1016845703125 3.970458984375
        4.3916168212890625 5.218666076660156 5.88702392578125 5.88397216796875 5.4750213623046875 5.716117858886719
        6.6682963371276855 6.976531505584717 6.4760284423828125 6.11895751953125 5.5024871826171875 5.758842468261719
        5.722221851348877 5.374313831329346 4.956207275390625 4.828025817871094 4.995880126953125 5.175941467285156
        5.081329822540283 4.788352966308594 4.4953765869140625 4.266487121582031 3.729362726211548 2.923675537109375
        2.10272216796875 2.5330352783203125 3.970458984375 2.2431106567382812 0.7873764038085938 0.7873764038085938
        0.5645904541015625 0.8026352524757385 1.7426071166992188 3.921630859375 7.6204681396484375 11.358985900878906
        13.379318237304688 13.177895545959473 10.892059326171875 8.496353149414062 7.654045104980469 8.590957641601562
        10.144355773925781 11.743521690368652 13.068023681640625 13.861503601074219 14.267401695251465 13.290809631347656
        10.336616516113281 9.93072509765625 12.714012145996094 15.799430847167969 16.946929931640625 13.037506103515625
        4.705955505371094 8.948028564453125 9.265419006347656 7.9744873046875 8.508560180664062 10.547195434570312
        9.350868225097656 6.125068664550781 5.264442443847656 8.468888282775879 8.239997863769531 2.4262237548828125
        0.4638824462890625 5.035552978515625 8.484146118164062 4.937896728515625 2.7924423217773438 3.106781244277954
        3.3478775024414062 3.1952896118164062 4.0162353515625 6.5889434814453125 11.026336669921875 16.0740966796875
        17.535934448242188 11.429183959960938 2.7253036499023438 1.6754685640335083 4.928741455078125 6.149482727050781
        4.553360462188721 5.6062469482421875 6.930756092071533 7.8463053703308105 8.966339111328125 9.448531150817871
        7.995849609375 7.4587249755859375 8.996856689453125 10.580764770507812 9.97955322265625 7.5045013427734375
        5.343788146972656 5.5238494873046875 8.001953125 10.229804992675781 10.898162841796875 9.582809448242188
        6.445511341094971 4.293952941894531 4.922637939453125 7.083343029022217 9.265419006347656 10.208442687988281
        10.602127075195312 10.144355773925781 9.341712951660156 8.987701416015625 9.143348693847656 9.402755737304688
        9.170814514160156 7.840202331542969 5.5421600341796875 4.293952941894531 4.0498046875 4.1016845703125
        4.5045318603515625 5.160682678222656 5.94195556640625 7.068084716796875 8.78017520904541 10.516677856445312
        11.859489440917969 12.799461364746094 13.122962951660156 12.897125244140625 12.500382423400879 12.167731285095215
        12.280648231506348 13.306068420410156 1.3245010375976562 1.1291885375976562 0.9888001084327698 1.4435272216796875
        1.9226685762405396 2.1271438598632812 2.09661865234375 2.1759719848632812 2.6215362548828125 3.3906097412109375
        4.181037902832031 4.5136871337890625 4.3855133056640625 3.9490966796875 3.5889737606048584 3.7965011596679688
        4.3733062744140625 4.785301208496094 4.800559997558594 5.151527404785156 5.4902801513671875 5.5360565185546875
        5.298011779785156 4.916534423828125 4.6143951416015625 4.721214294433594 5.001983642578125 5.5848846435546875
        6.134223461151123 6.09149169921875 6.161689758300781 6.5797882080078125 6.854454040527344 6.262397766113281
        5.099639892578125 5.185096740722656 4.934844970703125 5.249183654785156 5.3804168701171875 4.861595153808594
        4.504532337188721 4.4282379150390625 4.788352966308594 4.950103759765625 4.684593200683594 4.193244934082031
        3.994873046875 3.863640069961548 2.8443219661712646 2.5330350399017334 2.02032470703125 1.3183975219726562
        1.94403076171875 0.888092041015625 0.8331527709960938 0.7995834946632385 0.5249176025390625 0.6378402709960938
        0.915557861328125 1.5320281982421875 4.4434967041015625 8.478041648864746 11.163673400878906 11.706901550292969
        10.620437622070312 8.969390869140625 8.093505859375 8.487197875976562 9.475997924804688 10.980560302734375
        12.610244750976562 13.904236793518066 14.395584106445312 13.739433288574219 12.271492004394531 10.971405029296875
        10.885955810546875 13.135169982910156 16.443374633789062 19.061857223510742 13.403733253479004 5.673393249511719
        7.846305847167969 7.1230244636535645 6.686607360839844 7.8798828125 10.702842712402344 9.241004943847656
        4.025390625 5.935852527618408 10.122993469238281 9.427169799804688 3.885009765625 1.6174774169921875
        4.931793212890625 4.733421325683594 1.9013060331344604 2.1393508911132812 2.2431106567382812 2.7924423217773438
        4.055908203125 6.6164093017578125 10.364082336425781 14.770956993103027 18.384353637695312 19.058807373046875
        14.575638771057129 8.584854125976562 6.756797790527344 6.5157012939453125 4.959259033203125 5.89923095703125
        7.177955627441406 7.96533203125 8.972442626953125 10.00396728515625 8.944976806640625 6.830039978027344
        6.2440876960754395 6.5157012939453125 6.674400329589844 5.108795166015625 3.134254217147827 3.2654800415039062
        4.251228332519531 5.288856029510498 6.03961181640625 6.8391947746276855 6.375319957733154 4.766990661621094
        4.116943359375 5.3315815925598145 7.708976745605469 10.132148742675781 12.08837890625 12.537002563476562
        11.490218162536621 9.784233093261719 8.746604919433594 9.006011962890625 9.88494873046875 9.598068237304688
        6.686607360839844 4.0894775390625 4.07421875 4.892120838165283 5.072174072265625 5.032501220703125
        5.658134460449219 6.735435485839844 8.0721435546875 9.250160217285156 9.94293212890625 10.116883277893066
        10.00701904296875 10.357978820800781 11.206398010253906 11.682487487792969 11.606185913085938 11.685539245605469
        1.004058837890625 0.4089508056640625 0.8667221069335938 1.452682375907898 1.8555221557617188 1.96539306640625
        2.2492141723632812 2.850425958633423 3.6317062377929688 4.422134876251221 4.895172119140625 4.638816833496094
        4.1016845703125 3.6133880615234375 3.4913175106048584 3.9735107421875 4.629661560058594 4.910430908203125
        4.861595153808594 5.099639892578125 5.3743133544921875 5.420090198516846 5.209510803222656 5.096588134765625
        4.956207275390625 5.142372131347656 5.5269012451171875 5.94805908203125 6.213569164276123 6.183052062988281
        6.4058380126953125 6.653038024902344 6.271553039550781 5.240028381347656 4.309211254119873 4.4648590087890625
        4.5533599853515625 4.647972106933594 4.5228424072265625 3.885009765625 3.6988449096679688 3.878906488418579
        4.6204986572265625 5.041656494140625 4.809715270996094 4.226814270019531 3.6835861206054688 2.941985845565796
        2.1485064029693604 2.2980422973632812 2.5879671573638916 2.1790237426757812 1.7365036010742188 0.7416000366210938
        0.6927719116210938 0.939971923828125 0.7843246459960938 1.058990478515625 1.4435272216796875 1.6235885620117188
        2.12103271484375 4.672386169433594 7.058928966522217 8.368171691894531 9.201332092285156 9.543136596679688
        9.347816467285156 8.551284790039062 8.243050575256348 9.210487365722656 11.236915588378906 13.129066467285156
        14.304023742675781 14.389480590820312 13.693656921386719 12.02734375 9.320350646972656 9.234901428222656
        11.505477905273438 14.105650901794434 14.349800109863281 8.755760192871094 5.731376647949219 6.6194610595703125
        6.3783721923828125 6.3905792236328125 8.563491821289062 11.059906005859375 5.97247314453125 4.3305745124816895
        6.991790294647217 11.001921653747559 10.443434715270996 5.178993225097656 4.742576599121094 6.5279083251953125
        5.5482635498046875 2.5666046142578125 1.5381317138671875 1.88299560546875 3.085418462753296 5.227821350097656
        8.551284790039062 12.247077941894531 15.680412292480469 18.26837921142578 18.924530029296875 17.310096740722656
        15.094451904296875 9.96124267578125 5.3895721435546875 5.945006847381592 7.864616394042969 9.802543640136719
        11.523788452148438 12.512588500976562 11.157569885253906 6.05792236328125 2.4384307861328125 2.5208282470703125
        3.4730072021484375 3.5798184871673584 2.7100448608398438 1.9501341581344604 1.7395552396774292 1.8463670015335083
        1.5045623779296875 1.97454833984375 3.109833002090454 4.416031360626221 5.279701232910156 5.847343444824219
        6.680504322052002 7.971436023712158 10.190133094787598 12.744529724121094 14.181953430175781 13.837089538574219
        12.277596473693848 10.489212036132812 9.750662803649902 9.646903991699219 8.359017372131348 6.335639953613281
        5.4445037841796875 6.05792236328125 6.5980987548828125 6.5248565673828125 6.5736846923828125 7.269508361816406
        8.438369750976562 9.414962768554688 9.582809448242188 8.85036563873291 8.340705871582031 9.338661193847656
        11.420028686523438 13.21756649017334 13.834038734436035 13.400681495666504 0.4211578369140625 0.7477035522460938
        1.6174774169921875 2.2248003482818604 2.3590774536132812 2.4842069149017334 2.929779052734375 3.2624285221099854
        3.6622235774993896 4.251228332519531 4.6082916259765625 4.184089660644531 3.6378097534179688 3.4608001708984375
        3.7629315853118896 4.5167388916015625 4.977569580078125 5.130165100097656 5.188148498535156 5.453658580780029
        5.4567108154296875 5.160682678222656 4.828025817871094 4.916534900665283 4.971466064453125 5.218666076660156
        5.6123504638671875 5.807670593261719 5.841239929199219 5.865653991699219 5.880919933319092 5.6520304679870605
        5.325477600097656 4.968414306640625 4.5442047119140625 4.199347972869873 3.9002685546875 3.848381280899048
        3.5950775146484375 3.094573974609375 3.088470697402954 3.6286542415618896 4.3946685791015625 4.968414306640625
        5.081329345703125 4.791404724121094 4.190193176269531 3.186134099960327 2.3804473876953125 2.6398544311523438
        3.7324142456054688 4.281745910644531 2.2370071411132812 0.881988525390625 0.6897201538085938 1.022369384765625
        1.2329483032226562 1.6632614135742188 2.02642822265625 1.99591064453125 1.559493899345398 2.02032470703125
        3.4363861083984375 4.5594635009765625 6.10980224609375 8.371223449707031 9.87884521484375 9.363075256347656
        8.359016418457031 8.508560180664062 9.91546630859375 11.474960327148438 12.961212158203125 13.867608070373535
        13.769950866699219 12.735374450683594 10.208442687988281 8.902252197265625 8.523818969726562 7.397689342498779
        8.127082824707031 10.177925109863281 7.702873229980469 5.5513153076171875 6.10980224609375 5.93280029296875
        6.500442028045654 9.430221557617188 8.413955688476562 4.773094177246094 5.4170379638671875 7.806632995605469
        10.394607543945312 9.076202392578125 7.5441741943359375 9.009063720703125 9.765921592712402 6.6042022705078125
        1.8707809448242188 1.1658096313476562 2.1393508911132812 2.941986083984375 4.150520324707031 6.326484680175781
        9.497360229492188 13.373214721679688 16.663108825683594 18.402664184570312 18.973358154296875 16.800437927246094
        11.91748046875 6.262397766113281 7.788322925567627 10.187080383300781 13.376266479492188 15.491194725036621
        15.158546447753906 10.718101501464844 5.5787811279296875 3.8422775268554688 3.1952896118164062 2.5788116455078125
        2.3712844848632812 2.4933624267578125 2.03863525390625 1.3275527954101562 1.3489151000976562 3.1952898502349854
        4.742576599121094 6.207466125488281 7.5319671630859375 7.791374206542969 7.339698791503906 6.698814392089844
        7.2817158699035645 9.93988037109375 13.26944637298584 15.451522827148438 16.04052734375 14.886932373046875
        13.126014709472656 12.155526161193848 12.250129699707031 12.366096496582031 11.493270874023438 9.994812965393066
        8.188118934631348 6.4455108642578125 5.636772155761719 5.789360046386719 6.634727478027344 7.712028503417969
        8.404800415039062 8.166755676269531 7.818840026855469 9.070098876953125 12.042601585388184 14.920501708984375
        16.23279571533203 15.701774597167969 0.5005035400390625 1.077301025390625 1.8738402128219604 2.1332473754882812
        2.04473876953125 2.2431106567382812 2.6703720092773438 2.978607177734375 3.5218353271484375 4.11083984375
        4.025390625 3.1800308227539062 2.8046493530273438 3.3021011352539062 4.168830871582031 5.047760009765625
        5.310218811035156 5.4078826904296875 5.5085906982421875 5.4780731201171875 5.145423889160156 4.687644958496094
        4.4007720947265625 4.4953765869140625 4.779197692871094 5.203407287597656 5.5757293701171875 5.5116424560546875
        5.224769592285156 4.995880126953125 4.998931884765625 4.879913330078125 4.629661560058594 4.544205188751221
        4.922637939453125 4.290901184082031 2.8504257202148438 2.2095413208007812 2.1729202270507812 2.6551132202148438
        3.3326187133789062 4.153572082519531 4.760887145996094 4.998931884765625 5.008087158203125 4.745628356933594
        4.260383605957031 3.6744308471679688 3.2532730102539062 3.1373062133789062 3.3082046508789062 4.324470043182373
        2.963348388671875 0.7782211303710938 1.2573623657226562 1.2726211547851562 1.4770965576171875 1.8433152437210083
        2.1637649536132812 2.08746337890625 1.6022186279296875 1.1536026000976562 1.4130096435546875 1.6632614135742188
        2.697838068008423 5.069122314453125 7.751701354980469 8.801536560058594 8.371223449707031 7.995849609375
        8.609268188476562 9.558395385742188 10.742515563964844 11.868643760681152 11.856437683105469 10.757774353027344
        8.984649658203125 9.695731163024902 9.692680358886719 4.171882629394531 3.3784029483795166 7.483139514923096
        9.579757690429688 5.038604736328125 5.175941467285156 5.417037487030029 5.4384002685546875 7.104705810546875
        8.813743591308594 6.5950469970703125 6.11285400390625 6.622520923614502 7.144385814666748 7.1871113777160645
        6.778160572052002 7.5777435302734375 9.591965675354004 10.364082336425781 6.335639953613281 1.593063473701477
        1.2817765474319458 1.8768922090530396 1.93487548828125 2.05389404296875 3.1250991821289062 7.4556732177734375
        12.921539306640625 16.580703735351562 18.33246612548828 18.604080200195312 15.179908752441406 6.714073181152344
        6.7506937980651855 7.5441741943359375 10.480056762695312 13.480025291442871 14.767906188964844 13.644829750061035
        11.9296875 10.748619079589844 8.380386352539062 4.5289459228515625 2.2553176879882812 1.3153457641601562
        1.0528868436813354 1.556442141532898 2.5605010986328125 3.6011807918548584 5.243080139160156 7.3213887214660645
        9.20438289642334 10.113831520080566 9.649955749511719 7.300025939941406 4.806663990020752 5.685600757598877
        9.082305908203125 12.543106079101562 15.210427284240723 16.119873046875 15.439315795898438 13.779106140136719
        12.671287536621094 13.040557861328125 13.93170166015625 14.111756324768066 13.113800048828125 11.014129638671875
        9.98870849609375 10.318305969238281 10.257270812988281 9.640800476074219 9.311195373535156 8.938872337341309
        7.8890380859375 7.8951416015625 10.458694458007812 13.589890480041504 15.482040405273438 16.0252685546875
        0.4577789306640625 0.991851806640625 1.6998826265335083 1.8585737943649292 1.8646774291992188 1.99285888671875
        2.3590774536132812 2.7741317749023438 3.3173599243164062 3.4546966552734375 3.048797607421875 2.4384307861328125
        2.6764755249023438 3.5798187255859375 4.348884582519531 5.032501220703125 5.261390686035156 5.5238494873046875
        5.5207977294921875 5.093536376953125 4.3763580322265625 4.0345458984375 4.0101318359375 4.300056457519531
        4.785301208496094 5.273597717285156 5.4750213623046875 4.995880126953125 4.300055980682373 4.0711669921875
        4.4465484619140625 4.724266052246094 4.837181091308594 4.763938903808594 5.163734436035156 4.657127380371094
        2.2278518676757812 1.7365036010742188 2.08135986328125 3.048797607421875 3.8178632259368896 4.220710754394531
        4.681541442871094 4.681541442871094 4.4648590087890625 4.281745910644531 4.174934387207031 4.019287109375
        3.927734613418579 3.7629318237304688 3.2776870727539062 2.7893905639648438 2.2675247192382812 0.5676422119140625
        1.5747528076171875 1.4984588623046875 1.4740447998046875 1.6541061401367188 1.99285888671875 2.1515579223632812
        1.92266845703125 1.6571578979492188 1.5381317138671875 1.4374237060546875 1.5259246826171875 2.2339553833007812
        4.0406494140625 5.478072643280029 5.636772155761719 5.2156147956848145 5.6092987060546875 6.10675048828125
        6.5492706298828125 7.5258636474609375 7.794425964355469 6.280708312988281 4.4282379150390625 6.842247009277344
        11.142312049865723 7.4282073974609375 3.1861345767974854 4.6296610832214355 6.933807849884033 4.931793212890625
        4.4404449462890625 4.873809814453125 4.843284606933594 5.313270568847656 7.181007385253906 7.6021575927734375
        7.086395263671875 6.6011505126953125 6.976531982421875 7.300025463104248 4.998932361602783 3.213599920272827
        4.953155517578125 8.801536560058594 10.245063781738281 5.941956043243408 2.3041458129882812 1.5137176513671875
        0.930816650390625 1.5655975341796875 1.7059859037399292 3.064056396484375 8.0782470703125 13.052764892578125
        15.9031982421875 16.400650024414062 14.139228820800781 6.6042022705078125 4.7273173332214355 4.358039855957031
        5.99383544921875 8.297981262207031 9.610275268554688 10.425125122070312 11.746574401855469 13.315224647521973
        13.611252784729004 11.355934143066406 5.865653991699219 3.363136053085327 3.7049484252929688 4.235969543457031
        3.7110519409179688 3.137305974960327 4.354988098144531 6.149482727050781 7.9683837890625 9.790336608886719
        10.983612060546875 9.463790893554688 5.127113342285156 2.987762451171875 4.3824615478515625 7.007049083709717
        10.385452270507812 13.345742225646973 14.03546142578125 11.624504089355469 8.935821533203125 9.131141662597656
        12.0426025390625 14.911346435546875 16.083251953125 15.741447448730469 15.546128273010254 16.052734375
        16.22364044189453 15.640739440917969 14.392532348632812 12.668235778808594 10.873748779296875 9.89410400390625
        10.171820640563965 11.548202514648438 13.541060447692871 15.314186096191406 1.3031387329101562 1.6174774169921875
        2.2370071411132812 2.2797317504882812 2.2248001098632812 2.3224563598632812 2.7100448608398438 3.2136001586914062
        3.4455413818359375 3.3234634399414062 2.987762451171875 3.073211669921875 3.7232589721679688 4.370246887207031
        4.660179138183594 5.090485095977783 5.203406810760498 5.343788146972656 5.114898681640625 4.5503082275390625
        3.6225509643554688 3.4669036865234375 3.8239669799804688 4.4496002197265625 5.130165100097656 5.5818328857421875
        5.5269012451171875 4.638816833496094 3.4119720458984375 3.042694091796875 3.894164800643921 4.745628356933594
        5.3743133544921875 5.4078826904296875 4.766990661621094 3.878906488418579 2.1607131958007812 1.7944871187210083
        2.4658966064453125 3.6256027221679688 3.915527105331421 3.7415695190429688 3.9185791015625 4.1779866218566895
        4.104736328125 3.8453290462493896 3.9735107421875 4.138313293457031 4.156623840332031 4.2115559577941895
        4.080322265625 3.4028167724609375 2.3560256958007812 1.556442141532898 1.9318236112594604 1.8799437284469604
        1.7761764526367188 2.04168701171875 2.288886785507202 2.5208282470703125 2.5635528564453125 2.5879669189453125
        2.5421903133392334 2.5452423095703125 2.4353787899017334 2.02642822265625 1.8036421537399292 1.9135130643844604
        1.7822799682617188 1.5869598388671875 1.8555221557617188 2.02337646484375 2.12103271484375 2.978607416152954
        3.729362726211548 3.2197036743164062 2.966399908065796 4.953155994415283 9.152503967285156 8.926666259765625
        4.153572082519531 3.1769793033599854 4.092529296875 4.177986145019531 4.318367004394531 4.2939534187316895
        4.651023864746094 4.715110778808594 5.658134460449219 7.144386291503906 7.217628479003906 5.89007568359375
        6.4729766845703125 8.130134582519531 5.673393249511719 1.9470826387405396 2.1668167114257812 4.641868591308594
        7.260353088378906 7.171852111816406 5.124061584472656 3.6896896362304688 2.4842071533203125 1.6815719604492188
        1.8005906343460083 2.4720001220703125 5.069122314453125 8.694725036621094 11.954102516174316 13.589889526367188
        13.742484092712402 8.542129516601562 2.923675537109375 2.996917724609375 2.4597930908203125 3.8697431087493896
        4.324470520019531 5.832084655761719 8.575698852539062 11.9266357421875 14.00799560546875 14.755699157714844
        13.89813232421875 12.628562927246094 10.232856750488281 7.141334533691406 5.2980122566223145 4.794456481933594
        5.4353485107421875 5.5146942138671875 5.221717834472656 6.01519775390625 8.1087646484375 9.555342674255371
        8.450576782226562 6.4210968017578125 4.962311267852783 4.4251861572265625 5.7985148429870605 8.288825988769531
        9.97039794921875 9.353919982910156 7.4404144287109375 6.344795227050781 7.925659656524658 11.36203670501709
        14.328436851501465 15.854363441467285 15.845207214355469 15.631584167480469 16.507461547851562 17.70989227294922
        17.319250106811523 15.155495643615723 12.851341247558594 11.807609558105469 11.761833190917969 12.454604148864746
        13.690605163574219 14.731285095214844 2.3346633911132812 2.8595809936523438 3.5218353271484375 3.1861345767974854
        2.8321151733398438 2.8382186889648438 3.2013931274414062 3.723259210586548 3.711052179336548 3.5615081787109375
        3.6866378784179688 4.254280090332031 4.843284606933594 5.163734436035156 5.2156147956848145 5.3895721435546875
        5.5787811279296875 5.380416393280029 4.736473083496094 4.205451965332031 3.5523529052734375 3.7171552181243896
        4.4496002197265625 5.227821350097656 5.694756031036377 5.688652038574219 5.4658660888671875 4.855491638183594
        3.8361740112304688 3.2258071899414062 3.7202072143554688 4.696800231933594 5.279701232910156 5.160682678222656
        4.525893688201904 3.5737154483795166 2.3499221801757812 2.08746337890625 3.091522455215454 4.0162353515625
        3.7812423706054688 3.6500165462493896 3.8880615234375 4.251228332519531 4.266487121582031 4.07421875
        4.126106262207031 4.257331848144531 4.187141418457031 4.129158020019531 4.196296691894531 4.080322265625
        3.4608001708984375 2.5543975830078125 1.7090378999710083 1.379440188407898 1.6907273530960083 2.00201416015625
        2.3194046020507812 2.5025177001953125 2.5940704345703125 2.7008895874023438 2.7832870483398438 2.868736505508423
        2.911468505859375 2.7619247436523438 2.3834993839263916 1.90740966796875 1.4374237060546875 0.976593017578125
        0.4547271430492401 0.5676422119140625 0.9704895615577698 1.001007080078125 1.2604141235351562 2.8473739624023438
        4.638816833496094 5.5055389404296875 6.805625915527344 8.337654113769531 5.957213878631592 2.8168561458587646
        2.917572021484375 3.930785894393921 4.431289196014404 4.162727355957031 4.840232849121094 4.913482666015625
        4.6052398681640625 5.4933319091796875 6.213569164276123 5.041656494140625 4.257331848144531 5.4506072998046875
        5.6611857414245605 3.900268316268921 2.3743438720703125 2.4414825439453125 3.3692398071289062 4.4221343994140625
        5.92059326171875 7.065033435821533 5.774101257324219 4.043701171875 3.2319109439849854 3.5798187255859375
        4.788353443145752 6.637779235839844 8.505508422851562 9.96429443359375 11.410873413085938 10.565506935119629
        5.404831409454346 1.7120895385742188 1.376388430595398 1.1688613891601562 2.00506591796875 2.8321151733398438
        3.9735107421875 6.247138977050781 8.966339111328125 10.992767333984375 12.860496520996094 14.349800109863281
        14.386428833007812 12.80556583404541 10.730308532714844 8.819847106933594 8.661155700683594 8.105713844299316
        6.03350830078125 4.675437927246094 4.821922302246094 6.02435302734375 7.797478199005127 9.366127014160156
        9.680473327636719 8.496353149414062 6.976531982421875 6.042663097381592 6.3814239501953125 7.306129455566406
        7.4312591552734375 6.634727478027344 6.027404308319092 7.019256114959717 9.649955749511719 12.512588500976562
        14.493239402770996 15.579696655273438 16.24500274658203 16.785179138183594 16.785181045532227 15.9794921875
        14.331489562988281 12.375259399414062 11.25827693939209 11.554306983947754 12.552261352539062 13.31522274017334
        3.6652755737304688 4.01318359375 4.385512828826904 4.165779113769531 4.266487121582031 3.8056564331054688
        3.8483810424804688 4.3763580322265625 4.193244934082031 4.242073059082031 4.4373931884765625 4.818870544433594
        5.288856506347656 5.764945983886719 6.134223461151123 6.3844757080078125 6.366157531738281 5.4719696044921875
        4.4709625244140625 4.153572082519531 4.187141418457031 4.675437927246094 5.310218811035156 5.664237976074219
        5.795463562011719 5.5574188232421875 5.310218811035156 5.096588134765625 4.4953765869140625 3.8605880737304688
        4.07421875 5.011138916015625 5.4963836669921875 4.992828369140625 4.2176594734191895 3.3295669555664062
        2.5971221923828125 2.7314071655273438 3.5981292724609375 3.7354660034179688 3.6072847843170166 4.0223388671875
        4.5747222900390625 4.754783630371094 4.4709625244140625 4.272590637207031 4.3977203369140625 4.5411529541015625
        4.605240345001221 4.5777740478515625 4.4038238525390625 4.0894775390625 3.5676116943359375 2.795494318008423
        1.8311082124710083 1.1536026000976562 0.994903564453125 1.4465789794921875 2.03863525390625 2.5910186767578125
        2.908416748046875 3.067108154296875 3.170875310897827 3.070159912109375 2.877899169921875 2.7222518920898438
        2.4628448486328125 2.09356689453125 1.7517623901367188 1.2695693969726562 0.5951080322265625 0.28076934814453125
        0.4852447509765625 0.22583769261837006 0.9887999892234802 3.720207452774048 6.524856090545654 5.999939441680908
        4.232917785644531 5.4078826904296875 5.89617919921875 4.135261535644531 3.115936040878296 3.8392257690429688
        4.5075836181640625 4.5228424072265625 5.185096740722656 5.264441967010498 4.321418762207031 3.96435546875
        4.5106353759765625 4.4099273681640625 3.7659835815429688 3.985718011856079 4.989776611328125 5.038604259490967
        3.030487060546875 1.4557342529296875 1.3580703735351562 2.4994659423828125 5.087432861328125 8.01416015625
        8.423110961914062 6.01214599609375 4.370246887207031 4.721214294433594 5.319374084472656 5.819877624511719
        6.4668731689453125 6.936859607696533 7.397690296173096 8.218635559082031 7.364112854003906 4.0009765625
        0.939971923828125 0.5676422119140625 1.2512588500976562 1.6174774169921875 1.6388473510742188 1.8158494234085083
        3.067108154296875 4.736473083496094 6.634727478027344 8.960235595703125 11.380356788635254 13.211463928222656
        13.14737606048584 11.334572792053223 10.531936645507812 10.647911071777344 10.04058837890625 8.731346130371094
        6.5950469970703125 5.111846923828125 5.185096740722656 5.856498718261719 6.933807373046875 8.511611938476562
        9.390548706054688 8.908355712890625 8.307136535644531 8.468887329101562 8.829002380371094 8.484146118164062
        7.040618896484375 5.658134460449219 6.06402587890625 8.1148681640625 10.904267311096191 13.177895545959473
        14.246040344238281 14.801475524902344 15.607162475585938 16.24500274658203 15.964234352111816 14.447463989257812
        12.515640258789062 11.667229652404785 12.283699035644531 13.23587703704834 4.287849426269531 4.620498180389404
        4.864646911621094 4.629662036895752 4.721214294433594 4.666282653808594 4.727317810058594 5.023345947265625
        4.815818786621094 4.760887145996094 4.919586181640625 4.986725330352783 5.206458568572998 5.868705749511719
        6.5797882080078125 6.4363555908203125 5.728325366973877 4.846336364746094 4.303108215332031 4.278694152832031
        4.742576599121094 5.114898681640625 5.328529357910156 5.240028381347656 5.188148498535156 4.986724853515625
        4.742576599121094 4.675437927246094 4.4434967041015625 4.0589599609375 4.5411529541015625 5.5848846435546875
        5.816825866699219 4.986724853515625 3.8636398315429688 2.941986083984375 2.6337506771087646 3.057952880859375
        3.732414484024048 3.8117599487304688 4.1077880859375 4.785301208496094 5.1454243659973145 4.855491638183594
        4.303108215332031 4.0894775390625 4.248176574707031 4.5655670166015625 4.760887145996094 4.870750427246094
        4.779197692871094 4.3885650634765625 3.7141034603118896 2.981658935546875 2.2705764770507812 1.6602096557617188
        1.3519669771194458 1.5350799560546875 1.95928955078125 2.6368026733398438 3.2654800415039062 3.4699552059173584
        3.3661880493164062 3.125098943710327 2.923675537109375 2.7191998958587646 2.4201202392578125 2.1332473754882812
        1.7609176635742188 1.2176895141601562 0.5951080322265625 0.27466583251953125 0.646995484828949 1.4099578857421875
        1.8463670015335083 3.3875579833984375 5.624565601348877 5.584885120391846 3.5950777530670166 3.6622235774993896
        5.163734436035156 5.551315784454346 4.202400207519531 3.836174249649048 4.168830394744873 4.901275634765625
        5.4506072998046875 5.526900768280029 4.867698669433594 3.8575363159179688 3.4211275577545166 3.909423828125
        4.5991363525390625 4.791404724121094 5.172889709472656 4.812767028808594 2.941986083984375 1.431320071220398
        1.2787245512008667 2.6368026733398438 4.5411529541015625 6.952117919921875 8.670310974121094 7.309181213378906
        4.693748474121094 3.9521484375 4.763938903808594 5.4078826904296875 5.630668640136719 5.5696258544921875
        5.4963836669921875 5.5696258544921875 5.227821350097656 4.0101318359375 2.3712844848632812 1.2848281860351562
        1.107818603515625 1.3000869750976562 1.5808563232421875 1.91046142578125 2.8687360286712646 4.019287109375
        5.029449462890625 6.01519775390625 7.135230541229248 9.039580345153809 10.299995422363281 9.89410400390625
        9.271522521972656 10.02227783203125 11.578721046447754 12.424087524414062 11.053802490234375 8.270515441894531
        6.781211853027344 5.948059558868408 4.489272594451904 4.116943359375 5.3834686279296875 7.2908711433410645
        8.648948669433594 9.109772682189941 9.079254150390625 9.445481300354004 9.991761207580566 9.622489929199219
        8.432266235351562 7.7639079093933105 8.264411926269531 9.573654174804688 11.276588439941406 12.973418235778809
        14.279609680175781 15.048675537109375 15.399642944335938 15.051727294921875 13.644829750061035 12.427140235900879
        12.616347312927246 13.119902610778809 3.8605880737304688 4.199348449707031 4.4068756103515625 4.4770660400390625
        4.5411529541015625 4.623558044433594 4.849388122558594 5.029449939727783 5.029449462890625 4.931793212890625
        4.980621337890625 5.050811767578125 5.4475555419921875 6.10980224609375 6.106750011444092 5.246131896972656
        4.5167388916015625 4.257331848144531 4.266487121582031 4.370246887207031 4.5869293212890625 4.6479716300964355
        4.690696716308594 4.5167388916015625 4.3702473640441895 4.08642578125 3.8056564331054688 3.8331220149993896
        4.138313293457031 4.5197906494140625 5.240028381347656 6.204414367675781 6.3936309814453125 5.398727893829346
        4.016234874725342 3.106781005859375 2.990814208984375 3.6439132690429688 4.284797668457031 4.5686187744140625
        4.879913330078125 5.291908264160156 5.148475170135498 4.5747222900390625 4.031494140625 3.9307861328125
        4.123054504394531 4.4801177978515625 4.7212138175964355 4.879913330078125 4.950103759765625 4.693748474121094
        3.979614496231079 3.024383544921875 2.2339553833007812 1.8463670015335083 1.96234130859375 2.2797317504882812
        2.5482940673828125 2.8595807552337646 3.170875310897827 3.189185857772827 2.905365228652954 2.7069928646087646
        2.6215362548828125 2.4964141845703125 2.4018094539642334 2.2064895629882812 1.7914352416992188 1.5106658935546875
        1.2146377563476562 0.8575668334960938 1.6968307495117188 2.4720001220703125 2.2003860473632812 2.1698684692382812
        3.2624282836914062 4.657127380371094 4.3824615478515625 3.5950777530670166 3.7476730346679688 5.307167053222656
        5.215614318847656 4.324470520019531 3.98876953125 4.8707499504089355 5.337684631347656 5.639823913574219
        5.780204772949219 5.371253490447998 4.104736328125 4.4404449462890625 5.95111083984375 6.305122375488281
        5.182044982910156 4.0345458984375 3.4699554443359375 3.1464614868164062 2.6551132202148438 2.905364751815796
        3.897216796875 5.6154022216796875 7.5167083740234375 7.4373626708984375 5.349891662597656 3.3967132568359375
        3.1952896118164062 4.0009765625 4.4282379150390625 4.150520324707031 3.750725030899048 3.5035250186920166
        3.1617202758789062 2.7314071655273438 2.2614212036132812 1.8372116088867188 1.6937791109085083 2.096618890762329
        3.1769790649414062 4.0589599609375 4.745628356933594 5.813774108886719 6.674400329589844 6.790367126464844
        6.942963123321533 7.757804870605469 8.203376770019531 7.3885345458984375 6.09149169921875 6.3875274658203125
        8.319343566894531 10.05889892578125 10.544143676757812 10.299995422363281 10.562454223632812 11.014129638671875
        8.758811950683594 3.9918212890625 2.1332473754882812 3.5462493896484375 5.5207977294921875 6.765953540802002
        7.4098968505859375 8.316291809082031 9.99481201171875 11.24912166595459 10.989715576171875 10.211494445800781
        9.759819030761719 9.781181335449219 10.507523536682129 11.572616577148438 12.417984008789062 13.254188537597656
        14.133124351501465 14.334541320800781 13.373214721679688 12.320320129394531 12.405776023864746 12.610244750976562
        3.6866378784179688 3.5431978702545166 3.3204116821289062 3.3173599243164062 3.4882662296295166 3.7415695190429688
        3.958252191543579 4.055908203125 4.339729309082031 4.4984283447265625 4.5381011962890625 4.898223876953125
        5.511642932891846 5.4719696044921875 4.3733062744140625 3.3356704711914062 3.225806951522827 3.5981292724609375
        4.162727355957031 4.763938903808594 4.809715270996094 4.351936340332031 4.162727355957031 4.068115234375
        3.854484796524048 3.6317062377929688 3.5523531436920166 3.8453292846679688 4.4679107666015625 5.081329345703125
        5.5665740966796875 5.941955089569092 5.752738952636719 4.773094177246094 3.4913179874420166 2.8565292358398438
        3.2074966430664062 4.168830871582031 4.858543395996094 5.148475646972656 5.114898681640625 5.102691650390625
        4.730369567871094 4.0467529296875 3.6408612728118896 3.827018976211548 4.229866027832031 4.4099273681640625
        4.4160308837890625 4.6174468994140625 4.916534423828125 4.599136829376221 3.7293624877929688 2.7924423217773438
        2.2248001098632812 2.10577392578125 2.4506380558013916 2.8015975952148438 2.984710931777954 3.024383544921875
        2.8687360286712646 2.6184844970703125 2.3621292114257812 2.3133010864257812 2.3651809692382812 2.2949905395507812
        2.2949905395507812 2.1881790161132812 1.8280563354492188 1.7700728178024292 1.5839080810546875 1.120025634765625
        1.7548141479492188 2.2919387817382812 2.02032470703125 1.6724166870117188 2.05084228515625 3.4974210262298584
        5.069122314453125 5.346839904785156 3.997924566268921 4.3794097900390625 4.846336364746094 4.980621337890625
        4.779197692871094 4.931793212890625 5.279701232910156 5.832084655761719 5.694756031036377 5.624565601348877
        5.236976623535156 6.4119415283203125 8.389541625976562 8.600112915039062 4.956207275390625 3.088470458984375
        4.287849426269531 5.230873107910156 4.739524841308594 4.309211730957031 4.4831695556640625 5.258338451385498
        6.219673156738281 6.170845031738281 5.236976623535156 4.4160308837890625 3.4241790771484375 2.7954940795898438
        2.960296630859375 3.198341131210327 3.1250991821289062 2.7008895874023438 2.4414825439453125 2.6551132202148438
        2.4506378173828125 2.12103271484375 1.8433151245117188 2.5299835205078125 4.6266093254089355 6.176948547363281
        6.366157531738281 6.448562145233154 7.116912841796875 7.4770355224609375 6.933806896209717 6.02435302734375
        5.4353485107421875 4.931793212890625 4.156623840332031 4.104736328125 5.285804748535156 6.717124938964844
        7.654045104980469 8.0904541015625 8.462783813476562 9.567550659179688 10.757773399353027 9.668266296386719
        7.943970203399658 7.159645080566406 7.4037933349609375 8.044677734375 8.352912902832031 8.481095314025879
        8.859519958496094 9.268470764160156 9.512619018554688 10.147407531738281 11.215553283691406 12.082275390625
        12.298957824707031 11.713005065917969 11.093475341796875 11.255226135253906 11.874756813049316 12.488173484802246
        12.808616638183594 12.479019165039062 12.195199012756348 12.320320129394531 3.930785894393921 3.1769793033599854
        2.5116729736328125 2.3743438720703125 2.4231719970703125 2.5360870361328125 2.7375104427337646 3.079315185546875
        3.3906095027923584 3.4821624755859375 3.6622238159179688 4.260383605957031 4.629661560058594 3.8636398315429688
        2.923675537109375 2.5849151611328125 2.923675537109375 3.4455413818359375 3.6957931518554688 3.8361740112304688
        3.9613037109375 4.354988098144531 4.354988098144531 4.08642578125 3.5065765380859375 3.4394378662109375
        3.6042327880859375 4.174934387207031 4.837181091308594 5.2858052253723145 5.4536590576171875 5.224769592285156
        4.675438404083252 4.03759765625 3.3631365299224854 3.2166519165039062 3.921630859375 4.910430908203125
        5.4109344482421875 5.175941467285156 4.873809814453125 4.681541442871094 4.092529296875 3.360084295272827
        3.2868423461914062 3.8148117065429688 4.290901184082031 4.345832824707031 4.281745910644531 4.4709625244140625
        4.6021881103515625 4.126106262207031 3.3448257446289062 2.7893905639648438 2.5574495792388916 2.5574493408203125
        2.8382186889648438 2.996917724609375 2.938934326171875 2.8260116577148438 2.6764755249023438 2.5299835205078125
        2.3743438720703125 2.3621292114257812 2.4201202392578125 2.3285598754882812 2.2644729614257812 2.11798095703125
        1.8585739135742188 1.8372116088867188 1.599166750907898 1.0193175077438354 1.397750973701477 1.7670211791992188
        1.93487548828125 1.9379273653030396 1.7944868803024292 2.5543975830078125 4.4526519775390625 5.8473429679870605
        5.5726776123046875 5.044708251953125 4.245124816894531 4.901275634765625 5.4994354248046875 5.5207977294921875
        6.11590576171875 6.982635498046875 5.786308288574219 3.903320074081421 4.4160308837890625 7.2145771980285645
        9.790336608886719 10.779136657714844 6.2959675788879395 2.2339553833007812 4.269538879394531 6.00604248046875
        5.8503947257995605 5.93280029296875 6.01214599609375 5.829032897949219 5.5726776123046875 5.063018798828125
        4.281745910644531 3.6225509643554688 3.1861345767974854 2.1362991333007812 1.5137176513671875 2.03558349609375
        2.3102493286132812 1.9776002168655396 1.6083221435546875 1.9135130643844604 2.2797317504882812 1.9226685762405396
        2.4414825439453125 4.898223876953125 6.677452087402344 7.5716400146484375 7.654045104980469 6.5980987548828125
        5.1240620613098145 4.342781066894531 3.8148117065429688 3.4943692684173584 3.5462496280670166 3.6225509643554688
        3.5004730224609375 3.628654718399048 4.1138916015625 4.7669901847839355 5.719169616699219 6.894134521484375
        7.873779773712158 8.484146118164062 9.311195373535156 10.196235656738281 10.388503074645996 9.787284851074219
        9.393600463867188 10.02532958984375 10.815757751464844 11.157569885253906 11.328468322753906 11.358985900878906
        11.081269264221191 10.711997985839844 10.934783935546875 12.143318176269531 13.577682495117188 14.059874534606934
        13.150429725646973 11.478012084960938 10.483107566833496 11.282692909240723 13.269448280334473 14.191108703613281
        12.869651794433594 11.212501525878906 4.260383605957031 3.4333343505859375 2.7039413452148438 2.3529739379882812
        2.06304931640625 1.99591064453125 2.2339553833007812 2.8656845092773438 3.1250991821289062 2.948089599609375
        3.1495132446289062 3.6317062377929688 3.7080001831054688 2.926727294921875 2.5482940673828125 2.984710693359375
        3.5584561824798584 3.89111328125 4.171882629394531 4.361091613769531 4.214607238769531 4.4160308837890625
        4.5655670166015625 4.5106353759765625 3.7842941284179688 3.5767669677734375 3.8331222534179688 4.367195129394531
        4.770042419433594 5.075225353240967 5.020294189453125 4.3824615478515625 3.8331222534179688 3.927734613418579
        4.4221343994140625 4.959259033203125 5.493331432342529 5.761894226074219 5.6031951904296875 5.233924865722656
        4.974517822265625 4.422134876251221 3.4455413818359375 3.070159912109375 3.3845062255859375 4.025390625
        4.4007720947265625 4.4068756103515625 4.342781066894531 4.4557037353515625 4.4099273681640625 4.0101318359375
        3.4974212646484375 3.067108154296875 2.7527694702148438 2.6947860717773438 2.880950689315796 2.920623779296875
        2.880950689315796 2.8565289974212646 2.8656845092773438 2.874847412109375 2.7771835327148438 2.7253036499023438
        2.7100448608398438 2.4018096923828125 2.1973342895507812 2.08135986328125 1.8402632474899292 1.6998826265335083
        1.6602096557617188 1.4465789794921875 1.5900115966796875 1.8402634859085083 2.2583694458007812 2.4842071533203125
        2.05999755859375 2.2278518676757812 3.2593765258789062 4.309211730957031 5.719169616699219 6.259346008300781
        4.4770660400390625 4.141365051269531 5.056914806365967 5.93890380859375 7.342750549316406 8.789329528808594
        8.340705871582031 5.191200256347656 3.3021011352539062 6.10064697265625 8.346809387207031 10.925628662109375
        9.866630554199219 3.7080001831054688 3.4394378662109375 5.206459045410156 5.673393249511719 6.204414367675781
        6.11285400390625 5.438399791717529 4.809715270996094 4.367195129394531 3.5767669677734375 2.7466659545898438
        3.1281509399414062 3.6561203002929688 2.2217483520507812 1.2237931489944458 2.04168701171875 3.3204116821289062
        4.687644958496094 3.091522455215454 1.9745482206344604 1.3061904907226562 5.249183654785156 8.642845153808594
        9.302040100097656 8.627586364746094 8.304084777832031 7.4129486083984375 4.5197906494140625 2.1485061645507812
        1.94097900390625 2.6093292236328125 3.5462496280670166 3.8209149837493896 3.5920257568359375 3.4516448974609375
        3.5981290340423584 3.961303949356079 4.379409313201904 5.722221374511719 7.843254089355469 9.286781311035156
        9.707939147949219 9.295936584472656 8.172859191894531 7.074188232421875 7.266456604003906 9.027375221252441
        10.824913024902344 11.700798034667969 12.189094543457031 12.662132263183594 12.887969970703125 12.668235778808594
        11.944945335388184 11.081268310546875 11.148414611816406 12.302009582519531 12.964263916015625 11.734368324279785
        10.202339172363281 10.592971801757812 12.881866455078125 15.335549354553223 15.585800170898438 13.544113159179688
        4.5899810791015625 3.7141036987304688 2.969451904296875 2.7375106811523438 2.3316116333007812 2.3682327270507812
        2.4903106689453125 2.7039413452148438 2.7039413452148438 2.810753107070923 3.097625732421875 3.4180755615234375
        3.7385177612304688 3.6164398193359375 3.8361740112304688 4.4129791259765625 5.084381103515625 5.4048309326171875
        5.386519908905029 5.185096740722656 4.531998157501221 4.3763580322265625 4.800559997558594 4.882965087890625
        4.3794097900390625 4.1016845703125 4.0955810546875 4.361091613769531 4.5075836181640625 4.638816833496094
        4.6113433837890625 4.336677551269531 4.290900707244873 4.718162536621094 5.304115295410156 5.661186218261719
        5.841239929199219 5.722221374511719 5.349891185760498 5.1606831550598145 4.904327392578125 4.214607238769531
        3.4974215030670166 3.4669036865234375 3.765983819961548 4.208503723144531 4.4465484619140625 4.498427867889404
        4.4587554931640625 4.5442047119140625 4.629661560058594 4.4190826416015625 3.8270187377929688 3.054901123046875
        2.4903106689453125 2.3071975708007812 2.4658966064453125 2.7161483764648438 2.8656845092773438 2.7710800170898438
        2.911468505859375 3.2013931274414062 3.234962224960327 3.021331787109375 2.932830810546875 2.5605013370513916
        2.06915283203125 1.91656494140625 1.6937789916992188 1.431320309638977 1.7029342651367188 2.2461624145507812
        2.3926544189453125 2.3987579345703125 2.7222516536712646 2.880950927734375 2.3865509033203125 2.4384307861328125
        2.969451904296875 3.3906097412109375 4.6296610832214355 5.868705749511719 4.690696716308594 3.6927413940429688
        4.4618072509765625 5.667289733886719 7.358009338378906 9.176918029785156 10.415969848632812 9.372238159179688
        4.339729309082031 5.92364501953125 6.5462188720703125 9.259315490722656 11.822869300842285 7.934814453125
        3.2074966430664062 3.131202459335327 4.882965087890625 5.7893595695495605 4.940948486328125 3.885009765625
        3.2990493774414062 3.042694091796875 2.6978378295898438 2.047790765762329 2.7497177124023438 4.327522277832031
        3.6622238159179688 4.251228332519531 6.5889434814453125 8.319343566894531 8.520767211914062 4.4984283447265625
        1.1474990844726562 3.3173599243164062 7.223731994628906 10.937835693359375 12.729270935058594 12.173835754394531
        10.00091552734375 6.10064697265625 4.080322265625 4.4679107666015625 3.097625494003296 2.1393508911132812
        2.5910186767578125 3.2288589477539062 3.5554046630859375 3.7263104915618896 3.8026046752929688 3.8270187377929688
        4.06201171875 4.840233325958252 6.207466125488281 7.5289154052734375 8.502457618713379 8.807640075683594
        7.821892261505127 6.097594738006592 5.4384002685546875 6.299018383026123 7.6021575927734375 8.410902976989746
        8.587905883789062 8.893096923828125 10.10467529296875 11.9083251953125 13.345741271972656 13.345741271972656
        11.844230651855469 10.10162353515625 9.079254150390625 8.777122497558594 9.256263732910156 10.440383911132812
        11.850335121154785 13.763847351074219 15.561386108398438 16.0863037109375 4.4343414306640625 3.7812423706054688
        3.045745849609375 3.112884521484375 2.948089599609375 2.734459161758423 2.8107528686523438 3.3051531314849854
        3.7903976440429688 3.8300704956054688 3.9674072265625 4.3763580322265625 4.5777740478515625 4.5350494384765625
        4.773094177246094 5.090485095977783 5.5574188232421875 5.89312744140625 5.856498718261719 5.6184539794921875
        5.001983165740967 4.666283130645752 4.870750427246094 4.669334888458252 4.297004699707031 4.348884582519531
        4.0986328125 4.116943359375 4.223762512207031 4.156623840332031 4.1138916015625 4.336677551269531
        4.916534423828125 5.359046936035156 5.4811248779296875 5.4750213623046875 5.4902801513671875 5.465866565704346
        5.4048309326171875 5.313270568847656 4.980621337890625 4.4557037353515625 4.1199951171875 3.8941650390625
        3.9307861328125 4.2603840827941895 4.422134876251221 4.269538879394531 4.174934387207031 4.3824615478515625
        4.6204986572265625 4.3733062744140625 3.625602960586548 2.8015975952148438 2.4353790283203125 2.4903106689453125
        2.7680280208587646 3.1861345767974854 3.292945623397827 3.118987798690796 3.2776870727539062 3.4424898624420166
        3.3661880493164062 2.987762451171875 2.6612167358398438 2.3865506649017334 1.97760009765625 1.5808563232421875
        1.3275527954101562 1.3916473388671875 1.99285888671875 2.6551132202148438 2.7924420833587646 2.7222518920898438
        2.8595809936523438 2.935882568359375 2.6825790405273438 2.7832870483398438 3.091522216796875 3.3265151977539062
        3.991821050643921 4.663230895996094 4.245124816894531 3.8392257690429688 4.4770660400390625 5.148475646972656
        6.350898742675781 7.739494323730469 8.893096923828125 10.336616516113281 8.1148681640625 8.304085731506348
        6.5370635986328125 7.306129455566406 10.641807556152344 11.502426147460938 6.918548583984375 1.3672256469726562
        3.3631362915039062 4.5747222900390625 3.5554046630859375 2.5879669189453125 2.3926544189453125 2.6123809814453125
        2.957245111465454 3.2227554321289062 5.294960021972656 7.4953460693359375 6.903289794921875 6.6133575439453125
        8.401748657226562 10.84017276763916 11.957154273986816 10.565505981445312 8.154548645019531 6.4302520751953125
        6.836143493652344 9.787284851074219 13.425094604492188 15.259254455566406 14.584793090820312 9.756767272949219
        6.04571533203125 6.985687255859375 6.659142017364502 3.3173599243164062 1.6357955932617188 1.8280562162399292
        2.6245954036712646 3.326514959335327 3.6744308471679688 3.8483808040618896 3.8697433471679688 4.123054504394531
        4.7151103019714355 5.172889709472656 5.621506214141846 6.4638214111328125 7.4831390380859375 6.997893810272217
        4.705955505371094 3.6927413940429688 4.4007720947265625 5.163733959197998 5.676445484161377 6.4546661376953125
        8.044677734375 10.391555786132812 13.132119178771973 15.610214233398438 16.470840454101562 14.963226318359375
        11.8961181640625 8.908355712890625 7.5655364990234375 8.224739074707031 9.88494873046875 11.902222633361816
        14.120911598205566 16.14429473876953 3.4150238037109375 3.3173599243164062 3.057952880859375 3.1922378540039062
        3.1952896118164062 3.021331548690796 2.938934564590454 3.6347577571868896 4.165779113769531 4.4709625244140625
        4.861595153808594 5.188148498535156 5.041656494140625 4.666282653808594 4.669334411621094 4.870750427246094
        5.130165100097656 5.4353485107421875 5.5116424560546875 5.313270568847656 4.876861095428467 4.852439880371094
        5.117950439453125 4.742576599121094 4.5686187744140625 4.638816833496094 4.232917785644531 4.07421875
        4.068115234375 3.89111328125 3.9033203125 4.293952941894531 4.998931884765625 5.4109344482421875
        5.3865203857421875 5.1454243659973145 5.096588134765625 5.343788146972656 5.6092987060546875 5.435348033905029
        4.943999767303467 4.5411529541015625 4.239021301269531 3.958251953125 4.205451965332031 4.5319976806640625
        4.4099273681640625 4.0986328125 4.080322265625 4.3000569343566895 4.3733062744140625 3.7659835815429688
        2.8656845092773438 2.3865509033203125 2.6032257080078125 2.926727294921875 3.3753509521484375 3.5584561824798584
        3.3722991943359375 3.2929458618164062 3.4760591983795166 3.4211270809173584 2.945037841796875 2.4353790283203125
        2.2766799926757812 2.1362991333007812 1.7700729370117188 1.3946990966796875 1.3763885498046875 1.7334518432617188
        2.4170684814453125 2.911468505859375 2.8595809936523438 2.6459579467773438 2.5818634033203125 2.7161483764648438
        2.8321151733398438 2.981658935546875 3.1495132446289062 3.5035250186920166 3.8544845581054688 3.8758544921875
        3.8575363159179688 4.107787609100342 4.651023864746094 4.947052001953125 5.590987682342529 6.250190734863281
        6.506545543670654 7.986694812774658 9.817802429199219 10.391555786132812 6.784264087677002 5.771049976348877
        7.983642578125 11.188087463378906 11.517684936523438 4.940948486328125 2.5330350399017334 2.2461624145507812
        2.5940704345703125 3.2441177368164062 3.9307861328125 4.174934387207031 4.980621337890625 6.292914867401123
        8.175910949707031 9.765922546386719 9.732353210449219 8.191169738769531 7.309180736541748 7.8340983390808105
        10.492263793945312 12.872711181640625 12.143318176269531 8.771018981933594 7.391585826873779 8.124031066894531
        10.263374328613281 13.312171936035156 15.384384155273438 13.119903564453125 8.383439064025879 7.235939025878906
        8.346809387207031 5.90228271484375 1.92572021484375 1.1993789672851562 2.8565292358398438 4.116943359375
        4.766991138458252 5.108795642852783 5.4902801513671875 6.494339466094971 7.9073486328125 8.624534606933594
        7.016204833984375 4.919586181640625 5.172889709472656 6.369208812713623 5.90838623046875 3.7934494018554688
        2.7283554077148438 2.917572021484375 3.5615081787109375 4.4709625244140625 5.5818328857421875 7.123023986816406
        9.564498901367188 12.747581481933594 15.421006202697754 16.705833435058594 16.583755493164062 14.74654483795166
        11.581771850585938 8.618423461914062 7.705924987792969 8.456680297851562 9.762870788574219 11.297950744628906
        2.5086212158203125 2.8412704467773438 3.012176513671875 2.8595809936523438 2.957244873046875 3.006072998046875
        2.6245956420898438 3.048797607421875 3.4241788387298584 3.976562261581421 4.5106353759765625 4.568619251251221
        4.217658519744873 4.0009765625 4.0406494140625 4.4618072509765625 4.843284606933594 5.215614318847656
        5.276649475097656 5.200355529785156 4.986724853515625 5.069122314453125 5.346839904785156 4.770042419433594
        4.092529296875 4.1077880859375 4.0223388671875 3.91552734375 3.7446212768554688 3.6500167846679688
        3.970458984375 4.4587554931640625 5.059967041015625 5.4017791748046875 5.355995178222656 4.937896728515625
        4.782249450683594 5.255286693572998 5.771049499511719 5.703910827636719 5.087432861328125 4.5014801025390625
        4.147468566894531 4.092529296875 4.5716705322265625 4.886016845703125 4.5564117431640625 4.0955810546875
        3.9796142578125 4.159675121307373 3.933837890625 3.088470458984375 2.1942825317382812 2.07220458984375
        2.6459579467773438 3.036590337753296 3.3082046508789062 3.3570327758789062 3.3967132568359375 3.4577484130859375
        3.5248870849609375 3.2715835571289062 2.5208280086517334 1.89825439453125 2.06915283203125 2.09967041015625
        1.91656494140625 1.8372114896774292 1.9196165800094604 2.1607131958007812 2.5482940673828125 2.880951166152954
        2.938934326171875 2.7069931030273438 2.4628448486328125 2.5879669189453125 2.8565289974212646 3.085418701171875
        3.3021011352539062 3.7171552181243896 3.9918212890625 3.875854253768921 3.994873046875 4.361091613769531
        4.770042419433594 5.099639892578125 5.3010640144348145 5.4475555419921875 5.395675182342529 6.460769176483154
        8.798484802246094 9.781181335449219 6.3997344970703125 5.279701232910156 5.7252726554870605 8.056884765625
        10.962249755859375 10.452590942382812 6.967377185821533 2.4201202392578125 2.08441162109375 3.7080001831054688
        5.108795166015625 4.837181091308594 5.072174072265625 5.835136413574219 6.5736846923828125 6.949066162109375
        7.5197601318359375 7.324440002441406 6.195259094238281 4.144416809082031 5.072174072265625 8.0904541015625
        9.244056701660156 7.559433460235596 7.1260762214660645 7.4831390380859375 8.0751953125 9.680473327636719
        12.042601585388184 11.520737648010254 7.7730631828308105 5.789360523223877 7.4587249755859375 7.5655364990234375
        4.1199951171875 2.6062774658203125 4.5655670166015625 7.068084716796875 9.158607482910156 10.306098937988281
        9.665214538574219 8.517715454101562 9.323402404785156 11.651968955993652 12.240974426269531 9.366127014160156
        4.852439880371094 3.2624282836914062 3.9552001953125 4.4312896728515625 4.129157543182373 3.900268316268921
        3.9552001953125 4.0467529296875 4.309211730957031 5.072174072265625 6.5279083251953125 8.465835571289062
        10.278633117675781 11.526840209960938 12.350837707519531 12.982574462890625 13.315223693847656 12.237921714782715
        9.778129577636719 7.3732757568359375 6.668297290802002 7.846305847167969 4.461807727813721 4.4343414306640625
        3.933837652206421 3.1922378540039062 3.3967132568359375 3.836174249649048 3.6042327880859375 3.5279388427734375
        3.6652753353118896 4.0162353515625 3.946044921875 3.4363861083984375 3.2380142211914062 3.3387222290039062
        3.692741632461548 4.266487121582031 5.127113342285156 5.5787811279296875 5.3743133544921875 5.151527404785156
        5.081329345703125 5.307167053222656 5.462813854217529 4.919586181640625 4.190193176269531 3.8666915893554688
        3.973510503768921 4.235969543457031 4.019287109375 4.1657795906066895 4.5564117431640625 4.702903747558594
        4.980621337890625 5.056915283203125 4.828025817871094 4.4129791259765625 4.2847981452941895 4.837181091308594
        5.6215057373046875 5.700859069824219 4.837181091308594 3.9063720703125 3.6713790893554688 4.174934387207031
        4.849388122558594 5.078277587890625 4.678489685058594 4.168830871582031 3.958251953125 4.0009765625
        3.4669036865234375 2.5940704345703125 1.96234130859375 1.97454833984375 2.5147247314453125 2.819908380508423
        2.981658935546875 3.109832525253296 3.4180753231048584 3.6530685424804688 3.5767669677734375 3.1434097290039062
        2.4994659423828125 1.9135130643844604 1.9501341581344604 2.1362991333007812 2.2766802310943604 2.3743438720703125
        2.2278518676757812 2.2797317504882812 2.5757598876953125 3.003021240234375 3.3417739868164062 3.1403579711914062
        2.728355646133423 2.6795270442962646 2.960296630859375 3.2990493774414062 3.6164400577545166 4.0284423828125
        4.257331848144531 4.269538879394531 4.367195129394531 4.5838775634765625 5.014190673828125 5.346839904785156
        5.4567108154296875 5.645927429199219 5.5207977294921875 5.99078369140625 7.168800354003906 8.1209716796875
        6.744590759277344 6.949066162109375 6.4882354736328125 6.949065685272217 7.5502777099609375 9.87579345703125
        10.644859313964844 6.3722686767578125 2.3285598754882812 2.7619247436523438 2.3865509033203125 2.12103271484375
        2.2125930786132812 2.4964139461517334 3.4241790771484375 4.5411529541015625 5.4048309326171875 4.785301208496094
        4.229866027832031 2.7558212280273438 3.250221014022827 4.974517822265625 6.308173656463623 5.838188171386719
        5.4475555419921875 5.920592784881592 6.5157012939453125 7.174903392791748 8.587905883789062 9.469894409179688
        7.5594329833984375 5.096588134765625 5.5482635498046875 5.95721435546875 4.965362548828125 5.166786193847656
        6.970428466796875 9.006011962890625 10.547195434570312 11.9998779296875 10.907317161560059 7.339698791503906
        5.792411804199219 7.754753112792969 11.426132202148438 13.718070983886719 11.743522644042969 6.5614776611328125
        3.097625732421875 3.5584564208984375 5.075225830078125 6.12200927734375 6.769004821777344 6.8178324699401855
        6.353950500488281 6.05792236328125 6.302070617675781 7.022308349609375 7.968383312225342 8.853415489196777
        9.466842651367188 9.836112976074219 10.336616516113281 10.992767333984375 11.294898986816406 10.467849731445312
        8.874786376953125 8.1148681640625 7.2908711433410645 6.643882751464844 5.636772155761719 4.651023864746094
        4.666282653808594 5.328529357910156 5.844291687011719 5.856498718261719 5.4811248779296875 4.974517822265625
        4.007079601287842 3.2532732486724854 3.2166519165039062 3.3417739868164062 3.869743585586548 4.4557037353515625
        5.4872283935546875 5.633720397949219 5.047760009765625 4.699851989746094 4.947052001953125 5.487228870391846
        5.551314830780029 4.895172119140625 4.3610920906066895 4.01318359375 4.232917785644531 4.678489685058594
        4.824974060058594 4.995880126953125 4.776145935058594 4.583878040313721 4.5594635009765625 4.449600696563721
        4.07421875 3.7354657649993896 3.7965011596679688 4.321418762207031 5.059967041015625 5.322425842285156
        4.812767028808594 4.321418762207031 4.4038238525390625 4.684593200683594 4.831077575683594 4.916534423828125
        4.5289459228515625 4.129157543182373 4.135261535644531 4.0406494140625 3.2654800415039062 2.3560256958007812
        2.06304931640625 2.2186965942382812 2.5421905517578125 2.5727081298828125 2.8504254817962646 3.2013931274414062
        3.3814544677734375 3.6591720581054688 3.6530685424804688 3.1617202758789062 2.5421905517578125 2.4384307861328125
        2.1485061645507812 2.1362991333007812 2.4628448486328125 2.4292755126953125 2.08746337890625 2.2217483520507812
        2.7436141967773438 3.3845064640045166 3.8026046752929688 3.5554049015045166 3.115936279296875 2.960296630859375
        3.2563247680664062 3.5706634521484375 3.872802734375 4.174933910369873 4.223762512207031 4.190193176269531
        4.293952941894531 4.821922302246094 5.346839904785156 5.6001434326171875 5.841239929199219 6.146430492401123
        5.780204772949219 5.4261932373046875 5.4841766357421875 6.4241485595703125 7.5716400146484375 9.762870788574219
        10.04669189453125 9.591963768005371 7.3946380615234375 8.182014465332031 10.122992515563965 8.291877746582031
        2.5208282470703125 4.242073059082031 5.209510803222656 4.513686656951904 3.7903976440429688 3.088470220565796
        3.2258071899414062 5.426192760467529 6.4485626220703125 6.02435302734375 5.005035400390625 3.076263427734375
        2.905364990234375 3.747673273086548 5.111847400665283 5.368202209472656 4.791404724121094 5.301063537597656
        6.201362133026123 5.3895721435546875 5.154579162597656 7.943970203399658 11.001922607421875 10.861534118652344
        6.308174133300781 2.02947998046875 3.1250991821289062 6.231880187988281 8.557388305664062 9.585861206054688
        9.726248741149902 10.132148742675781 9.833061218261719 7.348854064941406 4.699851989746094 4.687644958496094
        6.942962646484375 9.93072509765625 11.777091979980469 10.876800537109375 7.4282073974609375 4.882964611053467
        3.8361740112304688 3.5218353271484375 3.7354660034179688 4.361091613769531 5.3895721435546875 6.5584259033203125
        7.507552623748779 8.410903930664062 9.369178771972656 10.07110595703125 10.269477844238281 9.91241455078125
        9.289833068847656 9.079254150390625 9.88800048828125 11.151466369628906 11.426133155822754 10.534988403320312
        8.764915466308594 8.099610328674316 7.055878162384033 5.871757984161377 5.502487659454346 6.140326976776123
        7.098602294921875 7.361061096191406 6.796470642089844 6.11285400390625 5.328529357910156 4.641868591308594
        4.4770660400390625 4.226814270019531 4.239020824432373 4.5503082275390625 5.4078826904296875 5.163734436035156
        4.4557037353515625 4.232917785644531 4.7242655754089355 5.423141956329346 5.4689178466796875 4.6357645988464355
        3.9368896484375 3.872802495956421 4.6082916259765625 4.873810291290283 5.307166576385498 5.258338451385498
        4.705955505371094 4.4190826416015625 4.0650634765625 3.885009527206421 3.5401461124420166 3.5157318115234375
        4.025390625 4.6052398681640625 4.931793212890625 5.099639892578125 5.130165100097656 5.087432861328125
        5.038604736328125 4.895172119140625 4.824974060058594 4.632713317871094 4.159675598144531 3.8148117065429688
        4.0345458984375 4.0894775390625 3.4089202880859375 2.6764755249023438 2.5299837589263916 2.6001741886138916
        2.877898931503296 2.887054443359375 2.966399908065796 3.042694091796875 3.003021240234375 3.231910467147827
        3.1891860961914062 2.923675537109375 2.4567410945892334 2.2400588989257812 2.2003860473632812 2.059997320175171
        2.1546096801757812 2.10882568359375 1.93487548828125 2.2736284732818604 3.036590576171875 3.7751388549804688
        3.970458984375 3.6164398193359375 3.2959976196289062 3.2990493774414062 3.5645601749420166 3.6927413940429688
        4.0009765625 3.9674072265625 3.6042327880859375 3.4699554443359375 3.96435546875 5.084381103515625
        5.5177459716796875 5.673393249511719 5.767998218536377 5.743583679199219 5.233924865722656 4.843284606933594
        4.870750427246094 5.99688720703125 7.947021007537842 10.129096031188965 11.200294494628906 11.758781433105469
        11.444443702697754 11.621445655822754 11.258277893066406 7.773063659667969 3.106780767440796 0.5218658447265625
        3.073211669921875 4.721214294433594 5.334632873535156 5.4628143310546875 5.212562561035156 5.4292449951171875
        5.98468017578125 7.336646556854248 7.6601481437683105 6.588943958282471 5.5665740966796875 5.258338928222656
        5.536056995391846 5.4689178466796875 5.020294189453125 6.210517883300781 8.0477294921875 5.5970916748046875
        3.3906097412109375 6.680503845214844 11.862541198730469 15.115815162658691 12.1097412109375 3.073211669921875
        2.5879669189453125 5.4933319091796875 7.797478199005127 7.791374206542969 6.857505798339844 6.6011505126953125
        7.287818431854248 8.0050048828125 6.903289794921875 5.4231414794921875 4.977569580078125 5.4872283935546875
        6.579787731170654 8.249153137207031 9.256263732910156 9.137245178222656 7.4160003662109375 4.559463977813721
        2.923675537109375 3.1983413696289062 4.800559997558594 6.3508992195129395 7.498398303985596 8.63369083404541
        9.628593444824219 10.226753234863281 10.608230590820312 10.608229637145996 10.171821594238281 9.506515502929688
        9.042633056640625 9.485153198242188 10.184028625488281 9.720146179199219 9.118927001953125 8.597061157226562
        7.788322448730469 6.4394073486328125 5.606247425079346 6.00604248046875 6.952117919921875 7.193214416503906
        6.4485626220703125 5.752738952636719 5.371253967285156 5.288856506347656 5.362098693847656 4.998931884765625
        4.6418681144714355 4.300056457519531 4.696800231933594 4.245124340057373 3.912475824356079 4.055908203125
        4.5197906494140625 5.148475646972656 4.855491638183594 3.6652755737304688 3.2227554321289062 3.5798187255859375
        4.696800231933594 4.925689697265625 5.2644429206848145 5.023345947265625 4.748680114746094 4.5350494384765625
        3.9552001953125 3.5401456356048584 3.3051528930664062 3.7171554565429688 4.5869293212890625 5.151527404785156
        5.270545959472656 5.328529357910156 5.481124401092529 5.420089244842529 5.090484142303467 4.763938903808594
        4.821922302246094 4.638816833496094 3.997925043106079 3.5950775146484375 3.6805343627929688 3.2319107055664062
        2.7222518920898438 2.6642684936523438 2.768028497695923 2.935882329940796 3.1495132446289062 3.2227554321289062
        3.2319109439849854 2.981658935546875 2.6429061889648438 2.6795272827148438 2.6947860717773438 2.3957061767578125
        2.2736282348632812 2.2583694458007812 2.2827835083007812 1.94097900390625 1.7029341459274292 1.8219529390335083
        2.11187744140625 2.6581649780273438 3.4394378662109375 4.0528564453125 3.9918212890625 3.6286544799804688
        3.4516448974609375 3.5431976318359375 3.6591720581054688 3.7415695190429688 3.909423828125 3.3814544677734375
        2.8077011108398438 2.987762689590454 4.092529296875 5.1637349128723145 5.3773651123046875 5.551315784454346
        5.310218811035156 4.834129333496094 4.5686187744140625 5.038604736328125 5.764945983886719 6.671348571777344
        7.6326823234558105 8.160653114318848 8.859519004821777 10.898162841796875 13.824882507324219 15.710929870605469
        14.764854431152344 9.97039794921875 4.745628356933594 0.7354965209960938 1.91656494140625 2.2186965942382812
        3.3051528930664062 5.108794689178467 6.4241485595703125 6.582840442657471 6.6225199699401855 6.976531982421875
        7.5106048583984375 8.001953125 7.7517008781433105 6.793418884277344 5.5665740966796875 4.794456481933594
        4.644920349121094 5.5330047607421875 6.463820934295654 4.3671956062316895 2.7710800170898438 5.4475555419921875
        10.07110595703125 13.602096557617188 13.425093650817871 6.277656555175781 2.948089599609375 4.242073059082031
        5.761894226074219 4.763938903808594 3.1617202758789062 2.905364990234375 3.7842941284179688 4.776146411895752
        5.4292449951171875 6.09149169921875 6.2410359382629395 5.667289733886719 4.4373931884765625 4.4862213134765625
        6.512649059295654 8.633689880371094 9.637748718261719 8.853416442871094 7.1504902839660645 5.920592784881592
        6.286811351776123 7.3824310302734375 8.285774230957031 8.920562744140625 9.323402404785156 9.619430541992188
        9.91851806640625 10.122993469238281 10.345771789550781 10.296944618225098 9.781181335449219 9.744561195373535
        10.492263793945312 11.239967346191406 8.359016418457031 8.188117980957031 7.5777435302734375 6.201362133026123
        5.114899158477783 5.304115295410156 6.03045654296875 6.292914867401123 5.5207977294921875 4.870750427246094
        4.754783630371094 4.986724853515625 5.072174072265625 4.712059497833252 4.727317810058594 4.5136871337890625
        4.0528564453125 3.6164398193359375 3.897216796875 4.0650634765625 4.342781066894531 4.696800231933594
        3.9307861328125 2.887054443359375 3.2258071899414062 4.266487121582031 5.3773651123046875 5.5116424560546875
        5.148475646972656 4.718162536621094 4.724266052246094 4.782249450683594 4.342781066894531 3.7812423706054688
        3.6744306087493896 4.269538879394531 5.017242431640625 5.4139862060546875 5.652030944824219 5.710014343261719
        5.676445484161377 5.4384002685546875 5.078277587890625 4.770042419433594 4.821922302246094 4.5258941650390625
        4.0467529296875 3.93994140625 3.7049484252929688 2.4597930908203125 1.90130615234375 2.1790237426757812
        2.887054443359375 3.5370941162109375 3.7171554565429688 3.6561203002929688 3.4363861083984375 2.951141119003296
        2.6306991577148438 2.7924420833587646 2.8595809936523438 2.3224563598632812 2.1729202270507812 2.4292755126953125
        2.4018096923828125 2.10272216796875 2.03253173828125 2.1637649536132812 2.5513458251953125 3.1891860961914062
        3.7202072143554688 4.0894775390625 4.068115234375 3.7415695190429688 3.5859224796295166 3.5828704833984375
        3.6744308471679688 3.7629318237304688 3.5431976318359375 2.7985458374023438 2.6459579467773438 3.4699554443359375
        4.647972583770752 5.075225830078125 5.182044982910156 5.401778697967529 5.111847400665283 4.544204235076904
        4.632713317871094 5.4872283935546875 6.210517883300781 6.732383728027344 7.092498302459717 6.924652099609375
        7.7028727531433105 9.375289916992188 11.227760314941406 14.04156494140625 15.955078125 15.805534362792969
        12.930694580078125 5.020293712615967 1.3824920654296875 2.08746337890625 0.5737457275390625 4.0498046875
        7.858512878417969 8.285774230957031 8.560441017150879 7.712028980255127 6.692710876464844 6.393631458282471
        6.930756092071533 6.738487243652344 5.352943420410156 4.5747222900390625 4.678489685058594 4.5594635009765625
        4.031494140625 3.048797607421875 2.990814208984375 5.4017791748046875 9.442428588867188 13.092436790466309
        14.294868469238281 9.637748718261719 3.7141034603118896 2.5360870361328125 3.4058682918548584 3.024383783340454
        1.9898072481155396 1.90435791015625 2.7802352905273438 3.765983819961548 4.324470520019531 4.4862213134765625
        4.116943359375 3.5676116943359375 1.6968307495117188 0.8331527709960938 1.7639694213867188 3.4394378662109375
        5.328529357910156 7.3915863037109375 8.587905883789062 8.999908447265625 9.463790893554688 10.06195068359375
        10.571609497070312 11.124001502990723 11.047698974609375 10.049742698669434 8.700828552246094 7.910400390625
        7.959228038787842 8.310188293457031 8.618423461914062 9.350868225097656 10.660118103027344 11.96630859375
        6.686607360839844 6.738487243652344 6.726280689239502 5.91448974609375 5.096588134765625 5.178993225097656
        5.3315815925598145 5.209510326385498 4.895172119140625 4.5747222900390625 4.6266093254089355 4.937896728515625
        4.660179138183594 4.4099273681640625 4.5869293212890625 4.229865550994873 3.732414484024048 3.723259210586548
        4.031494140625 4.199348449707031 4.297004699707031 4.0345458984375 3.045746088027954 2.908416509628296
        4.025390625 5.111846923828125 5.774101734161377 5.740531921386719 5.188148498535156 4.806663513183594
        4.843284606933594 4.889068603515625 4.681541442871094 4.4434967041015625 4.5503082275390625 4.931793212890625
        5.215614318847656 5.4658660888671875 5.636772155761719 5.4963836669921875 5.3865203857421875 5.203407287597656
        5.029449462890625 4.950103759765625 4.931793212890625 4.4557037353515625 3.9765625 3.8300704956054688
        3.2776870727539062 2.05084228515625 1.541183352470398 1.7426071166992188 2.4353787899017334 3.057952880859375
        3.289893865585327 3.2074966430664062 2.990814208984375 2.8168563842773438 2.932830572128296 3.3387222290039062
        3.4485931396484375 2.969451904296875 2.2034378051757812 2.3682327270507812 2.5727081298828125 2.6612167358398438
        2.8077011108398438 2.8015975952148438 2.8473739624023438 3.3082046508789062 3.8148117065429688 4.126106262207031
        4.168830871582031 3.8270184993743896 3.6164398193359375 3.4638519287109375 3.668327569961548 3.5828707218170166
        3.054901123046875 2.728355646133423 3.2715835571289062 4.257331848144531 4.889068603515625 4.852439880371094
        5.050811290740967 5.3682026863098145 5.233924388885498 4.803611755371094 4.913482666015625 5.5909881591796875
        6.225776672363281 6.808677673339844 7.229835033416748 7.162696838378906 7.794425964355469 8.285774230957031
        7.605209827423096 8.438369750976562 11.886962890625 15.176856994628906 17.145301818847656 15.225685119628906
        6.573684215545654 2.1240923404693604 1.6327438354492188 2.4842071533203125 8.578750610351562 9.076202392578125
        9.463790893554688 9.006011962890625 7.959228515625 6.8452982902526855 6.4149932861328125 6.167793273925781
        5.008086681365967 4.0894775390625 4.0406494140625 3.924682378768921 3.6774826049804688 3.7476730346679688
        4.5411529541015625 6.06097412109375 8.536026000976562 11.358985900878906 12.808616638183594 11.301002502441406
        6.4912872314453125 2.3926544189453125 1.1261368989944458 1.2115859985351562 1.2360000610351562 1.2848281860351562
        2.6764755249023438 4.4007720947265625 5.816825866699219 6.3600544929504395 4.6693339347839355 1.110870361328125
        1.022369384765625 1.92266845703125 2.1424026489257812 3.073211669921875 3.3539810180664062 4.876861572265625
        7.132179260253906 9.314247131347656 10.992767333984375 12.259284973144531 13.458662986755371 14.664146423339844
        14.816734313964844 13.818778991699219 11.621444702148438 9.085357666015625 7.223731994628906 6.698814868927002
        7.031463623046875 7.687614440917969 8.508560180664062 9.320350646972656 5.7313761711120605 6.11895751953125
        6.219673156738281 5.87786865234375 5.758842468261719 5.819877624511719 5.4872283935546875 4.901275634765625
        4.947052001953125 4.916533946990967 4.971466064453125 5.163734436035156 4.693748474121094 4.4404449462890625
        4.458755970001221 4.0498046875 3.799553155899048 4.055908203125 4.318367004394531 4.495376110076904
        4.4312896728515625 3.9613037109375 3.176978826522827 3.7995529174804688 4.821922779083252 5.6123504638671875
        5.98773193359375 5.706962585449219 5.142372131347656 4.852439880371094 4.843284606933594 4.821922302246094
        4.892120361328125 5.136268615722656 5.5177459716796875 5.5269012451171875 5.230873107910156 5.026397705078125
        4.947052001953125 4.779197692871094 4.812767028808594 4.919586181640625 5.056915283203125 5.252234935760498
        5.188148498535156 4.882965087890625 4.3794097900390625 3.4424893856048584 2.5452423095703125 2.108825922012329
        2.01116943359375 2.3255081176757812 2.7893905639648438 2.880950689315796 2.880950689315796 2.6856307983398438
        2.7680282592773438 3.012176513671875 3.3845062255859375 3.933837890625 4.0589599609375 3.927734375
        3.6713790893554688 2.7253036499023438 2.5208282470703125 2.908416986465454 3.1861345767974854 3.1495132446289062
        3.021331787109375 3.2227554321289062 3.6500167846679688 3.942993402481079 3.9735107421875 3.7080001831054688
        3.5981292724609375 3.4577484130859375 3.5645599365234375 3.170875310897827 2.7314071655273438 3.3875579833984375
        4.2817463874816895 4.699851989746094 4.684593200683594 4.5472564697265625 4.864646911621094 5.148475646972656
        4.959259033203125 4.696800231933594 5.029448986053467 5.841239929199219 6.695762634277344 7.019256114959717
        6.991790294647217 6.836143493652344 7.019256114959717 6.863609313964844 6.161689758300781 5.5452117919921875
        7.150489807128906 9.680473327636719 12.857444763183594 17.096466064453125 16.638694763183594 7.367164134979248
        2.09356689453125 1.5015106201171875 8.661155700683594 9.558395385742188 9.445479393005371 8.975494384765625
        8.456680297851562 7.824943542480469 6.787315368652344 5.703910827636719 4.638816833496094 3.686638116836548
        3.3692400455474854 3.5737149715423584 4.4648590087890625 5.597092151641846 6.335639953613281 6.671348571777344
        7.318336009979248 8.059937477111816 8.780174255371094 9.805595397949219 8.740501403808594 5.343788146972656
        2.6551132202148438 0.7446517944335938 0.4028473198413849 1.2115859985351562 2.8321151733398438 4.11083984375
        5.246131896972656 7.5167083740234375 8.0263671875 5.7252726554870605 1.87384033203125 1.3763885498046875
        0.946075439453125 3.7781903743743896 3.2868425846099854 4.08642578125 5.618454456329346 6.915496826171875
        8.267463684082031 10.412918090820312 12.863548278808594 14.609207153320312 15.497299194335938 16.403701782226562
        16.476945877075195 15.817741394042969 13.415939331054688 9.915467262268066 7.4221038818359375 6.4455108642578125
        6.845298767089844 8.008056640625 5.7954630851745605 6.140327453613281 5.90838623046875 5.96331787109375
        6.4210968017578125 6.3966827392578125 6.027404308319092 5.319374084472656 5.078277587890625 5.075225830078125
        5.224769592285156 5.203407287597656 5.008087158203125 4.898223876953125 4.321418762207031 4.162727355957031
        4.153572082519531 4.306159973144531 4.712059497833252 4.684593200683594 4.251228332519531 4.0833740234375
        3.7568283081054688 4.733421325683594 5.072174072265625 5.301063537597656 5.5177459716796875 5.365150451660156
        4.962310791015625 4.647972106933594 4.556412220001221 4.6021881103515625 4.886016845703125 5.325477600097656
        5.8381876945495605 5.6001434326171875 4.937896728515625 4.229866027832031 3.8605880737304688 3.894165277481079
        4.303108215332031 4.950103282928467 5.362098693847656 5.343788146972656 5.157630920410156 4.754783630371094
        3.7812423706054688 2.6886825561523438 2.1454544067382812 2.2980422973632812 2.841270685195923 3.4638519287109375
        3.8544845581054688 4.016234874725342 3.7568283081054688 3.3173601627349854 3.4302828311920166 3.665275812149048
        3.985717535018921 4.4160308837890625 4.5381011962890625 4.4496002197265625 4.6113433837890625 3.9735107421875
        2.932830810546875 2.990814208984375 3.219703435897827 3.2227554321289062 3.079315185546875 3.122039794921875
        3.4546968936920166 3.6866376399993896 3.6896896362304688 3.5340421199798584 3.4394376277923584 3.3387222290039062
        3.1830825805664062 2.838218927383423 3.103729248046875 4.309211730957031 5.005035400390625 4.770042419433594
        4.4557037353515625 4.3977203369140625 4.6021881103515625 4.693748474121094 4.5716705322265625 4.760887145996094
        5.5726776123046875 6.433304309844971 7.025360107421875 6.915497303009033 6.5370635986328125 6.192207336425781
        6.01824951171875 5.688652038574219 5.4322967529296875 5.209510326385498 5.407882213592529 6.277656555175781
        8.462783813476562 13.190101623535156 17.97540283203125 17.453536987304688 8.804588317871094 4.019286632537842
        8.890045166015625 9.015167236328125 8.624534606933594 8.392593383789062 7.846306324005127 7.290870666503906
        6.201362609863281 4.864646911621094 4.162727355957031 3.4974212646484375 3.3021011352539062 3.8575363159179688
        5.139320373535156 6.366157531738281 6.726280212402344 6.4638214111328125 5.99688720703125 5.4384002685546875
        5.325477600097656 5.5604705810546875 5.273597717285156 4.5655670166015625 4.0406494140625 3.024383544921875
        1.4709930419921875 0.851463258266449 2.4201202392578125 4.0101318359375 4.300056457519531 5.758842468261719
        8.966339111328125 11.008026123046875 9.686575889587402 5.6062469482421875 3.5218353271484375 5.340735912322998
        4.4526519775390625 3.8880615234375 4.947052001953125 4.907379150390625 4.950103759765625 5.679497241973877
        7.6357340812683105 9.98260498046875 12.829977989196777 16.046630859375 18.31720733642578 19.232765197753906
        18.56745719909668 17.160560607910156 15.402694702148438 13.391526222229004 10.995820045471191 8.548233032226562
        5.676445007324219 5.87786865234375 5.4658660888671875 5.725273609161377 6.5370635986328125 6.2990193367004395
        6.07318115234375 5.6459269523620605 5.1393208503723145 4.901275634765625 5.105743408203125 4.953155517578125
        4.931793212890625 5.111846923828125 4.309211730957031 4.132209777832031 4.290901184082031 4.324470520019531
        4.837181091308594 4.675437927246094 4.199347972869873 4.388564586639404 4.293952941894531 5.047760009765625
        4.837181091308594 4.5869293212890625 4.834129333496094 4.889068126678467 4.5289459228515625 4.144416809082031
        4.187141418457031 4.4343414306640625 4.821922302246094 5.240028381347656 5.5726776123046875 5.215614318847656
        4.4373931884765625 3.8209152221679688 3.6805343627929688 4.013183116912842 4.4526519775390625 5.069122314453125
        5.4292449951171875 5.047760009765625 4.602188587188721 4.177986145019531 3.5523529052734375 3.027435064315796
        2.902313232421875 3.1922378540039062 3.5554046630859375 4.150520324707031 4.641868591308594 4.931793212890625
        4.6204986572265625 4.132209300994873 4.0711669921875 4.174934387207031 4.4801177978515625 4.5075836181640625
        4.3977203369140625 4.4038238525390625 4.333625793457031 4.092529296875 3.5889739990234375 3.2105484008789062
        3.027435302734375 3.036590337753296 2.945037841796875 2.975555419921875 3.3143081665039062 3.4943695068359375
        3.3753511905670166 3.3631362915039062 3.4577486515045166 3.3692398071289062 3.2776870727539062 3.5096280574798584
        4.4465484619140625 5.178992748260498 5.371253967285156 4.934844970703125 4.5075836181640625 4.364143371582031
        4.425186634063721 4.5503082275390625 4.776145935058594 5.490280628204346 6.299018859863281 6.6164093017578125
        6.665245532989502 6.344795227050781 5.92059326171875 5.6123504638671875 5.4536590576171875 5.313270568847656
        5.310218811035156 5.078277587890625 4.5686187744140625 4.358039855957031 4.727317810058594 7.748649597167969
        13.306068420410156 17.618331909179688 17.209388732910156 14.142280578613281 12.546157836914062 8.761863708496094
        6.5279083251953125 6.884979724884033 7.049773693084717 5.841239929199219 4.6052398681640625 4.0284423828125
        4.248176574707031 4.254280090332031 4.242073059082031 4.6143951416015625 5.218665599822998 5.6184539794921875
        5.4536590576171875 4.693748474121094 3.4607999324798584 2.4903106689453125 2.6245956420898438 2.7985458374023438
        2.5299835205078125 1.6602096557617188 0.851463258266449 2.1790237426757812 3.1281509399414062 2.4475860595703125
        2.4170682430267334 3.5370941162109375 4.1138916015625 4.3946685791015625 6.320381164550781 9.805595397949219
        12.591933250427246 11.731316566467285 8.352912902832031 7.5991058349609375 7.7669596672058105 6.05181884765625
        4.812767505645752 4.6540751457214355 4.461807727813721 2.8504254817962646 3.015228033065796 5.97857666015625
        9.549240112304688 12.268441200256348 13.818778991699219 14.841148376464844 16.0252685546875 17.435226440429688
        18.21344757080078 19.034393310546875 19.333473205566406 18.375198364257812 4.840233325958252 4.846336364746094
        4.895172119140625 5.5024871826171875 6.4729766845703125 6.222724914550781 5.767997741699219 5.4139862060546875
        5.359046459197998 5.243080139160156 5.2461323738098145 5.127112865447998 4.852440357208252 4.5319976806640625
        4.019287109375 4.153572082519531 4.129158020019531 4.007080078125 4.4373931884765625 4.4831695556640625
        4.425186634063721 4.6082916259765625 4.5381011962890625 5.130165100097656 4.876861572265625 4.364143371582031
        4.4099273681640625 4.339729309082031 3.964355707168579 3.7232589721679688 3.921630859375 4.269538879394531
        4.6052398681640625 4.760887145996094 4.7608866691589355 4.6204986572265625 4.205451965332031 4.0284423828125
        4.358039855957031 5.072174072265625 5.319374084472656 5.2552876472473145 5.081329345703125 4.638816833496094
        4.318367004394531 4.293952941894531 4.260383605957031 3.982665777206421 3.7476730346679688 3.7903976440429688
        3.982666015625 4.3977203369140625 4.925689697265625 5.273597717285156 4.657127380371094 3.9490966796875
        3.7965011596679688 4.0589599609375 4.318367004394531 4.168830871582031 3.98876953125 3.933837652206421
        3.8300704956054688 3.698845148086548 3.6164398193359375 3.259376287460327 2.795494318008423 2.7710800170898438
        2.8351669311523438 3.100677490234375 3.5340421199798584 3.7598800659179688 3.7476730346679688 3.903320074081421
        4.1199951171875 3.96435546875 4.190193176269531 4.855491638183594 5.590987682342529 5.627616882324219
        5.3865203857421875 4.895172119140625 4.4068756103515625 4.333625793457031 4.632713317871094 4.965363025665283
        5.4078826904296875 5.98162841796875 6.314277648925781 6.295967102050781 6.103698253631592 5.728324890136719
        5.346839904785156 5.142372131347656 4.986725330352783 4.855491638183594 4.837181091308594 4.5869293212890625
        3.897216796875 3.3173599243164062 2.999969482421875 3.112884283065796 6.857505798339844 11.487167358398438
        14.795371055603027 16.14734649658203 14.783164978027344 10.562454223632812 7.559432506561279 7.4495697021484375
        7.5228118896484375 4.0284423828125 2.4018096923828125 3.186134099960327 4.757835388183594 5.493332386016846
        5.4231414794921875 5.359046936035156 5.212562561035156 4.867698669433594 4.333625793457031 3.4943695068359375
        2.5666046142578125 2.01422119140625 2.1912307739257812 2.4048614501953125 2.2309038639068604 1.089508056640625
        0.720237672328949 1.3122940063476562 2.2644729614257812 3.8453292846679688 4.5930328369140625 4.5014801025390625
        4.1199951171875 4.248176574707031 4.208503723144531 5.4994354248046875 8.597061157226562 11.215553283691406
        10.272529602050781 9.125038146972656 9.164710998535156 7.867668628692627 5.017242431640625 4.864646911621094
        5.621506214141846 3.137305974960327 2.00506591796875 3.4485933780670166 6.256293773651123 7.9134521484375
        8.774070739746094 9.759819030761719 10.705894470214844 11.9205322265625 13.681450843811035 16.806541442871094
        19.553207397460938 20.487075805664062 5.6215057373046875 5.5360565185546875 5.3926239013671875 5.590988636016846
        6.06402587890625 5.5116424560546875 5.127113342285156 5.3895721435546875 5.771049499511719 6.03961181640625
        5.999939441680908 5.89923095703125 5.5513153076171875 4.5045318603515625 4.06201171875 4.257331371307373
        3.973510503768921 3.6347577571868896 4.0498046875 4.5503082275390625 4.934844970703125 4.992828369140625
        4.745628356933594 4.947052478790283 5.191199779510498 4.687644958496094 4.174934387207031 3.8300704956054688
        3.6011807918548584 3.7537765502929688 4.168830871582031 4.3794097900390625 4.208503723144531 4.0406494140625
        4.126106262207031 4.239021301269531 4.147468566894531 4.278694152832031 4.886017322540283 5.7741007804870605
        5.746635913848877 5.105743408203125 4.4709625244140625 4.1199951171875 4.2085041999816895 4.5228424072265625
        4.641868591308594 4.116943359375 3.6133880615234375 3.5706634521484375 3.9735107421875 4.510634899139404
        4.937897205352783 5.218666076660156 4.354988098144531 3.5279388427734375 3.4943692684173584 4.01318359375
        4.150520324707031 3.958252191543579 3.7598800659179688 3.5676116943359375 3.5767669677734375 3.7110519409179688
        3.5737152099609375 3.003021478652954 2.703941583633423 2.6795272827148438 2.7893905639648438 3.1983413696289062
        3.6408615112304688 3.903320074081421 4.0498046875 4.6113433837890625 5.4475555419921875 4.959259033203125
        4.910430908203125 5.526900768280029 5.88397216796875 5.554366588592529 5.069122314453125 4.4160308837890625
        3.91552734375 4.168830871582031 4.809715270996094 5.059967041015625 5.258338451385498 5.5818328857421875
        5.755791187286377 5.685600280761719 5.4536590576171875 5.081329345703125 4.669334411621094 4.425186634063721
        4.281745910644531 4.123054504394531 4.055908679962158 4.080322265625 3.9918212890625 3.5645599365234375
        2.938934326171875 1.9318236112594604 2.6306991577148438 5.691703796386719 8.334602355957031 11.041595458984375
        11.816764831542969 10.544142723083496 10.501419067382812 12.250129699707031 12.533950805664062 7.4190521240234375
        1.1566543579101562 1.6815719604492188 4.254280090332031 5.682548522949219 5.185096740722656 4.4251861572265625
        4.596085071563721 5.331580638885498 5.236976623535156 3.7629318237304688 2.2339553833007812 1.3122940063476562
        1.2726211547851562 1.7212449312210083 1.8494186401367188 1.4191131591796875 0.6988754272460938 1.3245010375976562
        2.4750518798828125 3.7842941284179688 5.325477600097656 6.070128917694092 5.655082702636719 4.974517822265625
        4.5319976806640625 4.812767028808594 5.710014820098877 6.253242492675781 6.08233642578125 6.08843994140625
        6.3783721923828125 5.746635437011719 3.98876953125 3.6774826049804688 4.794456481933594 4.0955810546875
        1.96234130859375 2.02642822265625 4.220710754394531 5.810722351074219 6.964324951171875 8.423110961914062
        8.206428527832031 7.4129486083984375 8.297981262207031 11.667228698730469 15.732292175292969 17.32840919494629
        9.112823486328125 8.487197875976562 7.8615641593933105 7.147438049316406 6.674400329589844 5.713066577911377
        5.4139862060546875 5.682548522949219 5.97552490234375 6.311225891113281 6.253242492675781 6.042663097381592
        5.810722351074219 5.3987274169921875 4.864646911621094 4.806663513183594 4.736473083496094 4.281745910644531
        4.4618072509765625 5.017242431640625 5.447556018829346 5.3987274169921875 5.105743408203125 4.947052001953125
        5.3620991706848145 5.096588134765625 4.199348449707031 3.7171552181243896 3.765983819961548 4.235969543457031
        4.675437927246094 4.5655670166015625 3.8636398315429688 3.320411443710327 3.4028167724609375 3.7263107299804688
        3.994873046875 4.367195129394531 5.053863525390625 5.612349987030029 5.1942524909973145 4.297004699707031
        3.903320074081421 3.933837890625 4.226814270019531 4.4770660400390625 4.3916168212890625 3.6500167846679688
        3.3204116821289062 3.6378095149993896 4.3794097900390625 4.940948486328125 5.020294189453125 4.944000244140625
        4.165779113769531 3.5554049015045166 3.4516448974609375 3.7232589721679688 3.799553155899048 3.897216796875
        3.7568280696868896 3.3692398071289062 3.4150238037109375 3.7049484252929688 3.5065765380859375 2.7802352905273438
        2.6703720092773438 2.7405624389648438 2.938934326171875 3.1952896118164062 3.4821624755859375 3.7965009212493896
        3.994873046875 4.501479625701904 5.3895721435546875 4.944000244140625 4.904327392578125 5.5482635498046875
        5.630669116973877 5.032500743865967 4.4923248291015625 3.8453292846679688 3.4394381046295166 3.7354660034179688
        4.4129791259765625 4.6082916259765625 4.669334411621094 4.760887145996094 4.812767028808594 4.8158183097839355
        4.730369567871094 4.4160308837890625 4.071166515350342 3.7842941284179688 3.4424896240234375 3.036590576171875
        2.7741317749023438 2.7924423217773438 2.990814208984375 3.1250994205474854 2.911468505859375 2.3316116333007812
        1.87994384765625 3.097625732421875 5.026397705078125 7.061981678009033 8.124031066894531 8.630638122558594
        10.882904052734375 14.178901672363281 16.36096954345703 15.359962463378906 9.045684814453125 5.368202209472656
        2.5543973445892334 3.720207452774048 4.235969543457031 3.5645601749420166 3.8148117065429688 5.331581115722656
        6.00604248046875 4.4221343994140625 2.4018096923828125 1.1108704805374146 0.8606185913085938 1.5350799560546875
        2.10882568359375 1.602218747138977 0.7171860337257385 1.6205291748046875 3.3082046508789062 4.1779866218566895
        4.5411529541015625 5.102691650390625 5.597092151641846 5.456710338592529 4.998931884765625 4.672386169433594
        3.955200433731079 2.948089599609375 2.5208282470703125 2.4689486026763916 2.4079132080078125 2.3529739379882812
        2.2705764770507812 1.9135130643844604 2.6123809814453125 3.677482843399048 2.10882568359375 1.7975387573242188
        3.3539810180664062 5.047760009765625 6.5767364501953125 8.206428527832031 7.910400390625 6.634727478027344
        6.769004821777344 9.042633056640625 13.464766502380371 16.657005310058594 11.444443702697754 11.19419002532959
        10.873748779296875 10.391555786132812 9.88800048828125 8.810691833496094 7.94091796875 7.181007385253906
        6.772056579589844 6.4180450439453125 6.213569641113281 6.4180450439453125 6.390578746795654 5.92974853515625
        5.252235412597656 5.658134460449219 6.341742992401123 6.10980224609375 5.5207977294921875 5.5940399169921875
        5.767997741699219 5.5604705810546875 5.5146942138671875 5.255287170410156 4.995880126953125 4.944000244140625
        4.235969066619873 3.9735107421875 4.269538879394531 4.864646911621094 5.050811767578125 4.6327128410339355
        3.991821050643921 3.637809991836548 3.6072847843170166 3.8422775268554688 4.202400207519531 4.4740142822265625
        4.776145935058594 4.873809814453125 4.254280090332031 3.5981292724609375 3.6927413940429688 4.104736328125
        4.0955810546875 3.9490966796875 3.8605880737304688 3.6347579956054688 3.970458984375 4.5350494384765625
        5.108794689178467 5.285804748535156 5.023345947265625 4.6204986572265625 4.0498046875 3.7781906127929688
        3.5706634521484375 3.5706634521484375 3.6713790893554688 4.0162353515625 3.970458984375 3.5584564208984375
        3.4577484130859375 3.5676116943359375 3.2563247680664062 2.7466659545898438 2.5482940673828125 2.6795272827148438
        2.941986083984375 3.1769793033599854 3.3936614990234375 3.5767669677734375 3.8270187377929688 4.324470520019531
        4.644920349121094 4.257331848144531 4.5106353759765625 4.944000244140625 4.739524841308594 4.190193176269531
        3.7171552181243896 3.2593765258789062 2.920623779296875 3.106781005859375 3.7934494018554688 4.1138916015625
        4.113892078399658 3.933837890625 3.7965011596679688 3.9490966796875 4.126106262207031 3.9490966796875
        3.7659833431243896 3.5523529052734375 2.978607177734375 2.3743438720703125 2.2248003482818604 2.4720001220703125
        2.7497177124023438 3.115936279296875 3.5004730224609375 2.6947860717773438 2.4445345401763916 2.7558212280273438
        4.08642578125 4.742576599121094 5.4902801513671875 7.916504383087158 9.87884521484375 11.481063842773438
        14.258247375488281 17.133094787597656 17.581710815429688 15.19516658782959 7.9775390625 4.763938903808594
        6.2135701179504395 7.654045581817627 5.5604705810546875 4.303108215332031 4.5655670166015625 4.208503723144531
        2.7222518920898438 1.6357955932617188 1.3367081880569458 1.91046142578125 1.93487548828125 0.6561508774757385
        1.1352920532226562 3.012176513671875 4.5228424072265625 5.127113342285156 4.699851989746094 3.9613037109375
        3.5523529052734375 2.899261474609375 2.3285598754882812 2.084411859512329 1.95013427734375 2.04779052734375
        1.7609177827835083 1.4069061279296875 1.2543104887008667 1.092559814453125 1.2268447875976562 0.7324447631835938
        1.2421035766601562 2.6917343139648438 2.923675537109375 2.7802350521087646 3.158668279647827 4.458755970001221
        5.7985148429870605 6.689659118652344 6.524856090545654 6.4790802001953125 7.5533294677734375 9.131141662597656
        12.341681480407715 16.30298614501953 12.057861328125 11.798454284667969 11.731316566467285 11.673332214355469
        11.539047241210938 10.840171813964844 9.99481201171875 9.131141662597656 8.398696899414062 7.373276233673096
        6.7232279777526855 6.6560893058776855 6.280708312988281 5.89923095703125 5.5207977294921875 6.262397766113281
        7.263404846191406 7.187110900878906 6.3081746101379395 5.91754150390625 5.825981140136719 5.609299182891846
        5.7679972648620605 5.4872283935546875 4.599136829376221 4.608291149139404 4.2939534187316895 4.248176574707031
        4.669334411621094 5.182044982910156 5.041656494140625 4.5381011962890625 4.235969543457031 4.330574035644531
        4.4038238525390625 4.5686187744140625 4.803611755371094 4.739524841308594 4.3977203369140625 3.98876953125
        3.5004730224609375 3.5523529052734375 3.967406988143921 4.284797668457031 3.7202072143554688 3.5340423583984375
        3.778190851211548 4.03759765625 4.657127380371094 5.069122314453125 5.249183654785156 5.185096740722656
        4.898223876953125 4.327522277832031 3.7049484252929688 3.6591720581054688 3.5431978702545166 3.5401458740234375
        3.7507247924804688 4.199347972869873 4.1596760749816895 3.8178634643554688 3.5889742374420166 3.4424898624420166
        3.100677490234375 2.914520263671875 2.5666046142578125 2.7954940795898438 3.1891860961914062 3.3448257446289062
        3.3234634399414062 3.2502214908599854 3.4058685302734375 3.7690353393554688 3.918578863143921 3.8453290462493896
        4.043701171875 4.104736328125 3.7812423706054688 3.3753509521484375 3.057952880859375 2.6459579467773438
        2.3224563598632812 2.6429061889648438 3.4974212646484375 3.842277765274048 3.6347579956054688 3.2959976196289062
        3.103729248046875 3.3204116821289062 3.7110519409179688 3.8605880737304688 3.7324142456054688 3.3539812564849854
        2.8015975952148438 2.5574495792388916 2.905364990234375 3.3448257446289062 3.891113042831421 4.953155517578125
        5.829032897949219 4.675437927246094 3.4241790771484375 2.905364751815796 3.6286542415618896 2.966399908065796
        4.5838775634765625 7.6021575927734375 8.548232078552246 8.725242614746094 10.248115539550781 12.677391052246094
        15.720085144042969 17.74651336669922 15.778068542480469 12.442398071289062 12.201301574707031 12.704855918884277
        6.5858917236328125 1.1688613891601562 2.09356689453125 2.6825790405273438 2.3804473876953125 2.09967041015625
        1.6571577787399292 1.3031387329101562 0.7538071274757385 1.013214111328125 3.097625970840454 5.053863525390625
        6.4668731689453125 6.991790771484375 6.183052062988281 4.257331848144531 2.972503662109375 2.1942827701568604
        1.91046142578125 1.5930633544921875 1.5594940185546875 1.96844482421875 1.8402633666992188 1.3367080688476562
        1.1719132661819458 1.3336563110351562 1.5381317138671875 1.1688613891601562 1.6815719604492188 2.6856307983398438
        3.2013931274414062 3.3784029483795166 3.8056561946868896 4.8585429191589355 5.865653991699219 6.146430969238281
        5.94195556640625 6.671349048614502 8.404800415039062 9.613326072692871 11.325416564941406 14.383377075195312
        11.798454284667969 11.590927124023438 11.468856811523438 11.499374389648438 11.612289428710938 11.340675354003906
        10.809654235839844 10.235908508300781 9.643852233886719 9.100616455078125 8.755760192871094 8.252204895019531
        7.4587249755859375 7.202369689941406 6.701866149902344 6.3997344970703125 6.860557556152344 6.738487720489502
        6.213569164276123 5.868705749511719 5.551315784454346 5.4414520263671875 5.728324890136719 5.4475555419921875
        4.6143951416015625 4.4404449462890625 4.339729309082031 4.3794097900390625 4.766990661621094 4.974518299102783
        4.568619251251221 4.208503723144531 4.257331371307373 4.5503082275390625 4.754783630371094 5.114898681640625
        5.4567108154296875 5.230873107910156 4.5075836181640625 3.7141036987304688 3.3448257446289062 3.787346124649048
        4.348884582519531 4.354988098144531 3.5706636905670166 3.5248870849609375 4.043701171875 4.214607238769531
        4.3885650634765625 4.5686187744140625 4.745628356933594 4.828025817871094 4.754783630371094 4.202400207519531
        3.5950777530670166 3.6988449096679688 3.8331222534179688 3.8819580078125 3.9765625 4.181037902832031
        4.129158020019531 3.8544845581054688 3.6622235774993896 3.3082048892974854 2.966400146484375 3.021332025527954
        2.7710800170898438 2.874847412109375 3.2807390689849854 3.2776870727539062 3.073211669921875 2.8595809936523438
        2.917572021484375 3.1800308227539062 3.332618474960327 3.3875579833984375 3.4943695068359375 3.4516451358795166
        3.3051528930664062 3.1983413696289062 2.932830810546875 2.3346633911132812 2.09356689453125 2.6429061889648438
        3.4424893856048584 3.4913179874420166 3.170875310897827 2.911468505859375 2.8473739624023438 3.1373062133789062
        3.5645599365234375 3.8026046752929688 3.6347579956054688 3.2807388305664062 3.1983416080474854 3.6500167846679688
        4.129158020019531 4.242073059082031 4.626609802246094 5.6154022216796875 6.164741516113281 5.288856506347656
        4.1016845703125 3.1312026977539062 2.963348388671875 2.3407669067382812 4.705955505371094 6.4638214111328125
        7.016205310821533 6.808677673339844 7.251197814941406 8.368171691894531 10.556350708007812 13.592940330505371
        15.805534362792969 16.422012329101562 15.866570472717285 14.355903625488281 5.639823913574219 1.1963272094726562
        2.5482940673828125 2.6581649780273438 2.2400588989257812 2.1393508911132812 1.3916473388671875 0.6103668212890625
        1.095611572265625 3.2776870727539062 5.3102192878723145 6.857505798339844 7.6113128662109375 7.681511402130127
        7.113861083984375 5.383468151092529 3.811760187149048 2.7405624389648438 2.3926544189453125 2.09051513671875
        2.3285598754882812 2.8473739624023438 2.8260116577148438 2.069153070449829 2.1668167114257812 2.6032257080078125
        2.890106201171875 2.6673202514648438 2.6703720092773438 3.1586685180664062 3.042694091796875 3.1281509399414062
        3.89111328125 4.895171642303467 5.5024871826171875 5.4902801513671875 5.456711292266846 6.329536437988281
        7.9622802734375 9.338661193847656 10.446487426757812 12.0548095703125 10.946990966796875 10.950042724609375
        11.078216552734375 11.197242736816406 11.175880432128906 11.069061279296875 10.998870849609375 10.910369873046875
        10.589920043945312 10.370184898376465 10.382400512695312 10.361030578613281 9.89410400390625 9.469894409179688
        8.624534606933594 6.802574157714844 5.92364501953125 5.764945983886719 5.749687671661377 5.4841766357421875
        5.188148021697998 5.319374084472656 5.5696258544921875 5.340736389160156 4.718162536621094 4.4648590087890625
        4.3855133056640625 4.394669055938721 4.461807727813721 4.336677551269531 4.0528564453125 3.9552001953125
        4.171882629394531 4.394669055938721 4.5960845947265625 5.203407287597656 5.880920886993408 5.810722351074219
        5.038604736328125 4.205451965332031 3.9124755859375 4.217658996582031 4.5716705322265625 4.229866027832031
        3.6622235774993896 3.6622235774993896 4.0589599609375 4.0162353515625 3.802604913711548 3.96435546875
        4.358039855957031 4.629661560058594 4.638816833496094 4.0162353515625 3.4424896240234375 3.7141036987304688
        3.973510980606079 4.0772705078125 4.0986328125 4.1138916015625 3.98876953125 3.6805343627929688
        3.5950777530670166 3.3631362915039062 2.7893905639648438 2.6856307983398438 2.835167169570923 3.1312026977539062
        3.4699554443359375 3.3356704711914062 3.057952880859375 2.8077011108398438 2.6520614624023438 2.7619247436523438
        2.923675537109375 2.880950927734375 2.972503423690796 2.981658935546875 2.999969482421875 3.2105486392974854
        3.097625732421875 2.5147247314453125 2.3255081176757812 2.7954938411712646 3.2807390689849854 3.2044448852539062
        2.880951166152954 2.7527694702148438 2.8626327514648438 3.1952896118164062 3.5462496280670166 3.5950775146484375
        3.4211273193359375 3.4608001708984375 3.8819580078125 4.4404449462890625 4.4740142822265625 4.260383605957031
        4.5564117431640625 5.4475555419921875 5.93890380859375 5.093535900115967 4.0498046875 3.2654800415039062
        2.8595809936523438 2.6795272827148438 4.565566539764404 5.7893595695495605 6.183052062988281 5.960265636444092
        6.369208812713623 7.242042541503906 8.578750610351562 11.181983947753906 14.00189208984375 16.394548416137695
        17.249061584472656 16.583755493164062 10.644859313964844 1.3824920654296875 3.3265151977539062 2.10882568359375
        1.3367080688476562 1.6968307495117188 1.095611572265625 0.6317367553710938 2.6642682552337646 5.282752990722656
        6.8056254386901855 7.071136474609375 6.302070617675781 5.670341491699219 5.4628143310546875 4.5960845947265625
        3.2532730102539062 3.045745849609375 3.7934494018554688 3.976562738418579 4.019287109375 4.4099273681640625
        4.327522277832031 3.4577484130859375 3.5981292724609375 3.897216796875 4.0345458984375 4.208503723144531
        4.4038238525390625 4.4251861572265625 3.7080001831054688 3.033538818359375 3.1495132446289062 3.8666915893554688
        4.5533599853515625 4.910430908203125 5.163734436035156 5.740531921386719 6.765953063964844 8.0721435546875
        9.051789283752441 10.04364013671875 9.87884521484375 10.05584716796875 10.666221618652344 11.059906005859375
        11.053802490234375 10.965301513671875 11.044647216796875 11.14231014251709 11.023284912109375 11.117889404296875
        11.355934143066406 11.380355834960938 10.916473388671875 10.580764770507812 10.05279541015625 8.386490821838379
        6.643882751464844 5.92669677734375 5.761894226074219 5.276649475097656 4.904326915740967 4.983672618865967
        5.273597717285156 5.4628143310546875 5.206459045410156 5.005035877227783 4.791404724121094 4.5716705322265625
        4.290901184082031 3.9490966796875 3.973510980606079 4.181037902832031 4.327522277832031 4.312263488769531
        4.4831695556640625 5.063018798828125 5.5940399169921875 5.664237976074219 5.160682201385498 4.638816833496094
        4.5472564697265625 4.6021881103515625 4.626610279083252 4.104736328125 3.7324142456054688 3.6256027221679688
        3.7568283081054688 3.7354660034179688 3.5584564208984375 3.7537763118743896 4.187141418457031 4.5472564697265625
        4.5655670166015625 3.8453292846679688 3.4608001708984375 3.885009765625 4.08642578125 4.0894775390625
        3.9490966796875 3.9307861328125 3.9307861328125 3.5462496280670166 3.292945623397827 3.2044448852539062
        2.6764755249023438 2.6032257080078125 3.009124755859375 3.4028167724609375 3.6072847843170166 3.4730072021484375
        3.3936614990234375 3.2013931274414062 2.917572021484375 2.945037841796875 2.969451904296875 2.972503662109375
        3.070159673690796 2.966400146484375 3.061004638671875 3.4363861083984375 3.3631362915039062 2.877899169921875
        2.6673202514648438 3.015228271484375 3.4852142333984375 3.5767669677734375 3.057953119277954 2.8534774780273438
        2.984710693359375 3.3234634399414062 3.6774826049804688 3.5767667293548584 3.5004730224609375 3.7629315853118896
        4.226814270019531 4.5197906494140625 4.559463977813721 4.5167388916015625 4.876861572265625 5.630668640136719
        5.825981140136719 4.821922302246094 3.7385177612304688 3.2258071899414062 3.210548162460327 2.951141595840454
        4.354988098144531 5.5452117919921875 6.277656555175781 6.262397766113281 7.226783275604248 8.212532043457031
        8.862570762634277 10.480056762695312 12.411880493164062 15.323342323303223 17.926576614379883 19.186988830566406
        18.07305908203125 9.430221557617188 2.1912307739257812 2.7832870483398438 4.4312896728515625 3.2776870727539062
        1.4832000732421875 1.8768919706344604 4.663230895996094 6.839195251464844 6.729331970214844 4.934844970703125
        2.8290634155273438 2.877899169921875 3.4882659912109375 3.9918212890625 3.3600845336914062 3.628654718399048
        4.895172119140625 5.737480640411377 5.88702392578125 6.042663097381592 5.722221374511719 5.224769592285156
        5.2552876472473145 4.980621337890625 4.998931884765625 5.584884166717529 6.01824951171875 5.371253967285156
        3.997924566268921 2.966399908065796 2.911468505859375 3.2380142211914062 3.7568283081054688 4.358039855957031
        4.867698669433594 5.285804748535156 5.838188171386719 6.5157012939453125 7.080291748046875 8.304083824157715
        8.899200439453125 9.137245178222656 9.99176025390625 10.754722595214844 11.105682373046875 10.943939208984375
        11.026336669921875 11.294898986816406 11.319314002990723 11.282691955566406 11.429183959960938 11.233863830566406
        10.821861267089844 10.602127075195312 10.284737586975098 9.674370765686035 8.740501403808594 7.998901844024658
        7.196266174316406 6.08233642578125 5.2064595222473145 4.843284606933594 4.876861572265625 5.5116424560546875
        5.841239929199219 5.795463562011719 5.3895721435546875 4.855491638183594 4.4251861572265625 4.211555480957031
        4.4007720947265625 4.800559997558594 4.779197692871094 4.4251861572265625 4.5106353759765625 4.824974536895752
        4.727317810058594 4.5686187744140625 4.4465484619140625 4.345832824707031 4.5106353759765625 4.4892730712890625
        4.327522277832031 4.116943359375 3.9735107421875 3.7446212768554688 3.653068780899048 3.6164398193359375
        3.6835861206054688 3.891113042831421 4.156623840332031 4.5533599853515625 4.5838775634765625 3.8819580078125
        3.7049484252929688 4.168830871582031 4.330574035644531 4.184089660644531 3.888061285018921 3.8178634643554688
        3.933837890625 3.4943695068359375 3.054901123046875 3.033538579940796 2.8473739624023438 2.969451904296875
        3.3417739868164062 3.6622238159179688 3.93994140625 3.894164800643921 3.936889886856079 3.8361740112304688
        3.7903976440429688 3.8453290462493896 3.4638519287109375 3.4577484130859375 3.4363861083984375 3.2074966430664062
        3.3021011352539062 3.6683273315429688 3.6591720581054688 3.4791104793548584 3.5431976318359375 3.9521484375
        4.3794097900390625 4.4038238525390625 3.7324140071868896 3.115936279296875 2.957244873046875 3.253272771835327
        3.7263107299804688 3.8056564331054688 3.9490966796875 4.266487121582031 4.6174468994140625 4.635765075683594
        4.745628356933594 4.907379150390625 5.307167053222656 5.667289733886719 5.435348987579346 4.651023864746094
        4.0833740234375 3.7537765502929688 3.9979248046875 3.7781903743743896 4.5777740478515625 5.066070556640625
        6.4394073486328125 7.043671131134033 7.983643054962158 8.301033973693848 8.496353149414062 9.714042663574219
        10.690635681152344 11.9693603515625 15.192115783691406 18.549148559570312 20.25818634033203 19.74242401123047
        16.849266052246094 13.98358154296875 10.812705039978027 7.257300853729248 6.762901306152344 8.374282836914062
        9.567550659179688 8.413955688476562 5.038604736328125 2.185127019882202 0.6347885131835938 2.6917340755462646
        2.957244873046875 3.2471694946289062 3.5096282958984375 4.333625793457031 5.6154022216796875 6.5706329345703125
        6.756797790527344 6.881927490234375 6.946014404296875 6.619460582733154 6.4027862548828125 6.073181629180908
        5.935852527618408 6.7079691886901855 7.5136566162109375 7.2908711433410645 6.2135701179504395 4.928741455078125
        4.251228332519531 3.897216796875 3.6439130306243896 3.8605880737304688 4.4038238525390625 4.977569580078125
        5.5848846435546875 6.08538818359375 6.6194610595703125 7.763908386230469 8.603164672851562 8.789329528808594
        9.399703979492188 10.129096984863281 10.660118103027344 10.531936645507812 10.864585876464844 11.392561912536621
        11.575668334960938 11.432235717773438 11.255226135253906 10.809654235839844 10.235908508300781 9.689629554748535
        9.656059265136719 9.692680358886719 9.857475280761719 9.91851806640625 9.424118041992188 8.243050575256348
        6.808677673339844 5.655082702636719 5.023345947265625 5.429244518280029 5.90533447265625 5.835136413574219
        5.5940399169921875 5.206459045410156 4.882965087890625 4.773094177246094 4.870750427246094 5.279701232910156
        5.258338928222656 4.721214294433594 4.4709625244140625 4.431289196014404 4.0498046875 3.7141036987304688
        3.5279388427734375 3.5584564208984375 3.8239669799804688 3.839226007461548 3.6530685424804688 3.8178632259368896
        4.168830871582031 4.312263488769531 4.208503723144531 4.0040283203125 3.997925043106079 4.205451965332031
        4.358039855957031 4.5258941650390625 4.4984283447265625 4.068115234375 4.031494140625 4.260383605957031
        4.4465484619140625 4.5869293212890625 4.428238391876221 4.043701171875 3.8270187377929688 3.4638516902923584
        3.115936040878296 3.2959976196289062 3.4516448974609375 3.5859222412109375 3.6469650268554688 4.031494140625
        4.5655670166015625 4.4343414306640625 4.03759765625 3.982666015625 4.4587554931640625 4.6601786613464355
        4.0162353515625 3.817863702774048 3.7141036987304688 3.7995529174804688 4.077270030975342 4.254280090332031
        4.019287109375 3.87890625 4.245124816894531 4.776145935058594 4.944000244140625 4.632713317871094
        4.0223388671875 3.3143084049224854 3.027435302734375 3.2288589477539062 3.6805343627929688 4.0711669921875
        4.5808258056640625 4.947052001953125 5.087432861328125 4.937896728515625 4.889068603515625 4.904326915740967
        5.157630920410156 5.285804748535156 5.081329345703125 4.812767028808594 4.724266052246094 4.754783630371094
        5.404830455780029 6.170845031738281 6.912444591522217 5.819878101348877 6.671349048614502 7.5289154052734375
        7.849357604980469 7.443466663360596 7.644889831542969 8.987702369689941 9.601119041442871 9.121978759765625
        10.574661254882812 14.282661437988281 16.696678161621094 18.402664184570312 19.8736572265625 20.04150390625
        18.10357666015625 14.673301696777344 12.836082458496094 13.034455299377441 13.97442626953125 12.530899047851562
        7.815788745880127 2.5879669189453125 0.3875885009765625 3.161720037460327 3.9307861328125 3.112884521484375
        3.3112564086914062 4.705955505371094 6.152534484863281 7.089447021484375 7.104705810546875 6.7964701652526855
        6.939910888671875 7.235939025878906 7.4037933349609375 7.220680236816406 6.5889434814453125 6.860557556152344
        7.742546081542969 7.7791666984558105 6.863609313964844 5.93280029296875 5.6031951904296875 5.4811248779296875
        4.873809814453125 4.217658996582031 4.275642395019531 4.812767028808594 5.4384002685546875 6.082335948944092
        6.704917907714844 7.727287292480469 9.079254150390625 9.118927001953125 9.234901428222656 9.366127014160156
        9.613327026367188 9.729302406311035 10.290840148925781 11.041595458984375 11.505477905273438 11.496322631835938
        11.316261291503906 10.760826110839844 10.03448486328125 9.463790893554688 9.314247131347656 9.558395385742188
        10.144355773925781 10.538039207458496 10.492263793945312 9.90936279296875 8.694725036621094 7.196266174316406
        6.051818370819092 5.737480163574219 5.871757984161377 5.6154022216796875 5.6062469482421875 5.609299182891846
        5.4536590576171875 5.368202209472656 5.258338928222656 5.3834686279296875 5.331581115722656 5.078277587890625
        4.791404724121094 4.3794097900390625 3.5828702449798584 2.990814447402954 2.929779052734375 3.1586685180664062
        3.4699554443359375 3.5035250186920166 3.3570327758789062 3.6042327880859375 4.217658996582031 4.702903747558594
        4.867698669433594 4.7975077629089355 4.879912853240967 5.059967041015625 4.916534423828125 4.657127380371094
        4.6204986572265625 4.5411529541015625 4.3733062744140625 4.239021301269531 4.6601786613464355 5.197303771972656
        5.029449939727783 4.4129791259765625 3.881958246231079 3.6317059993743896 3.3936614990234375 3.6408615112304688
        3.7385177612304688 3.827018976211548 3.958251953125 4.4373931884765625 4.962310314178467 4.5716705322265625
        3.7354660034179688 3.5981292724609375 4.257331848144531 4.675437927246094 4.361091613769531 4.168830871582031
        4.031493663787842 4.345832824707031 4.675437927246094 4.5716705322265625 3.9674072265625 3.7720870971679688
        4.232917785644531 4.696800231933594 4.7486796379089355 4.275642395019531 3.5920257568359375 3.2715835571289062
        3.4119720458984375 3.6286542415618896 3.949096441268921 4.327522277832031 5.029449462890625 5.371253490447998
        5.206459045410156 5.059967041015625 5.1393208503723145 4.895171642303467 4.916534423828125 5.081329345703125
        5.063018798828125 4.977569103240967 5.047760009765625 5.639823913574219 6.772056579589844 8.331550598144531
        9.625541687011719 8.517715454101562 7.379378795623779 7.821891784667969 7.687614440917969 6.946014404296875
        7.098602771759033 7.898193359375 7.843254089355469 6.857506275177002 6.741539001464844 8.703880310058594
        10.544143676757812 11.453598022460938 12.802512168884277 15.869621276855469 18.454544067382812 17.200233459472656
        13.843193054199219 12.829978942871094 15.088348388671875 16.034423828125 16.34265899658203 13.605148315429688
        7.010101318359375 3.2776870727539062 4.4740142822265625 4.4221343994140625 3.982665777206421 5.133216857910156
        6.6133575439453125 7.5319671630859375 7.5441741943359375 6.955169677734375 6.704917907714844 7.1352314949035645
        7.742546081542969 7.821891784667969 7.147438049316406 6.942962646484375 7.5136566162109375 7.663200378417969
        7.086395740509033 6.537064075469971 6.2593464851379395 6.11895751953125 5.752738952636719 5.117950439453125
        4.776145935058594 5.023345470428467 5.4872283935546875 6.03656005859375 6.640830993652344 7.5624847412109375
        9.802543640136719 9.591964721679688 9.158607482910156 8.786277770996094 8.72219181060791 9.146400451660156
        9.744560241699219 10.434280395507812 11.096527099609375 11.645865440368652 11.819816589355469 11.429183959960938
        10.937835693359375 10.376296997070312 10.11077880859375 10.119933128356934 10.409866333007812 10.617386817932129
        10.669273376464844 10.397659301757812 9.509567260742188 8.313240051269531 7.4495697021484375 6.949066162109375
        6.689659118652344 6.155586242675781 5.96026611328125 5.758842468261719 5.630668640136719 5.7252726554870605
        5.5238494873046875 5.3987274169921875 5.304115295410156 5.5207977294921875 5.5238494873046875 5.026397705078125
        4.0406494140625 3.115936279296875 2.960296630859375 3.2471694946289062 3.5554046630859375 3.6744308471679688
        3.5737152099609375 3.7171554565429688 4.239021301269531 4.699851989746094 4.931793212890625 5.182044982910156
        5.5726776123046875 5.914489269256592 5.4536590576171875 4.879913330078125 4.779197692871094 4.879913330078125
        4.748680114746094 4.5869293212890625 5.047760009765625 5.420089244842529 5.078277587890625 4.6296610832214355
        4.1138916015625 3.9429931640625 3.7171552181243896 3.8331222534179688 3.8087081909179688 4.019286632537842
        4.303108215332031 4.6113433837890625 4.882965087890625 4.4801177978515625 3.7995529174804688 3.5126802921295166
        3.903320550918579 4.5564117431640625 4.724266052246094 4.7791972160339355 4.715111255645752 4.660179138183594
        4.5625152587890625 4.211555480957031 3.5309906005859375 3.4180755615234375 4.0040283203125 4.4007720947265625
        4.4007720947265625 3.8758544921875 3.2746353149414062 3.3631362915039062 3.9368896484375 4.232917785644531
        4.5197906494140625 4.730369567871094 5.227821350097656 5.4780731201171875 5.230873107910156 5.035553455352783
        5.291908264160156 5.041656494140625 4.876861572265625 5.114898681640625 5.215614318847656 5.090484142303467
        5.279701232910156 6.158637523651123 7.232887268066406 8.194222450256348 8.79848575592041 8.877838134765625
        7.6204681396484375 7.9287109375 7.5960540771484375 6.5523223876953125 6.149482727050781 6.530959606170654
        6.4333038330078125 5.255287170410156 3.9002685546875 4.156623363494873 5.346839904785156 6.01214599609375
        6.7690043449401855 10.501419067382812 15.277565002441406 15.314186096191406 11.9632568359375 10.870688438415527
        13.238929748535156 15.533920288085938 18.05169677734375 19.56541633605957 14.200263023376465 4.333625793457031
        4.916534423828125 5.450607776641846 5.91754150390625 6.222724914550781 7.028411865234375 7.669303894042969
        7.763908386230469 7.296974182128906 6.842247009277344 7.049774169921875 7.562485218048096 7.806633472442627
        7.5868988037109375 7.367164611816406 7.3885345458984375 7.287818908691406 7.089447021484375 7.043670654296875
        6.866661071777344 6.4363555908203125 5.92669677734375 5.4780731201171875 5.355995178222656 5.713066101074219
        6.271553039550781 6.726280212402344 7.058929443359375 7.5533294677734375 10.05279541015625 9.88189697265625
        9.241004943847656 8.688621520996094 8.652000427246094 9.103668212890625 9.491256713867188 10.187080383300781
        11.084320068359375 11.9754638671875 12.439347267150879 12.271492004394531 12.03955078125 11.535995483398438
        11.120941162109375 10.889007568359375 10.763877868652344 10.711997985839844 10.638755798339844 10.498367309570312
        9.93988037109375 9.198280334472656 8.734397888183594 8.438369750976562 8.151496887207031 7.4465179443359375
        6.787315368652344 5.98162841796875 5.343788146972656 5.3804168701171875 5.365150451660156 5.5055389404296875
        5.557419300079346 5.96636962890625 6.1464314460754395 5.758842468261719 4.998931884765625 3.854484796524048
        3.4943692684173584 3.8514325618743896 4.0955810546875 4.165779113769531 4.0498046875 4.010132312774658
        4.242073059082031 4.4648590087890625 4.623558044433594 4.944000244140625 5.365150451660156 5.682548522949219
        5.136268615722656 4.757835388183594 4.724266052246094 4.873810291290283 5.084381580352783 5.2797017097473145
        5.218665599822998 5.075225830078125 4.870750427246094 4.657127380371094 4.171882629394531 4.232917785644531
        4.196296691894531 4.150520324707031 3.976562738418579 4.153572082519531 4.4434967041015625 4.644920349121094
        4.666282653808594 4.5686187744140625 4.333625793457031 3.985718011856079 3.8941650390625 4.528946399688721
        5.041656494140625 5.3315815925598145 5.294960021972656 4.727317810058594 4.336677551269531 3.949096441268921
        3.3906097412109375 3.2532730102539062 3.9185791015625 4.361091613769531 4.339729309082031 3.9429931640625
        3.6133880615234375 3.946044921875 4.6204986572265625 4.715111255645752 4.702903747558594 4.882965087890625
        5.2064595222473145 5.5269012451171875 5.328529357910156 4.867698669433594 4.840232849121094 4.931793212890625
        4.898223876953125 5.069122314453125 5.203407287597656 5.145423889160156 5.4872283935546875 6.262397766113281
        6.875823974609375 7.229835510253906 6.762901306152344 6.4302520751953125 6.707969665527344 7.251197814941406
        6.4272003173828125 5.6215057373046875 5.258338928222656 5.148475646972656 5.7557902336120605 5.056915283203125
        3.2380142211914062 2.03253173828125 3.061004638671875 4.5777740478515625 5.777153015136719 9.244056701660156
        13.638725280761719 13.620408058166504 10.147407531738281 8.706932067871094 10.779136657714844 14.508499145507812
        17.398605346679688 19.186988830566406 15.717032432556152 5.6154022216796875 5.719169616699219 5.688652038574219
        7.8371500968933105 8.0751953125 7.800529479980469 7.876831531524658 7.840202331542969 7.6204681396484375
        7.388535022735596 7.367164611816406 7.3213887214660645 7.196266174316406 7.092498779296875 7.168800354003906
        7.382430553436279 7.318336486816406 7.031464099884033 6.988739013671875 6.924651622772217 6.436355113983154
        5.87786865234375 5.685600280761719 5.832084655761719 6.164741516113281 6.5706329345703125 6.982635498046875
        7.3061299324035645 7.586899280548096 10.00701904296875 10.04974365234375 9.735404968261719 9.344764709472656
        9.393600463867188 9.723198890686035 9.704887390136719 10.211494445800781 11.059906005859375 11.865592956542969
        12.326424598693848 12.421035766601562 12.411880493164062 11.911376953125 11.420028686523438 11.069061279296875
        10.910369873046875 10.864585876464844 10.736412048339844 10.611282348632812 10.141304016113281 9.646903991699219
        9.506515502929688 9.341712951660156 9.146400451660156 8.652000427246094 7.934814453125 6.900238037109375
        5.4078826904296875 4.736473083496094 5.011138916015625 5.639823913574219 5.774101257324219 5.96636962890625
        6.250190734863281 6.01824951171875 5.4811248779296875 4.507583141326904 4.043701171875 4.1566243171691895
        4.318367004394531 4.4526519775390625 4.4892730712890625 4.321418762207031 4.239021301269531 4.266487121582031
        4.318367004394531 4.638816833496094 4.995880126953125 5.011138916015625 4.6266093254089355 4.4160308837890625
        4.3855133056640625 4.5930328369140625 5.142372131347656 5.6123504638671875 5.090485095977783 4.696800231933594
        4.763938903808594 4.635765075683594 4.007080078125 4.144416809082031 4.5228424072265625 4.6021881103515625
        4.199347972869873 4.080322265625 4.217658996582031 4.4770660400390625 4.4953765869140625 4.5686187744140625
        4.675438404083252 4.4770660400390625 4.168830871582031 4.4496002197265625 5.005035400390625 5.334632873535156
        5.209510803222656 4.672386169433594 4.3977203369140625 4.184089660644531 3.7659835815429688 3.4699554443359375
        3.976562738418579 4.4801177978515625 4.5381011962890625 4.4160308837890625 4.4984283447265625 5.011138916015625
        5.4231414794921875 5.197303771972656 4.757835388183594 4.7853007316589355 5.1240620613098145 5.5879364013671875
        5.5146942138671875 4.953155517578125 4.559463977813721 4.770042419433594 5.001984119415283 5.093536376953125
        5.087432861328125 5.215613842010498 5.5757293701171875 5.98468017578125 6.167793273925781 6.01824951171875
        5.673393249511719 5.8076701164245605 6.4119415283203125 6.3936309814453125 5.160682678222656 4.776145935058594
        4.944000720977783 4.721214294433594 4.898224353790283 5.178993225097656 4.248176574707031 2.6551132202148438
        1.6602096557617188 2.917572021484375 5.316322326660156 8.661155700683594 12.219613075256348 11.36814022064209
        7.773063659667969 7.113861083984375 9.167762756347656 12.414932250976562 15.22568416595459 17.096466064453125
        14.786215782165527 6.295966625213623 6.277656555175781 6.201362609863281 8.737449645996094 9.662162780761719
        8.853416442871094 8.246101379394531 8.0751953125 8.197273254394531 8.206428527832031 7.959228038787842
        7.306129455566406 6.5340118408203125 6.094543933868408 6.4027862548828125 7.312232971191406 7.730339050292969
        7.287818431854248 6.729331970214844 6.4272003173828125 6.05487060546875 5.688652038574219 5.697807312011719
        6.00604248046875 6.308174133300781 6.5340118408203125 6.894134521484375 7.202369689941406 7.266456604003906
        9.98260498046875 10.342719078063965 10.687583923339844 10.632652282714844 10.644859313964844 10.742515563964844
        10.452590942382812 10.431228637695312 10.794395446777344 11.230812072753906 11.505478858947754 11.725212097167969
        11.9571533203125 11.685539245605469 11.20639705657959 10.852377891540527 10.821861267089844 10.879852294921875
        10.837120056152344 10.708946228027344 10.174873352050781 9.585861206054688 9.530929565429688 9.472946166992188
        9.500411987304688 9.317298889160156 8.886992454528809 8.157600402832031 6.509597301483154 5.059967041015625
        5.304115295410156 5.87786865234375 5.758842468261719 5.648979187011719 6.00299072265625 5.97247314453125
        5.5177459716796875 4.901275634765625 4.5777740478515625 4.156623840332031 3.9918212890625 4.333625793457031
        4.687644958496094 4.5716705322265625 4.3916168212890625 4.370246887207031 4.321418285369873 4.4434967041015625
        4.5655670166015625 4.5106353759765625 4.287849426269531 4.055908203125 4.06201171875 4.4221343994140625
        4.934845447540283 5.365150451660156 5.032501220703125 4.763938903808594 4.760887145996094 4.626609802246094
        3.839226007461548 3.6561203002929688 4.245124816894531 4.693748474121094 4.4129791259765625 4.11083984375
        3.8514328002929688 4.0040283203125 4.1077880859375 4.187141418457031 4.3763580322265625 4.354988098144531
        4.205451965332031 4.242073059082031 4.696800231933594 5.023345947265625 4.922637939453125 4.657127380371094
        4.5258941650390625 4.4099273681640625 4.0894775390625 3.8300704956054688 3.9735107421875 4.434340953826904
        4.861595153808594 5.246131896972656 5.682548522949219 5.98162841796875 5.844291687011719 5.5513153076171875
        5.148475646972656 5.026397705078125 5.307167053222656 5.645927429199219 5.764945983886719 5.5696258544921875
        5.178992748260498 4.940948486328125 5.178993225097656 5.215614318847656 5.087432861328125 5.5421600341796875
        5.93890380859375 5.841239929199219 5.90228271484375 5.96331787109375 5.887023448944092 6.186103820800781
        6.256294250488281 5.322425842285156 4.153572082519531 3.7873458862304688 4.0162353515625 4.4740142822265625
        4.4129791259765625 4.242073059082031 4.5045318603515625 3.982666015625 2.6551132202148438 1.4252166748046875
        3.033538818359375 6.00299072265625 8.810691833496094 8.236946105957031 6.09149169921875 7.4373626708984375
        9.628592491149902 10.861534118652344 11.850334167480469 13.565476417541504 11.752677917480469 5.2095112800598145
        6.546218395233154 7.208473205566406 9.186073303222656 10.05279541015625 9.253211975097656 8.435318946838379
        8.413955688476562 8.886993408203125 8.896148681640625 8.1148681640625 6.811729431152344 5.7466349601745605
        5.4719696044921875 6.05792236328125 7.052825927734375 7.4831390380859375 7.043670654296875 6.2318806648254395
        5.716118335723877 5.5482635498046875 5.270545959472656 5.072174072265625 5.310218811035156 5.655082702636719
        6.01214599609375 6.5950469970703125 7.110809803009033 7.065032958984375 10.03143310546875 10.626548767089844
        11.258277893066406 11.560409545898438 11.517683982849121 11.27963924407959 11.056853294372559 10.837120056152344
        10.769981384277344 10.907318115234375 10.864585876464844 10.831016540527344 11.096527099609375 11.255227088928223
        11.038543701171875 10.773033142089844 10.803550720214844 10.968353271484375 11.105682373046875 11.096527099609375
        10.553298950195312 9.772026062011719 9.491256713867188 9.353919982910156 9.466842651367188 9.488204956054688
        9.268470764160156 8.911407470703125 7.806632995605469 6.4516143798828125 6.369209289550781 6.259345531463623
        5.819877624511719 5.5146942138671875 5.664237976074219 5.774101257324219 5.5146942138671875 5.240028381347656
        5.087432861328125 4.290901184082031 3.7507247924804688 4.104736328125 4.684593200683594 4.821922302246094
        4.727318286895752 4.638816833496094 4.611343860626221 4.5808258056640625 4.5228424072265625 4.4923248291015625
        4.281745910644531 4.104736328125 4.351936340332031 4.855492115020752 5.084381103515625 5.340736389160156
        5.273597717285156 5.063018798828125 4.773094177246094 4.596084117889404 4.0589599609375 3.5309908390045166
        3.885009765625 4.4373931884765625 4.4038238525390625 4.293952941894531 3.6896893978118896 3.4028167724609375
        3.5004730224609375 3.6591720581054688 3.9002685546875 4.1077880859375 4.214607238769531 4.156623840332031
        4.4221343994140625 4.666282653808594 4.660179138183594 4.5503082275390625 4.4801177978515625 4.287849426269531
        3.8758544921875 3.7781903743743896 3.8148117065429688 4.260383605957031 5.005035400390625 5.7313761711120605
        6.08538818359375 5.825981140136719 5.3407368659973145 5.285804748535156 5.346839904785156 5.325477600097656
        5.316322326660156 5.3926239013671875 5.624565124511719 5.746635913848877 5.4841766357421875 5.108795166015625
        5.212562561035156 5.249183177947998 5.261390686035156 5.734428405761719 5.99688720703125 5.761894226074219
        5.838188171386719 6.152534484863281 6.311225891113281 6.11285400390625 5.310218811035156 4.138313293457031
        3.2685320377349854 3.021331548690796 3.3539810180664062 4.07421875 4.3946685791015625 4.135261058807373
        3.909423828125 3.8453292846679688 3.2105486392974854 2.02032470703125 0.900299072265625 2.02032470703125
        4.01318359375 5.206459045410156 6.6103057861328125 9.109771728515625 11.017181396484375 12.027342796325684
        11.795402526855469 12.778099060058594 10.837120056152344 4.4404449462890625 6.711021423339844 8.261360168457031
        9.250160217285156 8.786277770996094 8.423110961914062 8.545181274414062 8.914459228515625 9.161659240722656
        8.734397888183594 7.660148620605469 6.4394073486328125 5.850395202636719 5.993835926055908 6.314277172088623
        6.527908802032471 6.540114879608154 6.149482727050781 5.5177459716796875 5.310218811035156 5.5421600341796875
        5.557418346405029 5.142372131347656 4.837181091308594 4.834129333496094 5.075225830078125 5.679497241973877
        6.323432922363281 6.6133575439453125 9.97039794921875 10.455642700195312 11.008026123046875 11.365089416503906
        11.249122619628906 11.093475341796875 11.136208534240723 11.069061279296875 11.078216552734375 11.069061279296875
        10.736412048339844 10.373245239257812 10.455641746520996 10.867637634277344 10.895110130310059 10.785240173339844
        10.885954856872559 11.212501525878906 11.667229652404785 11.926636695861816 11.36203670501709 10.370185852050781
        9.710990905761719 9.292885780334473 9.424118995666504 9.512619018554688 9.305091857910156 9.067047119140625
        8.313240051269531 7.333595275878906 7.119964599609375 6.671348571777344 6.2379841804504395 5.7161173820495605
        5.4567108154296875 5.645927429199219 5.664237976074219 5.5024871826171875 5.337684631347656 4.7151103019714355
        4.2085041999816895 4.284797668457031 4.724266052246094 5.084381103515625 5.117950439453125 5.056915760040283
        5.081329345703125 4.892120361328125 4.724266052246094 4.6876444816589355 4.651023864746094 4.818871021270752
        5.270545959472656 5.6031951904296875 5.685600757598877 5.7435832023620605 5.435348033905029 5.133216857910156
        4.757835388183594 4.623558044433594 4.5472564697265625 3.9429931640625 3.848381280899048 4.104736328125
        4.171882629394531 4.4190826416015625 3.9735107421875 3.3784027099609375 3.1678237915039062 3.2654800415039062
        3.6530685424804688 4.1261067390441895 4.3824615478515625 4.312263488769531 4.4007720947265625 4.4343414306640625
        4.4282379150390625 4.358039855957031 4.339729309082031 3.994873046875 3.4669039249420166 3.6286544799804688
        4.0009765625 4.318367004394531 4.785301208496094 5.145423412322998 5.090484619140625 4.6143951416015625
        4.351936340332031 4.5838775634765625 4.956207752227783 5.111846446990967 4.773094177246094 4.5136871337890625
        4.745628356933594 4.864646911621094 4.837181091308594 4.953155994415283 4.898223876953125 4.959259033203125
        5.298011779785156 5.5299530029296875 5.5146942138671875 5.5177459716796875 5.710014343261719 5.914489269256592
        5.8198771476745605 5.139320373535156 3.9857177734375 3.082366943359375 2.6917343139648438 2.987762689590454
        3.6256027221679688 4.007080078125 3.799553155899048 3.4608001708984375 3.100677490234375 2.5971219539642334
        2.06304931640625 1.504562258720398 0.9643860459327698 0.5523833632469177 0.9064025282859802 3.6713790893554688
        7.8188395500183105 8.764915466308594 9.253211975097656 13.193153381347656 15.753654479980469 16.754661560058594
        12.970367431640625 4.876861572265625 7.132179260253906 9.128089904785156 10.00396728515625 7.296973705291748
        7.065033435821533 8.432266235351562 9.515670776367188 9.042633056640625 7.904297351837158 7.4068450927734375
        7.184059143066406 6.994842529296875 6.7110209465026855 6.149482727050781 5.710014820098877 5.6367716789245605
        5.365150451660156 4.849388122558594 4.745628356933594 4.950103759765625 5.017242431640625 4.886016845703125
        4.925689697265625 5.200355529785156 5.249183177947998 5.148475646972656 5.4109344482421875 6.00909423828125
        9.87274169921875 10.150459289550781 10.312202453613281 10.275581359863281 10.437332153320312 10.708946228027344
        10.885955810546875 11.136207580566406 11.358985900878906 11.255227088928223 10.754722595214844 10.296942710876465
        10.333563804626465 10.626548767089844 10.678428649902344 10.647911071777344 10.882904052734375 11.462753295898438
        12.164680480957031 12.552261352539062 12.054808616638184 10.889007568359375 9.93988037109375 9.408859252929688
        9.515670776367188 9.591964721679688 9.292884826660156 8.914459228515625 8.282722473144531 7.5136566162109375
        7.248146057128906 7.040618896484375 6.946014404296875 6.317328929901123 5.648979187011719 5.777153491973877
        5.847343444824219 5.5146942138671875 5.2705464363098145 4.944000244140625 4.870750427246094 4.818871021270752
        4.919586181640625 5.249183177947998 5.4841766357421875 5.359046936035156 5.194252014160156 4.944000244140625
        4.800559997558594 4.718162536621094 4.910430908203125 5.435348033905029 5.810722351074219 5.87481689453125
        5.95111083984375 5.767997741699219 5.194251537322998 4.962311267852783 4.788352966308594 4.742576599121094
        4.675437927246094 4.336677074432373 4.168830394744873 3.994873046875 4.132209777832031 4.5503082275390625
        4.364143371582031 3.8880615234375 3.5676116943359375 3.5554046630859375 3.967406988143921 4.361091613769531
        4.5869293212890625 4.687644958496094 4.663231372833252 4.5319976806640625 4.4038238525390625 4.303108215332031
        4.327522277832031 3.9735107421875 3.5279388427734375 3.87890625 4.4923248291015625 4.5686187744140625
        4.364143371582031 4.1199951171875 4.0040283203125 3.9246826171875 3.98876953125 4.4312896728515625
        4.760887622833252 4.809715270996094 4.4312896728515625 4.104735851287842 4.150520324707031 4.220710754394531
        4.4373931884765625 4.6113433837890625 4.3763580322265625 4.4038238525390625 4.828025817871094 5.038604736328125
        4.986724853515625 5.111846923828125 5.328529357910156 5.319374084472656 4.861595153808594 4.0040283203125
        3.1708755493164062 2.7283554077148438 2.8717877864837646 3.6225509643554688 4.287849426269531 4.327522277832031
        3.7842938899993896 3.2349624633789062 2.8534774780273438 2.4018094539642334 1.93182373046875 1.541183352470398
        1.3580703735351562 1.004058837890625 0.6378402709960938 3.3997652530670166 6.4455108642578125 5.035552978515625
        5.182044982910156 10.415968894958496 15.872681617736816 19.150367736816406 18.378250122070312 11.9327392578125
        9.363075256347656 10.80355167388916 12.274543762207031 8.438369750976562 6.164741516113281 7.5991058349609375
        9.292884826660156 8.374282836914062 7.245094299316406 7.727287292480469 8.185066223144531 7.727287292480469
        6.570633411407471 5.5818328857421875 5.063018798828125 4.995880126953125 4.5655670166015625 3.8666915893554688
        3.5706634521484375 3.6469650268554688 3.897216796875 4.199348449707031 4.4709625244140625 4.919586181640625
        5.4048309326171875 5.3895721435546875 5.053863525390625 5.194252014160156 9.848320007324219 9.802543640136719
        9.671318054199219 9.781181335449219 10.165718078613281 10.513626098632812 10.65401554107666 10.946990966796875
        11.32541561126709 11.380355834960938 10.931732177734375 10.507522583007812 10.477005004882812 10.525833129882812
        10.318306922912598 10.251167297363281 10.727256774902344 11.593978881835938 12.314216613769531 12.628562927246094
        12.286751747131348 11.304054260253906 10.361031532287598 9.653007507324219 9.653006553649902 9.781181335449219
        9.515670776367188 9.021270751953125 8.456680297851562 7.8829345703125 7.608261585235596 7.757804870605469
        8.139289855957031 7.5991058349609375 6.5675811767578125 6.3783721923828125 6.393630504608154 5.673393249511719
        5.014190673828125 4.733421325683594 4.870750427246094 5.069122314453125 5.111847400665283 5.157630920410156
        5.3193745613098145 5.108795166015625 4.876861572265625 4.7517313957214355 4.6143951416015625 4.3519368171691895
        4.5838775634765625 5.1942524909973145 5.4780731201171875 5.5116424560546875 5.4658660888671875 5.041656494140625
        4.6571269035339355 4.843284606933594 5.017242431640625 5.050812244415283 4.760887145996094 4.727317810058594
        4.751731872558594 4.354988098144531 4.4099273681640625 4.773094177246094 4.733421325683594 4.4557037353515625
        4.284797668457031 4.388564586639404 4.626609802246094 4.638816833496094 4.794456481933594 5.026397705078125
        4.922637939453125 4.7883524894714355 4.651023864746094 4.5381011962890625 4.5960845947265625 4.3824615478515625
        4.123054504394531 4.342781066894531 4.721214294433594 4.5594635009765625 4.135261058807373 3.7629318237304688
        4.0101318359375 4.297004699707031 4.458755970001221 4.882965087890625 4.913482666015625 4.760887145996094
        4.824974060058594 4.959259033203125 4.4831695556640625 4.272590637207031 4.3855133056640625 4.235969066619873
        3.973510503768921 4.08642578125 4.4068756103515625 4.6052398681640625 4.736473083496094 4.7730937004089355
        4.681541442871094 4.4618072509765625 4.043701171875 3.5157318115234375 3.161720037460327 3.1708755493164062
        3.5645599365234375 4.245124816894531 4.5472564697265625 4.318367004394531 3.665275812149048 2.8626327514648438
        2.3224563598632812 2.06915283203125 1.91961669921875 1.5320281982421875 1.058990478515625 0.8148422241210938
        1.3214492797851562 2.880950927734375 3.6011807918548584 2.6398544311523438 3.6591720581054688 5.041656017303467
        9.92767333984375 16.0679931640625 19.531845092773438 17.490158081054688 11.755729675292969 11.862541198730469
        13.779106140136719 12.591933250427246 8.08740234375 7.4495697021484375 7.971435070037842 7.086395740509033
        7.6509928703308105 8.700828552246094 8.438369750976562 7.242042541503906 5.975524425506592 5.249183654785156
        4.3977203369140625 4.153572082519531 3.6042327880859375 2.6490097045898438 2.1668167114257812 2.4140169620513916
        2.8504257202148438 3.1922378540039062 3.5859222412109375 4.4068756103515625 5.096588134765625 5.5421600341796875
        5.7985148429870605 5.935852527618408 9.91241455078125 9.729301452636719 9.582809448242188 9.762870788574219
        10.177924156188965 10.541092872619629 10.409866333007812 10.605178833007812 10.928680419921875 11.120942115783691
        11.270484924316406 11.212501525878906 11.035491943359375 10.681480407714844 10.126045227050781 9.95513916015625
        10.477005004882812 11.374252319335938 12.112792015075684 12.439346313476562 12.222664833068848 11.572616577148438
        10.834068298339844 9.94903564453125 9.88189697265625 9.99176025390625 9.817802429199219 9.393600463867188
        9.002960205078125 8.667259216308594 8.346809387207031 8.734397888183594 9.378342628479004 9.057891845703125
        8.081298828125 7.690666198730469 7.568587779998779 6.4333038330078125 5.200355052947998 4.6540751457214355
        4.6479716300964355 4.876861572265625 4.989776611328125 4.620499134063721 4.5258941650390625 4.5533599853515625
        4.477066516876221 4.5319976806640625 4.513686656951904 4.126106262207031 4.0528564453125 4.4465484619140625
        4.666282653808594 4.635765075683594 4.3946685791015625 4.0498046875 4.235969066619873 4.745628356933594
        5.053863525390625 5.273597717285156 5.056915760040283 5.130165100097656 5.194251537322998 4.812767028808594
        4.672386169433594 4.965363025665283 5.081329345703125 4.821922302246094 4.681541442871094 4.913482666015625
        5.117950439453125 4.953155040740967 4.834129333496094 4.846336364746094 4.770042419433594 4.736473083496094
        4.763938903808594 4.870750904083252 4.977569580078125 5.017242431640625 4.828025817871094 4.763938903808594
        4.855492115020752 4.663230895996094 4.4679107666015625 4.4831695556640625 4.873809814453125 4.919586181640625
        4.980621337890625 5.298011779785156 5.1850972175598145 5.063018798828125 5.294960021972656 5.850395202636719
        5.5116424560546875 5.081329345703125 4.5167388916015625 3.958251953125 3.8300702571868896 4.135261535644531
        4.364143371582031 4.5716705322265625 4.818870544433594 4.5747222900390625 4.025390625 3.7293624877929688
        3.6194918155670166 3.6164398193359375 3.8422775268554688 4.150520324707031 4.3824615478515625 4.5808258056640625
        4.5594635009765625 4.223762512207031 3.5157315731048584 2.7466659545898438 2.3499221801757812 2.3377151489257812
        2.1942825317382812 1.7212449312210083 2.2034378051757812 3.5584561824798584 3.4760587215423584 3.5737152099609375
        4.147468566894531 3.5615081787109375 3.8514328002929688 2.6673202514648438 4.269538879394531 10.513625144958496
        15.768913269042969 14.291816711425781 9.302040100097656 9.372238159179688 11.529891967773438 14.63057804107666
        13.922545433044434 11.807609558105469 8.444473266601562 6.985687255859375 9.961241722106934 11.017181396484375
        10.11383056640625 9.356971740722656 8.243050575256348 5.92669677734375 5.243080139160156 3.994873046875
        2.874847412109375 2.6276473999023438 2.3194046020507812 2.2705764770507812 2.2156448364257812 2.10882568359375
        3.4119720458984375 6.4088897705078125 8.243049621582031 8.935821533203125 9.695732116699219 9.94293212890625
        9.98870849609375 9.805595397949219 9.720146179199219 9.857475280761719 10.171821594238281 10.385452270507812
        10.260322570800781 10.541091918945312 10.708946228027344 10.718101501464844 11.215553283691406 11.783195495605469
        11.871696472167969 11.267433166503906 10.419021606445312 10.02838134765625 9.939879417419434 10.245064735412598
        10.986663818359375 11.764884948730469 11.883912086486816 11.517684936523438 11.004974365234375 10.269478797912598
        10.281684875488281 10.205389976501465 10.098570823669434 9.860527038574219 9.680473327636719 9.378341674804688
        8.957183837890625 9.469894409179688 10.08331298828125 9.94903564453125 9.454635620117188 9.237953186035156
        9.033477783203125 7.770011901855469 6.311225891113281 5.383468151092529 4.901275634765625 4.812767028808594
        4.849388122558594 4.364143371582031 4.07421875 4.260383605957031 4.251228332519531 4.2847981452941895
        4.477066516876221 4.324470520019531 3.8483808040618896 3.7934494018554688 3.8117597103118896 3.5431976318359375
        3.3326187133789062 3.5615079402923584 4.0986328125 4.464859485626221 4.705955505371094 5.038604736328125
        5.023346424102783 5.1362690925598145 5.349891662597656 5.020294189453125 4.660179138183594 4.840232849121094
        5.066071033477783 5.011138916015625 4.916533946990967 4.962310791015625 5.090484619140625 5.029449462890625
        4.608291149139404 4.3488850593566895 4.4251861572265625 4.5716705322265625 4.852439880371094 5.243080139160156
        5.148475646972656 5.249183654785156 4.983673095703125 4.837181568145752 4.889068603515625 4.855491638183594
        4.858543395996094 5.069122314453125 5.4506072998046875 5.227821350097656 5.172889232635498 5.5818328857421875
        5.578780651092529 5.288856029510498 5.206459045410156 5.3743133544921875 5.3926239013671875 5.3987274169921875
        4.727317810058594 4.2237629890441895 4.309211254119873 4.663230895996094 4.644920349121094 4.675438404083252
        4.647972106933594 4.126106262207031 3.7080001831054688 3.7934494018554688 3.918578863143921 4.174934387207031
        4.5503082275390625 4.782249450683594 4.846336364746094 4.730369567871094 4.3946685791015625 3.9185791015625
        3.4119720458984375 3.054901123046875 2.8504254817962646 2.8382186889648438 2.7039413452148438 2.4567410945892334
        3.2349624633789062 5.273597717285156 5.6031951904296875 5.084381103515625 5.7527384757995605 3.8178634643554688
        2.5299835205078125 1.7181930541992188 1.7365037202835083 5.941955089569092 9.726249694824219 8.288825988769531
        5.630668640136719 6.01214599609375 7.4648284912109375 11.844230651855469 15.9398193359375 16.928619384765625
        13.760795593261719 10.629600524902344 13.23587703704834 14.581742286682129 15.057830810546875 15.707878112792969
        14.145332336425781 11.279641151428223 12.790306091308594 10.388504028320312 2.4170682430267334 0.9460754990577698
        1.095611572265625 1.2360000610351562 1.3946990966796875 1.7975387573242188 3.5920257568359375 6.387526988983154
        8.886993408203125 11.017181396484375 13.251137733459473 14.688559532165527 9.97955322265625 9.808646202087402
        9.778129577636719 9.848319053649902 10.04974365234375 10.211494445800781 10.397659301757812 10.773033142089844
        10.827964782714844 10.776084899902344 11.072113037109375 11.542098999023438 11.777091979980469 11.224708557128906
        10.238960266113281 9.619430541992188 9.204383850097656 9.076202392578125 9.582809448242188 10.559403419494629
        11.029388427734375 11.185035705566406 11.14536190032959 10.867637634277344 10.934783935546875 10.644858360290527
        10.608230590820312 10.470901489257812 10.370185852050781 9.89410400390625 9.378341674804688 9.860527038574219
        10.257269859313965 10.199287414550781 10.122993469238281 10.190133094787598 10.000914573669434 8.841209411621094
        7.5533294677734375 6.537064075469971 5.865653991699219 5.5146942138671875 5.362098693847656 4.971466064453125
        4.4312896728515625 4.3977203369140625 4.2268147468566895 4.0467529296875 4.196296691894531 4.351936340332031
        3.9918212890625 3.3845062255859375 3.003021240234375 2.6917343139648438 2.975555419921875 3.7629318237304688
        4.123054504394531 4.132209777832031 4.284797668457031 4.504532337188721 4.5472564697265625 4.8005595207214355
        5.166786193847656 4.901275634765625 4.425185680389404 4.382461071014404 4.675437927246094 4.968414306640625
        4.989776611328125 4.852439880371094 4.782249450683594 4.623558044433594 4.1077880859375 4.0162353515625
        4.4312896728515625 4.8219218254089355 5.1393208503723145 5.4139862060546875 4.913482666015625 4.861595153808594
        4.5625152587890625 4.4404449462890625 4.4770660400390625 4.5442047119140625 4.681541442871094 4.910430908203125
        5.285804748535156 5.175941467285156 5.148475646972656 5.6123504638671875 5.706962585449219 5.136268138885498
        4.770042419433594 4.638816833496094 4.770042419433594 5.026397228240967 4.809715747833252 4.666282653808594
        4.715110778808594 4.785301208496094 4.4862213134765625 4.129157543182373 3.878906488418579 3.729362726211548
        3.9033203125 4.303108215332031 4.687644958496094 5.096588134765625 5.252235412597656 5.111846923828125
        4.956207275390625 4.754783630371094 4.339729309082031 3.7293624877929688 3.3204116821289062 3.2563247680664062
        2.996917724609375 2.5788114070892334 2.2736282348632812 2.2736282348632812 3.131202459335327 4.5777740478515625
        4.5136871337890625 4.6021881103515625 5.5940399169921875 4.4007720947265625 1.5869598388671875 0.5584868788719177
        1.8585739135742188 3.823967218399048 5.169837951660156 4.632713317871094 4.568618297576904 4.8707499504089355
        5.816825866699219 8.255256652832031 12.796409606933594 17.020172119140625 17.313148498535156 14.224678039550781
        13.675346374511719 14.996795654296875 16.971343994140625 18.03033447265625 17.191078186035156 16.803489685058594
        18.420974731445312 17.001861572265625 10.122993469238281 6.308174133300781 3.5370941162109375 1.446578860282898
        1.7761763334274292 2.3773956298828125 3.112884521484375 3.698845148086548 5.059967041015625 7.6815104484558105
        10.889007568359375 13.93170166015625 9.93377685546875 9.775077819824219 9.808647155761719 9.91241455078125
        10.104674339294434 10.312203407287598 10.553298950195312 10.824913024902344 11.029388427734375 11.331520080566406
        11.343727111816406 11.181983947753906 10.889007568359375 10.168769836425781 9.176918029785156 8.841209411621094
        8.749656677246094 8.584854125976562 8.810691833496094 9.579757690429688 10.199287414550781 10.925628662109375
        11.392562866210938 11.545150756835938 11.539046287536621 11.16977596282959 11.261329650878906 11.239967346191406
        11.166725158691406 10.599074363708496 10.126045227050781 10.434280395507812 10.449539184570312 10.205390930175781
        10.202340126037598 10.434280395507812 10.184028625488281 9.097564697265625 8.069091796875 7.232887268066406
        6.8361430168151855 6.5919952392578125 6.323432922363281 5.865653991699219 5.114899158477783 4.757835388183594
        4.3794097900390625 3.933837890625 3.89111328125 4.184089660644531 3.9490966796875 3.2288589477539062
        2.7649765014648438 2.7008895874023438 3.2532730102539062 4.174934387207031 4.242073059082031 4.0223388671875
        4.0894775390625 4.174934387207031 4.193244934082031 4.4282379150390625 4.693748474121094 4.480117321014404
        4.174934387207031 4.0986328125 4.196296691894531 4.507583141326904 4.705955505371094 4.5564117431640625
        4.272590637207031 3.976562738418579 3.689689874649048 4.0162353515625 4.632713317871094 5.185096740722656
        5.3956756591796875 5.273597717285156 4.626609802246094 4.4404449462890625 4.129158020019531 3.976562261581421
        3.976562738418579 4.11083984375 4.318367004394531 4.6143951416015625 4.962310791015625 4.986724853515625
        5.035552978515625 5.288856029510498 5.301063537597656 4.821922302246094 4.3824615478515625 4.193244934082031
        4.5167388916015625 4.977569580078125 4.916534423828125 4.727317810058594 4.312263488769531 3.9674072265625
        3.6591718196868896 3.3875579833984375 3.4119720458984375 3.8056564331054688 4.361091613769531 4.766990661621094
        5.294960021972656 5.645927429199219 5.664237976074219 5.5269012451171875 5.215614318847656 4.779197692871094
        4.132209777832031 3.3875579833984375 2.917572021484375 2.758873224258423 2.4201202392578125 2.05999755859375
        1.9898072481155396 2.7680282592773438 4.4496002197265625 5.2522358894348145 4.3916168212890625 4.367195129394531
        4.5258941650390625 3.4516451358795166 1.3946990966796875 1.2848283052444458 2.2034380435943604 3.073211669921875
        3.3082046508789062 3.1373062133789062 4.336677551269531 5.056915283203125 5.636772155761719 6.170845031738281
        7.696770191192627 11.508529663085938 15.341651916503906 14.77095890045166 10.885955810546875 10.263374328613281
        13.049713134765625 15.387435913085938 16.0191650390625 16.571548461914062 17.90826416015625 18.69869041442871
        18.12799835205078 17.72515106201172 14.200263977050781 6.05487060546875 1.116973876953125 1.7700729370117188
        2.7039413452148438 2.896209716796875 3.4974210262298584 4.7883524894714355 6.939910888671875 9.521774291992188
        9.756767272949219 9.671318054199219 9.857475280761719 10.10162353515625 10.217597961425781 10.266425132751465
        10.278633117675781 10.513626098632812 11.011077880859375 11.465804100036621 11.447494506835938 11.014130592346191
        10.345771789550781 9.341712951660156 8.417007446289062 8.310188293457031 8.438369750976562 8.511611938476562
        8.642845153808594 9.042633056640625 9.741508483886719 10.852378845214844 11.648917198181152 12.009033203125
        11.9632568359375 11.587874412536621 11.789299011230469 11.9510498046875 12.048705101013184 11.554306030273438
        11.258277893066406 11.273536682128906 10.934783935546875 10.422073364257812 10.269477844238281 10.391555786132812
        10.02532958984375 9.057891845703125 8.224739074707031 7.5289154052734375 7.251197814941406 7.1810078620910645
        6.994842052459717 6.5279083251953125 5.725273609161377 5.307167053222656 4.644920349121094 4.043701171875
        4.049804210662842 4.3824615478515625 4.2085041999816895 3.8300704956054688 3.6133882999420166 3.6896896362304688
        3.872802734375 4.5289459228515625 4.556411266326904 4.312263488769531 4.260383605957031 4.242073059082031
        4.229866027832031 4.293952941894531 4.4740142822265625 4.4373931884765625 4.354988098144531 4.303107738494873
        4.0345458984375 4.013183116912842 4.220710754394531 4.159675598144531 3.8239669799804688 3.6500167846679688
        3.7293624877929688 4.2024006843566895 4.693748474121094 5.182044982910156 5.273597717285156 5.026397705078125
        4.5045318603515625 4.1779866218566895 3.903320550918579 3.96435546875 4.239021301269531 4.4892730712890625
        4.5930328369140625 4.718162536621094 4.821922302246094 4.797508239746094 4.886016845703125 4.913482666015625
        4.824974060058594 4.654075622558594 4.4251861572265625 4.504532337188721 4.904327392578125 5.032501220703125
        4.690696716308594 4.315315246582031 3.3784027099609375 2.8382186889648438 2.896209716796875 3.070159912109375
        3.4150238037109375 3.9002685546875 4.3733062744140625 4.831077575683594 5.294960021972656 5.4597625732421875
        5.4414520263671875 5.349891662597656 4.934844493865967 4.06201171875 3.003021240234375 2.4048614501953125
        2.2919387817382812 2.09967041015625 1.8829954862594604 2.2522659301757812 2.975555419921875 4.5625152587890625
        6.4272003173828125 6.378371715545654 4.730369567871094 4.159675598144531 3.3692400455474854 1.8768919706344604
        0.6592025756835938 1.6083221435546875 2.847374200820923 2.932830810546875 2.1790239810943604 1.8524703979492188
        3.5035245418548584 4.6204986572265625 5.142372131347656 5.453659534454346 5.246131896972656 5.432297229766846
        9.329505920410156 12.472915649414062 8.841209411621094 6.1464314460754395 8.352912902832031 11.32846736907959
        12.509536743164062 12.945953369140625 14.679405212402344 16.968292236328125 18.19208526611328 18.591873168945312
        18.29279327392578 12.366096496582031 2.1271438598632812 0.6836166381835938 1.89520263671875 2.6337509155273438
        3.5981290340423584 4.660179138183594 5.88702392578125 7.477035045623779 9.381393432617188 9.411911010742188
        9.778129577636719 10.129096984863281 10.116883277893066 9.796440124511719 9.714042663574219 10.205389976501465
        10.690635681152344 10.925628662109375 10.962249755859375 10.806602478027344 10.196235656738281 9.183021545410156
        8.542129516601562 8.505508422851562 8.575698852539062 8.621475219726562 8.716087341308594 8.960235595703125
        9.805595397949219 10.870689392089844 11.743522644042969 12.204352378845215 12.179940223693848 11.816764831542969
        11.984619140625 12.311164855957031 12.573623657226562 12.231819152832031 12.0120849609375 11.835075378417969
        11.352882385253906 10.867637634277344 10.669273376464844 10.538039207458496 10.02227783203125 9.241004943847656
        8.682518005371094 8.08740234375 7.721183776855469 7.5655364990234375 7.4404144287109375 7.086395263671875
        6.5248565673828125 6.176948547363281 5.209510803222656 4.4862213134765625 4.626609802246094 5.011139392852783
        5.294960021972656 5.4475555419921875 5.2888569831848145 5.148475646972656 4.663230895996094 4.739524841308594
        4.770042419433594 4.672386169433594 4.4831695556640625 4.4160308837890625 4.5167388916015625 4.5991363525390625
        4.861595153808594 5.008087158203125 4.916534423828125 4.824974060058594 4.4618072509765625 3.9918212890625
        3.8239669799804688 3.91552734375 3.7049484252929688 3.6378097534179688 4.0009765625 4.4709625244140625
        4.812767028808594 5.157630920410156 5.056915283203125 4.696800231933594 4.312263488769531 4.156623840332031
        4.055908203125 4.4465484619140625 5.029449462890625 5.279701232910156 5.108795642852783 4.910430908203125
        4.785301208496094 4.748680114746094 4.8554911613464355 4.696800231933594 4.4282379150390625 4.4801177978515625
        4.666282653808594 4.928741455078125 5.017242431640625 4.6052398681640625 4.0711669921875 3.7263107299804688
        2.7130963802337646 2.117980718612671 2.4445340633392334 2.923675537109375 3.3295671939849854 3.7781903743743896
        4.184089660644531 4.5228424072265625 4.736473083496094 4.782249450683594 4.678489685058594 4.312263488769531
        3.6988449096679688 2.8443222045898438 2.07220458984375 1.89825439453125 2.102722406387329 2.1851272583007812
        2.4994659423828125 3.6072847843170166 4.773094177246094 5.95416259765625 6.5218048095703125 6.292915344238281
        5.111846446990967 3.3784027099609375 1.4343719482421875 0.29602813720703125 0.9338683485984802 2.04779052734375
        3.5828704833984375 3.4485933780670166 3.2715835571289062 2.8412702083587646 3.1525650024414062 4.0650634765625
        4.5106353759765625 4.690696716308594 4.5686187744140625 4.3763580322265625 4.4282379150390625 7.9195556640625
        7.7333903312683105 4.327522277832031 5.3743133544921875 6.469925403594971 6.839195728302002 7.016204833984375
        9.292884826660156 13.861503601074219 17.160560607910156 18.11578369140625 18.03033447265625 17.062896728515625
        9.250160217285156 2.4872589111328125 1.6907272338867188 2.4506378173828125 3.622551202774048 5.069122314453125
        6.265449523925781 7.4007415771484375 9.231849670410156 9.341712951660156 9.710990905761719 10.00701904296875
        9.88494873046875 9.607223510742188 9.665215492248535 10.10467529296875 10.315254211425781 10.180976867675781
        10.187081336975098 10.263374328613281 9.99481201171875 9.390548706054688 9.149452209472656 9.170814514160156
        9.082305908203125 9.002960205078125 9.079254150390625 9.491256713867188 10.159614562988281 10.730308532714844
        11.343727111816406 11.835075378417969 11.908326148986816 11.716056823730469 12.0548095703125 12.344734191894531
        12.509536743164062 12.237922668457031 12.0487060546875 11.841179847717285 11.407821655273438 11.120941162109375
        11.038544654846191 10.76693058013916 10.242012023925781 9.710990905761719 9.259315490722656 8.722190856933594
        8.343757629394531 8.0233154296875 7.6174163818359375 7.330543518066406 7.266456604003906 7.193214416503906
        6.183051586151123 5.282752990722656 5.319374084472656 5.5696258544921875 6.131172180175781 6.646934509277344
        6.698814868927002 6.500442981719971 5.618453502655029 4.983673095703125 4.681541442871094 4.785301208496094
        4.678489685058594 4.641868591308594 4.889068603515625 5.136268615722656 5.4170379638671875 5.4994354248046875
        5.4139862060546875 5.319374084472656 5.044708251953125 4.4648590087890625 3.885009527206421 4.0040283203125
        3.9918212890625 4.043701171875 4.4801177978515625 4.916534423828125 5.218666076660156 5.3987274169921875
        5.084381103515625 4.5808258056640625 4.321418762207031 4.3733062744140625 4.4618072509765625 4.934844493865967
        5.404831409454346 5.4139862060546875 5.084381103515625 4.882964611053467 4.782249450683594 4.712059020996094
        4.815818786621094 4.702903747558594 4.3824615478515625 4.5106353759765625 4.858543395996094 4.937896728515625
        4.528945446014404 3.7202072143554688 3.2197036743164062 3.1403579711914062 2.6398544311523438 2.09967041015625
        2.3163528442382812 2.8504254817962646 3.180030584335327 3.5706634521484375 3.9124755859375 4.019287109375
        3.900268793106079 3.7049484252929688 3.6011810302734375 3.4424896240234375 3.088470458984375 2.6520614624023438
        2.3346633911132812 2.2949905395507812 2.5238800048828125 3.033538818359375 3.982665777206421 5.084381103515625
        5.740531921386719 6.372269153594971 6.02435302734375 5.224769115447998 4.4312896728515625 2.05084228515625
        0.7812729477882385 1.6449508666992188 1.507614254951477 1.7944869995117188 3.2837905883789062 4.5106353759765625
        5.969421863555908 5.8076701164245605 3.5950775146484375 3.4699554443359375 3.897216796875 4.1840901374816895
        4.0467529296875 4.0009765625 3.93994140625 4.03759765625 4.452652454376221 2.868736505508423
        3.1525652408599854 2.6337509155273438 2.11798095703125 3.042694091796875 4.925689697265625 9.134193420410156
        13.779106140136719 17.072052001953125 17.79839515686035 18.21649932861328 16.690574645996094 11.062957763671875
        5.710014343261719 2.8443222045898438 3.2441177368164062 4.6113433837890625 6.03350830078125 7.135231018066406
        9.268470764160156 9.375289916992188 9.521774291992188 9.714043617248535 9.756767272949219 9.717094421386719
        9.778129577636719 9.93072509765625 9.857475280761719 9.582809448242188 9.649955749511719 9.796440124511719
        9.738456726074219 9.451583862304688 9.494309425354004 9.576705932617188 9.503464698791504 9.445481300354004
        9.656059265136719 10.162666320800781 10.458694458007812 10.504471778869629 10.687583923339844 11.090423583984375
        11.465805053710938 11.777091979980469 12.192146301269531 12.152473449707031 12.070068359375 11.789299011230469
        11.603134155273438 11.389511108398438 10.953094482421875 10.730308532714844 10.763877868652344 10.702842712402344
        10.501419067382812 10.229804992675781 9.585861206054688 8.856468200683594 8.529922485351562 8.258308410644531
        7.629631042480469 7.156593322753906 7.3915863037109375 7.623527526855469 6.7629008293151855 5.859550476074219
        5.810722351074219 5.697807312011719 6.03656005859375 6.6072540283203125 7.077239513397217 7.248146057128906
        6.6011505126953125 5.8442912101745605 5.053863525390625 5.044708251953125 5.175941467285156 5.124061584472656
        5.218666076660156 5.4933319091796875 5.734428405761719 5.676445007324219 5.6184539794921875 5.4689178466796875
        5.166786193847656 4.904327392578125 4.4679107666015625 4.4465484619140625 4.712059020996094 4.913482189178467
        5.197303771972656 5.5207977294921875 5.749687194824219 5.697807312011719 5.294960021972656 4.974517822265625
        4.693748474121094 4.6052398681640625 4.718163013458252 5.056915283203125 5.203407287597656 5.014190673828125
        4.782249927520752 4.782249450683594 4.849388122558594 4.785301208496094 4.806663513183594 4.8341288566589355
        4.867698669433594 4.910430908203125 4.815818786621094 4.4221343994140625 3.7537765502929688 3.033538818359375
        2.7405624389648438 2.8107528686523438 2.987762451171875 2.7802352905273438 2.5116729736328125 2.8107528686523438
        3.064056634902954 3.4424896240234375 3.6256027221679688 3.4882662296295166 3.057952880859375 2.5482940673828125
        2.5330352783203125 2.8412702083587646 2.969451904296875 2.948089599609375 3.134254217147827 3.3509292602539062
        3.4485929012298584 3.888061761856079 4.824974060058594 5.587935924530029 5.767997741699219 5.771049499511719
        5.142372131347656 4.3946685791015625 3.2380142211914062 1.046783447265625 1.7212448120117188 2.2461624145507812
        1.3519668579101562 0.5035552382469177 2.264472723007202 3.8514328002929688 5.5848846435546875 6.860557556152344
        4.6204986572265625 2.914520263671875 3.3021011352539062 3.8087081909179688 3.775139093399048 3.8148117065429688
        3.8941650390625 3.6744308471679688 3.079315185546875 2.07830810546875 1.6083221435546875 1.3824920654296875
        1.93487548828125 4.034546375274658 4.495376110076904 4.837181091308594 7.119964599609375 11.124001502990723
        14.258247375488281 16.769920349121094 18.10357666015625 17.70684051513672 15.118865966796875 9.848320007324219
        5.5543670654296875 5.777153015136719 6.2501912117004395 6.5919952392578125 9.15860652923584 9.158607482910156
        9.100616455078125 9.326454162597656 9.570602416992188 9.683525085449219 9.726249694824219 9.665214538574219
        9.445481300354004 9.384445190429688 9.634696960449219 9.762870788574219 9.735404968261719 9.469895362854004
        9.405807495117188 9.482101440429688 9.598068237304688 9.692680358886719 10.08941650390625 10.470901489257812
        10.559403419494629 10.354926109313965 10.409866333007812 10.724205017089844 11.178932189941406 11.761833190917969
        12.0181884765625 11.593978881835938 11.252174377441406 10.983612060546875 10.919525146484375 10.754722595214844
        10.348823547363281 10.08636474609375 10.211494445800781 10.403762817382812 10.620437622070312 10.510574340820312
        9.747611999511719 9.039581298828125 9.018218994140625 9.036529541015625 8.423110961914062 7.4892425537109375
        7.336647033691406 7.461776256561279 6.5095977783203125 5.780204772949219 5.94500732421875 5.627616882324219
        5.633720397949219 6.01214599609375 6.796471118927002 7.312232971191406 7.306129455566406 7.119964599609375
        6.271553039550781 5.761894226074219 5.771049499511719 5.6428751945495605 5.4872283935546875 5.673393249511719
        5.94195556640625 5.929748058319092 5.767997741699219 5.3956756591796875 4.980621337890625 4.977569580078125
        4.904326915740967 5.038604736328125 5.4384002685546875 5.633720397949219 5.7710490226745605 5.94500732421875
        5.91754150390625 5.630668640136719 5.362098693847656 5.4139862060546875 5.258338928222656 4.947052001953125
        4.861595153808594 5.090484619140625 5.084381103515625 4.931793212890625 4.864646911621094 4.983673095703125
        5.063018798828125 4.953155040740967 4.864646911621094 4.944000244140625 5.264442443847656 5.233924388885498
        4.6998515129089355 3.958251953125 3.3875579833984375 3.1891860961914062 3.289893865585327 3.4058685302734375
        3.8239669799804688 3.982666015625 3.4546964168548584 3.2074966430664062 3.3173599243164062 3.6347579956054688
        3.4241790771484375 2.972503423690796 2.5513458251953125 1.8585739135742188 1.5686492919921875 2.07830810546875
        3.079315185546875 3.7171552181243896 4.242073059082031 4.6174468994140625 4.5014801025390625 4.5869293212890625
        5.221717357635498 5.8076701164245605 5.853446960449219 5.4475555419921875 4.3794097900390625 3.3356704711914062
        2.2339553833007812 0.979644775390625 1.2421035766601562 1.074249267578125 1.028472900390625 2.1881790161132812
        2.8168563842773438 3.2349624633789062 4.104735851287842 5.175941467285156 4.181037902832031 3.1495132446289062
        3.3814544677734375 3.5157318115234375 3.3417739868164062 3.2990496158599854 3.4150238037109375 3.2959976196289062
        2.8595809936523438 2.4933624267578125 2.5513458251953125 3.1281509399414062 3.961303472518921 5.072174072265625
        4.1077880859375 2.8656845092773438 2.7161483764648438 5.117950439453125 9.228797912597656 13.171791076660156
        16.980499267578125 19.235816955566406 18.668176651000977 14.249092102050781 6.6805033683776855 3.5828707218170166
        4.937896728515625 5.4658660888671875 8.691673278808594 8.767967224121094 8.835105895996094 9.152503967285156
        9.546189308166504 9.735404968261719 9.640799522399902 9.472946166992188 9.341712951660156 9.451583862304688
        9.836112976074219 10.01007080078125 9.92156982421875 9.524826049804688 9.274574279785156 9.421067237854004
        9.595016479492188 9.781181335449219 10.07415771484375 10.354927062988281 10.455642700195312 10.299995422363281
        10.461746215820312 10.654014587402344 10.876800537109375 11.349830627441406 11.352882385253906 10.72420597076416
        10.147407531738281 9.93988037109375 10.177926063537598 10.315255165100098 10.09246826171875 9.833061218261719
        9.848319053649902 10.065001487731934 10.507521629333496 10.528883934020996 9.93682861328125 9.692680358886719
        10.03753662109375 10.260322570800781 9.808647155761719 8.670310974121094 8.008056640625 7.864616394042969
        6.872772216796875 6.4638214111328125 6.735435485839844 6.3600544929504395 5.957214832305908 5.853446960449219
        6.5828399658203125 7.007050037384033 7.4648284912109375 7.782218933105469 7.293922424316406 6.421096324920654
        5.954163074493408 5.7741007804870605 5.710014820098877 5.819877624511719 6.04266357421875 6.149482727050781
        5.92059326171875 5.432297229766846 4.965362548828125 4.858543395996094 4.846336364746094 5.227821350097656
        5.5146942138671875 5.4994354248046875 5.728324890136719 5.871757984161377 5.694755554199219 5.3926239013671875
        5.124061584472656 5.304115295410156 5.5146942138671875 5.212562561035156 4.956207275390625 5.148475646972656
        5.279700756072998 5.380417346954346 5.5116424560546875 5.615402698516846 5.5238494873046875 5.270545959472656
        4.968414306640625 4.840233325958252 4.965362548828125 4.8097147941589355 4.5136871337890625 4.0284423828125
        3.6713790893554688 3.87890625 4.3580403327941895 4.745628356933594 4.983673095703125 5.090484619140625
        4.702903747558594 4.1871418952941895 3.9979248046875 3.924682378768921 3.2624285221099854 2.4018094539642334
        2.1271438598632812 2.1546096801757812 2.3773956298828125 3.662224054336548 5.154579162597656 5.2369771003723145
        4.934844970703125 4.840232849121094 4.742576599121094 4.876861572265625 5.298011779785156 5.645927429199219
        5.362098693847656 4.6113433837890625 3.5096282958984375 2.4720001220703125 1.5839080810546875 1.1597059965133667
        0.6927719116210938 1.7120895385742188 3.881958246231079 5.5024871826171875 4.361091613769531 3.265479803085327
        3.3936614990234375 3.5981292724609375 3.076263427734375 3.1617202758789062 3.6744308471679688 3.5645599365234375
        3.3082046508789062 3.2898943424224854 3.4211275577545166 3.4485929012298584 3.4913179874420166 3.7202072143554688
        3.9796142578125 4.1657795906066895 4.208503723144531 4.315315246582031 3.4943695068359375 2.1698684692382812
        2.10272216796875 3.5370938777923584 5.670341491699219 8.545181274414062 13.486129760742188 17.83196258544922
        20.035400390625 19.76988983154297 16.684471130371094 12.329476356506348 5.001983642578125 2.4689483642578125
        8.178962707519531 8.563491821289062 8.987701416015625 9.424118041992188 9.88494873046875 10.165718078613281
        10.092469215393066 9.787284851074219 9.601119995117188 9.765922546386719 10.08941650390625 10.205390930175781
        10.049742698669434 9.512619018554688 9.216590881347656 9.353920936584473 9.546188354492188 9.695732116699219
        9.775077819824219 9.96429443359375 10.09552001953125 10.113829612731934 10.296943664550781 10.281683921813965
        10.303047180175781 10.684531211853027 10.583816528320312 9.915465354919434 9.094513893127441 9.009063720703125
        9.686576843261719 10.312202453613281 10.336616516113281 10.00091552734375 9.710989952087402 9.796440124511719
        10.272529602050781 10.254219055175781 9.860527038574219 9.93988037109375 10.434281349182129 10.760826110839844
        10.599076271057129 9.95819091796875 9.527877807617188 9.253211975097656 8.597061157226562 8.432266235351562
        8.426162719726562 7.9195556640625 7.068084239959717 6.353950500488281 6.4546661376953125 6.5980987548828125
        7.162696838378906 7.708976745605469 7.654045104980469 6.924652099609375 6.079284191131592 5.725273132324219
        5.816825866699219 5.91448974609375 5.948059558868408 6.05181884765625 5.8595499992370605 5.5665740966796875
        5.117950439453125 4.843284606933594 4.736473083496094 5.102691650390625 5.142372131347656 5.017242431640625
        5.301063537597656 5.4811248779296875 5.4200897216796875 5.175941467285156 4.889068603515625 4.992828369140625
        5.209510803222656 5.160682201385498 5.154579162597656 5.3773651123046875 5.590987682342529 5.807671070098877
        6.01519775390625 6.05792236328125 5.871757507324219 5.6123504638671875 5.066070556640625 4.684593200683594
        4.6052398681640625 4.4038238525390625 4.5838775634765625 4.5625152587890625 4.205451965332031 4.269538402557373
        4.889068126678467 5.667289733886719 5.801567077636719 5.554366588592529 5.2583394050598145 4.898223876953125
        4.4923248291015625 3.906372308731079 3.048797607421875 2.07830810546875 1.9043577909469604 2.6520614624023438
        4.0009765625 5.618453502655029 6.656089782714844 6.204414367675781 5.035553455352783 4.5258941650390625
        4.6113433837890625 5.066070556640625 5.5207977294921875 5.4475555419921875 4.651023864746094 3.6805343627929688
        2.969451904296875 2.4048614501953125 1.99285888671875 1.97760009765625 2.5910184383392334 3.5737152099609375
        4.8158183097839355 6.00604248046875 5.365150451660156 3.1434097290039062 2.5940704345703125 2.6154327392578125
        2.6062774658203125 2.7192001342773438 3.2136001586914062 3.5981292724609375 3.5370941162109375 3.3967132568359375
        3.3722989559173584 3.5615084171295166 3.772087335586548 4.0284423828125 4.293952941894531 4.361091613769531
        4.345832824707031 4.318367004394531 3.8605880737304688 3.115936279296875 3.1800308227539062 3.5554046630859375
        3.5004730224609375 4.666282653808594 8.481094360351562 12.747581481933594 16.18091583251953 18.26837921142578
        19.84923553466797 20.584732055664062 17.621383666992188 11.383407592773438 8.0233154296875 8.584854125976562
        9.268470764160156 9.753716468811035 10.144355773925781 10.599075317382812 10.733360290527344 10.449539184570312
        10.177924156188965 10.211494445800781 10.306098937988281 10.312202453613281 10.07110595703125 9.472946166992188
        9.173866271972656 9.356971740722656 9.549240112304688 9.595016479492188 9.552291870117188 9.543136596679688
        9.445480346679688 9.460740089416504 9.570602416992188 9.402755737304688 9.527877807617188 10.02532958984375
        10.00091552734375 9.576705932617188 8.700828552246094 8.648948669433594 9.479048728942871 10.260321617126465
        10.428176879882812 10.00701904296875 9.595016479492188 9.732352256774902 10.11077880859375 9.851371765136719
        9.576705932617188 9.756767272949219 10.162666320800781 10.602127075195312 10.76693058013916 10.766929626464844
        10.794395446777344 10.528884887695312 10.08636474609375 9.778129577636719 9.311195373535156 8.716086387634277
        7.779167175292969 6.735435485839844 6.08233642578125 6.155586242675781 6.659142017364502 7.348854064941406
        7.638786315917969 7.339698791503906 6.5828399658203125 5.98468017578125 5.941956043243408 5.97857666015625
        5.8473429679870605 5.87481689453125 5.8046183586120605 5.694755554199219 5.1728901863098145 4.922637939453125
        4.907379627227783 5.182044982910156 5.285804748535156 5.206459045410156 5.352943420410156 5.5085906982421875
        5.438400745391846 5.136268615722656 4.910430908203125 4.840233325958252 4.919586181640625 5.224769592285156
        5.5574188232421875 5.713066101074219 5.841239929199219 6.00909423828125 6.08843994140625 6.07012939453125
        5.850395679473877 5.688652515411377 5.209510803222656 4.910430908203125 5.011138916015625 4.879913330078125
        5.172889232635498 5.206459045410156 4.675438404083252 4.5411529541015625 5.127113342285156 5.914489269256592
        5.789360046386719 5.3224263191223145 5.041656494140625 4.907379150390625 4.690696716308594 4.144416809082031
        3.3692398071289062 2.975555419921875 3.3326187133789062 4.330574035644531 5.4933319091796875 6.3234333992004395
        6.5187530517578125 5.945006847381592 4.8310770988464355 4.315315246582031 4.5350494384765625 5.032501220703125
        5.316322326660156 4.892120361328125 3.9429931640625 2.951141357421875 2.4323272705078125 2.307197332382202
        2.3346633911132812 2.8077011108398438 3.8697433471679688 4.501479625701904 4.5411529541015625 4.229866027832031
        3.897216796875 2.652061700820923 2.08135986328125 2.5238800048828125 2.887054443359375 2.6978378295898438
        3.2929458618164062 3.921630859375 3.881958246231079 3.4791107177734375 3.3845062255859375 3.5370941162109375
        3.7202072143554688 3.8453290462493896 3.903320550918579 4.0345458984375 4.4282379150390625 4.5686187744140625
        4.150520324707031 3.6378097534179688 3.4485933780670166 3.3143081665039062 3.051849603652954 2.945037841796875
        3.918578863143921 6.259346008300781 9.112823486328125 11.810661315917969 14.371162414550781 17.120880126953125
        19.98046875 20.703758239746094 8.270515441894531 8.771018981933594 9.463790893554688 9.790336608886719
        10.08941650390625 10.657066345214844 10.937836647033691 10.766929626464844 10.495315551757812 10.510575294494629
        10.473953247070312 10.296943664550781 10.01617431640625 9.506516456604004 9.286781311035156 9.488204956054688
        9.710990905761719 9.604172706604004 9.356971740722656 9.048736572265625 8.731346130371094 8.694725036621094
        8.688621520996094 8.429214477539062 8.694725036621094 9.390547752380371 9.732352256774902 9.665214538574219
        8.816795349121094 8.548233032226562 9.045684814453125 9.640800476074219 9.823906898498535 9.494308471679688
        9.399703979492188 9.799492835998535 9.99786376953125 9.604171752929688 9.610275268554688 9.820854187011719
        9.99176025390625 10.263374328613281 10.422073364257812 10.580764770507812 10.827964782714844 10.849327087402344
        10.736412048339844 10.196235656738281 9.228797912597656 8.398695945739746 7.492293834686279 6.5431671142578125
        5.853446960449219 5.859550476074219 6.189155578613281 6.799522399902344 7.211524963378906 7.2725605964660645
        7.092498779296875 6.695762634277344 6.292915344238281 6.05487060546875 5.829032897949219 5.91143798828125
        5.98468017578125 5.893127918243408 5.1728901863098145 4.968414306640625 5.154579162597656 5.539107799530029
        5.91448974609375 5.99078369140625 5.917541027069092 5.8687052726745605 5.755790710449219 5.4414520263671875
        5.114898681640625 4.812767028808594 4.794456481933594 5.218666076660156 5.5879364013671875 5.6459269523620605
        5.813774585723877 6.07318115234375 6.07318115234375 5.92059326171875 5.639823913574219 5.5085906982421875
        5.319374084472656 5.240028381347656 5.5787811279296875 5.5513153076171875 5.673393249511719 5.6092987060546875
        5.240028381347656 5.200355529785156 5.4963836669921875 5.850395202636719 5.368202209472656 4.910430908203125
        4.852439880371094 5.029449462890625 5.243080139160156 5.041656970977783 4.339729309082031 4.754783630371094
        5.999939441680908 6.823936462402344 6.930755615234375 6.3966827392578125 5.957213878631592 5.288856506347656
        4.6174468994140625 4.333625793457031 4.4892730712890625 4.681541442871094 4.455704212188721 3.7385177612304688
        3.115936517715454 2.7039413452148438 2.5574495792388916 2.636802911758423 2.960296630859375 3.6042330265045166
        4.1138916015625 4.1077880859375 4.0650634765625 3.8422775268554688 3.3997650146484375 2.5940704345703125
        2.3651809692382812 2.978607177734375 3.2074966430664062 3.2441177368164062 4.126106262207031 4.306159973144531
        3.933837890625 3.3295671939849854 3.2349627017974854 3.3906097412109375 3.6317062377929688 3.711052179336548
        3.7659833431243896 4.007080078125 4.303108215332031 4.226814270019531 3.7995529174804688 3.2654800415039062
        2.8046493530273438 2.5208282470703125 2.6429061889648438 2.7710800170898438 2.4353790283203125 2.6368026733398438
        3.955200433731079 5.4628143310546875 6.891082763671875 9.234901428222656 12.356941223144531 15.811637878417969
        8.871726989746094 9.170814514160156 9.625542640686035 9.582809448242188 9.686576843261719 10.306098937988281
        10.605178833007812 10.605177879333496 10.568557739257812 10.669272422790527 10.599075317382812 10.199287414550781
        9.88189697265625 9.695732116699219 9.610275268554688 9.686576843261719 9.90936279296875 9.607223510742188
        8.969390869140625 8.438369750976562 8.227790832519531 8.246101379394531 8.243050575256348 7.8951416015625
        7.995849609375 8.627586364746094 9.323402404785156 9.482101440429688 8.862571716308594 8.438369750976562
        8.481094360351562 8.905303955078125 9.076202392578125 8.871726989746094 9.121978759765625 9.564498901367188
        9.732352256774902 9.637747764587402 9.854423522949219 9.89715576171875 9.756767272949219 9.802543640136719
        9.772026062011719 9.765922546386719 10.101622581481934 10.681480407714844 11.047698974609375 10.534988403320312
        9.341712951660156 8.230842590332031 7.220680236816406 6.5309600830078125 6.149482727050781 6.08843994140625
        6.207465648651123 6.469925403594971 6.762901306152344 6.912444591522217 7.2115254402160645 7.245094299316406
        6.625572204589844 6.11590576171875 5.798515319824219 5.883972644805908 6.073180675506592 6.158638000488281
        5.4780731201171875 5.258338928222656 5.5146942138671875 5.899230480194092 6.274604797363281 6.4180450439453125
        6.271553039550781 6.09149169921875 6.018249034881592 5.789360523223877 5.340736389160156 4.867698669433594
        4.696800231933594 4.925689697265625 5.215614318847656 5.313270568847656 5.5421600341796875 5.880920886993408
        5.801567077636719 5.5391082763671875 5.307166576385498 5.160682678222656 5.111846446990967 5.108795166015625
        5.453658580780029 5.5940399169921875 5.645927429199219 5.658134460449219 5.664237976074219 5.734428405761719
        5.658134460449219 5.5238494873046875 5.111847400665283 5.041656494140625 5.224769592285156 5.4750213623046875
        5.655083179473877 5.4109344482421875 4.937896728515625 5.673393249511719 7.147438049316406 7.4526214599609375
        7.034515380859375 5.96026611328125 5.087432861328125 4.562515735626221 4.3916168212890625 4.300056457519531
        4.11083984375 3.7141036987304688 3.122040033340454 2.6276473999023438 2.5879671573638916 2.902313232421875
        3.3112564086914062 3.4913177490234375 3.6164398193359375 4.016234874725342 4.135261535644531 3.8758544921875
        3.6866378784179688 3.4424896240234375 3.1312026977539062 2.7222518920898438 2.7253036499023438 3.097625732421875
        3.155616521835327 3.6530685424804688 4.635765075683594 4.193244934082031 3.4821624755859375 2.981658935546875
        2.932830572128296 3.2105484008789062 3.5004730224609375 3.5889737606048584 3.5584564208984375 3.7293624877929688
        3.921630859375 3.7965009212493896 3.3997652530670166 2.911468505859375 2.4658966064453125 2.1942825317382812
        2.2339553833007812 2.4414825439453125 2.3651812076568604 1.9684447050094604 1.6693649291992188 1.568649411201477
        1.7761764526367188 2.8595809936523438 4.828025817871094 7.8829345703125 9.750663757324219 9.628593444824219
        9.845268249511719 9.540083885192871 9.344764709472656 9.808647155761719 9.988709449768066 10.184028625488281
        10.492263793945312 10.654013633728027 10.547195434570312 10.116883277893066 9.99481201171875 10.06805419921875
        9.97039794921875 9.747611999511719 9.869682312011719 9.424118041992188 8.652000427246094 8.020263671875
        7.885986328125 8.105712890625 8.221687316894531 7.846306324005127 7.553328990936279 7.7120280265808105
        8.310188293457031 8.502456665039062 8.642845153808594 8.542129516601562 8.343757629394531 8.575698852539062
        8.578750610351562 8.426162719726562 8.743553161621094 9.097564697265625 9.515670776367188 9.811698913574219
        10.01617431640625 9.631646156311035 9.305091857910156 9.387496948242188 9.311195373535156 9.17386531829834
        9.540085792541504 10.376296997070312 10.818809509277344 10.489212036132812 9.656059265136719 8.621475219726562
        7.623527526855469 7.123023986816406 7.007049560546875 7.007049560546875 7.037567138671875 6.915496349334717
        6.8147807121276855 6.674400329589844 6.939910888671875 7.187110900878906 6.872772216796875 6.4455108642578125
        5.91143798828125 5.737480163574219 6.03961181640625 6.4149932861328125 6.03961181640625 5.92364501953125
        6.2013630867004395 6.3905792236328125 6.411942005157471 6.3661580085754395 6.317329406738281 6.237983703613281
        6.10980224609375 5.847343444824219 5.557418346405029 5.185096263885498 4.889069080352783 4.843284606933594
        5.038604259490967 5.108794689178467 5.191200256347656 5.423141002655029 5.282752990722656 5.023345947265625
        4.919586181640625 4.7517313957214355 4.635765075683594 4.5930328369140625 4.800559997558594 5.197303771972656
        5.3895721435546875 5.5330047607421875 5.639823913574219 5.728324890136719 5.5543670654296875 5.240028381347656
        5.172889709472656 5.377364635467529 5.328529357910156 5.188148498535156 4.907379627227783 4.5594635009765625
        4.5777740478515625 5.255286693572998 6.408890247344971 6.408890247344971 5.880919933319092 5.059967041015625
        4.202400207519531 3.8087079524993896 3.9124755859375 3.912475824356079 3.4028165340423584 2.7314071655273438
        2.2522659301757812 2.1729202270507812 2.6215362548828125 3.353980779647827 3.7080001831054688 3.741569757461548
        3.7720870971679688 4.019287109375 4.0894775390625 3.976562738418579 3.8697431087493896 3.5493011474609375
        3.094573974609375 2.884002447128296 2.996917486190796 3.1647720336914062 3.3051528930664062 3.6774826049804688
        3.7568283081054688 3.2654800415039062 2.7924423217773438 2.6703720092773438 2.8321151733398438 3.009124755859375
        3.170875310897827 3.3051528930664062 3.3051528930664062 3.4150238037109375 3.4943695068359375 3.2807390689849854
        2.8565289974212646 2.4384305477142334 2.06304931640625 1.87994384765625 1.93792724609375 2.1668167114257812
        2.362128973007202 2.2461624145507812 1.8494186401367188 1.4679412841796875 1.120025634765625 0.8850403428077698
        1.7395552396774292 3.7812423706054688 10.608230590820312 10.052794456481934 9.95513916015625 9.707940101623535
        9.430221557617188 9.570602416992188 9.463790893554688 9.653007507324219 10.07415771484375 10.09552001953125
        10.09857177734375 10.284736633300781 10.464797973632812 10.312203407287598 10.01617431640625 9.625542640686035
        9.472946166992188 9.030426025390625 8.523818969726562 7.94091796875 7.708976745605469 7.852409839630127
        7.962280750274658 7.773063659667969 7.309181213378906 7.061981201171875 7.2695088386535645 7.354957580566406
        8.212532043457031 8.542129516601562 8.331550598144531 8.478042602539062 8.331550598144531 8.249153137207031
        8.545181274414062 8.886993408203125 9.512619018554688 9.921570777893066 9.97650146484375 9.326455116271973
        9.002959251403809 9.173866271972656 9.070098876953125 8.990753173828125 9.363075256347656 9.99481201171875
        10.211494445800781 10.132148742675781 9.753715515136719 8.957183837890625 8.0538330078125 7.632682800292969
        7.727287292480469 7.840202331542969 7.9561767578125 7.6143646240234375 7.068084716796875 6.5645294189453125
        6.6133575439453125 6.988739013671875 7.4098968505859375 7.324440002441406 6.4424591064453125 5.92059326171875
        6.170845031738281 6.677452087402344 6.5950469970703125 6.625572204589844 6.985687255859375 7.074188232421875
        6.659142017364502 6.295967102050781 6.329536437988281 6.363105773925781 6.183052062988281 5.798515796661377
        5.630668640136719 5.5055389404296875 5.288856506347656 5.151527404785156 5.194252014160156 5.240028381347656
        5.102691650390625 5.050811767578125 4.873809814453125 4.687644958496094 4.742576599121094 4.687644958496094
        4.5106353759765625 4.4160308837890625 4.4282379150390625 4.815818786621094 5.194251537322998 5.313270568847656
        5.4628143310546875 5.734428405761719 5.5787811279296875 5.136268615722656 5.001983642578125 4.7914042472839355
        4.281745910644531 3.9368896484375 3.698845148086548 3.7110519409179688 4.168830871582031 4.693748474121094
        5.267493724822998 5.1423726081848145 4.818871021270752 4.147468566894531 3.4608001708984375 3.2837905883789062
        3.5279388427734375 3.4302825927734375 2.7436141967773438 2.3468704223632812 2.3682327270507812 2.7436141967773438
        3.2837905883789062 3.7018966674804688 3.7232589721679688 3.6378097534179688 3.6805343627929688 3.8636398315429688
        3.967407464981079 3.909423828125 3.8392257690429688 3.7049484252929688 3.3936614990234375 3.2136001586914062
        3.018280029296875 3.1556169986724854 3.6347579956054688 3.927734375 3.6347579956054688 3.1250991821289062
        2.6459579467773438 2.4231719970703125 2.6398544311523438 2.6123809814453125 2.5696563720703125 2.8138043880462646
        2.954193115234375 3.122040033340454 3.100677728652954 2.8015975952148438 2.3438186645507812 1.9959105253219604
        1.7731245756149292 1.7181930541992188 1.8219528198242188 1.98065185546875 2.11187744140625 2.07220458984375
        1.8402632474899292 1.4648895263671875 1.062042236328125 0.7354965209960938 1.7670211791992188 3.051849365234375
        11.014129638671875 10.037537574768066 9.860527038574219 9.88800048828125 9.805595397949219 9.692680358886719
        9.302040100097656 9.076202392578125 9.201332092285156 9.042632102966309 9.479049682617188 10.565506935119629
        10.879852294921875 10.220649719238281 9.613326072692871 9.073150634765625 8.774070739746094 8.526870727539062
        8.267463684082031 7.864616394042969 7.4129486083984375 7.113861083984375 7.214576244354248 7.284767150878906
        7.071136474609375 6.839195251464844 6.964324951171875 6.897185802459717 7.629631042480469 8.0904541015625
        8.297981262207031 8.682517051696777 8.459732055664062 8.368171691894531 8.661155700683594 8.920562744140625
        9.485153198242188 9.863578796386719 9.759819030761719 9.109771728515625 8.850364685058594 8.929718017578125
        8.838157653808594 8.917510986328125 9.268470764160156 9.576705932617188 9.591964721679688 9.579757690429688
        9.350868225097656 8.688621520996094 7.9134521484375 7.4922943115234375 7.6174163818359375 7.782218933105469
        8.1209716796875 7.852409362792969 7.4495697021484375 7.238990783691406 7.3213887214660645 7.574691295623779
        7.9805908203125 7.846306324005127 6.976532459259033 6.442458629608154 6.5309600830078125 6.973480224609375
        7.031463623046875 7.092498779296875 7.443466663360596 7.455672740936279 6.857505798339844 6.430251598358154
        6.491287708282471 6.4882354736328125 6.320381164550781 5.87786865234375 5.5543670654296875 5.4506072998046875
        5.4658660888671875 5.313270568847656 5.3895721435546875 5.5848846435546875 5.316322326660156 4.855491638183594
        4.681541442871094 4.666282653808594 4.873809337615967 5.005035400390625 4.950103282928467 4.861595153808594
        4.763938903808594 4.980621337890625 5.3895721435546875 5.386520862579346 5.3956756591796875 5.584885120391846
        4.959259033203125 4.03759765625 3.6561200618743896 3.3722991943359375 3.054901123046875 3.036590576171875
        3.2319107055664062 3.7415695190429688 4.336677551269531 4.608291149139404 4.5869293212890625 4.3519368171691895
        4.220710754394531 3.7263107299804688 3.2715835571289062 3.3112564086914062 3.5279388427734375 3.283790349960327
        2.6886825561523438 2.7283554077148438 3.085418701171875 3.4119720458984375 3.6500167846679688 3.6591720581054688
        3.5248870849609375 3.4730072021484375 3.4852142333984375 3.6042327880859375 3.836174249649048 3.89111328125
        3.9185791015625 3.9429931640625 3.6530685424804688 3.5279388427734375 3.2532730102539062 3.4485931396484375
        3.8544845581054688 3.7812423706054688 3.628654718399048 3.030487060546875 2.3560256958007812 2.05694580078125
        2.1637649536132812 2.2034378051757812 2.1485064029693604 2.3621292114257812 2.5238800048828125 2.7649765014648438
        2.7314071655273438 2.4781033992767334 2.06304931640625 1.7670211791992188 1.596114993095398 1.5900115966796875
        1.6541061401367188 1.6937789916992188 1.6785202026367188 1.5472869873046875 1.2665176391601562 0.915557861328125
        0.7354965209960938 0.4638824462890625 0.6286849975585938 1.6937789916992188 10.940887451171875 9.787284851074219
        9.659111022949219 9.88189697265625 9.91241455078125 9.762870788574219 9.396652221679688 8.633689880371094
        8.136238098144531 8.1026611328125 9.002959251403809 10.419021606445312 10.614334106445312 9.836112976074219
        8.835105895996094 7.971436023712158 7.721183776855469 7.748649597167969 7.596054553985596 7.358008861541748
        6.7781596183776855 6.186103820800781 6.445510387420654 6.741539001464844 6.778160095214844 6.680504322052002
        7.074188232421875 7.138282775878906 7.4465179443359375 7.8463053703308105 8.514662742614746 9.216590881347656
        8.938873291015625 8.764915466308594 8.841209411621094 8.819847106933594 9.244056701660156 9.640800476074219
        9.555343627929688 8.963287353515625 8.639793395996094 8.587905883789062 8.603164672851562 8.761863708496094
        8.969391822814941 9.063995361328125 9.006011962890625 8.874786376953125 8.67336368560791 8.337654113769531
        7.821891784667969 7.324440002441406 7.370216369628906 7.507553577423096 8.169807434082031 8.0294189453125
        8.249153137207031 8.731346130371094 8.902251243591309 8.316291809082031 7.742546558380127 7.4709320068359375
        7.129127502441406 7.043670177459717 7.058929920196533 7.315284729003906 7.4098968505859375 7.464828014373779
        7.5930023193359375 7.3946380615234375 6.958220958709717 6.839195251464844 6.817832946777344 6.607253551483154
        6.3844757080078125 5.95721435546875 5.5879364013671875 5.2980122566223145 5.252235412597656 5.172889709472656
        5.325477600097656 5.5970916748046875 5.4933319091796875 4.992828369140625 4.882964611053467 5.017242431640625
        5.200355529785156 5.359046936035156 5.4384002685546875 5.4170379638671875 5.3987274169921875 5.716117858886719
        5.8259806632995605 5.4109344482421875 4.846336841583252 4.657127380371094 3.8758544921875 2.685631036758423
        2.4109652042388916 2.8015975952148438 2.984710454940796 3.073211669921875 3.4546964168548584 4.214607238769531
        4.641869068145752 4.5655670166015625 4.293952941894531 4.0101318359375 3.964355230331421 3.9368896484375
        3.7354660034179688 3.7324142456054688 3.5920257568359375 3.2593765258789062 2.963348388671875 3.2837905883789062
        3.6133880615234375 3.6194918155670166 3.7049484252929688 3.6652753353118896 3.6500167846679688 3.698845148086548
        3.5889737606048584 3.5615081787109375 3.7171554565429688 3.7202072143554688 3.7781906127929688 4.0589599609375
        3.894164800643921 3.7568283081054688 3.5706634521484375 3.5584564208984375 3.6164398193359375 3.3814544677734375
        3.6347579956054688 3.2837905883789062 2.07525634765625 1.5503387451171875 1.4557342529296875 1.6510542631149292
        1.7761765718460083 1.9684447050094604 2.1637649536132812 2.3102493286132812 2.2827835083007812 2.2370071411132812
        2.05999755859375 1.8433151245117188 1.6693649291992188 1.6815719604492188 1.7334518432617188 1.7487105131149292
        1.6968307495117188 1.5045623779296875 1.2054824829101562 0.888092041015625 0.5066071152687073 0.15564727783203125
        0.5493316650390625 0.988800048828125 10.943939208984375 9.805595397949219 9.485153198242188 9.637748718261719
        9.659111022949219 9.601119995117188 9.414962768554688 8.572647094726562 7.5868988037109375 7.766960144042969
        8.432266235351562 9.375289916992188 9.564498901367188 9.17996883392334 7.843254566192627 6.643883228302002
        6.442459583282471 6.738487243652344 6.6774516105651855 6.5614776611328125 6.265449523925781 6.051819324493408
        6.4333038330078125 6.5706329345703125 6.6042022705078125 6.665245056152344 7.205421447753906 7.6052093505859375
        7.733391284942627 7.895142078399658 8.511611938476562 9.335609436035156 9.170814514160156 8.978546142578125
        8.767967224121094 8.709983825683594 9.16165828704834 9.564497947692871 9.466842651367188 8.905303955078125
        8.523818969726562 8.438369750976562 8.465835571289062 8.453628540039062 8.508560180664062 8.652000427246094
        8.789328575134277 8.716087341308594 8.642845153808594 8.633689880371094 8.435317993164062 8.139289855957031
        8.209480285644531 8.236947059631348 8.697776794433594 8.447525978088379 9.027373313903809 9.622489929199219
        9.445480346679688 8.239997863769531 7.3793792724609375 7.2054219245910645 7.2359395027160645 7.6052093505859375
        7.693717956542969 7.782218933105469 7.9561767578125 7.983642101287842 7.834098815917969 7.4709320068359375
        7.2756123542785645 7.3763275146484375 7.232887268066406 6.723228454589844 6.299018383026123 5.871757507324219
        5.7527384757995605 5.4780731201171875 5.301063537597656 5.383468151092529 5.5757293701171875 5.728325366973877
        5.703910827636719 5.316322326660156 5.243080139160156 5.352943420410156 5.407882213592529 5.4780731201171875
        5.536056041717529 5.4628143310546875 5.5269012451171875 5.92669677734375 5.764945983886719 5.047760009765625
        4.3794097900390625 4.330574035644531 4.0986328125 3.2044451236724854 2.7375106811523438 3.3692400455474854
        3.6652755737304688 3.6500167846679688 4.0528564453125 4.647972106933594 4.837181091308594 4.657127380371094
        4.5289459228515625 4.403823375701904 4.3763580322265625 4.5564117431640625 4.2512288093566895 3.8026046752929688
        3.234962224960327 3.082367181777954 3.125098943710327 3.4791107177734375 3.5370943546295166 3.4791109561920166
        3.6866378784179688 3.988769292831421 4.080322265625 3.9490966796875 3.6591720581054688 3.5645599365234375
        3.5126800537109375 3.3967132568359375 3.6622235774993896 4.03759765625 3.970458745956421 3.6805343627929688
        3.5737152099609375 3.5187835693359375 3.3814544677734375 3.112884759902954 2.865684747695923 2.5818636417388916
        1.94403076171875 1.4832000732421875 1.2054824829101562 1.6602096557617188 1.4435272216796875 1.3916473388671875
        1.8158491849899292 2.142402410507202 2.2339553833007812 2.1546096801757812 2.08746337890625 1.87384033203125
        1.7365036010742188 1.7914352416992188 1.7426071166992188 1.6968306303024292 1.6235885620117188 1.4557342529296875
        1.2024307250976562 0.909454345703125 0.5676422119140625 0.12512969970703125 0.5157623291015625 1.065093994140625
        11.267433166503906 10.214546203613281 9.662162780761719 9.466842651367188 9.375289916992188 9.390548706054688
        9.436325073242188 9.164710998535156 8.264411926269531 8.01416015625 7.916503429412842 8.185066223144531
        8.417007446289062 8.496353149414062 7.138282775878906 5.795464038848877 5.90228271484375 6.183052062988281
        6.06402587890625 6.192207336425781 6.311225891113281 6.714073657989502 6.949066162109375 6.8605570793151855
        6.842247009277344 6.903289794921875 7.333595275878906 7.913451671600342 8.0843505859375 7.870719909667969
        8.154548645019531 8.82595157623291 8.847312927246094 8.703880310058594 8.508560180664062 8.795433044433594
        9.314247131347656 9.482101440429688 9.280677795410156 8.908355712890625 8.709983825683594 8.694725036621094
        8.667259216308594 8.532974243164062 8.587905883789062 8.862571716308594 9.079254150390625 9.112823486328125
        9.253211975097656 9.396652221679688 9.430221557617188 9.475997924804688 9.588912963867188 9.393600463867188
        9.079254150390625 8.676413536071777 8.999908447265625 9.176918029785156 8.926666259765625 8.136238098144531
        7.745597839355469 7.766960144042969 7.666252136230469 7.931762218475342 8.044677734375 8.206428527832031
        8.493301391601562 8.505508422851562 8.236946105957031 7.788322925567627 7.660148620605469 7.7791666984558105
        7.5960540771484375 6.964324951171875 6.344795227050781 5.7618937492370605 5.97552490234375 6.167793273925781
        6.10675048828125 6.216621398925781 6.350898742675781 6.234931945800781 6.06402587890625 5.731377124786377
        5.590987682342529 5.5452117919921875 5.4506072998046875 5.435348987579346 5.444503307342529 5.4017791748046875
        5.3926239013671875 5.642875671386719 5.5207977294921875 4.944000244140625 4.657127380371094 4.940948486328125
        5.304115295410156 4.977569580078125 4.217658996582031 4.275642395019531 4.293952941894531 4.242073059082031
        4.629661560058594 4.977569580078125 5.072174072265625 4.824974060058594 4.892119884490967 5.194252014160156
        5.041656494140625 4.651023864746094 3.8453292846679688 3.064056396484375 2.5818634033203125 2.8595809936523438
        3.109832763671875 3.3173599243164062 3.3600845336914062 3.3967130184173584 3.8209152221679688 4.4282379150390625
        4.5289459228515625 4.055908203125 3.4150238037109375 3.2471694946289062 3.4943695068359375 3.5950775146484375
        3.7629318237304688 3.8697431087493896 3.9246826171875 3.982665777206421 3.9246826171875 3.4211270809173584
        2.926727294921875 2.8015975952148438 2.5971221923828125 2.2522659301757812 1.88299560546875 1.571701169013977
        2.1973345279693604 3.775139093399048 3.5462493896484375 1.3183975219726562 1.2146377563476562 1.7120895385742188
        2.1240921020507812 2.2156448364257812 2.2003860473632812 1.92266845703125 1.91656494140625 2.02642822265625
        1.91351318359375 1.7944868803024292 1.6052703857421875 1.3794403076171875 1.080352783203125 0.744651734828949
        0.4150543212890625 0.22888945043087006 0.5188140869140625 1.110870361328125 11.545150756835938 10.635704040527344
        10.150459289550781 9.790336608886719 9.561447143554688 9.625541687011719 9.872742652893066 10.00701904296875
        9.537033081054688 8.883941650390625 8.447525024414062 8.441421508789062 8.502456665039062 8.603164672851562
        7.379378795623779 6.030457019805908 6.4394073486328125 6.4821319580078125 6.204414367675781 6.329536437988281
        6.802574157714844 7.309181213378906 7.4861907958984375 7.336647033691406 7.321388244628906 7.324440002441406
        7.5868988037109375 7.925659656524658 8.1026611328125 7.834098815917969 7.9317626953125 8.319343566894531
        8.301033020019531 8.172859191894531 8.291877746582031 8.890045166015625 9.216590881347656 9.146400451660156
        9.173866271972656 9.231849670410156 9.298989295959473 9.341712951660156 9.250160217285156 9.158607482910156
        9.241004943847656 9.421066284179688 9.347816467285156 9.305092811584473 9.628593444824219 9.851371765136719
        9.91546630859375 9.973448753356934 9.90936279296875 9.561447143554688 8.951081275939941 8.536026000976562
        8.606216430664062 8.691672325134277 8.774069786071777 8.523818969726562 8.487197875976562 8.609268188476562
        8.221687316894531 7.9287109375 7.861564636230469 8.154548645019531 8.615371704101562 8.615371704101562
        8.294929504394531 7.849357604980469 7.739494323730469 7.779167652130127 7.5930023193359375 7.110809326171875
        6.634727478027344 6.00604248046875 6.268501281738281 6.744590759277344 6.769005298614502 6.625572204589844
        6.5462188720703125 6.360053539276123 6.3844757080078125 6.3783721923828125 6.3539509773254395 6.213569164276123
        5.948058605194092 5.792411804199219 5.771049976348877 5.871757507324219 5.819877624511719 5.761894226074219
        5.536056041717529 5.142372131347656 5.075225830078125 5.5116424560546875 6.137275695800781 6.10675048828125
        5.4170379638671875 5.041656494140625 4.779197692871094 4.693748474121094 5.017242431640625 5.4231414794921875
        5.5238494873046875 5.105743408203125 5.209510803222656 5.481124401092529 4.882965564727783 4.0528564453125
        3.2990493774414062 2.4994661808013916 2.3010940551757812 2.8412704467773438 3.1891863346099854 3.088470220565796
        3.1891860961914062 3.4394378662109375 4.129158020019531 4.593033313751221 4.6204986572265625 4.068115234375
        3.091522216796875 2.8138043880462646 3.3509292602539062 3.7263107299804688 3.7202072143554688 3.8422775268554688
        4.0040283203125 4.2512288093566895 4.321418762207031 3.7537765502929688 2.917572021484375 2.2278521060943604
        2.09051513671875 2.2248001098632812 2.3865509033203125 1.8402633666992188 2.7985458374023438 4.867698669433594
        5.92974853515625 4.208503723144531 1.98065185546875 1.2360001802444458 1.6418992280960083 2.10882568359375
        2.2431106567382812 2.07525634765625 2.1546096801757812 2.1607131958007812 1.98065185546875 1.8372116088867188
        1.611374020576477 1.3489151000976562 1.068145751953125 0.7446517944335938 0.4669342041015625 0.0823974609375
        0.4394683837890625 0.8636703491210938 11.691642761230469 11.044647216796875 10.788291931152344 10.486160278320312
        10.220649719238281 10.260321617126465 10.406814575195312 10.446486473083496 10.208442687988281 9.94903564453125
        9.823905944824219 9.689628601074219 9.366127014160156 9.140296936035156 8.398696899414062 7.605209827423096
        7.4709320068359375 7.1474385261535645 6.875823497772217 6.982635498046875 7.4770355224609375 7.852409362792969
        7.959228515625 7.9195556640625 7.846306324005127 7.7120280265808105 7.806632995605469 7.885985851287842
        7.931763172149658 7.898193359375 7.8951416015625 7.9195556640625 7.745597839355469 7.7181315422058105
        8.243049621582031 8.761863708496094 8.859519958496094 8.926666259765625 9.347817420959473 9.686576843261719
        9.851371765136719 9.772026062011719 9.512619018554688 9.277626037597656 9.24710750579834 9.350868225097656
        9.17996883392334 9.222694396972656 9.653007507324219 9.710990905761719 9.591965675354004 9.491256713867188
        9.247108459472656 8.941925048828125 8.548233032226562 8.307136535644531 8.343757629394531 8.505508422851562
        8.798484802246094 8.636740684509277 8.603164672851562 8.75576114654541 8.349861145019531 7.8646159172058105
        7.5563812255859375 7.867668628692627 8.545181274414062 8.417007446289062 7.9012451171875 7.5624847412109375
        7.4953460693359375 7.3976898193359375 7.196266174316406 6.982635498046875 7.046722412109375 6.860558032989502
        6.854454040527344 6.915496826171875 6.778160095214844 6.4027862548828125 6.180000305175781 6.237983226776123
        6.671348571777344 6.878875732421875 7.058929443359375 7.1291279792785645 6.826988220214844 6.585891246795654
        6.4729766845703125 6.5584259033203125 6.4485626220703125 5.993835926055908 5.621506214141846 5.355995178222656
        5.346839427947998 5.7557902336120605 6.2410359382629395 6.292915344238281 5.835136413574219 5.648979187011719
        5.4017791748046875 5.227821350097656 5.5879364013671875 6.137275695800781 6.204414367675781 5.679496765136719
        5.4628143310546875 5.273597717285156 4.309211730957031 3.7873458862304688 3.7018966674804688 3.1312026977539062
        2.984710693359375 3.2624285221099854 3.262428045272827 2.908416509628296 3.122039794921875 3.7751388549804688
        4.4587554931640625 4.5289459228515625 4.388565540313721 4.06201171875 3.003021240234375 2.7924423217773438
        3.4943697452545166 4.156623840332031 3.997925043106079 4.0406494140625 4.358039855957031 4.4068756103515625
        4.315315246582031 4.0589599609375 3.2624282836914062 2.3224563598632812 1.7975387573242188 1.8494186401367188
        2.3773956298828125 2.3407669067382812 3.2746353149414062 4.715111255645752 5.966370105743408 6.3844757080078125
        5.096588134765625 3.3570327758789062 2.7100446224212646 2.6154327392578125 2.4933626651763916 2.4292755126953125
        2.3926544189453125 2.3102495670318604 2.09356689453125 1.89215087890625 1.7029342651367188 1.4618377685546875
        1.2115861177444458 0.9369201064109802 0.674461305141449 0.3997955322265625 0.24109649658203125 0.5249176025390625
        11.832022666931152 11.520735740661621 11.423079490661621 11.142311096191406 10.840171813964844 10.861534118652344
        10.736412048339844 10.544143676757812 10.486160278320312 10.553299903869629 10.550247192382812 10.431228637695312
        10.126045227050781 9.848320007324219 9.268470764160156 8.517715454101562 8.093505859375 7.94091796875
        7.733390808105469 7.773063659667969 8.127082824707031 8.334602355957031 8.334602355957031 8.325447082519531
        8.172859191894531 7.8798828125 7.983643054962158 7.9439697265625 7.8798828125 7.9317626953125
        7.843254566192627 7.5899505615234375 7.358008861541748 7.589951038360596 8.316291809082031 8.584854125976562
        8.682518005371094 8.996857643127441 9.445480346679688 9.686576843261719 9.729302406311035 9.552291870117188
        9.161659240722656 8.728294372558594 8.523818969726562 8.758811950683594 8.822898864746094 9.170814514160156
        9.595016479492188 9.344765663146973 9.002960205078125 8.948028564453125 8.905303955078125 8.728293418884277
        8.429214477539062 8.276618957519531 8.285774230957031 8.346809387207031 8.572647094726562 8.340705871582031
        8.246101379394531 8.325447082519531 8.197273254394531 8.142341613769531 7.834099292755127 7.9134521484375
        8.630638122558594 8.392593383789062 7.797477722167969 7.5350189208984375 7.4617767333984375 7.266456604003906
        7.211524486541748 7.235939025878906 7.702873229980469 8.0904541015625 7.937866687774658 7.464828014373779
        7.177955627441406 6.805625915527344 6.5187530517578125 6.576736927032471 7.022308826446533 6.952118396759033
        7.003997802734375 7.2847676277160645 7.153541564941406 7.022308349609375 6.894134044647217 6.842247009277344
        6.646934509277344 6.11895751953125 5.825981140136719 5.740531921386719 5.6642374992370605 5.838188171386719
        6.08843994140625 6.299018383026123 6.231880187988281 6.329536437988281 6.04876708984375 5.859550476074219
        6.381423473358154 6.942962646484375 6.915497303009033 6.314277648925781 5.5635223388671875 5.114898681640625
        4.629661560058594 4.776145935058594 4.644920349121094 4.4618072509765625 4.5106353759765625 4.0955810546875
        3.4974215030670166 3.082366943359375 3.3478775024414062 4.159675598144531 4.6143951416015625 4.315315246582031
        4.0040283203125 3.958251953125 3.1617202758789062 3.1678240299224854 3.8941650390625 4.5625152587890625
        4.5472564697265625 4.354988098144531 4.5289459228515625 4.217658996582031 4.129158020019531 4.2146077156066895
        3.6011807918548584 2.5513455867767334 1.8829954862594604 1.8127975463867188 2.3804473876953125 2.8290634155273438
        3.5767669677734375 4.177986145019531 4.916534423828125 5.731377124786377 6.198310852050781 5.90228271484375
        5.652030944824219 5.148475646972656 3.1861343383789062 2.8229596614837646 2.6306991577148438 2.4689483642578125
        2.206489324569702 2.01116943359375 1.8585737943649292 1.6296920776367188 1.4282684326171875 1.1871719360351562
        0.897247314453125 0.6103668212890625 0.24109649658203125 0.36621856689453125 11.770987510681152 11.886962890625
        11.929688453674316 11.593978881835938 11.249122619628906 11.175880432128906 10.837120056152344 10.461746215820312
        10.544143676757812 10.657066345214844 10.611282348632812 10.525833129882812 10.226752281188965 9.842216491699219
        9.527877807617188 9.17996883392334 8.954132080078125 8.835105895996094 8.642845153808594 8.587905883789062
        8.700828552246094 8.697776794433594 8.578750610351562 8.645896911621094 8.520767211914062 8.1087646484375
        8.145393371582031 8.194221496582031 8.117919921875 8.01416015625 7.858512878417969 7.5228118896484375
        7.260352611541748 7.602158069610596 8.218635559082031 8.450576782226562 8.85952091217041 9.170814514160156
        9.393600463867188 9.393600463867188 9.366127014160156 9.335609436035156 9.082305908203125 8.578750610351562
        8.163703918457031 8.423110961914062 8.554336547851562 8.926667213439941 9.268470764160156 8.85952091217041
        8.453628540039062 8.594009399414062 8.905303955078125 8.963287353515625 8.774070739746094 8.63369083404541
        8.581801414489746 8.569594383239746 8.703880310058594 8.395645141601562 8.185066223144531 8.160652160644531
        8.355964660644531 8.761863708496094 8.67336368560791 8.349862098693848 8.755760192871094 8.700828552246094
        8.404801368713379 8.175910949707031 8.0904541015625 7.873779296875 7.852409362792969 7.9256591796875
        8.359016418457031 8.963287353515625 9.079254150390625 8.630638122558594 8.212532043457031 7.864616394042969
        7.6570963859558105 7.4526214599609375 7.4678802490234375 7.171851634979248 6.857505798339844 7.019256591796875
        6.979584217071533 7.034515380859375 7.052825927734375 6.994842529296875 6.897186279296875 6.570632457733154
        6.253242492675781 6.137275695800781 5.99078369140625 6.030457019805908 6.216621398925781 6.329536437988281
        6.665245532989502 6.997894287109375 6.781211853027344 6.671348571777344 7.177955150604248 7.4129486083984375
        7.049774169921875 6.393631458282471 5.5024871826171875 5.343787670135498 5.92669677734375 6.3783721923828125
        5.313270092010498 5.282752990722656 5.746635437011719 5.127113342285156 4.171882629394531 3.8636398315429688
        4.171882629394531 4.718162536621094 4.950103282928467 4.4892730712890625 3.7690351009368896 3.6561200618743896
        3.5431976318359375 3.7934494018554688 4.4099273681640625 4.995880126953125 5.108795642852783 4.797508239746094
        4.3885650634765625 3.891113519668579 3.973510980606079 4.184089660644531 3.8056564331054688 2.6764755249023438
        2.06304931640625 2.2339553833007812 2.6154327392578125 3.2502214908599854 3.7080001831054688 3.9674072265625
        4.187141418457031 4.5136871337890625 5.200355529785156 5.95416259765625 6.872772216796875 7.211524486541748
        4.5655670166015625 2.987762451171875 2.810753107070923 2.6764755249023438 2.2553176879882812 2.00811767578125
        1.95013427734375 1.7548141479492188 1.6052703857421875 1.449630856513977 1.113922119140625 0.7416000366210938
        0.34485626220703125 0.26551055908203125 11.499373435974121 12.164680480957031 12.472914695739746 12.176887512207031
        11.786247253417969 11.465805053710938 10.80355167388916 10.373245239257812 10.504470825195312 10.574662208557129
        10.470901489257812 10.397660255432129 10.10162353515625 9.817802429199219 9.842216491699219 9.820854187011719
        9.607223510742188 9.475997924804688 9.338661193847656 9.314247131347656 9.344764709472656 9.219642639160156
        9.030425071716309 9.082305908203125 8.990753173828125 8.377334594726562 8.239997863769531 8.413955688476562
        8.523818969726562 8.337654113769531 8.0751953125 7.702873229980469 7.370216369628906 7.5319671630859375
        8.05078125 8.493302345275879 9.051788330078125 9.189125061035156 9.183021545410156 9.176918029785156
        9.353919982910156 9.579757690429688 9.524827003479004 8.960235595703125 8.246101379394531 8.371223449707031
        8.349861145019531 8.557388305664062 8.862571716308594 8.560440063476562 8.175910949707031 8.261359214782715
        8.590957641601562 8.825950622558594 8.871726989746094 8.764915466308594 8.737449645996094 8.795433044433594
        9.036528587341309 8.865623474121094 8.465835571289062 8.264411926269531 8.545182228088379 8.999908447265625
        9.164710998535156 8.783226013183594 8.853416442871094 9.021269798278809 9.015167236328125 8.890044212341309
        8.871726036071777 8.606216430664062 8.456680297851562 8.435317039489746 8.716087341308594 9.265419006347656
        9.613326072692871 9.418014526367188 8.941926002502441 8.575698852539062 8.600112915039062 8.413955688476562
        8.0050048828125 7.687614440917969 7.306129455566406 7.1840596199035645 7.061981678009033 7.232887268066406
        7.3732757568359375 7.422104358673096 7.507553577423096 7.2420430183410645 6.695763111114502 6.3753204345703125
        6.323432922363281 6.366157531738281 6.4424591064453125 6.4699249267578125 6.878875255584717 7.4770355224609375
        7.699821472167969 7.464828014373779 7.306129455566406 6.753746032714844 6.09759521484375 5.92059326171875
        5.4109344482421875 5.5299530029296875 6.341743469238281 6.6042022705078125 5.4933319091796875 5.572678089141846
        5.822929859161377 5.5482635498046875 4.889068603515625 4.898224353790283 5.221717357635498 5.221717357635498
        4.901275634765625 4.504532337188721 3.6194918155670166 3.3997647762298584 3.6988446712493896 4.190193176269531
        4.675437927246094 5.157630920410156 5.5238494873046875 5.240028381347656 4.287848949432373 3.8880615234375
        3.8666915893554688 4.0498046875 3.6072845458984375 2.7130966186523438 2.4109649658203125 2.5543975830078125
        2.7008895874023438 3.4180755615234375 3.6683273315429688 3.924682378768921 4.1138916015625 4.2847981452941895
        4.641868591308594 4.998931407928467 5.767997741699219 6.4729766845703125 5.6642374992370605 3.6103363037109375
        2.7832870483398438 2.5666046142578125 2.1973342895507812 2.00201416015625 1.9806519746780396 1.8097457885742188
        1.6785202026367188 1.4862518310546875 1.1658097505569458 0.7995834350585938 0.3723297119140625 0.29297637939453125
        11.246071815490723 12.198249816894531 12.698753356933594 12.634666442871094 12.271492004394531 11.716056823730469
        10.916474342346191 10.544143676757812 10.580764770507812 10.525833129882812 10.419021606445312 10.318305969238281
        10.01922607421875 10.08026123046875 10.370185852050781 10.452591896057129 10.281684875488281 10.06500244140625
        9.714042663574219 9.710990905761719 9.839164733886719 9.750663757324219 9.579757690429688 9.595016479492188
        9.405807495117188 8.441421508789062 8.0843505859375 8.365119934082031 8.767967224121094 8.661155700683594
        8.343757629394531 7.9622802734375 7.5441741943359375 7.571639537811279 8.0599365234375 8.490249633789062
        8.813743591308594 8.890046119689941 8.960235595703125 9.207435607910156 9.601119041442871 9.845268249511719
        9.723197937011719 9.091462135314941 8.331550598144531 8.441421508789062 8.420059204101562 8.609268188476562
        8.920562744140625 8.804588317871094 8.331550598144531 8.11181640625 8.105712890625 8.261360168457031
        8.471939086914062 8.371223449707031 8.304084777832031 8.459732055664062 8.902252197265625 9.115875244140625
        8.700828552246094 8.307136535644531 8.410902976989746 8.621474266052246 9.021270751953125 9.085357666015625
        8.905303955078125 9.012115478515625 9.051788330078125 9.054840087890625 9.076202392578125 8.853416442871094
        8.600112915039062 8.508560180664062 8.841209411621094 9.305091857910156 9.613327980041504 9.561447143554688
        9.283729553222656 8.999908447265625 9.128089904785156 9.103668212890625 8.508560180664062 8.212532043457031
        8.08740234375 7.779167175292969 7.4831390380859375 7.626579284667969 7.742546081542969 7.821891784667969
        7.797478199005127 7.3854827880859375 6.949066162109375 6.826988220214844 6.866661071777344 6.808677673339844
        6.677452087402344 6.707969665527344 7.107758045196533 7.754753112792969 7.9256591796875 7.147438049316406
        6.125068664550781 5.282752990722656 4.928741455078125 5.380417346954346 5.215614318847656 5.230873107910156
        5.5330047607421875 5.6092987060546875 5.5116424560546875 5.5207977294921875 5.313270568847656 5.005035400390625
        4.709007263183594 5.121002197265625 5.734428405761719 5.5787811279296875 4.782249450683594 4.4038238525390625
        3.9552001953125 3.7842938899993896 3.89111328125 4.629661560058594 5.001983642578125 5.243080139160156
        5.92669677734375 5.825981140136719 4.5594635009765625 4.153572082519531 3.8666915893554688 3.909423828125
        3.3784027099609375 2.945037841796875 3.125098943710327 3.2136001586914062 3.1800310611724854 3.3234636783599854
        3.7415695190429688 4.1199951171875 4.5930328369140625 4.5991363525390625 4.730369567871094 4.696800231933594
        4.721214294433594 5.105743408203125 5.4750213623046875 4.6632304191589355 3.064056634902954 2.2919387817382812
        2.10577392578125 2.01727294921875 1.91656494140625 1.7517625093460083 1.590011715888977 1.2756729125976562
        0.982696533203125 0.7568588256835938 0.32044219970703125 0.3875885009765625 11.053802490234375 11.709953308105469
        12.201301574707031 12.485122680664062 12.384414672851562 11.844230651855469 11.203346252441406 10.919524192810059
        10.831016540527344 10.620437622070312 10.467849731445312 10.400711059570312 10.260322570800781 10.583816528320312
        10.953095436096191 10.977508544921875 10.705894470214844 10.336616516113281 9.720147132873535 9.686576843261719
        9.90631103515625 10.00701904296875 9.997864723205566 9.99786376953125 9.686576843261719 8.594009399414062
        8.069092750549316 8.239997863769531 8.789329528808594 8.86562442779541 8.578751564025879 8.285774230957031
        7.867668151855469 7.742546081542969 8.1087646484375 8.273567199707031 8.404800415039062 8.658103942871094
        8.932770729064941 9.329505920410156 9.677421569824219 9.668266296386719 9.372238159179688 8.938873291015625
        8.499404907226562 8.829002380371094 8.951080322265625 9.176918029785156 9.448531150817871 9.280677795410156
        8.563491821289062 8.130134582519531 7.898193359375 7.8798828125 8.069092750549316 8.0111083984375
        7.873779296875 7.8951416015625 8.435317993164062 9.094511985778809 8.865623474121094 8.389541625976562
        8.435317993164062 8.407852172851562 9.067047119140625 9.207435607910156 8.789329528808594 8.743553161621094
        8.810691833496094 8.954132080078125 8.981597900390625 8.780173301696777 8.423111915588379 8.200325012207031
        8.627586364746094 9.128089904785156 9.457686424255371 9.598069190979004 9.707939147949219 9.619429588317871
        9.662162780761719 9.628593444824219 9.091460227966309 8.838157653808594 8.813743591308594 8.459732055664062
        8.008056640625 7.9287109375 7.8188395500183105 7.690666198730469 7.348854064941406 6.881927490234375
        6.942962646484375 7.162696838378906 7.022308349609375 6.790367126464844 6.723228454589844 6.833092212677002
        7.028411865234375 6.933807373046875 6.4210968017578125 5.5299530029296875 4.6204986572265625 4.287848949432373
        4.3763580322265625 4.965362548828125 4.953155517578125 4.7151103019714355 4.846336364746094 5.066070556640625
        5.334632873535156 5.087432861328125 4.681541442871094 4.2146077156066895 4.0986328125 4.754783630371094
        5.536056041717529 5.5024871826171875 4.776145935058594 4.4404449462890625 4.718162536621094 4.837181091308594
        4.306159973144531 4.5625152587890625 4.925689697265625 4.998931884765625 5.771049499511719 6.051819324493408
        4.876861572265625 4.232917785644531 3.897216796875 3.7263107299804688 3.314307928085327 3.3448257446289062
        3.4760587215423584 3.4974212646484375 3.839226007461548 3.5798187255859375 4.2085041999816895 4.940948486328125
        5.475021839141846 4.989776611328125 4.5838775634765625 4.5289459228515625 4.4068756103515625 4.672386169433594
        5.136268615722656 5.273597717285156 4.150520324707031 2.6184844970703125 2.2034378051757812 1.95928955078125
        1.7853318452835083 1.6235885620117188 1.3977508544921875 1.1169739961624146 0.888092041015625 0.6897201538085938
        0.29907992482185364 0.4486236274242401 10.794395446777344 11.157569885253906 11.535995483398438 12.134162902832031
        12.356941223144531 11.996827125549316 11.600082397460938 11.401718139648438 11.285743713378906 10.946990966796875
        10.724205017089844 10.577713012695312 10.583816528320312 10.843223571777344 11.105683326721191 11.047698974609375
        10.779136657714844 10.406814575195312 9.787285804748535 9.579757690429688 9.89105224609375 10.208442687988281
        10.373245239257812 10.364083290100098 9.97650146484375 9.082305908203125 8.505508422851562 8.453628540039062
        8.914459228515625 9.042633056640625 8.798484802246094 8.670310974121094 8.221687316894531 7.94091796875
        8.136238098144531 8.172859191894531 8.182014465332031 8.410904884338379 8.706932067871094 9.195229530334473
        9.491256713867188 9.372238159179688 9.027374267578125 8.883941650390625 8.917510986328125 9.454635620117188
        9.637748718261719 9.811698913574219 9.91241455078125 9.576705932617188 8.700828552246094 8.0904541015625
        7.7730631828308105 7.715080261230469 7.7730631828308105 7.791374206542969 7.660148620605469 7.4404144287109375
        8.032470703125 9.006011962890625 8.893096923828125 8.474990844726562 8.682517051696777 8.67336368560791
        9.381393432617188 9.015167236328125 8.652000427246094 8.63674259185791 8.648948669433594 8.767967224121094
        8.880890846252441 8.792381286621094 8.398696899414062 7.986694812774658 8.340705871582031 8.886993408203125
        9.363075256347656 9.659111022949219 9.98260498046875 10.08636474609375 10.043641090393066 9.91851806640625
        9.585861206054688 9.402755737304688 9.256263732910156 8.944976806640625 8.465835571289062 8.056884765625
        7.5777435302734375 7.150489807128906 6.656089782714844 6.350898742675781 6.4638214111328125 6.4455108642578125
        6.03350830078125 5.874817371368408 6.073180675506592 6.189155578613281 5.887023448944092 5.1423726081848145
        4.5533599853515625 4.327522277832031 4.190193176269531 4.2878499031066895 4.5167388916015625 4.809715270996094
        4.849388122558594 4.5503082275390625 4.696800231933594 5.005035400390625 5.072174072265625 4.641868591308594
        4.043701648712158 3.6683273315429688 4.129158020019531 4.950103759765625 5.5909881591796875 5.551314830780029
        5.310218811035156 5.163733959197998 5.273597717285156 5.365150451660156 4.666282653808594 4.2298665046691895
        4.5136871337890625 4.556411266326904 5.059966564178467 5.685600280761719 4.797508239746094 4.083374500274658
        3.860588312149048 3.6713790893554688 3.1434097290039062 3.5096282958984375 3.8392257690429688 3.6133880615234375
        4.202400207519531 4.489273548126221 5.160682678222656 5.880920886993408 5.664237976074219 4.718162536621094
        3.888061761856079 4.0009765625 4.248176574707031 4.712059020996094 5.240028381347656 5.346839904785156
        5.029449462890625 4.129158020019531 3.1525650024414062 2.1881790161132812 1.7944869995117188 1.5533905029296875
        1.2878799438476562 1.071197509765625 0.943023681640625 0.7538071274757385 0.3936920464038849 0.3875885009765625
        10.641807556152344 11.001922607421875 11.395614624023438 11.9998779296875 12.298957824707031 12.091429710388184
        11.8900146484375 11.880859375 11.789299011230469 11.502426147460938 11.218605041503906 10.773033142089844
        10.65706729888916 10.638755798339844 10.776084899902344 10.788291931152344 10.769981384277344 10.592971801757812
        9.98260498046875 9.527877807617188 9.89410400390625 10.342720985412598 10.602127075195312 10.721153259277344
        10.415969848632812 9.723197937011719 9.149452209472656 8.960235595703125 9.14639949798584 9.121978759765625
        8.877838134765625 8.801536560058594 8.343757629394531 8.0294189453125 8.172859191894531 8.182014465332031
        8.0233154296875 7.9500732421875 8.212532043457031 8.932769775390625 9.311195373535156 9.231849670410156
        8.960235595703125 9.097564697265625 9.506515502929688 10.03448486328125 10.098570823669434 10.144355773925781
        10.080262184143066 9.662162780761719 8.713035583496094 7.904296398162842 7.6235270500183105 7.6723551750183105
        7.589950084686279 7.559433460235596 7.5472259521484375 7.214576721191406 7.745597839355469 8.691673278808594
        8.676414489746094 8.456680297851562 8.893096923828125 9.060943603515625 9.363075256347656 8.764915466308594
        8.670310974121094 8.838157653808594 8.642845153808594 8.465835571289062 8.609268188476562 8.74965763092041
        8.615372657775879 8.359015464782715 8.648948669433594 8.993804931640625 9.350868225097656 9.494308471679688
        9.701835632324219 9.88494873046875 9.778129577636719 9.552291870117188 9.421066284179688 9.241004943847656
        9.054839134216309 8.908355712890625 8.462783813476562 7.7242350578308105 7.025360107421875 6.640830993652344
        6.180000305175781 5.813774585723877 5.4567108154296875 5.008087158203125 4.657127380371094 4.751731872558594
        4.959259033203125 4.873809814453125 4.4465484619140625 3.976562261581421 3.827018976211548 4.245124816894531
        4.724266052246094 4.837181091308594 4.870750427246094 5.017242431640625 5.044708251953125 4.788352966308594
        4.709007263183594 4.913482189178467 5.001983642578125 4.647972106933594 3.9490966796875 4.025390625
        5.066070556640625 5.7039103507995605 6.051819324493408 6.10369873046875 6.228828430175781 6.329536437988281
        5.835136413574219 5.3773651123046875 4.852439880371094 4.370246887207031 4.4465484619140625 4.300056457519531
        4.202400207519531 4.7669901847839355 4.730369567871094 3.918578863143921 3.8636398315429688 4.019286632537842
        3.6256027221679688 3.930785894393921 4.257331848144531 3.7354657649993896 4.0650634765625 4.754783630371094
        5.4963836669921875 6.02740478515625 5.2034077644348145 3.9429931640625 3.079315185546875 3.5737154483795166
        4.300056457519531 4.965362548828125 5.362098693847656 4.962310791015625 4.757835388183594 4.715110778808594
        4.3824615478515625 3.2837905883789062 2.114929437637329 1.5228729248046875 1.2451553344726562 1.092559814453125
        1.019317626953125 0.7721176743507385 0.4730377197265625 0.32959747314453125 10.693687438964844 11.062957763671875
        11.532944679260254 11.9937744140625 12.195197105407715 12.091429710388184 12.057861328125 12.176887512207031
        12.149422645568848 11.9541015625 11.581772804260254 10.931732177734375 10.525833129882812 10.196236610412598
        10.232856750488281 10.455642700195312 10.727256774902344 10.724205017089844 10.03753662109375 9.463790893554688
        9.729300498962402 10.153511047363281 10.495315551757812 10.876799583435059 10.733360290527344 10.180976867675781
        9.707940101623535 9.506515502929688 9.427169799804688 9.183021545410156 8.862571716308594 8.709983825683594
        8.334602355957031 8.139289855957031 8.224739074707031 8.310188293457031 8.0965576171875 7.846305847167969
        8.093505859375 8.685569763183594 9.042633056640625 9.118927955627441 9.070098876953125 9.433272361755371
        9.826957702636719 10.223701477050781 10.180976867675781 10.09246826171875 10.086363792419434 9.747611045837402
        8.764915466308594 7.852409362792969 7.748649597167969 7.9866943359375 7.885986804962158 7.730339050292969
        7.650993347167969 7.3183369636535645 7.6387858390808105 8.249153137207031 8.398696899414062 8.511612892150879
        9.082305908203125 9.564497947692871 9.234901428222656 8.871726989746094 8.853416442871094 9.079254150390625
        8.810691833496094 8.426162719726562 8.349861145019531 8.456680297851562 8.755760192871094 9.125038146972656
        9.347816467285156 9.234901428222656 9.16776180267334 9.009063720703125 9.137245178222656 9.265419006347656
        9.015166282653809 8.73745059967041 8.636741638183594 8.407852172851562 8.282721519470215 8.307136535644531
        7.925659656524658 7.132179260253906 6.5523223876953125 6.4272003173828125 5.97247314453125 5.285804748535156
        4.666282653808594 4.245124340057373 4.031494140625 4.1383137702941895 4.126106262207031 3.9063720703125
        3.7080001831054688 3.814811944961548 4.03759765625 4.5442047119140625 5.093536376953125 5.081329345703125
        4.962310791015625 5.084381103515625 5.148475646972656 5.157630920410156 5.059967041015625 5.023345947265625
        5.108794689178467 5.121002674102783 4.675437927246094 5.096588134765625 6.021301746368408 6.289863586425781
        6.4058380126953125 6.646934509277344 6.7079691886901855 6.509597301483154 5.679496765136719 4.791404724121094
        4.727317810058594 4.782249450683594 4.782249450683594 4.297004699707031 3.949096441268921 3.9796142578125
        4.684593200683594 3.970458745956421 4.135261535644531 4.5411529541015625 4.4557037353515625 4.193244934082031
        4.031494140625 4.293952941894531 4.4831695556640625 4.760887145996094 5.304115295410156 5.798515319824219
        5.029449462890625 3.3600845336914062 2.932830810546875 3.5859220027923584 4.5686187744140625 5.4506072998046875
        5.764945983886719 4.626609802246094 4.0406494140625 3.802604913711548 3.9857177734375 3.872802734375
        2.7680282592773438 1.9043577909469604 1.6418992280960083 1.2970352172851562 1.077301025390625 0.7965316772460938
        0.5706939697265625 0.7751693725585938 10.760826110839844 10.895110130310059 11.343727111816406 11.722160339355469
        11.880859375 11.984619140625 12.146369934082031 12.326423645019531 12.305062294006348 12.060912132263184
        11.569564819335938 11.011077880859375 10.458694458007812 9.88800048828125 9.830009460449219 10.110777854919434
        10.489212036132812 10.507522583007812 9.97039794921875 9.369178771972656 9.390548706054688 9.750663757324219
        10.184028625488281 10.657066345214844 10.599075317382812 10.156562805175781 9.91851806640625 9.857475280761719
        9.698782920837402 9.335609436035156 9.012115478515625 8.801536560058594 8.597061157226562 8.444473266601562
        8.383438110351562 8.603164672851562 8.520767211914062 8.429214477539062 8.426162719726562 8.456680297851562
        8.746604919433594 9.118927001953125 9.244056701660156 9.607223510742188 9.762870788574219 9.979552268981934
        9.90936279296875 9.710990905761719 9.842216491699219 9.799491882324219 9.067046165466309 8.224739074707031
        8.221687316894531 8.542129516601562 8.600112915039062 8.395645141601562 8.236946105957031 7.779167175292969
        7.849357604980469 8.056884765625 8.301033020019531 8.520767211914062 9.14334774017334 10.00701904296875
        9.369178771972656 9.271522521972656 9.143348693847656 9.158607482910156 8.941926002502441 8.728294372558594
        8.526870727539062 8.441422462463379 8.902252197265625 9.585861206054688 9.576705932617188 9.024322509765625
        8.600112915039062 8.413955688476562 8.789328575134277 8.880890846252441 8.456680297851562 8.136238098144531
        8.0416259765625 7.742546081542969 7.5655364990234375 7.4251556396484375 7.281715393066406 6.997894287109375
        6.6591410636901855 6.579787731170654 6.280708312988281 5.5238494873046875 4.876861572265625 4.5655670166015625
        4.321418762207031 4.339728832244873 4.217658996582031 3.8544843196868896 3.698845148086548 4.0528564453125
        4.275642395019531 4.4526519775390625 4.763938903808594 4.864646911621094 4.846336364746094 4.974517822265625
        5.172889232635498 5.5330047607421875 5.667290210723877 5.368202209472656 5.252235412597656 5.6001434326171875
        5.893126964569092 6.286811828613281 6.4760284423828125 6.372269153594971 6.09759521484375 6.170845031738281
        6.167793273925781 5.563521862030029 4.858543395996094 4.11083984375 4.214607238769531 4.3488850593566895
        4.367195129394531 4.251228332519531 4.217658519744873 3.7446212768554688 4.123054504394531 4.226814270019531
        4.4740142822265625 4.5716705322265625 4.455703258514404 4.342781066894531 4.1077880859375 4.702903747558594
        4.968414306640625 4.647972106933594 4.840232849121094 5.5909881591796875 5.325477600097656 3.3448257446289062
        3.238013982772827 3.8270187377929688 4.779197692871094 5.7313761711120605 6.03350830078125 4.4923248291015625
        3.628654718399048 3.2410659790039062 3.1342544555664062 3.1434097290039062 2.746666193008423 2.6490097045898438
        2.6459579467773438 1.7365036010742188 1.0437318086624146 0.7354965806007385 0.6439437866210938 0.8453598022460938
        10.657066345214844 10.592971801757812 10.861534118652344 11.13315486907959 11.416976928710938 11.832023620605469
        12.216560363769531 12.384415626525879 12.302009582519531 11.850334167480469 11.413925170898438 11.093475341796875
        10.516677856445312 9.817802429199219 9.698783874511719 9.830009460449219 10.02838134765625 10.08026123046875
        9.836112976074219 9.369178771972656 9.244056701660156 9.555343627929688 9.95208740234375 10.199287414550781
        10.153511047363281 9.805595397949219 9.710990905761719 9.799491882324219 9.762870788574219 9.555342674255371
        9.488204956054688 9.405807495117188 9.192177772521973 8.822898864746094 8.532974243164062 8.792380332946777
        8.990753173828125 9.088409423828125 8.804588317871094 8.429214477539062 8.709983825683594 9.189125061035156
        9.298988342285156 9.527876853942871 9.512619018554688 9.656059265136719 9.613327026367188 9.295936584472656
        9.396652221679688 9.585861206054688 9.308144569396973 8.597061157226562 8.398696899414062 8.746604919433594
        9.030426025390625 8.999908447265625 8.850364685058594 8.215583801269531 8.038573265075684 8.008056640625
        8.304084777832031 8.404801368713379 9.048736572265625 9.918519020080566 9.451583862304688 9.414962768554688
        9.17386531829834 8.908355712890625 8.722190856933594 8.890044212341309 8.920562744140625 8.798484802246094
        8.883941650390625 9.207436561584473 8.966339111328125 8.319343566894531 7.96533203125 8.11181640625
        8.731346130371094 8.697776794433594 8.206427574157715 7.992797374725342 7.9500732421875 7.632683277130127
        7.287818908691406 6.6896586418151855 6.894134998321533 7.327491760253906 7.248146057128906 7.031463623046875
        6.967376232147217 6.5157012939453125 5.941956043243408 5.6337199211120605 5.352943420410156 5.243080139160156
        5.133216857910156 4.721214294433594 4.309211730957031 4.5594635009765625 4.4618072509765625 4.174934387207031
        4.4007720947265625 4.840232849121094 5.020293712615967 5.191200256347656 5.5177459716796875 5.908386707305908
        6.03656005859375 5.7527384757995605 5.517745494842529 5.890075206756592 6.5950469970703125 6.729331970214844
        6.1433796882629395 5.88397216796875 5.359046936035156 4.925689697265625 4.947052001953125 4.358039855957031
        3.946044921875 3.8056564331054688 3.8605880737304688 3.8514328002929688 3.6988449096679688 4.01318359375
        4.4984283447265625 3.9796142578125 3.6530683040618896 4.2024006843566895 4.165779113769531 3.98876953125
        3.827018976211548 4.263435363769531 4.480117321014404 5.078277587890625 5.252235412597656 4.5838775634765625
        4.3977203369140625 5.4445037841796875 5.615402698516846 3.8697433471679688 3.4241790771484375 3.98876953125
        4.895172595977783 5.648979187011719 6.088440418243408 4.5106353759765625 3.5737152099609375 3.2074966430664062
        2.951141357421875 2.8168563842773438 2.7558212280273438 3.073211669921875 3.1434097290039062 2.2095413208007812
        1.379440426826477 0.9002990126609802 0.6805648803710938 0.891143798828125 10.415969848632812 10.357978820800781
        10.513627052307129 10.733360290527344 11.169776916503906 11.728262901306152 12.125007629394531 12.250129699707031
        12.082275390625 11.502426147460938 11.279640197753906 11.197242736816406 10.559402465820312 9.854423522949219
        9.744560241699219 9.735404968261719 9.665214538574219 9.747611999511719 9.814750671386719 9.518722534179688
        9.228797912597656 9.451583862304688 9.830009460449219 9.96124267578125 9.97650146484375 9.689628601074219
        9.543136596679688 9.512619018554688 9.668267250061035 9.851372718811035 10.156562805175781 10.156562805175781
        9.833061218261719 9.302040100097656 8.740501403808594 8.893096923828125 9.347817420959473 9.524827003479004
        9.134193420410156 8.749656677246094 8.948028564453125 9.295936584472656 9.274574279785156 9.369179725646973
        9.32950496673584 9.485153198242188 9.527877807617188 9.286781311035156 9.234901428222656 9.430222511291504
        9.369178771972656 8.688621520996094 8.239997863769531 8.471939086914062 8.804588317871094 8.890045166015625
        8.783226013183594 8.0751953125 7.837151050567627 7.870719909667969 8.233894348144531 8.630638122558594
        9.256263732910156 9.533981323242188 9.198280334472656 9.045684814453125 8.752708435058594 8.511610984802246
        8.380386352539062 8.667258262634277 8.926666259765625 8.835105895996094 8.484146118164062 8.392593383789062
        8.200325012207031 7.873778820037842 7.89208984375 8.313240051269531 8.795433044433594 8.404801368713379
        7.956176280975342 8.069091796875 8.0416259765625 7.803581237792969 7.3885345458984375 6.4333038330078125
        6.765953063964844 7.5136566162109375 7.681511402130127 7.446517467498779 7.4495697021484375 7.348854064941406
        7.046722412109375 6.854454040527344 6.6866068840026855 6.3905792236328125 6.192207336425781 6.01519775390625
        5.4414520263671875 5.365150451660156 5.096588134765625 4.663230895996094 4.892119884490967 5.4872283935546875
        5.856499195098877 6.04876708984375 6.10064697265625 5.887023448944092 5.780204772949219 5.89617919921875
        6.097595691680908 6.323432922363281 6.4729766845703125 6.073181629180908 4.995880126953125 4.651023864746094
        4.4007720947265625 4.055908203125 3.8239669799804688 3.6652753353118896 3.4394378662109375 3.5431976318359375
        3.4150240421295166 3.3173601627349854 3.3661880493164062 3.7751388549804688 4.330574035644531 4.162727355957031
        3.891113042831421 4.141365051269531 3.8270184993743896 3.5615079402923584 3.720207452774048 4.361091613769531
        4.846336841583252 5.322425842285156 5.3743133544921875 4.834129333496094 4.440444469451904 5.3804168701171875
        5.639823913574219 4.528946399688721 4.0650634765625 4.330574035644531 4.947052001953125 5.276648998260498
        5.832084655761719 4.986724376678467 3.8422775268554688 3.3997647762298584 3.1281509399414062 3.039642333984375
        3.2013931274414062 3.2044448852539062 2.746666193008423 2.3285598754882812 2.627647638320923 2.4597930908203125
        1.5228729248046875 1.1413955688476562 10.406814575195312 10.431228637695312 10.583816528320312 10.831016540527344
        11.16062068939209 11.499375343322754 11.813713073730469 11.932740211486816 11.691642761230469 11.163673400878906
        11.218605041503906 11.243019104003906 10.586868286132812 9.988709449768066 9.869682312011719 9.717094421386719
        9.555343627929688 9.607223510742188 9.741508483886719 9.430221557617188 9.115875244140625 9.353919982910156
        9.793388366699219 10.02532958984375 10.187080383300781 9.96124267578125 9.683525085449219 9.421066284179688
        9.720146179199219 10.162666320800781 10.419020652770996 10.425125122070312 10.306098937988281 9.93988037109375
        9.329505920410156 9.350868225097656 9.765922546386719 9.796440124511719 9.396652221679688 9.12503719329834
        9.241004943847656 9.439376831054688 9.241004943847656 9.277626037597656 9.195228576660156 9.302040100097656
        9.472946166992188 9.579757690429688 9.595016479492188 9.598068237304688 9.323403358459473 8.685569763183594
        8.417007446289062 8.520768165588379 8.578750610351562 8.474990844726562 8.325447082519531 7.672355651855469
        7.657096862792969 7.8798828125 8.398696899414062 9.17081356048584 9.753715515136719 9.396652221679688
        8.938873291015625 8.572647094726562 8.401748657226562 8.490249633789062 8.487198829650879 8.551284790039062
        8.618423461914062 8.505508422851562 8.166755676269531 7.892089366912842 7.8249430656433105 7.94091796875
        8.249153137207031 8.536025047302246 8.667259216308594 8.056883811950684 7.824943542480469 8.0965576171875
        7.98974609375 7.815788269042969 7.428207874298096 6.5431671142578125 6.823936462402344 7.4465179443359375
        7.812736988067627 7.663200378417969 7.681510925292969 7.843254566192627 7.702873229980469 7.5289154052734375
        7.4343109130859375 7.071136474609375 6.808677673339844 7.025360107421875 6.6164093017578125 6.2166218757629395
        6.198310852050781 6.198310852050781 6.3661580085754395 6.5828399658203125 6.5614776611328125 6.158638000488281
        5.5665740966796875 4.947052001953125 5.001983642578125 5.764945983886719 6.344795227050781 6.189155578613281
        5.5970916748046875 5.075225353240967 4.171882629394531 3.891113042831421 3.924682855606079 3.897216558456421
        3.4394376277923584 3.4211275577545166 3.1250991821289062 3.2044448852539062 3.292945623397827 3.3814544677734375
        3.4455413818359375 3.5767667293548584 4.025390625 4.2786946296691895 3.918579339981079 3.915527582168579
        3.7842938899993896 3.6774823665618896 4.202400207519531 4.718162536621094 5.038604259490967 5.3498921394348145
        5.349891662597656 5.1912007331848145 5.035552978515625 5.3346333503723145 5.3987274169921875 4.870750427246094
        4.886016845703125 4.913482666015625 4.998931884765625 5.178992748260498 5.6001434326171875 5.5696258544921875
        4.190193176269531 3.6225509643554688 3.3204116821289062 3.2258071899414062 3.3539810180664062 3.176978826522827
        2.6184844970703125 2.4811553955078125 3.3631362915039062 4.281745910644531 3.3997647762298584 1.6846237182617188
        10.986663818359375 11.038543701171875 11.108734130859375 11.169776916503906 11.181983947753906 11.23996639251709
        11.447494506835938 11.545150756835938 11.206398010253906 10.937835693359375 11.175880432128906 11.181983947753906
        10.565506935119629 10.06805419921875 10.00701904296875 9.735404968261719 9.552291870117188 9.622489929199219
        9.573654174804688 9.149452209472656 9.033477783203125 9.356971740722656 9.790336608886719 10.10162353515625
        10.339668273925781 10.126045227050781 9.762870788574219 9.454635620117188 9.91546630859375 10.376296997070312
        10.431228637695312 10.403762817382812 10.492262840270996 10.510575294494629 10.257270812988281 10.187080383300781
        10.229804992675781 9.826957702636719 9.335609436035156 9.131141662597656 9.201332092285156 9.326454162597656
        9.076202392578125 9.039580345153809 8.914459228515625 8.978546142578125 9.317298889160156 9.732353210449219
        9.933775901794434 9.799492835998535 9.207435607910156 8.719139099121094 8.880890846252441 9.009063720703125
        8.743553161621094 8.331550598144531 8.236946105957031 7.779167652130127 7.9073486328125 8.246101379394531
        8.798483848571777 9.329505920410156 9.90020751953125 9.671318054199219 9.143348693847656 8.621474266052246
        8.618422508239746 8.832054138183594 8.886993408203125 8.673362731933594 8.322395324707031 8.1087646484375
        8.0416259765625 7.809685230255127 7.794425964355469 7.9134521484375 8.1209716796875 8.166755676269531
        8.136238098144531 7.8890380859375 7.837150573730469 7.812736988067627 7.5167083740234375 7.345802307128906
        7.196266174316406 6.851402282714844 7.1626973152160645 7.5350189208984375 7.864616394042969 7.770012378692627
        7.803581237792969 7.9989013671875 7.718132495880127 7.4251556396484375 7.351905822753906 7.153541088104248
        7.031463623046875 7.4037933349609375 7.251197814941406 6.906341552734375 7.098602294921875 7.312232494354248
        7.300025939941406 6.6835551261901855 5.783256530761719 4.809715270996094 4.0040283203125 3.8361740112304688
        4.507583141326904 5.630668640136719 6.10064697265625 5.642875671386719 4.763938903808594 4.4496002197265625
        3.9368896484375 3.7903976440429688 4.0955810546875 4.1077880859375 4.019286632537842 3.6408615112304688
        3.1708757877349854 3.033538818359375 3.012176513671875 3.3722991943359375 3.6774826049804688 3.6927413940429688
        3.787346124649048 3.9674072265625 3.7842941284179688 4.007080078125 4.5228424072265625 4.7181620597839355
        4.821922302246094 4.919586181640625 5.105743408203125 5.4139862060546875 5.249183654785156 5.130165100097656
        5.4170379638671875 5.264441967010498 4.995880126953125 4.693748474121094 5.099639892578125 5.4780731201171875
        5.3926239013671875 5.4872283935546875 5.685600280761719 5.734428405761719 4.4862213134765625 3.912475824356079
        3.5004730224609375 3.2685320377349854 3.2532730102539062 3.1952896118164062 3.1495132446289062 3.1952896118164062
        3.3051528930664062 3.7629318237304688 3.5126802921295166 2.07220458984375 11.633659362792969 11.584823608398438
        11.450545310974121 11.32541561126709 11.15451717376709 11.047698974609375 11.172828674316406 11.203346252441406
        10.882904052734375 10.791343688964844 11.050749778747559 10.962249755859375 10.455642700195312 10.144355773925781
        10.165718078613281 9.826957702636719 9.707939147949219 9.753715515136719 9.512619018554688 9.042633056640625
        9.106719970703125 9.500411987304688 9.808647155761719 10.00701904296875 10.168769836425781 9.90631103515625
        9.549240112304688 9.311195373535156 9.95513916015625 10.437331199645996 10.660118103027344 10.715049743652344
        10.690635681152344 10.84932804107666 10.986663818359375 10.861534118652344 10.538040161132812 9.729302406311035
        9.006011962890625 8.713035583496094 8.700828552246094 8.841209411621094 8.688621520996094 8.572647094726562
        8.539077758789062 8.737449645996094 9.176918029785156 9.549241065979004 9.823906898498535 9.823905944824219
        9.305091857910156 8.819847106933594 8.975493431091309 9.140296936035156 8.899200439453125 8.481094360351562
        8.508560180664062 8.285774230957031 8.447525024414062 8.758811950683594 9.045684814453125 9.207435607910156
        9.735404968261719 9.903258323669434 9.399703979492188 8.969390869140625 8.899199485778809 8.810690879821777
        8.792381286621094 8.441421508789062 8.0477294921875 7.94091796875 8.0904541015625 8.130134582519531
        8.148445129394531 7.791374206542969 7.5655364990234375 7.336647033691406 7.5533294677734375 7.855461120605469
        7.660148620605469 7.260353088378906 6.900238513946533 6.845298767089844 7.083343029022217 7.354957580566406
        7.641838073730469 7.812736988067627 7.916504383087158 7.748649597167969 7.623527526855469 7.6113128662109375
        7.2084736824035645 6.927703857421875 6.946014404296875 6.961273193359375 6.979583263397217 7.232887268066406
        7.232887268066406 7.150489807128906 7.177955627441406 6.921600341796875 6.5614776611328125 5.682548522949219
        4.498427867889404 3.6530685424804688 3.103729248046875 3.5859222412109375 4.684593677520752 5.4811248779296875
        5.5360565185546875 5.041656494140625 4.568619251251221 4.5411529541015625 4.3275227546691895 4.4068756103515625
        4.5014801025390625 4.235969543457031 4.116943359375 3.946044921875 3.662224054336548 3.4577486515045166
        3.1952896118164062 3.3234636783599854 3.5645599365234375 3.6561203002929688 3.5340423583984375 3.5889737606048584
        3.7751388549804688 4.211555480957031 4.886016845703125 5.252235412597656 5.1606831550598145 5.108794689178467
        5.417038440704346 5.584884166717529 5.139320373535156 4.849388122558594 5.273597717285156 5.038604736328125
        4.730369567871094 4.5716705322265625 4.983673095703125 5.313270568847656 5.5482635498046875 5.673393249511719
        5.87786865234375 5.716117858886719 4.882965087890625 4.3977203369140625 3.6011810302734375 3.2990493774414062
        3.302100896835327 3.4028167724609375 3.6774826049804688 4.0284423828125 3.8422775268554688 3.2685317993164062
        2.6429061889648438 1.7334518432617188 11.740471839904785 11.404769897460938 11.14536190032959 11.029388427734375
        10.904266357421875 10.870689392089844 11.038543701171875 10.922576904296875 10.626548767089844 10.589920997619629
        10.745567321777344 10.617385864257812 10.443435668945312 10.495315551757812 10.586868286132812 10.147407531738281
        9.988709449768066 9.88494873046875 9.488204002380371 9.183021545410156 9.350868225097656 9.671318054199219
        9.790336608886719 9.802543640136719 9.888001441955566 9.680473327636719 9.405807495117188 9.305091857910156
        10.07720947265625 10.492263793945312 11.029388427734375 11.249122619628906 11.096527099609375 11.142311096191406
        11.194190979003906 10.940887451171875 10.577713012695312 9.695732116699219 8.758811950683594 8.316291809082031
        8.239997863769531 8.401748657226562 8.301033020019531 8.127082824707031 8.349861145019531 8.636741638183594
        9.033477783203125 9.222694396972656 9.408858299255371 9.588912963867188 9.344764709472656 8.755760192871094
        8.624534606933594 8.829002380371094 9.054839134216309 8.908355712890625 8.880889892578125 8.807640075683594
        8.899200439453125 9.094512939453125 9.170814514160156 9.125038146972656 9.533981323242188 9.634696960449219
        9.244057655334473 8.996856689453125 8.758810997009277 8.270514488220215 8.169807434082031 8.001953125
        8.099609375 8.355964660644531 8.478042602539062 8.587905883789062 8.673362731933594 8.11181640625
        7.4831390380859375 6.848350524902344 7.257301330566406 7.654045104980469 7.260353088378906 7.016204833984375
        6.888031005859375 6.930755138397217 7.2023701667785645 7.6204681396484375 7.8707194328308105 7.885986328125
        7.867668628692627 7.702873229980469 7.2664570808410645 7.022308349609375 6.778160095214844 6.588943958282471
        6.6194610595703125 6.714073657989502 6.628623962402344 6.704917907714844 6.817832946777344 6.625572681427002
        6.329536437988281 6.02130126953125 5.758842468261719 5.145423889160156 4.303108215332031 3.9063720703125
        3.7568283081054688 4.214607238769531 5.105743408203125 5.291908264160156 5.096588134765625 4.797508239746094
        4.745628833770752 4.7761454582214355 4.6174468994140625 4.739525318145752 4.5655670166015625 4.235969543457031
        3.912475824356079 3.955200433731079 4.019287109375 4.092529296875 3.961303949356079 3.6439132690429688
        3.5065765380859375 3.5126802921295166 3.689689874649048 3.8819580078125 4.2115559577941895 4.5442047119140625
        4.867698669433594 5.148475646972656 5.252234935760498 5.4719696044921875 5.850395202636719 5.673393249511719
        5.050811290740967 4.712059020996094 5.035552978515625 4.803611755371094 4.809715270996094 4.6052398681640625
        4.629661560058594 4.428237438201904 5.294960021972656 5.5330047607421875 6.00909423828125 5.725273609161377
        5.236976623535156 4.779197692871094 3.656120538711548 3.332618474960327 3.4180755615234375 3.5401456356048584
        3.7995529174804688 4.657127380371094 5.047760009765625 4.336677551269531 3.118987798690796 1.9226685762405396
        11.227760314941406 10.821861267089844 10.635704040527344 10.553298950195312 10.501419067382812 10.708945274353027
        10.940887451171875 10.62349796295166 10.364082336425781 10.367134094238281 10.388504028320312 10.342720031738281
        10.577712059020996 10.898162841796875 10.980560302734375 10.437332153320312 10.138252258300781 9.90325927734375
        9.512619018554688 9.475997924804688 9.750663757324219 9.92156982421875 9.762870788574219 9.567551612854004
        9.610275268554688 9.530928611755371 9.582809448242188 9.784233093261719 10.507522583007812 10.62960147857666
        11.139259338378906 11.441391944885254 11.459701538085938 11.386458396911621 11.120941162109375 10.727256774902344
        10.531936645507812 9.845268249511719 8.935821533203125 8.456680297851562 8.301033020019531 8.383438110351562
        8.313241004943848 8.236947059631348 8.624534606933594 8.758811950683594 9.051788330078125 9.103668212890625
        9.247108459472656 9.433273315429688 9.341712951660156 8.697776794433594 8.325447082519531 8.575698852539062
        9.121979713439941 9.140296936035156 8.957183837890625 9.015167236328125 8.899201393127441 9.015167236328125
        9.140296936035156 9.073150634765625 9.430220603942871 9.329505920410156 9.256263732910156 8.850364685058594
        8.532974243164062 7.779167175292969 7.641838073730469 7.831047058105469 8.432266235351562 8.813743591308594
        8.594009399414062 8.459732055664062 8.609268188476562 8.285774230957031 7.733390808105469 6.7781596183776855
        7.061981201171875 7.4129486083984375 7.242042541503906 7.370216369628906 7.5136566162109375 7.6021575927734375
        7.5014495849609375 7.635735034942627 7.809685230255127 7.675407409667969 7.593001842498779 7.5685882568359375
        6.936859130859375 6.4729766845703125 6.5858917236328125 6.5218048095703125 6.4027862548828125 6.537063121795654
        6.271553039550781 6.073180675506592 6.134223937988281 5.664237976074219 5.4414520263671875 5.5452117919921875
        5.471970081329346 5.075225830078125 4.797508239746094 5.017242431640625 5.374312877655029 5.3834686279296875
        5.340736389160156 5.084381103515625 4.852440357208252 4.931793212890625 5.056915283203125 4.892120361328125
        4.525894641876221 4.5838775634765625 4.5136871337890625 4.297004699707031 4.171882629394531 4.165779113769531
        4.251228332519531 4.287849426269531 4.4099273681640625 4.144416809082031 3.7141034603118896 3.7293624877929688
        4.336677551269531 4.5747222900390625 4.718162536621094 4.821922302246094 4.846336364746094 5.041656494140625
        5.4109344482421875 5.746635437011719 5.832084655761719 5.4139862060546875 4.907379150390625 4.638816833496094
        4.763938903808594 4.733421325683594 4.937897205352783 4.809715270996094 4.651023864746094 4.0833740234375
        4.6021881103515625 5.035552978515625 6.03961181640625 5.5452117919921875 5.325477600097656 4.907379150390625
        3.8697431087493896 3.4302825927734375 3.4485933780670166 3.5065765380859375 3.8056564331054688 4.965362548828125
        5.734428405761719 5.4384002685546875 3.985718011856079 2.5238800048828125 10.611282348632812 10.336616516113281
        10.226753234863281 10.132148742675781 10.357978820800781 10.785240173339844 10.754721641540527 10.290840148925781
        10.260322570800781 10.321357727050781 10.138252258300781 10.159613609313965 10.657066345214844 11.001921653747559
        10.904267311096191 10.367134094238281 10.03448486328125 9.87274169921875 9.674369812011719 9.87884521484375
        10.10162353515625 10.08636474609375 9.802543640136719 9.475997924804688 9.588912963867188 9.732352256774902
        10.223701477050781 10.525833129882812 10.931732177734375 10.769981384277344 11.185035705566406 11.471908569335938
        11.627554893493652 11.444441795349121 10.931732177734375 10.571609497070312 10.568557739257812 10.126045227050781
        9.430222511291504 8.966339111328125 8.664206504821777 8.621474266052246 8.758811950683594 8.938873291015625
        9.378341674804688 9.421066284179688 9.610275268554688 9.582808494567871 9.683526039123535 9.811698913574219
        9.784233093261719 9.009063720703125 8.246101379394531 8.368171691894531 8.777122497558594 8.868675231933594
        8.658103942871094 8.85952091217041 8.432266235351562 8.850364685058594 9.15555477142334 9.048735618591309
        9.402755737304688 9.134193420410156 9.262367248535156 8.713035583496094 8.325447082519531 7.5746917724609375
        7.5258636474609375 7.962280750274658 8.661155700683594 8.853415489196777 8.453628540039062 8.142341613769531
        8.175910949707031 7.9500732421875 7.669303894042969 6.985687732696533 7.156593322753906 7.657096862792969
        7.797477722167969 7.9378662109375 8.1026611328125 8.252204895019531 8.117919921875 7.953125476837158
        7.7364420890808105 7.309180736541748 7.049774169921875 7.144386291503906 6.628624439239502 6.1677937507629395
        6.558425426483154 6.4943389892578125 6.189155578613281 6.509598255157471 6.3631062507629395 5.850395202636719
        5.6215057373046875 5.090484619140625 5.059967041015625 5.273597717285156 5.090484619140625 4.916534423828125
        5.5055389404296875 6.268501281738281 6.637779235839844 6.149482727050781 5.340736389160156 4.910430908203125
        4.675437927246094 5.038604259490967 5.127113342285156 4.721214294433594 4.278693675994873 4.287849426269531
        4.4038238525390625 4.348884105682373 4.348884582519531 4.342781066894531 4.4740142822265625 4.293952941894531
        4.177986145019531 4.3580403327941895 4.217658519744873 4.409927845001221 4.974517822265625 5.087432861328125
        5.017242431640625 5.032500743865967 5.117950439453125 5.291908264160156 5.5726776123046875 5.6550822257995605
        5.313270568847656 4.794456481933594 4.6540751457214355 4.5503082275390625 4.4496002197265625 4.815818786621094
        5.175940990447998 5.221717834472656 5.185096740722656 4.760887145996094 4.284797668457031 4.5655670166015625
        5.810722351074219 5.5970916748046875 5.4200897216796875 5.215614318847656 4.5686187744140625 4.0986328125
        4.0467529296875 4.208503723144531 4.303108215332031 5.172889709472656 5.97552490234375 5.816826343536377
        4.5228424072265625 2.975555419921875 10.504470825195312 10.223701477050781 10.01312255859375 10.10162353515625
        10.718101501464844 11.130104064941406 10.644859313964844 10.116883277893066 10.315255165100098 10.330513000488281
        10.00396728515625 10.129096984863281 10.586868286132812 10.840171813964844 10.626548767089844 10.165718078613281
        9.89715576171875 9.866629600524902 9.89410400390625 10.205390930175781 10.266426086425781 10.162666320800781
        9.92156982421875 9.747611999511719 10.10772705078125 10.446487426757812 10.995819091796875 11.035491943359375
        11.111785888671875 10.86458683013916 11.355934143066406 11.584823608398438 11.716055870056152 11.322364807128906
        10.626548767089844 10.299995422363281 10.550247192382812 10.391555786132812 9.784233093261719 9.219642639160156
        8.819847106933594 8.856468200683594 9.323403358459473 9.707939147949219 10.135200500488281 10.165718078613281
        10.406814575195312 10.318305969238281 10.345770835876465 10.501419067382812 10.544143676757812 9.567550659179688
        8.380386352539062 8.444473266601562 8.578750610351562 8.825950622558594 8.86562442779541 8.960234642028809
        8.441421508789062 8.929717063903809 9.399703979492188 9.118926048278809 9.341712951660156 8.844261169433594
        8.78017520904541 8.355964660644531 8.0111083984375 7.6052093505859375 7.864616394042969 8.398696899414062
        8.911408424377441 8.981597900390625 8.725242614746094 8.511611938476562 8.255256652832031 7.782218933105469
        7.687614917755127 7.672355651855469 7.8615641593933105 8.197273254394531 8.471939086914062 8.563491821289062
        8.612319946289062 8.691673278808594 8.676413536071777 8.368171691894531 7.681511402130127 6.976531982421875
        6.6286234855651855 6.717124938964844 6.4363555908203125 6.3753204345703125 6.866661071777344 6.500442981719971
        5.954162120819092 6.4424591064453125 6.6347270011901855 6.03656005859375 5.700859069824219 5.3010640144348145
        5.023345947265625 5.072174072265625 4.889069080352783 5.008087158203125 5.94500732421875 6.5950469970703125
        6.640830993652344 6.00299072265625 5.243080139160156 4.797508239746094 4.4618072509765625 4.806663513183594
        5.005034923553467 4.751732349395752 4.354988098144531 4.0345458984375 4.043701171875 4.174934387207031
        4.333625793457031 4.4221343994140625 4.5197906494140625 4.297004699707031 4.104736328125 4.699851989746094
        4.794456481933594 4.928741455078125 5.322425842285156 5.3712544441223145 5.182044982910156 5.1606831550598145
        5.4017791748046875 5.526901721954346 5.426193714141846 5.301063537597656 4.962310791015625 4.4068756103515625
        4.373306751251221 4.4251861572265625 4.312263488769531 4.919586181640625 5.435348987579346 5.520798206329346
        5.685600280761719 5.670341491699219 4.956207275390625 4.4526519775390625 5.087432861328125 5.584884166717529
        5.4475555419921875 5.6123504638671875 5.368202209472656 5.139320373535156 5.169837951660156 5.233924865722656
        4.882965087890625 5.304114818572998 6.173896789550781 5.749687194824219 4.797508239746094 3.5096282958984375
        10.840171813964844 10.361030578613281 10.135200500488281 10.507522583007812 11.194190979003906 11.395614624023438
        10.669273376464844 10.220648765563965 10.541091918945312 10.284736633300781 9.96734619140625 10.159614562988281
        10.425125122070312 10.611282348632812 10.425125122070312 10.08941650390625 9.866629600524902 9.869682312011719
        10.153511047363281 10.522782325744629 10.498367309570312 10.461746215820312 10.333564758300781 10.452591896057129
        10.867637634277344 11.181983947753906 11.484115600585938 11.307106018066406 11.230812072753906 10.959197998046875
        11.432235717773438 11.658073425292969 11.676383972167969 11.099578857421875 10.278633117675781 9.99786376953125
        10.507522583007812 10.525833129882812 9.927674293518066 9.247108459472656 8.835105895996094 9.024322509765625
        9.585861206054688 9.96734619140625 10.351875305175781 10.431228637695312 10.809654235839844 10.620437622070312
        10.547195434570312 10.812705993652344 10.971404075622559 10.06195068359375 8.914459228515625 9.027374267578125
        8.944976806640625 9.112823486328125 9.433273315429688 9.405807495117188 9.085357666015625 9.109771728515625
        9.485153198242188 9.12503719329834 9.250160217285156 8.926666259765625 8.368171691894531 7.873779773712158
        7.8890380859375 7.9775390625 8.539077758789062 8.917510986328125 9.082304954528809 9.070098876953125
        9.140296936035156 9.213539123535156 8.844261169433594 8.0965576171875 8.081298828125 8.557388305664062
        8.615371704101562 8.526870727539062 8.819847106933594 9.106719970703125 9.103668212890625 8.932769775390625
        8.691673278808594 8.148445129394531 7.309181213378906 6.704917907714844 6.5034942626953125 6.6103057861328125
        6.558426380157471 6.881927490234375 7.2664570808410645 6.5340118408203125 5.832084655761719 6.311225891113281
        6.4577178955078125 5.89617919921875 5.877869129180908 5.774101257324219 5.047760009765625 4.947052001953125
        5.142372131347656 5.3926239013671875 5.7496867179870605 5.6917033195495605 5.636772155761719 5.218666076660156
        4.892120361328125 4.779197692871094 4.467911243438721 4.4984283447265625 4.773094177246094 5.017242431640625
        4.727317810058594 4.104736804962158 3.912475347518921 4.07421875 4.263435363769531 4.324470520019531
        4.361091613769531 4.4892730712890625 4.684593200683594 5.2949604988098145 5.203407287597656 5.102691650390625
        5.444503307342529 5.5055389404296875 5.276649475097656 5.294960021972656 5.5391082763671875 5.4689178466796875
        5.157630920410156 5.069122314453125 4.971466064453125 4.5289459228515625 4.324470520019531 4.3824615478515625
        4.6204986572265625 5.2400288581848145 5.749687194824219 5.98162841796875 6.125068664550781 6.03045654296875
        5.371253967285156 4.5625152587890625 4.5381011962890625 4.751731872558594 4.995880126953125 5.307167053222656
        5.218666076660156 5.078277587890625 5.264441967010498 5.246131896972656 5.240028381347656 5.664237976074219
        6.259345531463623 5.865653991699219 5.240028381347656 4.5442047119140625 11.084321022033691 10.596023559570312
        10.492263793945312 10.968353271484375 11.413925170898438 11.322364807128906 10.681480407714844 10.525833129882812
        10.791343688964844 10.248115539550781 9.848320007324219 10.03448486328125 10.223701477050781 10.351875305175781
        10.08941650390625 9.87274169921875 9.814750671386719 9.90631103515625 10.419021606445312 10.809654235839844
        10.827964782714844 10.864585876464844 10.81881046295166 11.044647216796875 11.188087463378906 11.380355834960938
        11.694694519042969 11.673332214355469 11.502426147460938 11.172828674316406 11.420028686523438 11.560410499572754
        11.429183959960938 10.873748779296875 10.10467529296875 9.915467262268066 10.522781372070312 10.650962829589844
        10.135200500488281 9.408859252929688 9.118927955627441 9.421066284179688 9.646903991699219 9.732353210449219
        10.080260276794434 10.354927062988281 10.809654235839844 10.455642700195312 10.238960266113281 10.516677856445312
        10.812705993652344 10.333564758300781 9.552290916442871 9.631646156311035 9.381393432617188 9.131141662597656
        9.485153198242188 9.506515502929688 9.311195373535156 9.137245178222656 9.253211975097656 9.067047119140625
        9.34476375579834 9.253211975097656 8.142341613769531 7.708976745605469 8.227790832519531 8.557388305664062
        8.935821533203125 8.969391822814941 8.893096923828125 8.816795349121094 9.079254150390625 9.356971740722656
        9.137245178222656 8.380386352539062 8.383438110351562 8.911406517028809 8.871726989746094 8.569595336914062
        8.801536560058594 9.152503967285156 9.134193420410156 8.713035583496094 8.163703918457031 7.5319671630859375
        6.836143493652344 6.5645294189453125 6.4546661376953125 6.6072540283203125 6.823936939239502 7.190162658691406
        7.2817158699035645 6.4485626220703125 5.789360046386719 6.186103820800781 5.932799816131592 5.453658580780029
        5.734428405761719 5.91143798828125 5.163734436035156 5.041656970977783 5.5024871826171875 5.7374796867370605
        5.3987274169921875 4.681541442871094 4.6082916259765625 4.4923248291015625 4.406876087188721 4.641868591308594
        4.736473083496094 4.660179138183594 4.785301208496094 4.992828369140625 5.191200256347656 4.962310791015625
        4.403823375701904 4.391617298126221 4.4343414306640625 4.3671956062316895 4.318367004394531 4.791404724121094
        5.4048309326171875 5.551315784454346 5.114898681640625 5.041656494140625 5.4536590576171875 5.5238494873046875
        5.340736389160156 5.4567108154296875 5.652030944824219 5.4750213623046875 5.182044982910156 5.148475646972656
        5.108794689178467 4.818870544433594 4.4892730712890625 4.6327128410339355 5.261390686035156 5.6764445304870605
        5.957214832305908 6.3081746101379395 6.329536437988281 5.91754150390625 5.316322326660156 4.660179138183594
        4.440445423126221 4.153572082519531 4.971466064453125 5.032501220703125 5.066071033477783 4.721214771270752
        4.876861572265625 5.288856029510498 5.7435832023620605 5.98468017578125 6.11895751953125 6.2959675788879395
        6.03350830078125 5.4261932373046875 11.111785888671875 10.736412048339844 10.760826110839844 11.035491943359375
        11.148414611816406 10.873749732971191 10.538040161132812 10.773033142089844 10.898162841796875 10.214546203613281
        9.820854187011719 9.988709449768066 10.174873352050781 10.141304016113281 9.756767272949219 9.619430541992188
        9.759819030761719 10.05279541015625 10.641807556152344 10.953093528747559 10.885955810546875 10.889007568359375
        10.937836647033691 11.099578857421875 10.995819091796875 11.255226135253906 11.767936706542969 11.835075378417969
        11.697746276855469 11.465805053710938 11.520737648010254 11.352882385253906 11.014129638671875 10.638755798339844
        10.11077880859375 10.00091552734375 10.507522583007812 10.675376892089844 10.226753234863281 9.479049682617188
        9.479048728942871 9.89410400390625 9.710990905761719 9.530930519104004 9.91546630859375 10.269477844238281
        10.544143676757812 9.95819091796875 9.646903991699219 9.95208740234375 10.278633117675781 10.232856750488281
        9.796440124511719 9.820854187011719 9.598068237304688 9.244056701660156 9.192176818847656 8.929718017578125
        8.786277770996094 8.832054138183594 8.841209411621094 8.905303955078125 9.472946166992188 9.411911010742188
        8.203376770019531 7.910400390625 8.627586364746094 8.713034629821777 8.648948669433594 8.532974243164062
        8.447525024414062 8.404801368713379 8.560441017150879 8.810691833496094 8.795433044433594 8.255256652832031
        8.343758583068848 8.758811950683594 8.78017520904541 8.511610984802246 8.462783813476562 8.612319946289062
        8.600112915039062 7.986694812774658 7.541122913360596 7.342750549316406 6.790367126464844 6.674400329589844
        6.524857044219971 6.6011505126953125 7.046722412109375 7.364112854003906 7.147438049316406 6.427199840545654
        5.91448974609375 6.12200927734375 5.6062469482421875 5.359046459197998 5.792412281036377 6.02435302734375
        5.5085906982421875 5.346839904785156 5.786308288574219 6.06097412109375 5.572677135467529 4.733421325683594
        4.5808258056640625 4.4862213134765625 4.3763580322265625 4.5930328369140625 5.029449462890625 5.1515278816223145
        5.157630920410156 5.108795642852783 5.5726776123046875 5.87481689453125 5.1698384284973145 4.953155517578125
        4.989776611328125 4.943999767303467 4.733421325683594 5.026397705078125 5.6978068351745605 5.5116424560546875
        4.928741931915283 5.069122314453125 5.5543670654296875 5.697807312011719 5.6154022216796875 5.703910827636719
        5.8381876945495605 5.710014343261719 5.511642932891846 5.4261932373046875 5.3102192878723145 5.087432861328125
        4.846336364746094 5.215613842010498 5.841239929199219 5.801567077636719 5.737480163574219 6.06402587890625
        6.08233642578125 5.774101257324219 5.560470104217529 5.017242431640625 4.849388122558594 4.635765075683594
        5.197303771972656 4.989776611328125 5.114898681640625 4.7791972160339355 4.693748474121094 5.273597717285156
        5.7496867179870605 5.96331787109375 6.265449523925781 6.375320911407471 6.363105773925781 5.719169616699219
        10.977508544921875 10.715049743652344 10.696739196777344 10.660118103027344 10.559402465820312 10.284736633300781
        10.312202453613281 10.748619079589844 10.733360290527344 10.296942710876465 10.141304016113281 10.193182945251465
        10.315255165100098 10.05584716796875 9.595016479492188 9.576705932617188 9.808647155761719 10.214546203613281
        10.71505069732666 10.895111083984375 10.733359336853027 10.708946228027344 10.824913024902344 10.80660343170166
        10.605178833007812 10.989715576171875 11.499374389648438 11.484115600585938 11.471908569335938 11.535995483398438
        11.548203468322754 11.056854248046875 10.534988403320312 10.336616516113281 10.122993469238281 10.10772705078125
        10.483108520507812 10.605178833007812 10.02532958984375 9.268470764160156 9.527876853942871 9.99481201171875
        9.802543640136719 9.726249694824219 10.11077880859375 10.263374328613281 10.09552001953125 9.408859252929688
        9.207435607910156 9.570603370666504 9.869682312011719 9.92767333984375 9.680473327636719 9.683525085449219
        9.677421569824219 9.408859252929688 8.780174255371094 7.9775390625 7.9866943359375 8.316291809082031
        8.429214477539062 8.706932067871094 9.421066284179688 9.521774291992188 8.584854125976562 8.154548645019531
        8.542129516601562 8.398696899414062 8.185066223144531 8.154548645019531 8.163703918457031 8.093505859375
        7.950073719024658 8.1087646484375 8.346809387207031 8.0751953125 8.252204895019531 8.514663696289062
        8.615372657775879 8.417007446289062 7.9683837890625 7.748649597167969 7.751701831817627 7.278663635253906
        7.351905345916748 7.715080261230469 7.205420970916748 6.952117919921875 6.836143493652344 6.961272716522217
        7.4526214599609375 7.6052093505859375 7.1779561042785645 6.674400329589844 6.396682262420654 6.366157531738281
        5.676445007324219 5.4933319091796875 5.95111083984375 6.3844757080078125 6.04571533203125 5.5604705810546875
        5.853446960449219 6.353950500488281 6.161689281463623 5.627616882324219 5.2674946784973145 4.937896728515625
        4.797508239746094 4.898223876953125 5.371253967285156 5.661186218261719 5.6855998039245605 5.5238494873046875
        5.789360046386719 6.08538818359375 5.630668640136719 5.3865203857421875 5.5970916748046875 5.746635437011719
        5.4475555419921875 5.252235412597656 5.706962585449219 5.5360565185546875 5.008087158203125 5.258338928222656
        5.810722351074219 6.07012939453125 6.158638000488281 6.042663097381592 5.98468017578125 5.95721435546875
        5.89923095703125 5.740531921386719 5.618453502655029 5.5116424560546875 5.3773651123046875 5.731377124786377
        6.00604248046875 5.6031951904296875 5.362098693847656 5.6184539794921875 5.7100138664245605 5.728324890136719
        5.8687052726745605 5.5757293701171875 5.075225830078125 4.828025817871094 5.172889232635498 5.298011779785156
        5.355995178222656 5.200355529785156 5.114898681640625 5.667289733886719 6.07012939453125 5.694756031036377
        5.829032897949219 5.94500732421875 6.295967102050781 5.90533447265625 10.715049743652344 10.638755798339844
        10.510574340820312 10.284736633300781 10.126045227050781 9.857475280761719 10.092469215393066 10.428177833557129
        10.431228637695312 10.419021606445312 10.412919044494629 10.361030578613281 10.434280395507812 9.98870849609375
        9.616377830505371 9.762870788574219 10.02227783203125 10.367134094238281 10.696739196777344 10.776084899902344
        10.647911071777344 10.663169860839844 10.80660343170166 10.531936645507812 10.232856750488281 10.571609497070312
        10.904266357421875 10.821861267089844 11.105682373046875 11.392562866210938 11.346778869628906 10.660118103027344
        10.08026123046875 10.09246826171875 10.04364013671875 10.07415771484375 10.431228637695312 10.452590942382812
        9.701835632324219 9.106719970703125 9.521774291992188 10.01007080078125 10.05584716796875 10.184028625488281
        10.339668273925781 10.110777854919434 9.659111022949219 9.179969787597656 9.21964168548584 9.582809448242188
        9.784233093261719 9.790336608886719 9.640800476074219 9.506515502929688 9.530929565429688 9.460739135742188
        8.786277770996094 7.760856628417969 7.751701354980469 8.0721435546875 8.1087646484375 8.307136535644531
        9.149452209472656 9.616377830505371 8.920562744140625 8.197273254394531 8.197273254394531 8.261360168457031
        8.246101379394531 8.255256652832031 8.337654113769531 8.258308410644531 7.983642578125 7.9195556640625
        8.102660179138184 8.0965576171875 8.355964660644531 8.438369750976562 8.401748657226562 8.178962707519531
        7.635734558105469 7.223731517791748 7.174903869628906 7.1535420417785645 7.6937174797058105 8.182014465332031
        7.739494800567627 7.193214416503906 7.116912841796875 7.4556732177734375 7.855461120605469 7.705924987792969
        7.107757091522217 6.967376708984375 7.089447021484375 6.872772216796875 5.932799816131592 5.5696258544921875
        5.92364501953125 6.5706329345703125 6.5187530517578125 5.8076701164245605 5.777153015136719 6.335639953613281
        6.5523223876953125 6.305122375488281 5.682548522949219 5.206459045410156 5.218666076660156 5.4017791748046875
        5.771049976348877 6.140327453613281 6.195259094238281 5.91754150390625 5.96026611328125 6.173896789550781
        6.03656005859375 5.838188171386719 5.99993896484375 6.189155578613281 6.08538818359375 5.865653991699219
        6.03045654296875 5.764945983886719 5.218666076660156 5.5238494873046875 6.186103820800781 6.4272003173828125
        6.5645294189453125 6.320381164550781 6.09149169921875 6.137275695800781 6.207466125488281 6.03961181640625
        5.899231433868408 5.975524425506592 5.97552490234375 5.99993896484375 5.96942138671875 5.618453502655029
        5.4231414794921875 5.5238494873046875 5.5879364013671875 5.679496765136719 5.93585205078125 5.969420909881592
        5.301063537597656 5.087432861328125 5.3956756591796875 5.5940399169921875 5.4628143310546875 5.4628143310546875
        5.630668640136719 6.158638000488281 6.5462188720703125 6.073180675506592 5.90228271484375 5.91754150390625
        5.7527384757995605 6.04571533203125 10.330513000488281 10.580764770507812 10.443435668945312 10.193183898925781
        10.00701904296875 9.707939147949219 9.857475280761719 10.05584716796875 10.177925109863281 10.281684875488281
        10.254219055175781 10.370185852050781 10.409866333007812 9.845268249511719 9.707939147949219 9.99786376953125
        10.245063781738281 10.461746215820312 10.702842712402344 10.788291931152344 10.769981384277344 10.80660343170166
        10.82186222076416 10.330513000488281 9.92462158203125 10.06500244140625 10.269477844238281 10.342720031738281
        10.785240173339844 11.078216552734375 10.907317161560059 10.226753234863281 9.87274169921875 9.97955322265625
        9.845268249511719 9.87884521484375 10.199287414550781 10.098572731018066 9.482101440429688 9.399703025817871
        9.863579750061035 10.269478797912598 10.434280395507812 10.419020652770996 10.144354820251465 9.619430541992188
        9.192177772521973 9.195228576660156 9.445479393005371 9.622489929199219 9.753715515136719 9.863578796386719
        9.753715515136719 9.366127014160156 9.183021545410156 9.396652221679688 9.213539123535156 8.465835571289062
        8.185066223144531 8.1148681640625 8.069091796875 8.0904541015625 8.816795349121094 9.384446144104004
        8.972443580627441 8.337654113769531 8.291877746582031 8.618423461914062 8.706932067871094 8.584854125976562
        8.688621520996094 8.761863708496094 8.822898864746094 8.563491821289062 8.258308410644531 8.233894348144531
        8.505508422851562 8.594009399414062 8.328498840332031 7.995850086212158 7.7822184562683105 7.617415904998779
        7.5838470458984375 7.666252136230469 8.105712890625 8.288825988769531 7.867668151855469 7.315284729003906
        7.229835510253906 7.5685882568359375 7.809684753417969 7.6052093505859375 7.2878193855285645 7.351905822753906
        7.623527526855469 7.287818431854248 6.2318806648254395 5.902282238006592 6.03656005859375 6.4149932861328125
        6.680503845214844 6.283760070800781 5.94500732421875 6.231880187988281 6.6927103996276855 6.646934509277344
        5.99688720703125 5.5055389404296875 5.642875671386719 5.847343444824219 5.98468017578125 6.4729766845703125
        6.595046520233154 6.253242492675781 6.167793273925781 6.4180450439453125 6.5553741455078125 6.4119415283203125
        6.3844757080078125 6.4546661376953125 6.6164093017578125 6.723228454589844 6.6499857902526855 6.00299072265625
        5.340736389160156 5.810722351074219 6.5370635986328125 6.659141540527344 6.677452087402344 6.4607696533203125
        6.125068664550781 6.183052062988281 6.463821887969971 6.317329406738281 6.140327453613281 6.463821887969971
        6.5919952392578125 6.216621398925781 5.95111083984375 5.902283191680908 5.847343444824219 5.871757507324219
        5.822929382324219 5.8015666007995605 6.11590576171875 6.295967102050781 5.5970916748046875 5.4963836669921875
        5.529953479766846 5.652030944824219 5.688652038574219 5.87786865234375 5.829032897949219 6.07928466796875
        6.3875274658203125 6.265449523925781 6.128120422363281 6.4180450439453125 6.01824951171875 6.11590576171875
        10.02838134765625 10.562454223632812 10.480056762695312 10.196234703063965 10.01007080078125 9.723197937011719
        9.762870788574219 9.863578796386719 10.00701904296875 10.02532958984375 10.058899879455566 10.351875305175781
        10.171821594238281 9.662162780761719 9.869682312011719 10.190131187438965 10.339668273925781 10.458694458007812
        10.654014587402344 10.834068298339844 10.916473388671875 10.852378845214844 10.678428649902344 10.217597961425781
        9.830008506774902 9.820854187011719 10.01922607421875 10.126045227050781 10.357978820800781 10.492264747619629
        10.367134094238281 9.99176025390625 9.89715576171875 9.817802429199219 9.485153198242188 9.509567260742188
        9.698782920837402 9.659111022949219 9.677421569824219 10.07415771484375 10.327461242675781 10.513626098632812
        10.562454223632812 10.272529602050781 9.707939147949219 9.192177772521973 9.088410377502441 9.466842651367188
        9.549240112304688 9.451583862304688 9.643852233886719 9.921568870544434 9.854423522949219 9.32034969329834
        8.932769775390625 9.213540077209473 9.439376831054688 9.253211975097656 8.746604919433594 8.291877746582031
        8.331550598144531 8.340705871582031 8.716087341308594 9.021270751953125 8.859519958496094 8.890045166015625
        9.042632102966309 9.13114070892334 9.051788330078125 8.777122497558594 8.829002380371094 9.109771728515625
        9.634696960449219 9.524826049804688 8.963286399841309 8.584854125976562 8.639792442321777 9.002959251403809
        8.844261169433594 8.468887329101562 8.426162719726562 8.450576782226562 8.395645141601562 8.185066223144531
        8.224739074707031 8.020263671875 7.660148620605469 7.4190521240234375 7.4373626708984375 7.535019397735596
        7.632683277130127 7.809684753417969 8.05078125 8.0294189453125 7.904296875 7.4160003662109375
        6.622520446777344 6.5004425048828125 6.3020710945129395 6.204414367675781 6.585891246795654 6.6286234855651855
        6.3722686767578125 6.4729766845703125 6.830039978027344 6.839195251464844 6.4577178955078125 6.10675048828125
        6.164741516113281 6.137275695800781 5.94500732421875 6.5919952392578125 6.8239359855651855 6.4119415283203125
        6.341743469238281 6.6652445793151855 6.997894287109375 6.936859130859375 6.762901306152344 6.769004821777344
        7.003997802734375 7.235939025878906 7.016204833984375 6.118957042694092 5.5085906982421875 6.01519775390625
        6.5736846923828125 6.6591410636901855 6.750694274902344 6.5980987548828125 6.04266357421875 6.021300792694092
        6.653038024902344 6.604202747344971 6.375320911407471 6.7506937980651855 6.845298767089844 6.366157531738281
        6.06707763671875 6.186103820800781 6.286811828613281 6.305122375488281 6.170845031738281 6.09454345703125
        6.637779235839844 6.741539001464844 5.94500732421875 5.6031951904296875 5.4750213623046875 5.7771525382995605
        6.192207336425781 6.5065460205078125 6.192207336425781 5.97247314453125 6.09149169921875 6.08538818359375
        5.92669677734375 6.250190734863281 6.622520923614502 6.683555603027344 9.94903564453125 10.489212036132812
        10.473953247070312 10.315254211425781 10.223701477050781 9.96734619140625 9.89715576171875 9.92156982421875
        10.04669189453125 10.092467308044434 10.208441734313965 10.269477844238281 9.814750671386719 9.604171752929688
        10.07720947265625 10.321357727050781 10.281684875488281 10.330513000488281 10.455642700195312 10.776084899902344
        10.861534118652344 10.614333152770996 10.556351661682129 10.312202453613281 10.04364013671875 9.92156982421875
        10.01617431640625 9.860527038574219 9.710990905761719 9.808647155761719 9.88800048828125 9.93377685546875
        9.945982933044434 9.549240112304688 9.088409423828125 9.137245178222656 9.375289916992188 9.704887390136719
        10.217597961425781 10.66622257232666 10.602127075195312 10.63875675201416 10.510574340820312 10.010069847106934
        9.506515502929688 9.277626037597656 9.533982276916504 9.842216491699219 9.607223510742188 9.372238159179688
        9.595016479492188 9.88494873046875 9.88189697265625 9.323402404785156 8.929718017578125 9.222694396972656
        9.561447143554688 9.747611999511719 9.164710998535156 8.493301391601562 8.566543579101562 8.551284790039062
        8.764915466308594 8.841209411621094 8.972442626953125 9.588912963867188 9.817802429199219 9.506515502929688
        9.347817420959473 9.094513893127441 9.103668212890625 9.424118041992188 9.93988037109375 9.924620628356934
        9.552291870117188 9.063995361328125 8.969390869140625 9.582809448242188 9.653007507324219 9.353919982910156
        9.189125061035156 8.960235595703125 8.777122497558594 8.423110961914062 8.267463684082031 7.9287109375
        7.635735034942627 7.647941589355469 7.724235534667969 7.7394938468933105 7.864616394042969 8.377334594726562
        8.847311973571777 8.575698852539062 8.0843505859375 7.4556732177734375 6.884979248046875 6.833092212677002
        6.5340118408203125 6.3356404304504395 6.628624439239502 6.659142017364502 6.6682963371276855 6.930755615234375
        7.107757091522217 7.086395263671875 6.991791248321533 6.802574157714844 6.732383728027344 6.3997344970703125
        5.90838623046875 6.5797882080078125 6.848350524902344 6.3966827392578125 6.527908802032471 6.949066638946533
        7.257301330566406 7.348854064941406 7.196266174316406 7.037567138671875 7.095550537109375 7.202369689941406
        6.994842529296875 6.198310852050781 5.774101257324219 6.183052062988281 6.4027862548828125 6.4638214111328125
        6.875823974609375 6.814781665802002 6.045714855194092 5.899231433868408 6.814781665802002 6.875823497772217
        6.5126495361328125 6.707969665527344 6.747642517089844 6.5095977783203125 6.369209289550781 6.451613903045654
        6.6225199699401855 6.613357067108154 6.4302520751953125 6.366157531738281 7.010101318359375 6.891082763671875
        6.03350830078125 5.337684631347656 5.4658660888671875 6.06097412109375 6.5584259033203125 6.778160572052002
        6.5736846923828125 6.265449523925781 6.021301746368408 6.11895751953125 6.2318806648254395 6.4973907470703125
        6.769004821777344 6.790367126464844 10.00701904296875 10.348823547363281 10.422074317932129 10.480057716369629
        10.538040161132812 10.232856750488281 9.95208740234375 9.91851806640625 10.11383056640625 10.232856750488281
        10.260323524475098 10.02838134765625 9.573654174804688 9.720147132873535 10.223701477050781 10.303047180175781
        10.09857177734375 10.09857177734375 10.287788391113281 10.629599571228027 10.614334106445312 10.388504028320312
        10.663169860839844 10.544142723083496 10.266426086425781 9.97650146484375 9.872742652893066 9.576705932617188
        9.237953186035156 9.277626037597656 9.445480346679688 9.701835632324219 9.848319053649902 9.402755737304688
        8.999908447265625 9.14639949798584 9.723196983337402 10.382401466369629 10.827964782714844 10.931732177734375
        10.763877868652344 10.675376892089844 10.327461242675781 9.839164733886719 9.631645202636719 9.710990905761719
        9.88800048828125 9.912415504455566 9.640800476074219 9.518722534179688 9.585861206054688 9.665214538574219
        9.659111022949219 9.326454162597656 9.170814514160156 9.555343627929688 9.848320007324219 10.037537574768066
        9.338661193847656 8.578751564025879 8.545181274414062 8.346809387207031 8.636741638183594 8.859519958496094
        9.320351600646973 9.915467262268066 9.95513916015625 9.625541687011719 9.680473327636719 9.659111022949219
        9.726249694824219 9.799492835998535 9.830009460449219 9.552291870117188 9.350868225097656 9.103668212890625
        9.103667259216309 9.762870788574219 9.95208740234375 9.927674293518066 9.714042663574219 9.170815467834473
        9.006011962890625 8.743553161621094 8.529922485351562 8.0660400390625 7.693717956542969 7.7272868156433105
        7.852409362792969 8.05078125 8.334602355957031 8.798483848571777 9.186073303222656 8.850364685058594
        8.392593383789062 7.858512878417969 7.208473205566406 6.884979248046875 6.787315368652344 6.775108814239502
        6.964324951171875 6.750694751739502 6.723228454589844 7.263404846191406 7.6143646240234375 7.6021575927734375
        7.6143646240234375 7.373275279998779 7.095550537109375 6.723228454589844 6.10980224609375 6.509597301483154
        6.793418884277344 6.558425426483154 6.982635974884033 7.324440002441406 7.440414905548096 7.7303385734558105
        7.715080261230469 7.278663635253906 6.982635974884033 6.884979248046875 6.753746032714844 6.418045520782471
        6.363105773925781 6.671348571777344 6.680503845214844 6.6286234855651855 7.159644603729248 7.113861560821533
        6.234931945800781 6.01214599609375 6.970428466796875 7.098602294921875 6.701866149902344 6.744590759277344
        6.7567973136901855 6.726280212402344 6.671348571777344 6.656089782714844 6.8361430168151855 6.881927013397217
        6.671349048614502 6.4821319580078125 6.851402282714844 6.683555603027344 5.93280029296875 5.4872283935546875
        5.780204772949219 6.237983703613281 6.4394073486328125 6.4546661376953125 6.4943389892578125 6.4851837158203125
        5.960265636444092 5.98773193359375 6.1800007820129395 6.6042022705078125 6.753746032714844 6.5340118408203125
        10.153511047363281 10.257270812988281 10.361030578613281 10.403761863708496 10.467849731445312 10.162666320800781
        9.772025108337402 9.710990905761719 9.91546630859375 9.988707542419434 9.93682861328125 9.683525085449219
        9.466842651367188 9.799491882324219 10.144355773925781 10.10162353515625 9.89105224609375 9.955138206481934
        10.235909461975098 10.477005004882812 10.348823547363281 10.449539184570312 10.834068298339844 10.592971801757812
        10.171822547912598 9.854424476623535 9.759819030761719 9.616378784179688 9.170814514160156 8.917510986328125
        8.999908447265625 9.414962768554688 9.710990905761719 9.494308471679688 9.356971740722656 9.671318054199219
        10.357978820800781 10.922576904296875 11.087371826171875 10.934783935546875 10.736412048339844 10.431228637695312
        9.988707542419434 9.802543640136719 9.90631103515625 9.97650146484375 9.866630554199219 9.765922546386719
        9.640801429748535 9.622489929199219 9.570602416992188 9.457687377929688 9.326454162597656 9.292884826660156
        9.475996971130371 9.87884521484375 10.04364013671875 10.147407531738281 9.381393432617188 8.606216430664062
        8.539077758789062 8.340705871582031 8.691673278808594 9.015166282653809 9.530930519104004 9.729301452636719
        9.558395385742188 9.619430541992188 9.92767333984375 10.03143310546875 10.019227027893066 9.781181335449219
        9.378341674804688 8.902251243591309 8.819847106933594 8.871726989746094 8.87172794342041 9.369178771972656
        9.695732116699219 9.91546630859375 9.674368858337402 9.045684814453125 9.213539123535156 9.183021545410156
        8.746604919433594 8.166755676269531 7.641838073730469 7.544173717498779 7.824943542480469 8.322395324707031
        8.584854125976562 8.841209411621094 9.204383850097656 8.917510986328125 8.661155700683594 8.508560180664062
        7.8829345703125 7.168800354003906 7.098602294921875 7.232887268066406 7.4556732177734375 7.1718525886535645
        6.921600341796875 7.385483264923096 7.885986804962158 7.9134521484375 7.9775390625 7.5228118896484375
        7.092498302459717 7.080291271209717 6.747642517089844 6.717124938964844 6.872772216796875 7.080291271209717
        7.525863170623779 7.559432506561279 7.693718433380127 8.197274208068848 8.206428527832031 7.4068450927734375
        6.857506275177002 6.723228454589844 6.741539001464844 6.875823974609375 7.1871113777160645 7.4678802490234375
        7.415999889373779 7.242042541503906 7.507553577423096 7.4037933349609375 6.4943389892578125 6.152534484863281
        7.010101318359375 7.2389912605285645 6.949066162109375 6.955169677734375 6.985687255859375 7.040618896484375
        6.912445068359375 6.653038024902344 6.897186756134033 7.135231018066406 6.854454040527344 6.350898742675781
        6.4546661376953125 6.6072540283203125 6.103698253631592 5.91448974609375 6.07623291015625 6.201362609863281
        6.241035461425781 6.10980224609375 6.07623291015625 6.183052062988281 6.152534484863281 6.2471394538879395
        6.149482727050781 6.311225891113281 6.6133575439453125 6.903290271759033
      </DataArray>
    </PointData>
    <CellData>
    </CellData>
  </Piece>
  </ImageData>
</VTKFile>
