<?xml version="1.0"?>
<VTKFile type="ImageData" version="0.1" byte_order="LittleEndian" header_type="UInt32" compressor="vtkZLibDataCompressor">
  <ImageData WholeExtent="0 159 0 159 0 0" Origin="0 0 0" Spacing="1 1 1" Direction="1 0 0 0 1 0 0 0 1">
  <Piece Extent="0 159 0 159 0 0">
    <PointData Scalars="wind_speed">
      <DataArray type="Float32" Name="wind_speed" format="ascii" RangeMin="0.01617162674665451" RangeMax="22.0159854888916">
        5.377574443817139 5.292551517486572 5.073674201965332 4.83881139755249 4.81619930267334 5.083496570587158
        4.9722161293029785 4.783194541931152 4.68651008605957 4.684396743774414 4.729877948760986 4.388468265533447
        4.110633850097656 3.784980058670044 3.6313090324401855 3.8032467365264893 3.6905429363250732 3.628998041152954
        3.5851688385009766 3.6772420406341553 3.7676198482513428 3.646298885345459 3.4679112434387207 3.2754831314086914
        3.045652151107788 3.06866717338562 3.0291261672973633 3.0582735538482666 3.0177547931671143 2.9459621906280518
        3.038532257080078 2.9165985584259033 2.8033053874969482 2.8633766174316406 3.0920963287353516 3.2187492847442627
        3.25713849067688 3.343165636062622 3.84582257270813 4.28144645690918 4.698369026184082 4.315522193908691
        3.9981279373168945 3.8693604469299316 3.6021902561187744 3.529003143310547 3.4988632202148438 3.4874770641326904
        3.253633975982666 2.7693402767181396 2.079787254333496 1.4540894031524658 1.236858606338501 1.4771175384521484
        1.33790922164917 1.3227434158325195 1.1613553762435913 1.0749374628067017 1.1484198570251465 0.9808342456817627
        0.860145092010498 0.5581178069114685 0.5383048057556152 0.6947556138038635 1.0669618844985962 1.5795633792877197
        1.578893780708313 1.7233811616897583 1.676845908164978 2.23158860206604 2.560582399368286 2.794616222381592
        2.704136371612549 2.4568357467651367 2.703193426132202 2.7632763385772705 2.7596969604492188 2.805762529373169
        2.6514289379119873 2.7986810207366943 2.7325661182403564 2.799604654312134 2.8412060737609863 2.7083747386932373
        2.758514642715454 2.4858405590057373 2.1730873584747314 2.1913723945617676 2.2154202461242676 2.3837122917175293
        2.2885847091674805 2.1722776889801025 2.018242597579956 1.7875888347625732 1.823683500289917 1.587066411972046
        1.5892531871795654 1.6074745655059814 1.7093247175216675 1.6447230577468872 1.4753066301345825 1.4937318563461304
        1.436970829963684 1.351764440536499 1.5306510925292969 1.600337028503418 1.3976962566375732 0.9014462232589722
        0.652662456035614 0.4100044369697571 0.25973862409591675 0.435833215713501 0.5731841921806335 0.7088057398796082
        0.815119206905365 0.8503883481025696 1.0578246116638184 1.2623800039291382 1.2472957372665405 1.3948246240615845
        1.340973138809204 1.5089457035064697 1.5041499137878418 1.3475170135498047 1.3836784362792969 1.214362621307373
        1.1141610145568848 0.9965018630027771 0.8406230807304382 0.7925446033477783 0.6696279644966125 0.7045996785163879
        0.5447808504104614 0.3143290877342224 0.17549242079257965 0.13217000663280487 0.19531148672103882 0.30796682834625244
        0.4998825192451477 0.524271547794342 0.6271418333053589 0.7171986103057861 0.7631345391273499 0.8940334916114807
        0.820102334022522 0.9029648900032043 0.8180310726165771 0.7310498952865601 0.8054561614990234 0.7445610761642456
        0.8051654100418091 0.7288192510604858 0.777466893196106 0.8426414132118225 0.6492706537246704 0.7264920473098755
        0.7039667963981628 0.7098888754844666 0.698793888092041 0.6287199854850769 5.474754810333252 5.361247539520264
        5.2170257568359375 5.013145923614502 4.907707691192627 5.002056121826172 5.0946736335754395 5.030662536621094
        4.940083980560303 4.880229473114014 4.7558207511901855 4.534560680389404 4.305449962615967 4.020289421081543
        3.798347234725952 3.7589337825775146 3.7684383392333984 3.7545268535614014 3.742286443710327 3.7764475345611572
        3.725037097930908 3.6433191299438477 3.5106215476989746 3.40018630027771 3.211365222930908 3.0575225353240967
        3.0199718475341797 3.044118642807007 2.98663330078125 2.924835443496704 2.888249158859253 2.8832080364227295
        2.945791482925415 2.989856004714966 3.198251962661743 3.206317186355591 3.3168540000915527 3.5269935131073
        4.010293483734131 4.325700759887695 4.428351879119873 4.205970764160156 4.240740776062012 4.4087066650390625
        4.265218257904053 4.024857044219971 3.857929229736328 3.8967816829681396 3.639780044555664 3.096712827682495
        2.1740503311157227 1.524901032447815 1.263277530670166 1.3045399188995361 1.1660184860229492 1.0991096496582031
        1.0955853462219238 1.0361895561218262 1.0669951438903809 0.9884954690933228 0.7572013139724731 0.5210211873054504
        0.547077476978302 0.6111859083175659 0.80112224817276 1.2911479473114014 1.495191216468811 1.6499640941619873
        1.7096227407455444 1.9479165077209473 2.2757086753845215 2.652596950531006 2.7624704837799072 2.715423822402954
        2.662216901779175 2.7045912742614746 2.7998366355895996 3.0032200813293457 2.94584321975708 2.8784825801849365
        2.8148441314697266 2.7926738262176514 2.7568435668945312 2.7261548042297363 2.681528091430664 2.5583667755126953
        2.26289963722229 2.2828705310821533 2.3601624965667725 2.458796739578247 2.338136672973633 2.2143332958221436
        2.0744662284851074 1.9264436960220337 1.8986921310424805 1.7242350578308105 1.7743749618530273 1.7629523277282715
        1.7682206630706787 1.6345690488815308 1.6464531421661377 1.64518404006958 1.5996637344360352 1.4915999174118042
        1.4926797151565552 1.407180905342102 1.311287522315979 0.9538005590438843 0.608912467956543 0.18401214480400085
        0.20280662178993225 0.47133320569992065 0.6024163961410522 0.8142316937446594 0.9538686275482178 1.0993708372116089
        1.1898059844970703 1.2872823476791382 1.3068833351135254 1.4077955484390259 1.4692227840423584 1.532923698425293
        1.5151132345199585 1.4200299978256226 1.3755220174789429 1.265882134437561 1.1583431959152222 1.0154948234558105
        0.8798260688781738 0.7585737705230713 0.7194336652755737 0.6541249752044678 0.5011497139930725 0.32982975244522095
        0.15085427463054657 0.10652691125869751 0.16681113839149475 0.2906985580921173 0.439203679561615 0.5480750799179077
        0.6268966197967529 0.7676553726196289 0.8100070953369141 0.877463161945343 0.8795473575592041 0.8850923776626587
        0.8406481146812439 0.7775495052337646 0.8270009160041809 0.8533205389976501 0.8227670192718506 0.7683403491973877
        0.8021860122680664 0.8224732875823975 0.7309846878051758 0.7600846886634827 0.7481351494789124 0.7394808530807495
        0.6951183676719666 0.675544261932373 5.592113971710205 5.502099990844727 5.357388019561768 5.125863075256348
        4.999281406402588 5.104894638061523 5.152257442474365 5.061826705932617 4.911623954772949 4.905086994171143
        4.84578275680542 4.720466136932373 4.479892253875732 4.168061256408691 3.9045584201812744 3.8215444087982178
        3.760249376296997 3.708679437637329 3.646529197692871 3.724719762802124 3.713406801223755 3.6196630001068115
        3.483765125274658 3.429696559906006 3.3532896041870117 3.2403910160064697 3.063077449798584 2.9509384632110596
        2.81728458404541 2.8410139083862305 2.8364434242248535 2.9099557399749756 2.942223310470581 2.94384765625
        3.0353245735168457 3.106694221496582 3.2974534034729004 3.568694591522217 3.943207263946533 4.104371070861816
        4.127697944641113 4.1576032638549805 4.433741092681885 4.738529205322266 4.5832719802856445 4.295067310333252
        4.038720607757568 4.145110130310059 3.810035228729248 3.348788022994995 2.425117254257202 1.8318264484405518
        1.3667093515396118 1.1540870666503906 1.1885813474655151 1.227965235710144 1.130560278892517 1.070347547531128
        1.1465359926223755 1.0948848724365234 0.8208885192871094 0.5295892357826233 0.47794777154922485 0.6284346580505371
        0.8503756523132324 1.081662654876709 1.3121325969696045 1.4839439392089844 1.6703767776489258 1.7608410120010376
        2.0015182495117188 2.410489082336426 2.72713041305542 2.7314951419830322 2.6373815536499023 2.55983567237854
        2.6994078159332275 2.9623594284057617 3.077536106109619 3.0504400730133057 2.991243362426758 2.812741756439209
        2.609149694442749 2.549178123474121 2.638823986053467 2.6054046154022217 2.474797010421753 2.4916069507598877
        2.4710605144500732 2.405839204788208 2.290705680847168 2.1631276607513428 2.1215972900390625 2.0506672859191895
        2.098625898361206 1.965610384941101 1.9472408294677734 1.82377028465271 1.769286036491394 1.764937400817871
        1.866629958152771 1.8286802768707275 1.8541359901428223 1.7196290493011475 1.6139577627182007 1.4051117897033691
        1.2053449153900146 0.8268203735351562 0.4805764853954315 0.21447373926639557 0.32522621750831604 0.5029911994934082
        0.5738324522972107 0.7745909690856934 0.9015161395072937 1.0548697710037231 1.1828430891036987 1.3386967182159424
        1.367111325263977 1.3716330528259277 1.380595088005066 1.4076447486877441 1.401471734046936 1.3691242933273315
        1.3544971942901611 1.2075645923614502 1.1038448810577393 1.0025240182876587 0.8663114309310913 0.7065296769142151
        0.628931999206543 0.5291093587875366 0.43316707015037537 0.27953848242759705 0.11085104942321777 0.10568057000637054
        0.16162249445915222 0.284743070602417 0.4871448278427124 0.6191688776016235 0.7347598671913147 0.858845591545105
        0.8580634593963623 0.9318304061889648 0.9681566953659058 1.00174880027771 0.9569299221038818 0.8667502999305725
        0.9025773406028748 0.9799580574035645 1.0231339931488037 0.9306838512420654 0.9030588865280151 0.891873300075531
        0.83533775806427 0.8853132128715515 0.8229928612709045 0.813510537147522 0.7576481103897095 0.7365745902061462
        5.536347389221191 5.53852653503418 5.521058559417725 5.41435432434082 5.224424839019775 5.349160194396973
        5.365297317504883 5.322683334350586 5.199059963226318 5.081416130065918 4.980306625366211 4.860269546508789
        4.721579074859619 4.521528720855713 4.161372184753418 4.061990737915039 3.9536545276641846 3.8976356983184814
        3.860997200012207 3.7635936737060547 3.697042465209961 3.5894317626953125 3.584800958633423 3.6147351264953613
        3.49015474319458 3.357933521270752 3.206425666809082 3.11873459815979 3.0755555629730225 2.992781162261963
        2.9143543243408203 2.932175397872925 3.010284185409546 3.0967986583709717 3.1097676753997803 3.196119785308838
        3.2713332176208496 3.5947484970092773 3.9134576320648193 3.9806618690490723 4.063633918762207 4.408351898193359
        4.909123420715332 5.060497283935547 4.838550090789795 4.5871901512146 4.555563926696777 4.3824334144592285
        3.9339914321899414 3.348475456237793 2.6637566089630127 1.9820899963378906 1.4859305620193481 1.2078399658203125
        1.2386369705200195 1.288717269897461 1.097872018814087 0.9728983640670776 1.1358174085617065 1.1281797885894775
        0.6180591583251953 0.2964068055152893 0.4566783010959625 0.6494998931884766 0.828353762626648 0.8525431752204895
        1.120651364326477 1.3473604917526245 1.5280416011810303 1.6715880632400513 1.83550226688385 2.209730863571167
        2.5267252922058105 2.633366346359253 2.65579891204834 2.610351800918579 2.6202449798583984 2.76385498046875
        2.9056429862976074 2.935551404953003 2.943242311477661 2.7911858558654785 2.4826974868774414 2.3579492568969727
        2.5711653232574463 2.655348300933838 2.6249823570251465 2.5381462574005127 2.4957468509674072 2.4397151470184326
        2.4351966381073 2.34340763092041 2.2725775241851807 2.2763962745666504 2.2457821369171143 2.1953601837158203
        2.0782063007354736 1.998058557510376 1.9107564687728882 1.931962013244629 1.9651308059692383 1.8850460052490234
        1.906962513923645 1.874876618385315 1.7919423580169678 1.5878170728683472 1.2112205028533936 0.8048840761184692
        0.49161237478256226 0.27608445286750793 0.40418541431427 0.515112042427063 0.4504614472389221 0.6287187337875366
        0.8148996233940125 0.9976531267166138 1.1875591278076172 1.332497239112854 1.3702393770217896 1.3203305006027222
        1.3222471475601196 1.3722808361053467 1.3514788150787354 1.341543436050415 1.2777762413024902 1.14667546749115
        1.0389484167099 0.9840965867042542 0.829243004322052 0.672860860824585 0.5820199251174927 0.4667414724826813
        0.3732823133468628 0.2533358335494995 0.12751886248588562 0.02047879807651043 0.1030985489487648 0.21848958730697632
        0.4621574282646179 0.7107130289077759 0.8385525941848755 0.9492082595825195 0.9911423325538635 1.0834370851516724
        1.1279401779174805 1.142277479171753 1.0998505353927612 1.0513843297958374 1.0991172790527344 1.1869357824325562
        1.2238364219665527 1.1252743005752563 1.0195021629333496 1.0224909782409668 0.9680705666542053 0.9738839864730835
        0.8986703157424927 0.8850759863853455 0.8855700492858887 0.830735445022583 5.719620227813721 5.644024848937988
        5.629707336425781 5.560123920440674 5.533628463745117 5.61890983581543 5.5801005363464355 5.515048980712891
        5.377792835235596 5.246001243591309 5.130594730377197 5.053287982940674 4.922534942626953 4.727695941925049
        4.479803562164307 4.352181434631348 4.213197708129883 4.175363063812256 4.069861888885498 3.915978193283081
        3.7581064701080322 3.7303194999694824 3.7281203269958496 3.6558640003204346 3.5266730785369873 3.4325404167175293
        3.4298901557922363 3.419419288635254 3.361654758453369 3.213088035583496 3.1471261978149414 3.114384889602661
        3.12792706489563 3.197216749191284 3.2643237113952637 3.3961405754089355 3.4136481285095215 3.623675584793091
        3.846205234527588 3.897139549255371 4.211458683013916 4.772515296936035 5.199454307556152 5.125710487365723
        4.9105610847473145 4.654918193817139 4.500308513641357 4.199041366577148 3.965240001678467 3.5701498985290527
        3.044532060623169 2.2649595737457275 1.8286441564559937 1.5800950527191162 1.447129487991333 1.3328384160995483
        1.0595049858093262 0.9281227588653564 0.9396731853485107 1.0570818185806274 0.7168115377426147 0.32222288846969604
        0.2758242189884186 0.4739246964454651 0.6241267323493958 0.5938267707824707 0.8183733820915222 1.1517599821090698
        1.426561951637268 1.5654879808425903 1.724709153175354 1.9847935438156128 2.21317458152771 2.379554510116577
        2.462311267852783 2.575948715209961 2.567519187927246 2.611640453338623 2.7050139904022217 2.7129080295562744
        2.815537929534912 2.832327127456665 2.605585813522339 2.525137186050415 2.584821939468384 2.6472926139831543
        2.647834539413452 2.571565866470337 2.4835920333862305 2.419145107269287 2.478942394256592 2.513051986694336
        2.4750406742095947 2.4461958408355713 2.3087856769561768 2.234164237976074 2.0777602195739746 2.0527162551879883
        1.9772735834121704 1.9656140804290771 1.9668657779693604 2.0990428924560547 2.132694959640503 2.0555405616760254
        1.8602092266082764 1.6586514711380005 1.1932815313339233 0.8044565320014954 0.6022627353668213 0.4037749767303467
        0.29974445700645447 0.3452970087528229 0.33922016620635986 0.5194320678710938 0.7749993205070496 0.9516851902008057
        1.052740454673767 1.1750555038452148 1.3292826414108276 1.2814052104949951 1.2210873365402222 1.2787889242172241
        1.2603155374526978 1.271567940711975 1.1606889963150024 1.033793568611145 0.8773685097694397 0.8495305180549622
        0.771531879901886 0.6297476291656494 0.5088947415351868 0.3843969404697418 0.2722926139831543 0.19700543582439423
        0.0852288231253624 0.05171409249305725 0.1736546754837036 0.28383857011795044 0.4651435315608978 0.7397417426109314
        0.832489013671875 0.9801524877548218 1.0608124732971191 1.1872060298919678 1.2657139301300049 1.2754161357879639
        1.2923381328582764 1.2588063478469849 1.2645374536514282 1.293251633644104 1.2687172889709473 1.2279776334762573
        1.1592140197753906 1.1370271444320679 1.0389761924743652 0.9613956212997437 0.905839741230011 0.924346923828125
        0.9784275889396667 0.8775416612625122 5.784975051879883 5.814585208892822 5.800158977508545 5.759189605712891
        5.810372352600098 5.902854919433594 5.934774398803711 5.945739269256592 5.822190761566162 5.592613220214844
        5.43159294128418 5.357205867767334 5.248323917388916 5.0613627433776855 4.846462726593018 4.739679336547852
        4.643958568572998 4.674962043762207 4.511597156524658 4.296140670776367 4.062791347503662 3.9877872467041016
        3.981325626373291 3.913501024246216 3.7463295459747314 3.6300458908081055 3.6576602458953857 3.7426252365112305
        3.667771816253662 3.452669620513916 3.3684754371643066 3.3966879844665527 3.4618828296661377 3.4852123260498047
        3.535998821258545 3.703002452850342 3.721658945083618 3.831883430480957 4.030105113983154 4.097469806671143
        4.3653435707092285 4.824883937835693 5.219018936157227 5.235495567321777 5.2866716384887695 5.0792131423950195
        4.9606547355651855 4.58006477355957 4.3978095054626465 3.958998918533325 3.4649412631988525 2.8004143238067627
        2.4602463245391846 2.2133357524871826 1.8528974056243896 1.4370039701461792 1.0964622497558594 0.9380669593811035
        0.8179625272750854 1.0001839399337769 1.1324925422668457 0.8675812482833862 0.5748559832572937 0.48827415704727173
        0.42257240414619446 0.28521472215652466 0.5417087078094482 0.8395168781280518 1.1484732627868652 1.2912555932998657
        1.3287550210952759 1.5184608697891235 1.7813721895217896 2.0184731483459473 2.2261314392089844 2.39082670211792
        2.4009242057800293 2.465087652206421 2.5292980670928955 2.628117084503174 2.724560260772705 2.808434247970581
        2.6632633209228516 2.6009371280670166 2.601292848587036 2.549363851547241 2.491476058959961 2.557851791381836
        2.5475430488586426 2.492009401321411 2.5235517024993896 2.6236705780029297 2.6236441135406494 2.5079803466796875
        2.359084129333496 2.1937804222106934 2.0969552993774414 2.0347557067871094 1.9561586380004883 1.9488691091537476
        2.0293662548065186 2.2784616947174072 2.3102872371673584 2.156223773956299 1.8811613321304321 1.6103945970535278
        1.171655535697937 0.8173455595970154 0.5046820640563965 0.2994970679283142 0.1340540647506714 0.20091238617897034
        0.3924754559993744 0.546978771686554 0.7707816362380981 0.9363042116165161 0.953937292098999 1.0543609857559204
        1.2208976745605469 1.2447868585586548 1.202669382095337 1.2127324342727661 1.1561886072158813 1.1229426860809326
        1.017866611480713 0.907448410987854 0.8096587657928467 0.7627097368240356 0.683419942855835 0.545293927192688
        0.42055565118789673 0.328506737947464 0.22687652707099915 0.16430270671844482 0.06781125068664551 0.12443242222070694
        0.26072466373443604 0.36004504561424255 0.45341381430625916 0.6461659073829651 0.7877694964408875 0.9633567333221436
        1.0453860759735107 1.1496031284332275 1.2462489604949951 1.323809027671814 1.3896207809448242 1.3715550899505615
        1.3210793733596802 1.3121118545532227 1.2327061891555786 1.199697494506836 1.2070441246032715 1.206109881401062
        1.1069167852401733 1.0328378677368164 1.0096126794815063 0.9683313369750977 0.9902632832527161 0.8872761130332947
        6.070647239685059 5.99652624130249 5.969904899597168 5.9598212242126465 6.035376071929932 6.136048793792725
        6.235102653503418 6.3057541847229 6.198457717895508 5.984810829162598 5.840274810791016 5.737440586090088
        5.592715263366699 5.409984588623047 5.234796047210693 5.128906726837158 5.041369915008545 5.022140979766846
        4.856222152709961 4.724156856536865 4.4831624031066895 4.3179755210876465 4.236274719238281 4.226738452911377
        4.045921325683594 3.884779930114746 3.8676719665527344 3.9478819370269775 3.9060003757476807 3.7503647804260254
        3.6197147369384766 3.709273338317871 3.823819637298584 3.8107128143310547 3.7249197959899902 3.91426420211792
        4.066404342651367 4.221435546875 4.431829929351807 4.542984962463379 4.701580047607422 4.836328029632568
        5.092497825622559 5.2103800773620605 5.622652530670166 5.6042046546936035 5.476377487182617 4.987631320953369
        4.670701503753662 4.152165412902832 3.673917055130005 3.262711524963379 2.959782123565674 2.773771286010742
        2.291534185409546 1.7796783447265625 1.3411375284194946 1.2076493501663208 0.9341841340065002 0.9969944953918457
        1.2985860109329224 1.4121826887130737 1.1917303800582886 0.8371008038520813 0.5861259698867798 0.37832167744636536
        0.35169392824172974 0.44036489725112915 0.6059940457344055 0.7783383131027222 0.8699705600738525 1.0258097648620605
        1.2827485799789429 1.5241402387619019 1.8114663362503052 1.9856045246124268 2.0648138523101807 2.165189266204834
        2.177253484725952 2.2389910221099854 2.3796427249908447 2.416398286819458 2.3948824405670166 2.4476420879364014
        2.5220906734466553 2.400587797164917 2.294408082962036 2.396543264389038 2.45086407661438 2.5043060779571533
        2.632786512374878 2.788910150527954 2.753373861312866 2.475792646408081 2.386981964111328 2.1994307041168213
        2.1549925804138184 1.9608099460601807 1.9135736227035522 1.9142870903015137 2.1670470237731934 2.4903931617736816
        2.51899790763855 2.251631736755371 1.9360511302947998 1.5733190774917603 1.0581412315368652 0.6008077263832092
        0.2838607132434845 0.07449615001678467 0.1755622923374176 0.21536703407764435 0.39695310592651367 0.5240877270698547
        0.7371304035186768 0.9069424271583557 0.9211930632591248 0.9937685132026672 1.0845226049423218 1.178297519683838
        1.1692498922348022 1.1612322330474854 1.0637454986572266 1.003969669342041 0.9441500902175903 0.8888893127441406
        0.7724322080612183 0.6589598059654236 0.522585391998291 0.44015219807624817 0.37350237369537354 0.2915356159210205
        0.20918408036231995 0.11244066804647446 0.0668364092707634 0.17282086610794067 0.2857036292552948 0.35656267404556274
        0.42107322812080383 0.5854632258415222 0.7135282158851624 0.9151154160499573 1.001479983329773 1.0558634996414185
        1.1452974081039429 1.2199569940567017 1.2778723239898682 1.2633166313171387 1.2054206132888794 1.210403561592102
        1.134493350982666 1.0690009593963623 1.0625962018966675 1.1231333017349243 1.1739009618759155 1.1577430963516235
        1.144399881362915 1.0370268821716309 0.9774631857872009 0.8594866991043091 6.053995132446289 6.041577339172363
        6.0148396492004395 5.9776411056518555 6.005466938018799 6.124394416809082 6.3764872550964355 6.465662956237793
        6.351059913635254 6.171814918518066 6.030674934387207 5.905229568481445 5.779725074768066 5.543519973754883
        5.364123821258545 5.275313377380371 5.273669719696045 5.2227864265441895 4.9975714683532715 4.903253555297852
        4.718191146850586 4.530919075012207 4.378018379211426 4.307579517364502 4.188258647918701 4.0490403175354
        4.007312774658203 4.001689434051514 3.935781955718994 3.8609085083007812 3.830019474029541 3.932969570159912
        3.9490435123443604 3.9035143852233887 3.896841526031494 4.189944267272949 4.410962104797363 4.653171539306641
        4.90122127532959 5.0223565101623535 5.020697116851807 5.0327019691467285 5.110159873962402 5.122805595397949
        5.441982746124268 5.673526287078857 5.762730598449707 5.390803337097168 4.857234001159668 4.021248817443848
        3.5613181591033936 3.357633113861084 3.2488784790039062 3.196930408477783 2.86190128326416 2.4373085498809814
        1.9131855964660645 1.6605913639068604 1.3131206035614014 1.2619422674179077 1.4333813190460205 1.6910592317581177
        1.7177472114562988 1.3651769161224365 1.0477876663208008 0.7524287104606628 0.594663143157959 0.3373214602470398
        0.300961434841156 0.44110795855522156 0.5097358822822571 0.5554026365280151 0.8379755020141602 1.0850718021392822
        1.303086519241333 1.3962810039520264 1.4919252395629883 1.6091536283493042 1.608458161354065 1.753580093383789
        1.9472631216049194 2.0054800510406494 2.039318561553955 2.095424175262451 2.2437057495117188 2.1605358123779297
        2.214219331741333 2.3829970359802246 2.5322391986846924 2.6372525691986084 2.800598382949829 2.9265265464782715
        2.850119113922119 2.580979585647583 2.4735054969787598 2.2482166290283203 2.164611577987671 2.009868860244751
        2.0885009765625 2.1892528533935547 2.4050910472869873 2.5282647609710693 2.523040533065796 2.356525421142578
        2.079709768295288 1.5340886116027832 0.9920980334281921 0.6319925785064697 0.4158332943916321 0.18191158771514893
        0.2991304099559784 0.3303109109401703 0.4460197687149048 0.4774628281593323 0.5673968195915222 0.7080802917480469
        0.8327595591545105 0.9359608292579651 1.0062947273254395 1.090193510055542 1.086514949798584 1.140590786933899
        1.071714162826538 0.9901279211044312 0.8839171528816223 0.7921913862228394 0.7060813307762146 0.6235406994819641
        0.44551390409469604 0.35370326042175293 0.3028498888015747 0.23534488677978516 0.1767766922712326 0.08823510259389877
        0.041822753846645355 0.16857393085956573 0.2669845223426819 0.3578767776489258 0.41435685753822327 0.5685675740242004
        0.6554158329963684 0.814070999622345 0.9069696068763733 0.9958955645561218 1.0558605194091797 1.061577320098877
        1.1188596487045288 1.1023099422454834 1.0399829149246216 1.0384987592697144 0.9953658580780029 1.009642243385315
        0.9597770571708679 1.0109952688217163 1.0896990299224854 1.1802160739898682 1.208412528038025 1.1105732917785645
        0.9770655035972595 0.8164323568344116 5.957797050476074 6.039368629455566 6.023919582366943 6.055866241455078
        5.95341157913208 6.057895660400391 6.300167083740234 6.437669277191162 6.408259391784668 6.273677825927734
        6.170351505279541 6.02232551574707 5.933658599853516 5.799478054046631 5.51705265045166 5.366925239562988
        5.352962493896484 5.321027755737305 5.16560697555542 4.967499732971191 4.823412895202637 4.711409568786621
        4.623839855194092 4.526038646697998 4.326197624206543 4.278014183044434 4.241419315338135 4.133049011230469
        4.022747039794922 3.9340744018554688 4.009336471557617 4.1267595291137695 4.147245407104492 4.127750396728516
        4.235317230224609 4.5789008140563965 4.857117652893066 5.14576530456543 5.35475492477417 5.283118724822998
        5.207913398742676 5.216548442840576 5.159145355224609 5.031243324279785 5.22135591506958 5.742557048797607
        5.749800205230713 5.500117778778076 4.917223930358887 3.930410623550415 3.245554208755493 3.1875948905944824
        3.3829174041748047 3.286755084991455 3.0525221824645996 2.8814315795898438 2.371001958847046 1.9014060497283936
        1.5856839418411255 1.5636736154556274 1.6470168828964233 1.9419066905975342 2.1632447242736816 2.1745047569274902
        1.9006032943725586 1.4561023712158203 1.0164220333099365 0.6201061606407166 0.4177161455154419 0.28179705142974854
        0.266231507062912 0.30312633514404297 0.5480133891105652 0.7683579325675964 0.9153999090194702 0.8810306787490845
        0.8996496796607971 1.1425526142120361 1.377970576286316 1.5204930305480957 1.5600876808166504 1.6145206689834595
        1.6981481313705444 1.7815556526184082 2.0044281482696533 2.1055309772491455 2.2521698474884033 2.387481212615967
        2.6244313716888428 2.821743965148926 3.011704444885254 3.0533816814422607 2.9084713459014893 2.696613311767578
        2.5727171897888184 2.3929033279418945 2.264214515686035 2.2133233547210693 2.371915817260742 2.4657931327819824
        2.5194244384765625 2.4137048721313477 2.4669229984283447 2.300429582595825 2.0348427295684814 1.4314796924591064
        1.0013176202774048 0.684521496295929 0.6191878318786621 0.597613513469696 0.609603226184845 0.5255129337310791
        0.5049909949302673 0.4855932593345642 0.5547570586204529 0.6151549220085144 0.7605381011962891 0.884393036365509
        0.9365195035934448 0.9556564092636108 1.0017032623291016 1.084480881690979 1.0446525812149048 0.9707850813865662
        0.862263023853302 0.7649667859077454 0.681002140045166 0.5853656530380249 0.4341813921928406 0.31235331296920776
        0.25576964020729065 0.1813548058271408 0.15408354997634888 0.07114821672439575 0.06856684386730194 0.19174472987651825
        0.2819238007068634 0.38891881704330444 0.46777087450027466 0.5424303412437439 0.5713170170783997 0.6741145253181458
        0.7512604594230652 0.8631390929222107 0.8869938850402832 0.8610879778862 0.9022848010063171 0.9233112931251526
        0.9302092790603638 0.8779211044311523 0.8189488053321838 0.8868488073348999 0.8303386569023132 0.8710007071495056
        0.8937689065933228 1.0506808757781982 1.0791709423065186 1.0547040700912476 1.0192742347717285 0.8723645210266113
        5.867908000946045 5.934729099273682 5.889799118041992 5.966305255889893 5.902782917022705 5.9749603271484375
        6.084460258483887 6.228450775146484 6.326704978942871 6.31583309173584 6.21816873550415 6.045929431915283
        5.975639343261719 5.884448528289795 5.6085052490234375 5.3965864181518555 5.354414463043213 5.3520379066467285
        5.285035133361816 5.075728893280029 4.9038801193237305 4.815298080444336 4.819883823394775 4.785521507263184
        4.618530750274658 4.549537181854248 4.473742485046387 4.349886894226074 4.222336292266846 4.136615753173828
        4.285945415496826 4.33325719833374 4.358546257019043 4.497917175292969 4.771756172180176 5.027303695678711
        5.112450122833252 5.17531156539917 5.321993827819824 5.276848793029785 5.261098384857178 5.171029567718506
        5.1371378898620605 5.125934600830078 5.402571201324463 5.928166389465332 5.714015483856201 5.455526351928711
        5.043951034545898 4.167104244232178 3.24031400680542 2.97059965133667 3.1839168071746826 2.9992172718048096
        2.9156270027160645 3.0403614044189453 2.6782760620117188 2.1485273838043213 1.8877021074295044 1.922776460647583
        2.0953209400177 2.2245795726776123 2.420454502105713 2.599381685256958 2.4627537727355957 2.001739740371704
        1.3653054237365723 0.9876267910003662 0.7381362318992615 0.4518404006958008 0.2653835713863373 0.24829889833927155
        0.3209054172039032 0.5558400750160217 0.7326967716217041 0.6768543720245361 0.5460694432258606 0.7757477760314941
        1.2291532754898071 1.420519471168518 1.3777165412902832 1.4214459657669067 1.48838472366333 1.5911022424697876
        1.8032655715942383 1.9858312606811523 2.273005723953247 2.4659059047698975 2.7633590698242188 3.006481409072876
        3.1532540321350098 3.088923215866089 2.976980209350586 2.843615770339966 2.716627597808838 2.5323290824890137
        2.4516632556915283 2.4727001190185547 2.6928629875183105 2.6926448345184326 2.626586675643921 2.399951934814453
        2.3785362243652344 2.3294215202331543 2.143690824508667 1.4563448429107666 0.8204913139343262 0.7285687923431396
        1.0355398654937744 1.0521643161773682 1.000465750694275 0.8298258781433105 0.6524094939231873 0.5303265452384949
        0.5963443517684937 0.5729084610939026 0.6841408610343933 0.8001976013183594 0.8542393445968628 0.8426365256309509
        0.8812947869300842 0.9475172162055969 0.8700224161148071 0.7973243594169617 0.7280731797218323 0.6600834131240845
        0.5999908447265625 0.5179411768913269 0.40558233857154846 0.28369858860969543 0.18753662705421448 0.10144521296024323
        0.08343948423862457 0.10770860314369202 0.09755035489797592 0.18818800151348114 0.24311871826648712 0.33732423186302185
        0.41831982135772705 0.4751380383968353 0.46759822964668274 0.5700819492340088 0.6415210366249084 0.6993154287338257
        0.7001658082008362 0.670389711856842 0.7206851840019226 0.7546389698982239 0.7803422808647156 0.7092384099960327
        0.5959778428077698 0.6702045798301697 0.720952570438385 0.7400673031806946 0.7297752499580383 0.8720589280128479
        0.946123480796814 0.989095151424408 0.9914457201957703 0.8980085849761963 5.655432224273682 5.7846550941467285
        5.733910083770752 5.8056230545043945 5.811121463775635 5.847762584686279 5.852752208709717 5.9353532791137695
        6.078029155731201 6.200526714324951 6.132442951202393 5.956081867218018 5.886687755584717 5.833434581756592
        5.611640453338623 5.3603596687316895 5.291750907897949 5.27894401550293 5.223143100738525 5.123871326446533
        5.0372796058654785 4.923285961151123 5.054288864135742 5.085435390472412 4.960972309112549 4.847067832946777
        4.7840752601623535 4.669153213500977 4.485607147216797 4.446733474731445 4.602916240692139 4.647178649902344
        4.658243656158447 4.9281907081604 5.3348612785339355 5.397193431854248 5.281525135040283 5.231386184692383
        5.292433738708496 5.296011924743652 5.261789798736572 5.089674949645996 5.152438163757324 5.3648858070373535
        5.575940132141113 5.814184665679932 5.639770984649658 5.754791736602783 5.692014694213867 4.740418910980225
        3.296821117401123 2.734694719314575 2.8107199668884277 2.838442087173462 2.696446657180786 2.8853085041046143
        2.6667819023132324 2.4144949913024902 2.14333438873291 2.1703298091888428 2.4130678176879883 2.439765214920044
        2.5418527126312256 2.694594383239746 2.6343257427215576 2.2481350898742676 1.8032399415969849 1.6663578748703003
        1.4073270559310913 1.004988431930542 0.571963906288147 0.30683666467666626 0.2004854828119278 0.3209111988544464
        0.5286124348640442 0.5983590483665466 0.5835864543914795 0.7701045274734497 1.0021497011184692 1.145446538925171
        1.1222466230392456 1.2663275003433228 1.3764691352844238 1.6253345012664795 1.8273446559906006 2.0213029384613037
        2.313296318054199 2.484434127807617 2.7710790634155273 2.9559314250946045 3.1577253341674805 3.178548812866211
        3.126967430114746 2.9814319610595703 2.9217822551727295 2.6411025524139404 2.5831689834594727 2.517747640609741
        2.6848714351654053 2.577789068222046 2.723815441131592 2.659418821334839 2.5225670337677 2.42378306388855
        2.1373214721679688 1.45780348777771 0.8153097033500671 0.8688181638717651 1.4271458387374878 1.3128716945648193
        1.172177791595459 1.082565426826477 0.9653424024581909 0.6973651051521301 0.6595026254653931 0.6808140277862549
        0.6879323124885559 0.6792839169502258 0.702721893787384 0.7663265466690063 0.8139288425445557 0.8173174262046814
        0.7428439855575562 0.6790340542793274 0.6455833911895752 0.6057423949241638 0.5275927186012268 0.42174074053764343
        0.35613197088241577 0.27583208680152893 0.20918436348438263 0.1589440256357193 0.08755844831466675 0.10195803642272949
        0.10731139779090881 0.1471806913614273 0.16234029829502106 0.23263639211654663 0.3068503141403198 0.37108591198921204
        0.36506789922714233 0.44036343693733215 0.49303627014160156 0.5027720928192139 0.5057644844055176 0.511550784111023
        0.5308834910392761 0.5268773436546326 0.5221930146217346 0.5583600401878357 0.4993332624435425 0.539044201374054
        0.6171808838844299 0.5640563368797302 0.5702431797981262 0.7410246133804321 0.8436811566352844 0.8618191480636597
        0.8623992800712585 0.8117654323577881 5.7702436447143555 5.795400619506836 5.709633827209473 5.742589950561523
        5.717782497406006 5.786416530609131 5.779107570648193 5.770817279815674 5.860516548156738 6.010751724243164
        6.000888347625732 5.906184196472168 5.821461200714111 5.79179048538208 5.607499599456787 5.38818883895874
        5.2738165855407715 5.174063682556152 5.103555202484131 5.080490589141846 5.074552536010742 5.044884204864502
        5.180447101593018 5.288564682006836 5.2565484046936035 5.141989707946777 5.06679630279541 4.878567695617676
        4.754245758056641 4.767545223236084 4.856663227081299 4.866175174713135 4.85368537902832 5.131767272949219
        5.661205291748047 5.839623928070068 5.6200056076049805 5.387534141540527 5.440807342529297 5.467334270477295
        5.406865119934082 5.2533464431762695 5.211684226989746 5.405216217041016 5.46583366394043 5.641242504119873
        5.805816650390625 6.193553447723389 6.104382514953613 5.013410568237305 3.4787845611572266 2.804741144180298
        2.7217507362365723 2.680912971496582 2.4573304653167725 2.6113789081573486 2.558591365814209 2.686873435974121
        2.629063606262207 2.7169768810272217 2.7932302951812744 2.75791335105896 2.818598747253418 2.828672409057617
        2.6926958560943604 2.3305814266204834 2.1101114749908447 2.0684683322906494 2.0751984119415283 1.6692156791687012
        1.0442569255828857 0.5334270000457764 0.36069825291633606 0.3329330086708069 0.4858832359313965 0.6023535132408142
        0.6819892525672913 0.777866780757904 0.8428165912628174 1.0258429050445557 1.058651089668274 1.240810751914978
        1.4228626489639282 1.67384934425354 1.9334038496017456 2.1865248680114746 2.522315740585327 2.564361810684204
        2.788074493408203 3.0712709426879883 3.323503255844116 3.3208258152008057 3.2698514461517334 3.1003623008728027
        3.0184826850891113 2.689976453781128 2.628582000732422 2.645848274230957 2.7406630516052246 2.8304667472839355
        3.100796699523926 3.1370389461517334 2.7455356121063232 2.440309762954712 1.889230728149414 1.169334053993225
        0.906740665435791 1.0928045511245728 1.7745327949523926 1.6363039016723633 1.395735740661621 1.1142743825912476
        0.9414399266242981 0.7178359031677246 0.6930457949638367 0.7954392433166504 0.7557851076126099 0.774939239025116
        0.7015804052352905 0.7769631743431091 0.8071451783180237 0.768336296081543 0.7383435964584351 0.6223334670066833
        0.6024866104125977 0.5610284209251404 0.5115142464637756 0.39397498965263367 0.3342949450016022 0.28564050793647766
        0.2574523687362671 0.24019120633602142 0.15790817141532898 0.06923311948776245 0.06210929527878761 0.06519891321659088
        0.05161544680595398 0.0951073169708252 0.17915502190589905 0.22880400717258453 0.21617712080478668 0.29605570435523987
        0.3042736053466797 0.34067732095718384 0.35606178641319275 0.35095107555389404 0.3425557017326355 0.2941949963569641
        0.33054763078689575 0.4039458632469177 0.4180261492729187 0.46827569603919983 0.47074151039123535 0.49107950925827026
        0.5218162536621094 0.612564742565155 0.6727221012115479 0.6662583351135254 0.7324334979057312 0.692857027053833
        5.811464309692383 5.827571392059326 5.759312152862549 5.749694347381592 5.663633823394775 5.7369818687438965
        5.748219013214111 5.7615203857421875 5.743288040161133 5.87940788269043 5.960079669952393 5.957300662994385
        5.8644843101501465 5.81683874130249 5.673646926879883 5.569722652435303 5.407873153686523 5.241140842437744
        5.073974609375 5.090015888214111 5.1932172775268555 5.264217376708984 5.360350131988525 5.4393744468688965
        5.473340034484863 5.455984592437744 5.408964157104492 5.186488151550293 5.036391735076904 5.068373680114746
        5.0883564949035645 5.092344760894775 5.117239952087402 5.269283294677734 5.751180171966553 6.136056900024414
        5.966148376464844 5.594600677490234 5.535253047943115 5.593730449676514 5.363781452178955 5.27687931060791
        5.211645603179932 5.311769962310791 5.3467864990234375 6.006847381591797 6.4933061599731445 6.895974636077881
        6.28637170791626 5.133200168609619 3.690908432006836 3.1595003604888916 2.8930506706237793 2.6019678115844727
        2.433591365814209 2.5589938163757324 2.5640885829925537 2.8071963787078857 2.8972198963165283 3.105752944946289
        3.2046306133270264 3.183988332748413 3.143089771270752 2.91860294342041 2.7345728874206543 2.53741455078125
        2.457231044769287 2.3314597606658936 2.290191411972046 2.0532617568969727 1.5247336626052856 0.9453221559524536
        0.6164867281913757 0.5807857513427734 0.7216692566871643 0.7864671349525452 0.7934702038764954 0.8517316579818726
        0.971220850944519 1.1068005561828613 1.1183531284332275 1.2672951221466064 1.574305772781372 1.8117382526397705
        2.1146039962768555 2.3786463737487793 2.704965591430664 2.7573063373565674 2.9790751934051514 3.2230918407440186
        3.3677940368652344 3.265275716781616 3.3172965049743652 3.2938828468322754 3.2271316051483154 3.0056488513946533
        2.890822172164917 2.8624637126922607 2.8768744468688965 3.0419721603393555 3.240363836288452 3.173323392868042
        2.924272060394287 2.420675754547119 1.5839838981628418 0.6798661947250366 0.9850886464118958 1.6522880792617798
        2.083545207977295 1.9832110404968262 1.7545427083969116 1.2666524648666382 0.7896351218223572 0.5929422378540039
        0.5781450867652893 0.6206828951835632 0.6550709009170532 0.7925470471382141 0.8046724796295166 0.7680898904800415
        0.7438657283782959 0.7228211164474487 0.7126837372779846 0.645088791847229 0.6223208904266357 0.5406346917152405
        0.47776368260383606 0.39784571528434753 0.3955969512462616 0.3347211480140686 0.253883957862854 0.20890015363693237
        0.20636971294879913 0.12692204117774963 0.07557157427072525 0.06441952288150787 0.056486520916223526 0.01617162674665451
        0.1076492965221405 0.1327551305294037 0.13838210701942444 0.17854076623916626 0.12383942306041718 0.1866261214017868
        0.22980844974517822 0.2116243690252304 0.2138052135705948 0.1999291032552719 0.2587167024612427 0.3369375765323639
        0.40094584226608276 0.4566009044647217 0.40901216864585876 0.3952553868293762 0.44050005078315735 0.5413167476654053
        0.583988606929779 0.585085391998291 0.6312182545661926 0.5592862367630005 5.696468353271484 5.757743835449219
        5.773881912231445 5.743049621582031 5.597317218780518 5.647907257080078 5.652470111846924 5.740025520324707
        5.744955539703369 5.773466110229492 5.893284797668457 5.953312873840332 5.9091949462890625 5.859725475311279
        5.7187886238098145 5.658482074737549 5.494691371917725 5.3737664222717285 5.228849411010742 5.138306617736816
        5.196796417236328 5.284733295440674 5.40989875793457 5.537295818328857 5.541766166687012 5.506410121917725
        5.494834899902344 5.397428035736084 5.411468982696533 5.434601783752441 5.457040309906006 5.431346893310547
        5.476124286651611 5.65784215927124 6.046258449554443 6.390445709228516 5.959942817687988 5.431933403015137
        5.336923122406006 5.418482780456543 5.33292818069458 5.522124290466309 5.6188201904296875 5.554050922393799
        5.601041793823242 6.575616836547852 7.11769437789917 6.97122049331665 5.9708781242370605 4.930147171020508
        3.7240445613861084 3.303333282470703 3.013312339782715 2.720569133758545 2.6518664360046387 2.859109401702881
        3.039736747741699 3.1270809173583984 3.26774001121521 3.4891228675842285 3.580421209335327 3.5554330348968506
        3.406924247741699 3.2573764324188232 2.9604859352111816 2.8534061908721924 2.676687717437744 2.461240291595459
        2.3931589126586914 2.2283897399902344 1.8207833766937256 1.2872776985168457 0.9076624512672424 0.8030824065208435
        0.8515011668205261 0.9257919192314148 0.9225329160690308 0.9778169989585876 1.0990339517593384 1.168797492980957
        1.1799207925796509 1.3548184633255005 1.6936249732971191 1.889250636100769 2.158935546875 2.4025988578796387
        2.7526769638061523 2.938464403152466 3.2625410556793213 3.4297807216644287 3.3580524921417236 3.265732765197754
        3.3825409412384033 3.4905314445495605 3.49360728263855 3.40148663520813 3.318307876586914 3.1849796772003174
        3.132669448852539 3.142239809036255 3.283522129058838 3.101494550704956 2.9601998329162598 2.3923394680023193
        1.57563054561615 0.5015691518783569 1.198547124862671 1.997536540031433 2.3219146728515625 2.268266201019287
        1.771735668182373 1.0875751972198486 0.5652027130126953 0.412338525056839 0.43676823377609253 0.4748663902282715
        0.6077211499214172 0.7258896827697754 0.7766067981719971 0.7239737510681152 0.7054497599601746 0.7175357937812805
        0.7136809229850769 0.6735095381736755 0.6167917251586914 0.5649518370628357 0.5100485682487488 0.4691627621650696
        0.42974498867988586 0.35418155789375305 0.2350919246673584 0.11464458703994751 0.2035999596118927 0.21775813400745392
        0.13532418012619019 0.08470367640256882 0.11186479032039642 0.1485193520784378 0.057602789252996445 0.026127934455871582
        0.0794084221124649 0.06850524246692657 0.026174236088991165 0.11391113698482513 0.17304159700870514 0.17578008770942688
        0.19433294236660004 0.19397638738155365 0.2710707485675812 0.32442742586135864 0.3797648549079895 0.3798029124736786
        0.3393859565258026 0.3399817943572998 0.3395979404449463 0.4247819483280182 0.47659769654273987 0.4346425533294678
        0.47840094566345215 0.41989031434059143 5.631665229797363 5.652655601501465 5.643989562988281 5.650887966156006
        5.630178928375244 5.610486030578613 5.5775532722473145 5.596492767333984 5.655527591705322 5.707450866699219
        5.796539306640625 5.848240852355957 5.872400760650635 5.860389709472656 5.763166904449463 5.671319484710693
        5.552016258239746 5.443637371063232 5.30468225479126 5.181628227233887 5.1965508460998535 5.258626461029053
        5.44273567199707 5.5245466232299805 5.597879409790039 5.583149433135986 5.601832389831543 5.609508991241455
        5.6566996574401855 5.712723255157471 5.843752384185791 5.829395771026611 6.008674621582031 6.199295520782471
        6.358734130859375 6.47510290145874 6.212587833404541 5.800352573394775 5.5504608154296875 5.334190368652344
        5.07360315322876 5.341574192047119 5.7723164558410645 5.782877445220947 5.72884464263916 6.365111351013184
        6.754635334014893 6.751561164855957 6.011364459991455 4.929043292999268 3.8119685649871826 3.584221839904785
        3.207587718963623 2.9565775394439697 2.8515326976776123 3.274998903274536 3.4150493144989014 3.543562412261963
        3.6230766773223877 3.8624489307403564 4.037237167358398 4.0106940269470215 3.893533229827881 3.6055753231048584
        3.056563138961792 2.915724039077759 2.85381817817688 2.728015661239624 2.473019599914551 2.3027303218841553
        2.0597035884857178 1.6545798778533936 1.3511592149734497 1.1912751197814941 1.1565022468566895 1.1609495878219604
        1.1551499366760254 1.2054985761642456 1.2533025741577148 1.3099793195724487 1.2845996618270874 1.480093002319336
        1.7960376739501953 1.995463252067566 2.217252731323242 2.3861119747161865 2.6750755310058594 2.9442484378814697
        3.2752015590667725 3.462568998336792 3.4410431385040283 3.4655380249023438 3.572539806365967 3.755417585372925
        3.848519802093506 3.749340295791626 3.5954816341400146 3.42445707321167 3.3056082725524902 3.1567320823669434
        3.1932806968688965 2.7892777919769287 2.5836637020111084 1.9594082832336426 1.2977179288864136 0.49101078510284424
        1.3216533660888672 2.207526206970215 2.4318299293518066 2.1601085662841797 1.5923250913619995 0.9648619294166565
        0.3910972476005554 0.17435388267040253 0.25457778573036194 0.39182403683662415 0.555909276008606 0.5666001439094543
        0.7093368172645569 0.8134806156158447 0.7679234743118286 0.7317897081375122 0.7206645607948303 0.727788507938385
        0.6125448942184448 0.5563659071922302 0.5118448138237 0.4946933090686798 0.4643789529800415 0.3691217601299286
        0.2375297099351883 0.11751414835453033 0.20304520428180695 0.25982511043548584 0.15771730244159698 0.09901030361652374
        0.10399913042783737 0.1708410233259201 0.15890683233737946 0.08361735194921494 0.07561616599559784 0.041201937943696976
        0.05059365928173065 0.08190774917602539 0.13432271778583527 0.17387212812900543 0.17294256389141083 0.19254812598228455
        0.293876588344574 0.3239728510379791 0.37486377358436584 0.4030798673629761 0.39089950919151306 0.3781265914440155
        0.3438524007797241 0.3730189800262451 0.41135913133621216 0.33976414799690247 0.30736076831817627 0.26910778880119324
        5.458493232727051 5.532806873321533 5.5843610763549805 5.609776496887207 5.573182106018066 5.484091281890869
        5.475991249084473 5.482465744018555 5.542257308959961 5.584600925445557 5.643916606903076 5.712193965911865
        5.849007606506348 5.885307312011719 5.757174968719482 5.618189811706543 5.560024738311768 5.545589923858643
        5.4852728843688965 5.302337646484375 5.202633857727051 5.279170036315918 5.487340927124023 5.574730396270752
        5.560023784637451 5.505581378936768 5.555436134338379 5.72474479675293 5.798730373382568 5.865292549133301
        6.072300910949707 6.38078498840332 6.670497417449951 6.694076061248779 6.64997673034668 6.514560699462891
        6.552740573883057 6.448197841644287 6.201696395874023 5.6246771812438965 5.1991705894470215 5.111283779144287
        5.544579029083252 5.8117852210998535 5.98305606842041 6.3692450523376465 6.790393829345703 6.7521514892578125
        6.186570167541504 4.983400821685791 3.8264987468719482 3.5052547454833984 3.3526151180267334 3.1214711666107178
        2.9840502738952637 3.3560702800750732 3.6050145626068115 3.810879945755005 3.9217183589935303 4.172550201416016
        4.441894054412842 4.5590949058532715 4.520408630371094 4.081145763397217 3.367508888244629 3.1095731258392334
        2.9485256671905518 2.80424427986145 2.4848289489746094 2.3389697074890137 2.2156543731689453 1.8838045597076416
        1.746083378791809 1.5669889450073242 1.4614869356155396 1.3844091892242432 1.3769001960754395 1.3758443593978882
        1.4151520729064941 1.4808650016784668 1.5236643552780151 1.6845704317092896 1.881134271621704 2.011281728744507
        2.2793760299682617 2.547929286956787 2.8228583335876465 3.0088517665863037 3.292513847351074 3.5872013568878174
        3.768508195877075 3.897733688354492 3.82299542427063 3.9382236003875732 3.983269214630127 3.7150676250457764
        3.5792458057403564 3.5679516792297363 3.5472829341888428 3.3970813751220703 3.297430992126465 2.89937686920166
        2.5355422496795654 1.9326231479644775 1.3305175304412842 0.8642876744270325 1.385372281074524 2.0278587341308594
        2.3946573734283447 2.2117834091186523 1.5501548051834106 0.906885027885437 0.3593008816242218 0.10272333770990372
        0.2642175257205963 0.40963268280029297 0.47701725363731384 0.4511714577674866 0.6416241526603699 0.8658809065818787
        0.8811984062194824 0.8802821040153503 0.8578581213951111 0.8644168376922607 0.7783450484275818 0.6658169031143188
        0.5893080234527588 0.5244078040122986 0.5246122479438782 0.4511137902736664 0.3531053066253662 0.25669312477111816
        0.2839227616786957 0.3179314434528351 0.25315403938293457 0.20697766542434692 0.21220679581165314 0.22834408283233643
        0.2502065896987915 0.21419067680835724 0.1289178878068924 0.08079157024621964 0.11172220855951309 0.1530376672744751
        0.18574795126914978 0.20313581824302673 0.21175439655780792 0.2818968594074249 0.39866146445274353 0.44899895787239075
        0.43120306730270386 0.45300552248954773 0.4612441956996918 0.44752994179725647 0.42031872272491455 0.36954647302627563
        0.3133678734302521 0.2786370813846588 0.2411399632692337 0.16429351270198822 5.568299770355225 5.479373455047607
        5.4966278076171875 5.503772735595703 5.503283500671387 5.406805515289307 5.39360237121582 5.380845069885254
        5.3621721267700195 5.415263652801514 5.4919610023498535 5.630684852600098 5.733702182769775 5.733759880065918
        5.686919212341309 5.614029407501221 5.578447341918945 5.518129825592041 5.451700210571289 5.39454984664917
        5.290678024291992 5.365724086761475 5.458815574645996 5.536304950714111 5.55472993850708 5.4610981941223145
        5.520335674285889 5.7301506996154785 5.889981746673584 5.999617576599121 6.301557540893555 6.809494972229004
        7.107763290405273 7.092206001281738 6.979747772216797 6.754807472229004 6.779433727264404 6.700098514556885
        6.586413383483887 6.013962745666504 5.585608005523682 5.040711879730225 4.963365077972412 5.514253616333008
        6.133424758911133 6.5460205078125 6.968300819396973 6.966815948486328 6.531237602233887 5.224725723266602
        4.113201141357422 3.521355628967285 3.460279941558838 3.3187496662139893 3.1519458293914795 3.330967903137207
        3.5897319316864014 3.9526255130767822 4.258133411407471 4.6330976486206055 4.989011287689209 5.089707374572754
        5.0692667961120605 4.758986949920654 4.010192394256592 3.5549848079681396 3.1434476375579834 2.9330646991729736
        2.6587774753570557 2.544980049133301 2.399425506591797 2.156619071960449 2.0267651081085205 1.8792493343353271
        1.7705729007720947 1.6152172088623047 1.646728754043579 1.5828288793563843 1.5941071510314941 1.6328452825546265
        1.7040259838104248 1.7826517820358276 1.8519073724746704 2.0787954330444336 2.3283915519714355 2.509693145751953
        2.8309075832366943 3.162569284439087 3.457184076309204 3.6911401748657227 3.8529152870178223 4.032812595367432
        3.9811859130859375 3.9581592082977295 3.904313087463379 3.6452226638793945 3.5040125846862793 3.6055197715759277
        3.6244754791259766 3.511228084564209 3.3529858589172363 3.091083526611328 2.7089500427246094 2.1019537448883057
        1.5786386728286743 1.8319653272628784 2.1040568351745605 2.4590461254119873 2.4412789344787598 2.2088499069213867
        1.7097196578979492 0.9061868190765381 0.26373904943466187 0.0845198705792427 0.2771732807159424 0.3564967215061188
        0.3627311587333679 0.3472718298435211 0.5121040940284729 0.7722228765487671 0.9063177704811096 0.9768643379211426
        0.9166743755340576 0.8837501406669617 0.8543387055397034 0.7535989284515381 0.6518334746360779 0.5569157600402832
        0.5449031591415405 0.5296341776847839 0.500321090221405 0.4167924225330353 0.38794854283332825 0.35338547825813293
        0.34363222122192383 0.36391782760620117 0.38585272431373596 0.32041147351264954 0.26957884430885315 0.28585028648376465
        0.28923526406288147 0.22565165162086487 0.24303670227527618 0.2720668911933899 0.3578931391239166 0.4320106506347656
        0.4402240216732025 0.47519201040267944 0.556075930595398 0.6682013273239136 0.684868335723877 0.6526681184768677
        0.6226858496665955 0.6270379424095154 0.6133572459220886 0.5690099596977234 0.4857655167579651 0.42314568161964417
        0.380531907081604 0.26459118723869324 5.503452777862549 5.457553863525391 5.456254959106445 5.39743185043335
        5.353896617889404 5.270415306091309 5.277719020843506 5.219048500061035 5.174656867980957 5.199056148529053
        5.321071624755859 5.478209972381592 5.527938365936279 5.477092742919922 5.462801933288574 5.484343528747559
        5.47981595993042 5.391254901885986 5.300817012786865 5.3986897468566895 5.4405975341796875 5.4478044509887695
        5.418045997619629 5.369857311248779 5.4290690422058105 5.387885093688965 5.619112014770508 5.703764915466309
        5.808718681335449 6.0039448738098145 6.497134208679199 7.000453948974609 7.225945472717285 7.171328067779541
        7.2326154708862305 7.101161003112793 6.903981685638428 6.599714279174805 6.632961273193359 6.1402058601379395
        5.723396301269531 5.397003173828125 5.364076614379883 5.655949592590332 6.273068904876709 6.80625057220459
        6.9084367752075195 6.836299419403076 6.331569671630859 5.131764888763428 4.111009120941162 3.4340271949768066
        3.4429147243499756 3.284363031387329 3.1962714195251465 3.2162628173828125 3.5477094650268555 3.9424898624420166
        4.319174289703369 4.823143005371094 5.228506088256836 5.3055853843688965 5.160624027252197 5.054532051086426
        4.530842304229736 3.8853814601898193 3.2292702198028564 2.819204568862915 2.635084867477417 2.559281349182129
        2.3677964210510254 2.137324333190918 2.041862726211548 1.9386471509933472 1.8652563095092773 1.732996940612793
        1.6975194215774536 1.664894700050354 1.7021478414535522 1.7535582780838013 1.811111330986023 1.8431665897369385
        1.9289731979370117 2.2390875816345215 2.5907645225524902 2.7566325664520264 2.9549102783203125 3.359694242477417
        3.6864492893218994 3.8382489681243896 3.812628746032715 3.9639744758605957 4.027133464813232 3.9335405826568604
        3.7191238403320312 3.5621442794799805 3.477381944656372 3.5432419776916504 3.358870029449463 3.2116823196411133
        3.0528130531311035 2.9463918209075928 2.4427011013031006 1.9724705219268799 1.8498963117599487 2.5113062858581543
        2.845933198928833 3.013134241104126 2.7470028400421143 2.3766605854034424 1.6042470932006836 0.8179864287376404
        0.26055818796157837 0.16207782924175262 0.12734709680080414 0.17843812704086304 0.23204405605793 0.3585911691188812
        0.5712578892707825 0.7707037925720215 0.9170003533363342 0.9923576712608337 0.9388723969459534 0.9167593121528625
        0.8697936534881592 0.783499002456665 0.688452959060669 0.6526226997375488 0.6313218474388123 0.5822594165802002
        0.5790578126907349 0.5348020792007446 0.5556487441062927 0.5270435214042664 0.48143506050109863 0.4964351952075958
        0.5217429995536804 0.4878116250038147 0.4233362376689911 0.433747261762619 0.457424521446228 0.4026167094707489
        0.44176360964775085 0.47185882925987244 0.5468026399612427 0.6485726833343506 0.6313582062721252 0.6724558472633362
        0.7194356322288513 0.8467826843261719 0.9114851355552673 0.8870550990104675 0.8710071444511414 0.8452792763710022
        0.8250178694725037 0.7824127078056335 0.6744846701622009 0.6275302767753601 0.5373649001121521 0.4212770462036133
        5.276042461395264 5.362607002258301 5.394750118255615 5.341741561889648 5.205898284912109 5.19984245300293
        5.149271011352539 5.128182411193848 5.090914726257324 5.010408401489258 5.094931125640869 5.254417896270752
        5.354004859924316 5.31974458694458 5.245004653930664 5.320173263549805 5.439359664916992 5.3944268226623535
        5.336483478546143 5.41165828704834 5.481128215789795 5.467566967010498 5.398309707641602 5.374014854431152
        5.359261512756348 5.42429256439209 5.658292293548584 5.732561111450195 5.993648052215576 6.222362995147705
        6.5797905921936035 6.81252908706665 7.049867153167725 7.261004447937012 7.313886642456055 7.092700958251953
        6.865109920501709 6.659389972686768 6.471342086791992 6.022037506103516 5.830417633056641 5.783105373382568
        5.676982879638672 5.969891548156738 6.6169114112854 7.115617752075195 6.712490558624268 6.224743843078613
        5.55137825012207 4.617766380310059 3.8586227893829346 3.537191152572632 3.504089593887329 3.1850650310516357
        3.087942361831665 3.0376758575439453 3.101430654525757 3.3402583599090576 3.868894577026367 4.62558650970459
        5.07158088684082 5.33945369720459 5.368292808532715 5.448070526123047 4.925255298614502 4.051837921142578
        3.2448513507843018 2.7925405502319336 2.655841588973999 2.4895126819610596 2.2965471744537354 2.044008255004883
        2.036695957183838 1.9745903015136719 1.8990448713302612 1.8495965003967285 1.8162431716918945 1.8160748481750488
        1.826460599899292 1.8192548751831055 1.8980026245117188 2.013901710510254 2.1509180068969727 2.415266752243042
        2.781668186187744 2.896770477294922 2.960651397705078 3.2281253337860107 3.6000969409942627 3.7742760181427
        3.745697021484375 3.926525354385376 4.019741535186768 3.926382541656494 3.60113263130188 3.520541191101074
        3.5324738025665283 3.5169765949249268 3.123269557952881 2.914736270904541 2.7517032623291016 2.5187346935272217
        1.9057562351226807 2.4108691215515137 3.183300495147705 3.6441099643707275 3.5311062335968018 3.2281038761138916
        2.5792250633239746 2.000093698501587 1.2012734413146973 0.8572412729263306 0.3299321234226227 0.19135905802249908
        0.1931142508983612 0.18989554047584534 0.3680015504360199 0.6213918924331665 0.7710410952568054 0.8668245077133179
        1.0247172117233276 1.0633955001831055 1.0147324800491333 0.9631750583648682 0.8798952102661133 0.7832225561141968
        0.6991804242134094 0.740479052066803 0.7148299813270569 0.6526219844818115 0.6420700550079346 0.6582760214805603
        0.7352114319801331 0.7382369041442871 0.6816521286964417 0.6005035638809204 0.6130782961845398 0.646668553352356
        0.6386905908584595 0.6113673448562622 0.5978800058364868 0.5819811224937439 0.6303111910820007 0.6380813121795654
        0.7008184790611267 0.7952991127967834 0.820477306842804 0.8968048095703125 0.9428755640983582 1.0490201711654663
        1.1377098560333252 1.1626877784729004 1.1997967958450317 1.1574482917785645 1.1543941497802734 1.065638542175293
        0.9923686981201172 0.9126997590065002 0.8211449980735779 0.7119027376174927 5.277087688446045 5.332101821899414
        5.3240766525268555 5.307799339294434 5.217238903045654 5.16993522644043 5.04556131362915 4.960768699645996
        4.934913158416748 4.926830291748047 5.0119309425354 5.127867221832275 5.227665901184082 5.279973983764648
        5.243101596832275 5.293212890625 5.373863697052002 5.441488742828369 5.509522914886475 5.612089157104492
        5.584317684173584 5.519857406616211 5.42053747177124 5.374546527862549 5.2958245277404785 5.415594577789307
        5.574749946594238 5.746346473693848 6.04389762878418 6.500007152557373 6.782376289367676 6.821944713592529
        6.986026287078857 7.298884868621826 7.274985313415527 7.1016459465026855 6.887507438659668 6.887435436248779
        6.6293535232543945 6.320426940917969 6.425788879394531 6.514601707458496 6.324355602264404 6.828717231750488
        7.372490406036377 7.32742166519165 6.340086936950684 5.197421550750732 4.254972457885742 3.7161455154418945
        3.4170310497283936 3.430529832839966 3.541032075881958 3.215223789215088 2.79247784614563 2.7648074626922607
        2.726041555404663 2.8227596282958984 3.445358991622925 4.25347900390625 4.690503120422363 5.025826930999756
        5.340519905090332 5.642068862915039 5.316812038421631 4.533328056335449 3.6109659671783447 3.0787370204925537
        2.7934954166412354 2.525949239730835 2.35398268699646 2.094681739807129 2.071237802505493 2.0131735801696777
        1.990838885307312 1.9479714632034302 1.9075177907943726 1.9244308471679688 1.9075610637664795 1.9679174423217773
        2.030348539352417 2.152045249938965 2.2615270614624023 2.4015824794769287 2.7054443359375 2.850156545639038
        2.8648462295532227 2.9708971977233887 3.2001729011535645 3.3799009323120117 3.526944160461426 3.736919641494751
        3.9214718341827393 3.77386474609375 3.5042829513549805 3.456960916519165 3.4872124195098877 3.411810874938965
        3.084831476211548 2.7927913665771484 2.5622777938842773 2.2185122966766357 1.8828649520874023 2.5593819618225098
        3.6493685245513916 4.1369147300720215 3.576916456222534 2.9342539310455322 2.1880252361297607 1.5943483114242554
        1.106251835823059 1.007361650466919 0.6453918218612671 0.3910290002822876 0.3738044202327728 0.40237390995025635
        0.41264888644218445 0.6008315682411194 0.7067399024963379 0.8099685907363892 0.9841814637184143 1.1010382175445557
        1.0884944200515747 1.0467396974563599 0.9124891757965088 0.7977383136749268 0.7648823261260986 0.7711296081542969
        0.7498273253440857 0.7180754542350769 0.744642972946167 0.760759174823761 0.8386896848678589 0.9185948371887207
        0.8591415882110596 0.7405421733856201 0.7058145403862 0.7550239562988281 0.8550088405609131 0.8112859129905701
        0.7653523683547974 0.7070544958114624 0.7896790504455566 0.8649572730064392 0.9146214127540588 0.9853681921958923
        1.0359370708465576 1.1022905111312866 1.1841862201690674 1.2533400058746338 1.3065004348754883 1.3261619806289673
        1.365358829498291 1.399010181427002 1.3923275470733643 1.3099721670150757 1.2325323820114136 1.1520569324493408
        1.1286591291427612 1.0384761095046997 5.193966388702393 5.29945182800293 5.29836893081665 5.276430606842041
        5.1830525398254395 5.011352062225342 4.873181343078613 4.766153335571289 4.7395172119140625 4.793963432312012
        4.925093173980713 5.037785053253174 5.081386566162109 5.104747295379639 5.169641017913818 5.241975784301758
        5.358677864074707 5.488958358764648 5.533363342285156 5.628885269165039 5.566514492034912 5.558598518371582
        5.410416126251221 5.245360374450684 5.283320903778076 5.444047451019287 5.484989643096924 5.720764636993408
        6.047617435455322 6.748248100280762 7.1323466300964355 7.127099514007568 7.082544326782227 7.309008598327637
        7.241291522979736 7.124576568603516 6.9864301681518555 7.096980571746826 6.779592514038086 6.869515419006348
        7.286520004272461 7.77264404296875 7.770776748657227 8.076602935791016 7.839858531951904 7.065495014190674
        5.717073917388916 4.338465690612793 3.3061881065368652 3.10551118850708 3.2288923263549805 3.176767110824585
        3.2291388511657715 3.0388519763946533 2.6659884452819824 2.7410664558410645 2.7795822620391846 2.7604830265045166
        3.2433176040649414 3.970879554748535 4.350715637207031 4.646442413330078 5.242795944213867 5.743005752563477
        5.473231792449951 4.854293346405029 4.08322286605835 3.568202257156372 3.0731396675109863 2.7447128295898438
        2.4502780437469482 2.2517805099487305 2.1786203384399414 2.131849765777588 2.107661008834839 2.0048868656158447
        1.9344385862350464 1.9450894594192505 1.995876669883728 2.0798001289367676 2.145853042602539 2.2069501876831055
        2.285151958465576 2.3594863414764404 2.6173176765441895 2.7758944034576416 2.789292573928833 2.8856568336486816
        3.0050137042999268 3.1677558422088623 3.314582586288452 3.5495777130126953 3.8197100162506104 3.809954881668091
        3.5959835052490234 3.5597708225250244 3.541827917098999 3.4272234439849854 3.200946807861328 3.0145022869110107
        2.6019997596740723 2.4147396087646484 2.3052291870117188 2.9915082454681396 3.764686107635498 4.266027450561523
        3.4133543968200684 2.369305372238159 1.3741786479949951 1.0005942583084106 0.8610569834709167 0.7490929961204529
        0.7105745673179626 0.4949871003627777 0.5315647125244141 0.6072909235954285 0.6277521848678589 0.7123692035675049
        0.7871909737586975 0.8617101907730103 0.9811326265335083 1.1235028505325317 1.1225645542144775 1.0721571445465088
        0.9527603387832642 0.8443174958229065 0.8078193664550781 0.7810659408569336 0.7747637629508972 0.8104920387268066
        0.8113720417022705 0.8219828605651855 0.9304052591323853 0.9934837222099304 0.9672998785972595 0.8823176622390747
        0.9011019468307495 0.9280606508255005 1.0018538236618042 0.9959608316421509 0.9367947578430176 0.9044018387794495
        0.9929333925247192 1.0351552963256836 1.1212793588638306 1.2051345109939575 1.2839382886886597 1.3775453567504883
        1.416608452796936 1.4581542015075684 1.4846389293670654 1.561140537261963 1.5504287481307983 1.5577853918075562
        1.582466721534729 1.5192279815673828 1.4689756631851196 1.4394456148147583 1.439516544342041 1.3624025583267212
        5.271273136138916 5.256239891052246 5.250586986541748 5.236124515533447 5.12165641784668 4.871461391448975
        4.706496238708496 4.590901851654053 4.54422664642334 4.552700996398926 4.705901622772217 4.881623268127441
        4.905627250671387 4.890908718109131 4.870945453643799 4.897055625915527 5.108153820037842 5.37819766998291
        5.48600435256958 5.524807453155518 5.4634318351745605 5.492931842803955 5.34213924407959 5.19327449798584
        5.1377997398376465 5.08882999420166 5.096006393432617 5.368843078613281 5.740797996520996 6.490530014038086
        7.031317234039307 7.145605564117432 6.994867324829102 7.197051048278809 7.065972328186035 6.848237037658691
        6.691256046295166 7.075877666473389 7.030911922454834 7.427309513092041 7.88490629196167 8.824897766113281
        9.334794998168945 9.553985595703125 8.475972175598145 6.927936553955078 5.032084941864014 3.8668289184570312
        3.0933609008789062 2.7845544815063477 2.730501890182495 2.81571102142334 2.7686617374420166 2.5861620903015137
        2.4970104694366455 2.769456624984741 2.9233946800231934 3.031895160675049 3.4054181575775146 3.947495222091675
        4.178482532501221 4.343145847320557 4.837074279785156 5.255054473876953 5.115333557128906 4.78596830368042
        4.353147983551025 3.8507399559020996 3.37235426902771 3.072718381881714 2.7181873321533203 2.5219838619232178
        2.356269359588623 2.305985927581787 2.240715265274048 2.0966968536376953 2.020522117614746 2.052609920501709
        2.1631648540496826 2.261707067489624 2.262540578842163 2.304821729660034 2.3630127906799316 2.5573017597198486
        2.735462188720703 2.812077045440674 2.859218120574951 2.896883964538574 3.032470226287842 3.0999913215637207
        3.0759975910186768 3.2458760738372803 3.509805679321289 3.8147835731506348 3.8514132499694824 3.7839739322662354
        3.621920585632324 3.4981231689453125 3.2813949584960938 2.9090867042541504 2.2709715366363525 2.119330644607544
        2.43733286857605 3.2994558811187744 3.8075311183929443 4.081693172454834 3.2732300758361816 2.214738607406616
        1.2735956907272339 0.824198305606842 0.8158900737762451 0.6486182808876038 0.6447863578796387 0.5997556447982788
        0.674149215221405 0.7423052787780762 0.83722323179245 0.9224351644515991 0.9723368883132935 0.9898121953010559
        1.0350204706192017 1.206080436706543 1.194608211517334 1.092476487159729 0.9124366641044617 0.8603814840316772
        0.8388069868087769 0.8099064826965332 0.8330725431442261 0.8949540257453918 0.8686027526855469 0.8848910927772522
        0.9546667337417603 1.0120571851730347 1.00365149974823 1.0171571969985962 1.0672547817230225 1.082586407661438
        1.107535719871521 1.1210044622421265 1.0954185724258423 1.0898317098617554 1.1397912502288818 1.184885859489441
        1.3387809991836548 1.4528982639312744 1.4803292751312256 1.5537545680999756 1.5965118408203125 1.6994080543518066
        1.6903544664382935 1.718766212463379 1.670392632484436 1.7027701139450073 1.738984227180481 1.7135181427001953
        1.657456636428833 1.6151210069656372 1.6769871711730957 1.6402544975280762 5.295512676239014 5.305165767669678
        5.295308589935303 5.2021565437316895 5.050945281982422 4.89672327041626 4.7462477684021 4.532520294189453
        4.36322546005249 4.333873271942139 4.487712860107422 4.670517444610596 4.713784694671631 4.6321940422058105
        4.5169997215271 4.573434829711914 4.825262546539307 5.029997825622559 5.124654769897461 5.161604404449463
        5.1327805519104 5.232936382293701 5.071726322174072 4.985066890716553 4.866049766540527 4.569883346557617
        4.515137672424316 4.793741703033447 5.264524936676025 5.888573169708252 6.350656032562256 6.574176788330078
        6.497509002685547 6.716434955596924 6.572600364685059 6.1652045249938965 6.0007548332214355 6.3539228439331055
        6.64196252822876 7.256866931915283 8.020880699157715 9.206169128417969 10.023993492126465 10.153582572937012
        8.698956489562988 6.790673732757568 4.843845844268799 3.6081817150115967 2.833157777786255 2.465766191482544
        2.3374714851379395 2.3496854305267334 2.4524338245391846 2.4729034900665283 2.674037456512451 2.9974400997161865
        3.1332809925079346 3.1933181285858154 3.467777729034424 3.881962776184082 4.160825252532959 4.344796180725098
        4.770015716552734 5.037713527679443 4.922688961029053 4.678318023681641 4.455067157745361 4.046964645385742
        3.7076022624969482 3.3903985023498535 2.9887571334838867 2.700096845626831 2.501481056213379 2.4387173652648926
        2.3488683700561523 2.2562484741210938 2.188741445541382 2.2098071575164795 2.262890100479126 2.3466012477874756
        2.3891561031341553 2.43038272857666 2.491515874862671 2.635261058807373 2.6964805126190186 2.74635648727417
        2.8686890602111816 2.864945888519287 2.866312265396118 2.9219913482666016 2.8991763591766357 2.9675564765930176
        3.235229253768921 3.512653350830078 3.717050552368164 3.8460819721221924 3.7192976474761963 3.314373016357422
        2.8549208641052246 2.435457944869995 2.0236892700195312 1.9736038446426392 2.76365327835083 3.723918914794922
        4.369760036468506 4.414341926574707 3.2230677604675293 1.8181395530700684 0.8466415405273438 0.5396238565444946
        0.5248897075653076 0.6347384452819824 0.652245283126831 0.6263015270233154 0.7334475517272949 0.8017489314079285
        0.880052387714386 0.9805716276168823 1.130035638809204 1.1397243738174438 1.1218174695968628 1.1165541410446167
        1.0901461839675903 1.0881456136703491 0.9934788942337036 0.9202634692192078 0.8408710956573486 0.8620554804801941
        0.8825982809066772 0.874954879283905 0.8895362615585327 0.9246527552604675 0.9607312679290771 0.9886508584022522
        0.9915642142295837 1.0853102207183838 1.1037118434906006 1.1412259340286255 1.139374017715454 1.1973623037338257
        1.2095986604690552 1.200643539428711 1.2239114046096802 1.2248120307922363 1.402353048324585 1.5364305973052979
        1.6039729118347168 1.6386189460754395 1.667147159576416 1.7731865644454956 1.7828116416931152 1.8168344497680664
        1.7618869543075562 1.773661494255066 1.8479101657867432 1.856762170791626 1.8450404405593872 1.76882803440094
        1.8003982305526733 1.8158739805221558 5.196695327758789 5.301717758178711 5.325824737548828 5.23370885848999
        5.064568996429443 4.9810075759887695 4.752649307250977 4.5011749267578125 4.346601486206055 4.221487522125244
        4.283605098724365 4.372066497802734 4.471248149871826 4.469076156616211 4.296612739562988 4.34102725982666
        4.3911333084106445 4.596852779388428 4.730740070343018 4.673422336578369 4.662728309631348 4.701488018035889
        4.626555919647217 4.541080951690674 4.369213581085205 4.079290390014648 3.9723079204559326 4.245205879211426
        4.723721027374268 5.190924644470215 5.550020694732666 5.635653495788574 5.707683086395264 5.974628448486328
        5.642111301422119 5.32694149017334 5.407159328460693 5.802440643310547 6.334022521972656 7.008058547973633
        7.5912909507751465 8.742593765258789 9.604089736938477 9.725831985473633 8.289782524108887 6.28053617477417
        4.278043746948242 3.1163299083709717 2.6406924724578857 2.4744620323181152 2.3555097579956055 2.371488571166992
        2.596545457839966 2.676227569580078 2.892625331878662 3.1149749755859375 3.320362091064453 3.3966522216796875
        3.669004201889038 3.9136857986450195 4.214125156402588 4.36175012588501 4.685757160186768 4.910880088806152
        4.881864547729492 4.729579925537109 4.4670562744140625 4.1455979347229 3.8674848079681396 3.5802371501922607
        3.1899611949920654 2.8959851264953613 2.746675491333008 2.6871285438537598 2.553032875061035 2.461684226989746
        2.423210859298706 2.387669324874878 2.4077019691467285 2.4779415130615234 2.578784942626953 2.659395217895508
        2.752561092376709 2.8499789237976074 2.7523679733276367 2.7751193046569824 2.9189820289611816 2.9146549701690674
        2.784944534301758 2.713162660598755 2.7954366207122803 2.7201030254364014 2.880113363265991 3.081613063812256
        3.381058692932129 3.6952297687530518 3.678948163986206 3.1027956008911133 2.6208255290985107 2.342313289642334
        1.6804287433624268 1.6943618059158325 3.09489107131958 4.449968338012695 5.173274040222168 4.608764171600342
        3.097329616546631 1.7135733366012573 1.0247421264648438 0.5950388312339783 0.5266045928001404 0.584462583065033
        0.6615681648254395 0.6787936091423035 0.7983130216598511 0.8480696678161621 0.9355536103248596 1.0139161348342896
        1.149479866027832 1.1984336376190186 1.1779650449752808 1.11515212059021 1.060942530632019 1.1031357049942017
        1.0688856840133667 0.9527463316917419 0.7927806377410889 0.8530368208885193 0.8795815706253052 0.9126243591308594
        0.9647214412689209 0.9617659449577332 1.0391249656677246 1.0526257753372192 1.0871168375015259 1.1427828073501587
        1.1747181415557861 1.2581874132156372 1.2477481365203857 1.2826926708221436 1.2613351345062256 1.2985762357711792
        1.3220680952072144 1.323737621307373 1.4777119159698486 1.6103291511535645 1.6769133806228638 1.7048664093017578
        1.7555803060531616 1.8551641702651978 1.8566970825195312 1.8911397457122803 1.8790239095687866 1.8655509948730469
        1.8877040147781372 1.93439781665802 1.9925700426101685 1.9417892694473267 1.9695689678192139 2.0381178855895996
        5.341792106628418 5.410035133361816 5.374944686889648 5.250666618347168 5.0946149826049805 4.949890613555908
        4.730963230133057 4.431116104125977 4.274292469024658 4.104457378387451 4.142123222351074 4.189295291900635
        4.190415859222412 4.173623085021973 4.087944507598877 4.09704065322876 4.082475662231445 4.21265172958374
        4.19651460647583 4.061849594116211 3.9848780632019043 4.145040988922119 4.13552188873291 3.855156660079956
        3.696733236312866 3.5951998233795166 3.664079189300537 3.907402276992798 4.206418991088867 4.5582146644592285
        4.793089866638184 4.809849739074707 4.907898902893066 5.109251976013184 4.832325458526611 4.7080302238464355
        4.949347496032715 5.118556976318359 5.655358791351318 6.5186767578125 7.287405490875244 8.294424057006836
        9.15828800201416 8.916543960571289 7.314914226531982 5.580907821655273 4.112267017364502 3.143254518508911
        2.855617046356201 2.822938919067383 3.128446578979492 3.0391695499420166 2.953514575958252 2.9169087409973145
        3.2575767040252686 3.51763916015625 3.597991943359375 3.591128349304199 3.7758398056030273 3.896019220352173
        4.194339275360107 4.402490139007568 4.627104759216309 4.735054969787598 4.650136470794678 4.495888710021973
        4.215353012084961 3.978580951690674 3.752150297164917 3.617147445678711 3.3380415439605713 3.0964434146881104
        3.001490592956543 3.024486780166626 2.912243127822876 2.8070051670074463 2.686107635498047 2.548443078994751
        2.533082962036133 2.598839282989502 2.827983856201172 2.938981294631958 3.016730546951294 2.920687437057495
        2.8829972743988037 3.02345871925354 3.143786668777466 3.0215322971343994 2.7059435844421387 2.6000027656555176
        2.68874192237854 2.578838586807251 2.7518904209136963 2.8014817237854004 2.9180922508239746 3.21079421043396
        3.372673749923706 2.8294830322265625 2.337135076522827 2.0709564685821533 1.341564655303955 1.8161938190460205
        3.562211036682129 4.851408958435059 5.109724998474121 4.1430487632751465 2.9260482788085938 1.8997079133987427
        1.3062446117401123 0.8653720617294312 0.674879789352417 0.5274704098701477 0.6708527207374573 0.8680838346481323
        1.0093319416046143 1.0618647336959839 1.1786165237426758 1.204973578453064 1.2324734926223755 1.194305181503296
        1.2042349576950073 1.1837031841278076 1.1177372932434082 1.160524845123291 1.101731300354004 0.9751268029212952
        0.8689427971839905 0.930410623550415 0.9828412532806396 0.9844657778739929 1.0403079986572266 1.0520800352096558
        1.144528865814209 1.1722880601882935 1.1552495956420898 1.1714633703231812 1.2557402849197388 1.3313968181610107
        1.3263649940490723 1.2671427726745605 1.2606630325317383 1.3020495176315308 1.3510011434555054 1.3967127799987793
        1.5094008445739746 1.609026551246643 1.6551557779312134 1.6731584072113037 1.7802218198776245 1.8285324573516846
        1.8055386543273926 1.817124843597412 1.9208921194076538 1.9893901348114014 1.9907937049865723 2.0280685424804688
        2.0775935649871826 2.079875946044922 2.150691509246826 2.192018508911133 5.4580769538879395 5.512911319732666
        5.4692511558532715 5.306862831115723 5.067869186401367 4.798918724060059 4.580756664276123 4.362715721130371
        4.183180332183838 3.9437637329101562 3.8959176540374756 3.960364580154419 3.93810772895813 3.9964993000030518
        3.9048962593078613 3.851407289505005 3.660081386566162 3.701505422592163 3.699873685836792 3.6670455932617188
        3.488494873046875 3.4161908626556396 3.3903415203094482 3.320648193359375 3.26161789894104 3.2686967849731445
        3.340672254562378 3.5362157821655273 3.7529921531677246 3.9161055088043213 4.015846252441406 3.8648109436035156
        4.019111156463623 4.33546781539917 4.260552883148193 4.230221271514893 4.287039756774902 4.316586017608643
        4.901330947875977 6.207113265991211 7.354297637939453 8.445394515991211 9.05825424194336 8.617107391357422
        6.96174955368042 5.165801525115967 4.093256950378418 3.3362672328948975 3.0328404903411865 3.0990939140319824
        3.4776227474212646 3.483600616455078 3.067497491836548 2.9558544158935547 3.380326986312866 3.6729977130889893
        3.63482403755188 3.727853298187256 3.8840157985687256 3.9949734210968018 4.185616970062256 4.366048336029053
        4.491865634918213 4.3668599128723145 4.192290306091309 4.096039772033691 3.9105944633483887 3.7104132175445557
        3.4396538734436035 3.4096567630767822 3.3502612113952637 3.300570011138916 3.215514659881592 3.2166597843170166
        3.0924220085144043 2.956284999847412 2.8812663555145264 2.7726337909698486 2.7269287109375 2.751415491104126
        2.9237608909606934 3.012277603149414 3.0921874046325684 2.9773247241973877 3.0012760162353516 3.157705068588257
        3.2154808044433594 3.011169195175171 2.7459895610809326 2.609858512878418 2.5316953659057617 2.43862247467041
        2.630080461502075 2.6500141620635986 2.646695613861084 2.707808494567871 2.8243839740753174 2.5048623085021973
        2.2248775959014893 1.8122109174728394 0.9424370527267456 2.063645124435425 3.7688119411468506 4.784147262573242
        4.752933979034424 3.606612205505371 2.766883611679077 2.03762149810791 1.5481353998184204 1.099653959274292
        0.9435063004493713 0.7202170491218567 0.8620091080665588 1.0077590942382812 1.1302872896194458 1.2206252813339233
        1.363448143005371 1.388487696647644 1.3358591794967651 1.250083327293396 1.2692644596099854 1.4012478590011597
        1.3574833869934082 1.2919903993606567 1.186238408088684 1.1039661169052124 1.0289208889007568 1.0561537742614746
        1.0797308683395386 1.089565396308899 1.0962761640548706 1.123172402381897 1.2003953456878662 1.2176448106765747
        1.2659919261932373 1.2404342889785767 1.3088414669036865 1.3870410919189453 1.3901575803756714 1.3248999118804932
        1.3198490142822266 1.3668794631958008 1.4403373003005981 1.4354127645492554 1.4658918380737305 1.529793381690979
        1.5915521383285522 1.6071362495422363 1.6513144969940186 1.6871613264083862 1.7006455659866333 1.7554638385772705
        1.8911246061325073 1.9838674068450928 2.0610005855560303 2.0287349224090576 2.066222667694092 2.1147096157073975
        2.198579788208008 2.245678663253784 5.779326438903809 5.779713153839111 5.751043319702148 5.496148586273193
        5.125154495239258 4.761706829071045 4.375361919403076 4.071438312530518 3.8427646160125732 3.7715840339660645
        3.7377865314483643 3.7865355014801025 3.7275214195251465 3.7820963859558105 3.666936159133911 3.5682570934295654
        3.333447217941284 3.3030507564544678 3.2926886081695557 3.3109254837036133 3.113828182220459 2.9524807929992676
        2.7621004581451416 2.7562551498413086 2.618807077407837 2.6717753410339355 2.878256320953369 3.12337064743042
        3.244408369064331 3.298799514770508 3.246427536010742 3.194488525390625 3.3461506366729736 3.8079538345336914
        3.812469959259033 3.9303488731384277 3.933157205581665 4.258959770202637 5.286795616149902 6.848721027374268
        8.075675010681152 9.123023986816406 9.666069030761719 8.657949447631836 6.717453956604004 5.246506690979004
        4.551845073699951 3.902508497238159 3.3817050457000732 3.0548949241638184 3.154761791229248 3.4735186100006104
        3.4422950744628906 3.6163511276245117 3.933128833770752 3.999236822128296 3.7172629833221436 3.881760358810425
        4.012978553771973 4.025977611541748 4.123248100280762 4.296323776245117 4.423623561859131 4.280554294586182
        4.104384422302246 3.862905979156494 3.6991662979125977 3.434330463409424 3.2095282077789307 3.151371479034424
        3.0962376594543457 3.142636775970459 3.1585676670074463 3.204599380493164 3.140198230743408 3.0461015701293945
        3.0612237453460693 3.005352735519409 2.9143521785736084 2.900778293609619 2.897693634033203 2.9187703132629395
        2.902061939239502 2.8470828533172607 2.8998098373413086 3.0116477012634277 3.082632541656494 2.8983371257781982
        2.6808323860168457 2.615251302719116 2.435941696166992 2.3834452629089355 2.41939640045166 2.443835735321045
        2.349189043045044 2.2741103172302246 2.356743812561035 2.168731689453125 1.923970341682434 1.4845815896987915
        1.0542514324188232 2.6272706985473633 4.271517753601074 4.470075607299805 4.320303440093994 3.529568672180176
        2.659924268722534 1.8173803091049194 1.5142561197280884 1.2378513813018799 1.1701736450195312 1.0699522495269775
        1.0871373414993286 1.1153730154037476 1.214328408241272 1.2223091125488281 1.3329148292541504 1.350809097290039
        1.344385027885437 1.3053135871887207 1.3932545185089111 1.5230114459991455 1.4372864961624146 1.374778151512146
        1.3157122135162354 1.2232022285461426 1.1639214754104614 1.1536550521850586 1.1020796298980713 1.1043832302093506
        1.1110494136810303 1.185441255569458 1.1874364614486694 1.214911937713623 1.2838252782821655 1.3035242557525635
        1.3167266845703125 1.2565436363220215 1.3141447305679321 1.3090860843658447 1.4020427465438843 1.3730891942977905
        1.382360816001892 1.349077582359314 1.3734585046768188 1.4521201848983765 1.5304279327392578 1.5014723539352417
        1.4612717628479004 1.5219407081604004 1.6324492692947388 1.745263934135437 1.8735600709915161 1.9425709247589111
        2.00964093208313 1.9873157739639282 2.0317790508270264 2.095802068710327 2.2230403423309326 2.2458150386810303
        5.917524814605713 6.017113208770752 5.922534942626953 5.65919828414917 5.237761497497559 4.846830368041992
        4.352418899536133 3.9309751987457275 3.654421806335449 3.7115914821624756 3.7427799701690674 3.7327799797058105
        3.574131488800049 3.5748794078826904 3.4510443210601807 3.362255573272705 3.16998291015625 3.159014940261841
        3.1647789478302 3.1700289249420166 3.005610704421997 2.809647560119629 2.4421567916870117 2.328244686126709
        2.293433427810669 2.392475128173828 2.5397140979766846 2.815840244293213 2.8770382404327393 3.040400743484497
        3.0653717517852783 3.1396713256835938 3.2972352504730225 3.622185468673706 3.571277141571045 3.403590679168701
        3.5179831981658936 4.522095203399658 6.196267127990723 7.50793981552124 8.705938339233398 9.300629615783691
        9.792010307312012 8.723782539367676 6.846584796905518 5.4542107582092285 4.813920974731445 4.360861301422119
        3.904928684234619 3.268860340118408 3.020111322402954 3.3982715606689453 3.881373405456543 4.381669998168945
        4.574416160583496 4.380575656890869 4.1597208976745605 4.164949893951416 4.1782965660095215 4.069338798522949
        4.1777215003967285 4.295212268829346 4.406517028808594 4.294735908508301 4.055714130401611 3.687500476837158
        3.4676883220672607 3.082141160964966 2.870897054672241 2.777949810028076 2.765126943588257 2.8286778926849365
        2.9237513542175293 3.0206258296966553 3.0454866886138916 3.038059949874878 3.032744884490967 2.990553855895996
        2.9728457927703857 2.977264165878296 2.8847055435180664 2.7835278511047363 2.6948540210723877 2.7375829219818115
        2.7888073921203613 2.8791067600250244 2.8543615341186523 2.74715256690979 2.592618227005005 2.554976224899292
        2.401977777481079 2.304692268371582 2.149855613708496 2.2159061431884766 2.248488664627075 2.2360994815826416
        2.0854082107543945 1.9571640491485596 1.7432751655578613 1.267525553703308 0.8937013745307922 2.8788673877716064
        4.522605895996094 4.854156494140625 4.461620807647705 3.9261956214904785 2.9734370708465576 1.915602684020996
        1.4722105264663696 1.3245652914047241 1.2830103635787964 1.2849637269973755 1.2738598585128784 1.1996634006500244
        1.2667291164398193 1.2435877323150635 1.259713053703308 1.2824904918670654 1.3323320150375366 1.2909893989562988
        1.4230947494506836 1.5136209726333618 1.379801630973816 1.3231208324432373 1.3086707592010498 1.2592597007751465
        1.1484981775283813 1.1452499628067017 1.1430795192718506 1.1335684061050415 1.1210232973098755 1.1281554698944092
        1.127379298210144 1.1982430219650269 1.2723042964935303 1.3136502504348755 1.2619314193725586 1.1936529874801636
        1.2591724395751953 1.3177084922790527 1.4073055982589722 1.3013854026794434 1.3096717596054077 1.3049895763397217
        1.3103398084640503 1.3310065269470215 1.356259822845459 1.378235101699829 1.3877689838409424 1.4842329025268555
        1.6322202682495117 1.7121219635009766 1.8266462087631226 1.8837884664535522 1.9378201961517334 1.940358281135559
        1.9628335237503052 2.006276845932007 2.1340363025665283 2.185802698135376 6.0896382331848145 6.153674125671387
        6.159656047821045 5.8476691246032715 5.480047225952148 5.051435947418213 4.574276924133301 4.099191188812256
        3.8082635402679443 3.6070990562438965 3.700374126434326 3.7031655311584473 3.550367593765259 3.361358165740967
        3.218364715576172 3.2762181758880615 3.2665910720825195 3.351630449295044 3.324687957763672 3.1017236709594727
        2.9249842166900635 2.7203786373138428 2.4705402851104736 2.3020060062408447 2.2522146701812744 2.2539379596710205
        2.3227078914642334 2.7383456230163574 2.9541103839874268 3.1625120639801025 3.2255868911743164 3.3611724376678467
        3.4959352016448975 3.6724019050598145 3.606657028198242 3.4430429935455322 4.0905585289001465 5.336474418640137
        7.023017883300781 8.008806228637695 9.063486099243164 9.420365333557129 9.297611236572266 7.952095985412598
        6.658175468444824 5.736685752868652 5.071467876434326 4.685666084289551 4.383398532867432 3.972046136856079
        3.8874363899230957 4.28708028793335 4.644771099090576 4.800230026245117 5.09286642074585 4.900052070617676
        4.4457621574401855 4.264389991760254 4.261956214904785 4.126604080200195 4.317612648010254 4.5649919509887695
        4.655362129211426 4.481815814971924 4.05733060836792 3.633333206176758 3.121244192123413 2.8013219833374023
        2.616363048553467 2.4563708305358887 2.4488258361816406 2.571129322052002 2.776876926422119 2.9267807006835938
        3.02408504486084 3.065107822418213 3.087266445159912 3.090364456176758 3.1160683631896973 2.9885833263397217
        2.8508026599884033 2.7413649559020996 2.6520190238952637 2.6221041679382324 2.5146379470825195 2.6209919452667236
        2.6255338191986084 2.606050968170166 2.410505533218384 2.2500710487365723 2.164973497390747 2.1101222038269043
        2.010960817337036 2.0857455730438232 2.1567227840423584 2.2350778579711914 2.116694927215576 1.903857946395874
        1.7246479988098145 1.037922739982605 0.6850938200950623 2.7256598472595215 4.021714210510254 4.647428035736084
        4.346363067626953 4.000264644622803 3.3471786975860596 2.5215744972229004 1.8765004873275757 1.4361246824264526
        1.1838394403457642 1.1673682928085327 1.2560333013534546 1.280036211013794 1.3575419187545776 1.286404013633728
        1.2675634622573853 1.2814525365829468 1.3125113248825073 1.316597819328308 1.3827528953552246 1.4025403261184692
        1.288253903388977 1.2559068202972412 1.2225348949432373 1.1979204416275024 1.1223201751708984 1.2135626077651978
        1.2103639841079712 1.1535580158233643 1.150264859199524 1.1497138738632202 1.2474490404129028 1.262893795967102
        1.3019574880599976 1.3463096618652344 1.3226138353347778 1.3340094089508057 1.284240484237671 1.3109596967697144
        1.390387773513794 1.3017899990081787 1.277816653251648 1.2885379791259766 1.2760995626449585 1.2644257545471191
        1.3333886861801147 1.433295488357544 1.4373350143432617 1.436790943145752 1.5215672254562378 1.6725294589996338
        1.8479628562927246 1.9653757810592651 1.9450055360794067 1.9346024990081787 2.0360357761383057 2.1155169010162354
        2.1713898181915283 2.163346529006958 6.2289628982543945 6.1667609214782715 6.347115516662598 6.205877304077148
        5.914669513702393 5.309898376464844 4.834958076477051 4.373263835906982 4.12506628036499 3.6740200519561768
        3.562608242034912 3.4767630100250244 3.5092597007751465 3.4714560508728027 3.3341946601867676 3.306431770324707
        3.2908835411071777 3.497631311416626 3.4581167697906494 3.297044277191162 3.104818105697632 2.780766248703003
        2.5524799823760986 2.3307859897613525 2.365306854248047 2.4091951847076416 2.442687749862671 2.8301987648010254
        3.1776492595672607 3.4198858737945557 3.5782907009124756 3.6980698108673096 3.858003616333008 3.9133849143981934
        3.9210917949676514 4.063020706176758 4.832321643829346 6.054766654968262 7.452601432800293 8.313542366027832
        9.208252906799316 9.083497047424316 8.400435447692871 7.123650074005127 6.4376540184021 5.932765483856201
        5.411520957946777 4.901661396026611 4.6248931884765625 4.405364990234375 4.72247314453125 4.942370891571045
        5.016729831695557 4.860556125640869 5.132168292999268 4.975480556488037 4.473997116088867 4.294610977172852
        4.007124900817871 3.94645357131958 4.381622314453125 4.974721431732178 5.025941848754883 4.810891151428223
        4.290417671203613 3.648585557937622 2.943300724029541 2.5326924324035645 2.3585381507873535 2.272963047027588
        2.2401251792907715 2.3141558170318604 2.5676093101501465 2.6748275756835938 2.867396116256714 3.041700839996338
        3.107102155685425 3.139686346054077 3.1043496131896973 2.9828085899353027 2.912869691848755 2.8004746437072754
        2.6725080013275146 2.442484140396118 2.3526875972747803 2.5056633949279785 2.535922050476074 2.4532787799835205
        2.1531832218170166 2.040623903274536 2.0427193641662598 1.9806654453277588 1.894356369972229 1.8399916887283325
        1.8502380847930908 1.8439838886260986 1.7905967235565186 1.5734580755233765 1.5744147300720215 1.1278167963027954
        1.0087908506393433 2.584815263748169 3.6117186546325684 4.477208137512207 4.706690311431885 4.422107696533203
        3.787964344024658 2.9071671962738037 2.1544477939605713 1.7056313753128052 1.4150872230529785 1.3100172281265259
        1.2684015035629272 1.338783860206604 1.3601771593093872 1.2963052988052368 1.2482354640960693 1.30620539188385
        1.378387451171875 1.3643114566802979 1.3562886714935303 1.4013886451721191 1.320819616317749 1.2545204162597656
        1.1694608926773071 1.1389163732528687 1.1533645391464233 1.2419935464859009 1.2394968271255493 1.1420376300811768
        1.148904800415039 1.1698733568191528 1.301712989807129 1.3549256324768066 1.2985010147094727 1.2902799844741821
        1.317837119102478 1.3579920530319214 1.2712384462356567 1.2476555109024048 1.2936204671859741 1.2712186574935913
        1.2356804609298706 1.2175235748291016 1.2183022499084473 1.2226982116699219 1.2808631658554077 1.3455067873001099
        1.4128444194793701 1.4532082080841064 1.611672282218933 1.7656537294387817 1.8632311820983887 1.9862004518508911
        1.9867548942565918 2.0046896934509277 2.076291561126709 2.1033542156219482 2.1253795623779297 2.066527843475342
        6.048923492431641 6.193195343017578 6.493313312530518 6.450765132904053 6.177707672119141 5.602705001831055
        5.205538749694824 4.752411842346191 4.317298889160156 3.7536330223083496 3.4341881275177 3.3729634284973145
        3.5722787380218506 3.5902628898620605 3.4127373695373535 3.3834686279296875 3.658543825149536 3.968209981918335
        3.869479179382324 3.59220552444458 3.3232221603393555 3.087064266204834 2.843228816986084 2.6251561641693115
        2.5496628284454346 2.6374776363372803 2.7209668159484863 3.10245943069458 3.6461448669433594 3.931462287902832
        4.048424243927002 4.14524507522583 4.16808557510376 4.284952163696289 4.476490497589111 4.924130439758301
        5.686055660247803 6.981586933135986 8.141554832458496 8.954123497009277 9.36446762084961 9.129968643188477
        7.984329700469971 6.6402692794799805 6.270296573638916 5.994513988494873 5.581541061401367 5.303938388824463
        4.989837646484375 4.670187473297119 4.968775272369385 5.621042251586914 5.733145713806152 5.398988723754883
        5.236454963684082 4.852388858795166 4.390202045440674 4.446419715881348 4.323731422424316 4.2640910148620605
        4.67412805557251 5.385154724121094 5.609301567077637 5.380693435668945 4.800058364868164 3.9358017444610596
        3.166771411895752 2.602442502975464 2.240809440612793 2.0946474075317383 2.0955634117126465 2.1172776222229004
        2.3085482120513916 2.4480550289154053 2.5694985389709473 2.7555532455444336 2.9733726978302 3.114109516143799
        3.112917423248291 2.988832712173462 2.913808584213257 2.8883824348449707 2.7731146812438965 2.5084211826324463
        2.4953906536102295 2.439739942550659 2.3820395469665527 2.197202205657959 2.0560410022735596 1.908767819404602
        1.8287429809570312 1.7977204322814941 1.7212882041931152 1.5465145111083984 1.500123381614685 1.2896250486373901
        1.3557238578796387 1.2913862466812134 1.3904032707214355 1.121980905532837 1.959365963935852 3.0055739879608154
        3.6476147174835205 4.244187355041504 4.684950828552246 4.540441513061523 3.9177029132843018 3.0668580532073975
        2.407677412033081 2.0904788970947266 1.716017723083496 1.465498685836792 1.3513729572296143 1.4168745279312134
        1.4063299894332886 1.3547422885894775 1.3842359781265259 1.3685200214385986 1.3927830457687378 1.3936787843704224
        1.3714715242385864 1.4049861431121826 1.3566282987594604 1.3043030500411987 1.2154560089111328 1.1240075826644897
        1.1543161869049072 1.2292720079421997 1.2773997783660889 1.3031423091888428 1.2806262969970703 1.316555380821228
        1.3993980884552002 1.4359261989593506 1.4149291515350342 1.3276668787002563 1.3831113576889038 1.3730138540267944
        1.2920536994934082 1.2159029245376587 1.1600974798202515 1.1491475105285645 1.1497690677642822 1.1248723268508911
        1.0989643335342407 1.1304901838302612 1.1629490852355957 1.2071782350540161 1.3172252178192139 1.4580650329589844
        1.7070037126541138 1.8565261363983154 1.9444563388824463 2.034271001815796 2.071303129196167 2.1536340713500977
        2.2098562717437744 2.2264444828033447 2.162121057510376 1.9894134998321533 5.808100700378418 6.018558025360107
        6.259106159210205 6.374286651611328 6.231813430786133 5.847779750823975 5.397456645965576 4.973439693450928
        4.362942695617676 3.750666379928589 3.37241268157959 3.346067428588867 3.5049102306365967 3.5800700187683105
        3.5684521198272705 3.659740686416626 4.098861217498779 4.302964687347412 4.273619174957275 4.020399570465088
        3.7127857208251953 3.3708651065826416 3.1231608390808105 3.0383057594299316 3.060473680496216 3.0718953609466553
        3.1986656188964844 3.6071043014526367 4.260031223297119 4.580732345581055 4.775120735168457 4.642969608306885
        4.674715518951416 4.953541278839111 4.996864318847656 5.488148212432861 6.300359725952148 7.328366279602051
        8.409964561462402 9.518916130065918 9.750139236450195 8.838187217712402 7.624823093414307 6.622471332550049
        6.264880180358887 5.779886722564697 5.461779594421387 5.382180213928223 5.2469024658203125 4.978222370147705
        5.013797283172607 5.402307033538818 5.825072288513184 5.659299373626709 5.39731502532959 5.054601669311523
        4.835330963134766 4.903007984161377 4.888359546661377 4.815606594085693 5.239622116088867 5.926717281341553
        6.271466255187988 6.137585639953613 5.517378330230713 4.498891830444336 3.5178732872009277 2.694690704345703
        2.214503526687622 2.0491466522216797 2.065169334411621 2.066178560256958 2.0159506797790527 2.164973497390747
        2.3679492473602295 2.572604179382324 2.788853168487549 2.9537272453308105 3.047987937927246 3.024021625518799
        2.972219944000244 3.026707410812378 2.987593650817871 2.764091968536377 2.6937992572784424 2.517697811126709
        2.4316797256469727 2.2037532329559326 2.093360662460327 1.9803065061569214 1.8535163402557373 1.7148278951644897
        1.593304991722107 1.2984280586242676 1.162337303161621 1.0988560914993286 1.3603501319885254 1.2273178100585938
        1.4373661279678345 2.096409559249878 3.3875844478607178 4.023316383361816 4.468705177307129 4.699984073638916
        4.957411766052246 4.520688533782959 3.712907075881958 2.9089460372924805 2.6916897296905518 2.34230375289917
        1.971274733543396 1.6281102895736694 1.6134401559829712 1.5316060781478882 1.5033299922943115 1.45547616481781
        1.491885781288147 1.4308034181594849 1.3601481914520264 1.3570328950881958 1.3835195302963257 1.389727234840393
        1.3439828157424927 1.2857320308685303 1.2943142652511597 1.2334762811660767 1.228577733039856 1.2328650951385498
        1.238382339477539 1.3202471733093262 1.405531883239746 1.4031494855880737 1.371864914894104 1.3385772705078125
        1.3800336122512817 1.3728032112121582 1.3616948127746582 1.2724922895431519 1.2141187191009521 1.1338754892349243
        1.0293902158737183 0.957774817943573 0.9662691354751587 0.9522879719734192 0.9544222950935364 1.0387333631515503
        1.065446376800537 1.1088237762451172 1.223979115486145 1.479752540588379 1.812084674835205 1.9141135215759277
        1.9886195659637451 2.065369129180908 2.2250051498413086 2.2349064350128174 2.115720510482788 2.036565065383911
        1.9949368238449097 1.8246103525161743 5.242347717285156 5.55347204208374 5.807260036468506 5.9588823318481445
        6.0062336921691895 5.866526126861572 5.588265419006348 5.219044208526611 4.644533634185791 3.9393978118896484
        3.4469735622406006 3.433943510055542 3.3915505409240723 3.428154945373535 3.680683135986328 3.927001953125
        4.555262088775635 4.772677421569824 4.8213725090026855 4.526940822601318 4.245086193084717 3.9020278453826904
        3.754852294921875 3.6984665393829346 3.790803909301758 3.6826443672180176 3.9268386363983154 4.3865461349487305
        5.047873497009277 5.409233093261719 5.52984619140625 5.210392951965332 5.139224052429199 5.389795780181885
        5.303732395172119 5.682208061218262 6.52292013168335 7.501293659210205 8.148406982421875 8.970213890075684
        9.272811889648438 8.379166603088379 7.224549293518066 6.421967029571533 6.176595211029053 5.621649742126465
        5.255334854125977 5.044538497924805 5.093870162963867 5.088781833648682 5.102442741394043 5.211663722991943
        5.62014627456665 5.611511707305908 5.433495998382568 5.249303340911865 5.291198253631592 5.230885982513428
        5.229971885681152 5.160680294036865 5.607961654663086 6.261899471282959 6.7488555908203125 6.673038005828857
        6.114762306213379 5.1104326248168945 4.005725383758545 2.84379506111145 2.255277633666992 2.0955111980438232
        2.1991405487060547 2.2151546478271484 2.0289154052734375 2.103724718093872 2.407672882080078 2.7216172218322754
        2.814516067504883 2.927412748336792 3.139468193054199 3.206610679626465 3.1614291667938232 3.1119511127471924
        3.094435691833496 2.9903323650360107 2.8938684463500977 2.6989152431488037 2.4915103912353516 2.2983431816101074
        2.2508232593536377 2.103259563446045 1.9938443899154663 1.7579214572906494 1.6598548889160156 1.3142393827438354
        1.156173586845398 1.2274945974349976 1.4489814043045044 1.4879348278045654 2.2261056900024414 3.5317797660827637
        4.517723560333252 4.615564823150635 4.631708145141602 4.63031005859375 4.733747482299805 4.3667449951171875
        3.7465341091156006 3.1028952598571777 2.72510027885437 2.2554666996002197 1.9764444828033447 1.8010209798812866
        1.8011497259140015 1.728309988975525 1.6546313762664795 1.56802237033844 1.5559388399124146 1.4935868978500366
        1.4650105237960815 1.3825123310089111 1.3743526935577393 1.2907112836837769 1.291276216506958 1.2851592302322388
        1.2483346462249756 1.192347764968872 1.1481233835220337 1.1701722145080566 1.1854218244552612 1.2200052738189697
        1.2883903980255127 1.2014836072921753 1.1925370693206787 1.1819175481796265 1.282700777053833 1.3098809719085693
        1.2709509134292603 1.1842938661575317 1.1267675161361694 1.0264697074890137 0.9328813552856445 0.865174412727356
        0.8857350945472717 0.907537579536438 0.8530028462409973 0.9489262104034424 0.9841682314872742 1.1302865743637085
        1.224876046180725 1.4360450506210327 1.726101279258728 1.8651310205459595 1.986345887184143 2.070101261138916
        2.2348403930664062 2.1269311904907227 1.939340353012085 1.7959107160568237 1.807325839996338 1.7061173915863037
        4.697116851806641 4.982657432556152 5.264050483703613 5.489449501037598 5.675936698913574 5.7856245040893555
        5.546993255615234 5.265856742858887 4.728260040283203 4.053106784820557 3.497180700302124 3.423672914505005
        3.3769779205322266 3.5455820560455322 3.930426836013794 4.355678081512451 4.84571647644043 5.047542095184326
        5.035050392150879 4.814094066619873 4.773273468017578 4.6343793869018555 4.373500823974609 4.263185024261475
        4.3070454597473145 4.217052459716797 4.506345748901367 5.080532073974609 5.921806812286377 6.239572525024414
        6.275914669036865 5.906432628631592 5.75026798248291 5.57670783996582 5.3281636238098145 5.665832042694092
        6.67843770980835 7.656489849090576 8.201175689697266 8.570158958435059 8.534417152404785 7.56878137588501
        6.501999378204346 5.935998439788818 5.682119846343994 5.41292142868042 5.084406852722168 4.815953254699707
        4.828144550323486 5.234756946563721 5.1117424964904785 4.872648239135742 4.9954962730407715 5.551109313964844
        5.758638381958008 5.618217945098877 5.4434123039245605 5.300958633422852 5.127750873565674 4.917972087860107
        5.434833526611328 6.368961811065674 7.0257368087768555 7.020020961761475 6.574034214019775 5.583149433135986
        4.313790798187256 3.0534374713897705 2.4307851791381836 2.209805965423584 2.3201606273651123 2.313250780105591
        2.1799604892730713 2.231157064437866 2.503227472305298 2.8778820037841797 3.009955406188965 3.1064279079437256
        3.244945764541626 3.426914691925049 3.4769420623779297 3.36962628364563 3.238354206085205 3.1740171909332275
        2.9643948078155518 2.776322364807129 2.552781581878662 2.4273264408111572 2.351335287094116 2.147737979888916
        2.0781548023223877 1.8619747161865234 1.7425086498260498 1.4418652057647705 1.337288737297058 1.2737557888031006
        1.358441948890686 1.8500096797943115 2.8888204097747803 4.408046722412109 4.909554958343506 4.665701866149902
        4.527802467346191 4.94119930267334 4.845578670501709 4.563628673553467 4.032613754272461 3.6572341918945312
        2.7995405197143555 2.149073839187622 1.8134030103683472 1.9013296365737915 1.848569631576538 1.8553627729415894
        1.812475562095642 1.7320964336395264 1.688093662261963 1.6148632764816284 1.598957896232605 1.4657204151153564
        1.3875523805618286 1.251952886581421 1.3035895824432373 1.2758865356445312 1.1791770458221436 1.140302062034607
        1.1082621812820435 1.1652718782424927 1.1577695608139038 1.1142114400863647 1.1245783567428589 1.065812587738037
        1.1767653226852417 1.2071523666381836 1.2251862287521362 1.1988385915756226 1.1557374000549316 1.1520673036575317
        1.0759330987930298 0.9645536541938782 0.8997625112533569 0.9433544278144836 0.9433916211128235 0.7826618552207947
        0.7171225547790527 0.8365984559059143 1.0165700912475586 1.2613922357559204 1.3402472734451294 1.437522530555725
        1.6747453212738037 1.9463216066360474 2.114851474761963 2.195923089981079 2.199061632156372 2.043632984161377
        1.9026720523834229 1.7686219215393066 1.695682406425476 1.472954273223877 4.298869609832764 4.497063636779785
        4.715690612792969 4.973777770996094 5.172769546508789 5.432297229766846 5.407437801361084 5.232011795043945
        4.791953086853027 4.224521636962891 3.714954376220703 3.564462423324585 3.6184446811676025 3.8966572284698486
        4.192048072814941 4.650845050811768 4.95448112487793 5.150588035583496 5.12419319152832 5.07020902633667
        5.0857977867126465 4.972733020782471 4.9062066078186035 5.040706157684326 5.167018890380859 4.944771766662598
        4.748812675476074 5.140346527099609 6.236366271972656 6.607141494750977 6.433215141296387 6.038913249969482
        5.995845317840576 5.820332050323486 5.453951358795166 5.679337024688721 6.919673442840576 8.125015258789062
        8.8023099899292 8.49714183807373 7.756096839904785 6.792511463165283 5.7906999588012695 5.267702579498291
        4.943634986877441 4.980257511138916 4.855545997619629 4.796817779541016 4.850714206695557 5.202240467071533
        5.189242362976074 4.946749687194824 4.907209396362305 5.540442943572998 5.819779872894287 5.729023456573486
        5.222009181976318 5.003001689910889 4.887115001678467 4.7008233070373535 5.2631964683532715 6.127935409545898
        6.860014915466309 7.024942398071289 6.790698051452637 5.900028705596924 4.616611957550049 3.449357032775879
        2.6769556999206543 2.487532138824463 2.5397281646728516 2.4893476963043213 2.306580066680908 2.389089345932007
        2.6141250133514404 2.926668643951416 3.1604807376861572 3.3472611904144287 3.416867733001709 3.525987386703491
        3.6071345806121826 3.474684476852417 3.356508493423462 3.2437872886657715 3.0390076637268066 2.8337182998657227
        2.7302212715148926 2.6789374351501465 2.600564479827881 2.483097791671753 2.442300319671631 2.243875503540039
        1.899114727973938 1.653942346572876 1.55110502243042 1.4843933582305908 1.5240583419799805 2.289307117462158
        3.4312663078308105 4.686053276062012 4.9428863525390625 4.624574661254883 4.496806621551514 4.97222375869751
        4.70477819442749 4.724985122680664 4.4681596755981445 4.138070106506348 3.113388776779175 2.5279314517974854
        2.073418617248535 1.9848911762237549 1.8855115175247192 1.9190161228179932 1.9415205717086792 1.9215039014816284
        1.8455169200897217 1.7188215255737305 1.6733932495117188 1.590602159500122 1.482569694519043 1.3836214542388916
        1.3576571941375732 1.2783699035644531 1.1711289882659912 1.1626659631729126 1.1405353546142578 1.1407389640808105
        1.130117416381836 1.0805820226669312 1.0652728080749512 1.0569303035736084 1.1567673683166504 1.1969354152679443
        1.1658999919891357 1.16780424118042 1.1407968997955322 1.1428630352020264 1.0701851844787598 0.9898355007171631
        0.9120252132415771 0.947859525680542 0.9142872095108032 0.7844492197036743 0.7460012435913086 0.9005714058876038
        1.092488169670105 1.2269551753997803 1.4299882650375366 1.5775575637817383 1.787459373474121 1.9645706415176392
        2.094651699066162 2.2755374908447266 2.1266298294067383 1.9203648567199707 1.758265495300293 1.6784058809280396
        1.5748313665390015 1.1784018278121948 4.018703460693359 4.119372844696045 4.190377235412598 4.449899673461914
        4.709575653076172 4.938382625579834 5.004692554473877 4.875545978546143 4.5628886222839355 4.171142578125
        3.7998006343841553 3.647321939468384 3.6462063789367676 3.8905601501464844 4.09826135635376 4.530785083770752
        5.001543998718262 5.295145511627197 5.164139747619629 5.230175971984863 5.178590774536133 5.217470645904541
        5.377121925354004 5.485834121704102 5.565665245056152 5.292504787445068 5.060698509216309 5.259166717529297
        6.008854866027832 6.430856227874756 6.29948091506958 6.187788009643555 6.199489593505859 6.211050510406494
        6.048956871032715 6.187544822692871 7.379241466522217 8.48603343963623 9.175566673278809 8.496565818786621
        7.101399898529053 5.534696578979492 4.753585338592529 4.583409786224365 4.351892948150635 4.384869575500488
        4.602242946624756 4.723823070526123 4.9605607986450195 5.248915195465088 5.2359724044799805 5.187036037445068
        5.217374324798584 5.472841262817383 5.689295768737793 5.641770839691162 5.016594409942627 4.725832939147949
        4.6030964851379395 4.672810077667236 5.249889373779297 6.1442718505859375 6.818796634674072 7.125158309936523
        6.90146017074585 6.160055637359619 5.071855545043945 4.069080352783203 3.1571946144104004 2.927510976791382
        2.848895788192749 2.83790922164917 2.5725033283233643 2.5097806453704834 2.6290011405944824 2.8842129707336426
        3.1323306560516357 3.368596076965332 3.389800548553467 3.458613157272339 3.499099016189575 3.4920389652252197
        3.3823094367980957 3.2497687339782715 3.0012712478637695 2.8237531185150146 2.927116632461548 2.9000465869903564
        2.8461859226226807 2.902095079421997 2.8218793869018555 2.5991311073303223 2.1307663917541504 2.134653091430664
        2.005290985107422 1.959566593170166 2.046332597732544 2.560596466064453 3.4622890949249268 4.4302263259887695
        4.876780986785889 4.685573101043701 4.335446834564209 4.414192199707031 4.243904113769531 4.581313133239746
        4.372272968292236 4.082483768463135 3.4188852310180664 3.0221309661865234 2.568767547607422 2.1184144020080566
        2.0183639526367188 1.9257069826126099 1.9809458255767822 1.986646294593811 1.9549154043197632 1.7514376640319824
        1.6938916444778442 1.6852152347564697 1.6355912685394287 1.5643476247787476 1.4725341796875 1.3466744422912598
        1.2719159126281738 1.225746750831604 1.2062946557998657 1.1544607877731323 1.1124109029769897 1.0855385065078735
        1.0191266536712646 0.966962456703186 1.0589812994003296 1.1384696960449219 1.0998815298080444 1.0344250202178955
        1.031111478805542 1.0682212114334106 1.0350239276885986 0.9465667009353638 0.8050212264060974 0.8053579926490784
        0.8787747621536255 0.8765805959701538 0.8444742560386658 0.980576753616333 1.1862527132034302 1.3646981716156006
        1.6542452573776245 1.7978180646896362 1.980610966682434 2.0616655349731445 2.1977953910827637 2.313310146331787
        2.0856058597564697 1.7753279209136963 1.5784825086593628 1.5030457973480225 1.483323097229004 1.1939268112182617
        3.685875177383423 3.6723523139953613 3.6479523181915283 3.819408655166626 4.065900802612305 4.293522834777832
        4.504349231719971 4.506750583648682 4.342875003814697 3.944382905960083 3.623778820037842 3.4258224964141846
        3.3722729682922363 3.493464469909668 3.6081881523132324 3.9751737117767334 4.49984884262085 4.950771808624268
        5.087769508361816 5.104754447937012 5.010079860687256 5.118930816650391 5.339791774749756 5.366357803344727
        5.286048412322998 5.1629743576049805 5.133932590484619 4.9953179359436035 5.325430393218994 5.791675567626953
        6.005836009979248 6.077287673950195 6.269226551055908 6.457272529602051 6.245138645172119 6.103456497192383
        7.0007476806640625 8.285017013549805 8.540755271911621 7.586700916290283 5.973172187805176 4.475355625152588
        3.935755729675293 4.165215492248535 3.9669394493103027 3.6860222816467285 4.027806282043457 4.4121503829956055
        4.741724967956543 4.852743148803711 5.112242698669434 5.301827907562256 5.620527267456055 5.809963703155518
        5.616454124450684 5.271710395812988 4.841125011444092 4.723590850830078 4.6394267082214355 4.886909484863281
        5.541984558105469 6.370224475860596 6.9801130294799805 7.226221084594727 7.055045127868652 6.380881309509277
        5.383914947509766 4.4936909675598145 3.727735757827759 3.4481568336486816 3.267361879348755 3.221099615097046
        2.9903597831726074 2.8546993732452393 2.934621810913086 3.0031192302703857 3.07637095451355 3.2329931259155273
        3.3040902614593506 3.2978878021240234 3.276193618774414 3.348745822906494 3.351132869720459 3.260164976119995
        3.2540862560272217 3.175632953643799 3.24877667427063 3.1671786308288574 3.094977617263794 3.1351749897003174
        3.054149866104126 2.940011978149414 2.5999913215637207 2.598818778991699 2.4037153720855713 2.29703688621521
        2.651317834854126 3.4139885902404785 3.872546434402466 4.035178184509277 4.369553089141846 4.341794967651367
        3.901977300643921 3.6612725257873535 3.5648839473724365 3.9121692180633545 3.8215696811676025 3.5460779666900635
        3.3258650302886963 3.106346845626831 2.780402898788452 2.3285162448883057 2.190103769302368 1.9556381702423096
        1.8346320390701294 1.8436262607574463 1.9213570356369019 1.8439524173736572 1.7418177127838135 1.7646762132644653
        1.7861897945404053 1.7133002281188965 1.6088974475860596 1.4038218259811401 1.3522469997406006 1.342839002609253
        1.2795398235321045 1.1206629276275635 1.0472502708435059 1.0606375932693481 1.0419920682907104 0.9035932421684265
        0.8982676267623901 0.9232057332992554 0.9354874491691589 0.9535747170448303 0.9407753348350525 0.9058188199996948
        0.8016384840011597 0.7059292197227478 0.6712436676025391 0.7062426209449768 0.8595064878463745 0.9308087825775146
        1.0204704999923706 1.1647489070892334 1.351218581199646 1.592581868171692 1.8288581371307373 2.0551810264587402
        2.206249475479126 2.2005677223205566 2.3024089336395264 2.299896001815796 2.0596535205841064 1.8023333549499512
        1.5095622539520264 1.2273532152175903 1.0204346179962158 0.8898213505744934 3.125619411468506 3.179813861846924
        3.1192076206207275 3.2567026615142822 3.5221498012542725 3.8237481117248535 4.034372806549072 4.12100076675415
        4.072486877441406 3.6740946769714355 3.167137622833252 2.9833128452301025 2.950798749923706 3.005207061767578
        3.103729724884033 3.4606590270996094 3.945540189743042 4.378958225250244 4.5211052894592285 4.4834136962890625
        4.479330539703369 4.691829681396484 4.757430076599121 4.527415752410889 4.348001956939697 4.350285530090332
        4.665233135223389 4.536382675170898 4.804199695587158 5.2064948081970215 5.556653022766113 5.6013875007629395
        5.686687469482422 5.8690595626831055 5.837606906890869 6.056132793426514 6.734283447265625 7.87436056137085
        7.861299514770508 7.00352668762207 5.174320220947266 4.100646495819092 3.6261050701141357 3.75911283493042
        3.724757194519043 3.4137277603149414 3.230597734451294 3.717508316040039 4.209410667419434 4.79791784286499
        5.182761192321777 5.436734676361084 5.813631534576416 6.464594841003418 6.2317118644714355 5.530945301055908
        4.8637800216674805 4.719192028045654 4.693104267120361 5.230451583862305 5.971498489379883 6.702201843261719
        7.1526055335998535 7.4053850173950195 7.401359558105469 6.886384010314941 6.019813060760498 4.957234859466553
        4.223230838775635 3.840578079223633 3.6728463172912598 3.588538408279419 3.5034215450286865 3.4108965396881104
        3.3739054203033447 3.2509679794311523 3.1558279991149902 3.209296226501465 3.104367733001709 3.0260369777679443
        3.082690477371216 3.2491846084594727 3.2747628688812256 3.3695404529571533 3.4697513580322266 3.632732391357422
        3.6938765048980713 3.603588104248047 3.3300230503082275 3.1905407905578613 3.179779052734375 3.1506283283233643
        3.069005250930786 2.893277406692505 2.7472150325775146 2.8498542308807373 3.1823225021362305 3.846649646759033
        4.107421875 3.9262008666992188 3.729688882827759 3.732788562774658 3.428835868835449 3.150320053100586
        3.1471269130706787 3.3887274265289307 3.2420778274536133 2.818542718887329 2.853083610534668 2.9436254501342773
        2.705580711364746 2.42471981048584 2.2158541679382324 1.9772064685821533 1.673498511314392 1.7071919441223145
        1.8150956630706787 1.8282564878463745 1.7635512351989746 1.6938124895095825 1.701655626296997 1.6260943412780762
        1.5737316608428955 1.4687620401382446 1.3422836065292358 1.2367966175079346 1.1553927659988403 1.0705794095993042
        1.056722640991211 1.038896918296814 0.9859210848808289 0.8404824137687683 0.8554987907409668 0.9160013198852539
        0.8938130736351013 0.8712036609649658 0.852190375328064 0.8659998178482056 0.7714917063713074 0.6317950487136841
        0.7311256527900696 0.7981027364730835 0.9323828816413879 0.9870922565460205 1.1114671230316162 1.3027024269104004
        1.5337460041046143 1.741249442100525 1.9250335693359375 2.21677565574646 2.385735511779785 2.412527561187744
        2.3874969482421875 2.316849708557129 2.101217269897461 1.8176956176757812 1.4944181442260742 1.1007369756698608
        0.9279837608337402 0.9005962014198303 2.6978750228881836 2.821232557296753 2.716845750808716 2.8637545108795166
        2.9775519371032715 3.4091975688934326 3.6311023235321045 3.789076566696167 3.7708775997161865 3.4174118041992188
        2.9830431938171387 2.797882556915283 2.691189765930176 2.7467362880706787 2.6843857765197754 2.944474935531616
        3.223275899887085 3.5768353939056396 3.790567398071289 3.763483762741089 3.8083035945892334 3.785266399383545
        3.7909553050994873 3.5689780712127686 3.361340045928955 3.5445966720581055 3.740813970565796 3.5897514820098877
        3.692078113555908 3.9601495265960693 4.476981163024902 4.614810943603516 4.750170707702637 4.833858966827393
        4.969949245452881 5.776670455932617 6.74193811416626 8.145442962646484 8.021807670593262 7.008823871612549
        4.70893669128418 3.522707939147949 3.290130376815796 3.1504366397857666 3.258509635925293 3.3058228492736816
        2.9239816665649414 3.315274238586426 3.728243350982666 4.4211602210998535 4.763761043548584 5.336103439331055
        5.806621074676514 6.461534023284912 6.42022705078125 5.887430667877197 5.192922115325928 4.842321395874023
        4.884364604949951 5.570765018463135 6.29975700378418 6.85496711730957 7.453135967254639 7.7268242835998535
        7.769336223602295 7.226004600524902 6.445027828216553 5.427121639251709 4.805367469787598 4.368983268737793
        4.124447345733643 4.078765869140625 3.9882969856262207 4.013652801513672 3.859861135482788 3.664252519607544
        3.3700637817382812 3.2955856323242188 3.021671772003174 2.791950225830078 2.8164148330688477 3.0668013095855713
        3.2235352993011475 3.4653525352478027 3.7161715030670166 3.969825267791748 4.141611576080322 4.157629013061523
        3.849944591522217 3.5842325687408447 3.591580629348755 3.697938919067383 3.5304222106933594 3.3208398818969727
        3.460601806640625 3.7256035804748535 3.772260904312134 4.023583889007568 4.156832695007324 3.842668056488037
        3.5183730125427246 3.2002501487731934 3.1937315464019775 3.2578275203704834 3.2954607009887695 3.0291149616241455
        2.5689592361450195 2.1975297927856445 2.2677650451660156 2.3636460304260254 2.290037155151367 2.2752702236175537
        2.2313804626464844 2.0212912559509277 1.6937497854232788 1.6554272174835205 1.7153640985488892 1.8209569454193115
        1.8249528408050537 1.739526629447937 1.6675848960876465 1.577444314956665 1.543834924697876 1.4943671226501465
        1.3200244903564453 1.2077828645706177 1.1421899795532227 1.1366733312606812 1.071911096572876 1.0230536460876465
        0.9766377210617065 0.9342368841171265 0.9299947619438171 0.88564532995224 0.8279744982719421 0.8272251486778259
        0.8806704878807068 0.9146348237991333 0.7431226372718811 0.5884328484535217 0.7704798579216003 1.038515567779541
        1.221368670463562 1.1931523084640503 1.3205963373184204 1.5911500453948975 1.8686941862106323 2.1596357822418213
        2.2388722896575928 2.4573349952697754 2.625339984893799 2.602933883666992 2.5157630443573 2.434438705444336
        2.1730797290802 1.8341957330703735 1.4250962734222412 0.9577329158782959 0.9729210138320923 1.0650962591171265
        2.4319183826446533 2.609539747238159 2.479226589202881 2.58616304397583 2.6093499660491943 3.039099931716919
        3.260787010192871 3.370119333267212 3.190732717514038 3.0346570014953613 2.8842720985412598 2.7678279876708984
        2.4677648544311523 2.3628363609313965 2.250267505645752 2.4643166065216064 2.721795082092285 3.033298969268799
        2.945533037185669 2.862840414047241 2.972952127456665 3.0318174362182617 2.904468297958374 2.5682895183563232
        2.2471208572387695 2.324810028076172 2.4915502071380615 2.4144692420959473 2.2537126541137695 2.4596927165985107
        2.948481321334839 3.278167963027954 3.7213690280914307 3.9405601024627686 4.760372638702393 6.153824329376221
        7.529036998748779 8.315473556518555 7.9423675537109375 6.282481670379639 3.9343669414520264 2.802220344543457
        2.9265570640563965 2.78869891166687 2.8881020545959473 3.2821967601776123 3.1330301761627197 3.16455078125
        3.519763708114624 4.118860244750977 4.336117744445801 4.899021148681641 5.329052925109863 5.8371429443359375
        5.783173561096191 5.591280460357666 5.12575101852417 4.89977502822876 4.929181098937988 5.607820510864258
        6.471639633178711 7.068503379821777 7.6809186935424805 7.990927696228027 8.095165252685547 7.615076065063477
        7.069554328918457 6.2888689041137695 5.488934516906738 4.961621284484863 4.801577091217041 4.809196472167969
        4.5723161697387695 4.470491409301758 4.238968849182129 4.13277006149292 3.7881124019622803 3.56636643409729
        3.1389029026031494 2.8689355850219727 2.764677047729492 2.8824079036712646 3.112272262573242 3.515226125717163
        3.871535301208496 4.199209213256836 4.425581455230713 4.50390100479126 4.258847236633301 4.049166679382324
        4.2052178382873535 4.331228256225586 4.108569145202637 4.135994911193848 4.414103031158447 4.443670272827148
        4.147263526916504 4.05961275100708 4.1410675048828125 4.106068134307861 4.093661785125732 3.951101779937744
        3.705996036529541 3.434408664703369 3.193451166152954 2.8055288791656494 2.1708984375 1.9001543521881104
        1.7460755109786987 1.6538134813308716 1.7741059064865112 2.057055950164795 2.2154669761657715 1.9194014072418213
        1.7614175081253052 1.7979869842529297 1.8590716123580933 1.9316778182983398 1.8538930416107178 1.8063404560089111
        1.7738149166107178 1.7198219299316406 1.6775785684585571 1.5430538654327393 1.3522462844848633 1.304756999015808
        1.3096706867218018 1.2776449918746948 1.1278033256530762 1.0814085006713867 1.069383144378662 1.0398684740066528
        0.9953429698944092 0.8785823583602905 0.7855522036552429 0.8440543413162231 0.8925283551216125 0.7956103682518005
        0.7676488757133484 0.7926381230354309 1.0519709587097168 1.3029886484146118 1.3897048234939575 1.4833403825759888
        1.6792712211608887 2.0514607429504395 2.190080165863037 2.315943717956543 2.4276111125946045 2.5850889682769775
        2.7046852111816406 2.655363082885742 2.573476791381836 2.4330942630767822 1.7098160982131958 1.2094742059707642
        0.9265801310539246 0.822616696357727 0.9027589559555054 1.1367584466934204 2.375624418258667 2.473031520843506
        2.4306535720825195 2.5022568702697754 2.4443359375 2.6306536197662354 2.7585160732269287 2.8289027214050293
        2.696343421936035 2.7370707988739014 2.8131558895111084 2.7018070220947266 2.4396657943725586 2.284470558166504
        2.1260557174682617 2.1777706146240234 2.187934160232544 2.3254342079162598 2.3101918697357178 2.311488628387451
        2.3877127170562744 2.154465436935425 1.9764471054077148 1.7976593971252441 1.5510343313217163 1.409385085105896
        1.2659906148910522 1.2501142024993896 1.244316816329956 1.2418042421340942 1.4495290517807007 1.409532070159912
        2.302708387374878 3.4772655963897705 4.7879743576049805 6.059252738952637 7.761091709136963 8.386414527893066
        7.65509033203125 5.566068649291992 3.442416191101074 2.8083763122558594 3.0224761962890625 2.980707883834839
        2.7369298934936523 2.7027196884155273 2.9973976612091064 3.232326030731201 3.470445156097412 3.777639389038086
        3.9373490810394287 4.281551361083984 4.585483074188232 4.914654731750488 4.70730447769165 4.654138088226318
        4.678526401519775 4.9546966552734375 4.905966758728027 5.283063888549805 6.1093220710754395 7.017435550689697
        7.626914978027344 7.938910961151123 8.150286674499512 7.882801532745361 7.534074306488037 6.910272598266602
        6.176725387573242 5.690467834472656 5.4893364906311035 5.47376012802124 5.171895980834961 4.959763050079346
        4.761605739593506 4.745569705963135 4.438554763793945 4.078048229217529 3.626938581466675 3.3702096939086914
        3.0712828636169434 3.0766682624816895 3.3605222702026367 3.9126460552215576 4.32462739944458 4.597133159637451
        4.801296710968018 4.780516147613525 4.6858296394348145 4.691624641418457 4.835391998291016 4.957175254821777
        4.783760070800781 4.951864719390869 4.916454315185547 4.521663665771484 4.204787731170654 4.293036937713623
        4.476817607879639 4.388920783996582 4.636665344238281 4.618091106414795 4.340588569641113 3.6766622066497803
        2.907210350036621 2.337153911590576 1.8005454540252686 1.631433129310608 1.3867038488388062 1.2179287672042847
        1.4109591245651245 1.7872233390808105 1.9865126609802246 1.7930362224578857 1.735827088356018 1.8258792161941528
        1.9199929237365723 1.8850853443145752 1.8202825784683228 1.9262778759002686 1.944604516029358 1.8672374486923218
        1.6880261898040771 1.543402075767517 1.4885988235473633 1.49693763256073 1.447527527809143 1.2743834257125854
        1.129661202430725 1.1009823083877563 1.1285089254379272 1.0458014011383057 0.903118908405304 0.7569478154182434
        0.7580464482307434 0.8367688059806824 0.8480708599090576 0.7687666416168213 0.9663199782371521 1.250627875328064
        1.605855107307434 1.7605396509170532 1.909453272819519 2.040426731109619 2.241778612136841 2.596630573272705
        2.7342283725738525 2.75256085395813 2.8512401580810547 2.8952572345733643 2.8956992626190186 2.912531614303589
        2.7821104526519775 2.6301770210266113 1.7292075157165527 0.9091538786888123 0.6309612393379211 0.8719692826271057
        0.996916651725769 1.1388347148895264 2.298231840133667 2.3184354305267334 2.340022563934326 2.4347290992736816
        2.4089856147766113 2.385481119155884 2.3843209743499756 2.4076199531555176 2.452282190322876 2.5149989128112793
        2.541111946105957 2.4646835327148438 2.360067367553711 2.2922496795654297 2.1881322860717773 2.164489269256592
        2.0504016876220703 1.971571683883667 1.954607367515564 1.9643075466156006 1.95151948928833 1.7167397737503052
        1.5145689249038696 1.4028962850570679 1.2730612754821777 1.1504528522491455 1.0228439569473267 0.7660526037216187
        0.7906665205955505 0.4877014756202698 0.41777971386909485 0.37227118015289307 0.43539661169052124 2.106895923614502
        4.1803412437438965 5.929765224456787 7.546392440795898 8.169273376464844 6.943849563598633 5.109239101409912
        3.7807037830352783 3.4926068782806396 3.5059163570404053 3.3554599285125732 2.894683837890625 2.6287572383880615
        2.918907880783081 3.1720521450042725 3.3466718196868896 3.4336400032043457 3.6137032508850098 3.6091787815093994
        3.6997809410095215 4.026845455169678 3.8683431148529053 3.7524499893188477 3.8593268394470215 4.341556072235107
        4.432326793670654 4.74142599105835 5.358443737030029 6.1912841796875 6.820072650909424 7.33884859085083
        7.741106033325195 7.830926418304443 7.686933517456055 7.150650978088379 6.558197498321533 6.241107940673828
        6.148421287536621 5.959207057952881 5.605629920959473 5.28756046295166 5.069197177886963 5.08205509185791
        4.921734809875488 4.640565872192383 4.218101978302002 3.9673519134521484 3.627342700958252 3.6373918056488037
        3.959040403366089 4.579685688018799 4.88543176651001 5.03629732131958 5.259344100952148 5.420826435089111
        5.552585601806641 5.41575288772583 5.3827009201049805 5.376980304718018 5.362092018127441 5.523995399475098
        5.338380336761475 4.859462261199951 4.538700580596924 4.720359802246094 5.050692558288574 4.974865436553955
        5.039037227630615 4.938759803771973 4.582781791687012 3.804248094558716 2.888134241104126 2.3695218563079834
        1.8572754859924316 1.447835922241211 1.086154580116272 1.1470032930374146 1.339127779006958 1.610302448272705
        1.6261403560638428 1.6552045345306396 1.6453930139541626 1.8003877401351929 1.8922076225280762 1.862163782119751
        1.885951042175293 2.005382776260376 1.9120985269546509 1.7627627849578857 1.5790388584136963 1.5024327039718628
        1.4667413234710693 1.4408454895019531 1.3335540294647217 1.218151569366455 1.0780991315841675 1.0162642002105713
        1.0968674421310425 0.9987701177597046 0.9050014615058899 0.6827654242515564 0.6848899126052856 0.7876800894737244
        0.9523147940635681 1.2489405870437622 1.4968230724334717 1.8431724309921265 2.2013041973114014 2.447848320007324
        2.6434128284454346 2.7078821659088135 2.9403157234191895 3.0962748527526855 3.0921897888183594 3.056459426879883
        3.168482780456543 3.1791396141052246 3.044093608856201 2.892082691192627 2.6364002227783203 2.384047508239746
        1.5909408330917358 0.860302746295929 0.3287283182144165 0.615881085395813 0.8954569101333618 1.0924521684646606
        2.2188851833343506 2.183706521987915 2.208935260772705 2.2835514545440674 2.324007034301758 2.311232566833496
        2.2009756565093994 2.1953771114349365 2.294982433319092 2.343796968460083 2.350989580154419 2.2703263759613037
        2.2095987796783447 2.2269744873046875 2.239621877670288 2.258159637451172 2.0533266067504883 1.8889340162277222
        1.8813077211380005 1.8316640853881836 1.8021215200424194 1.5707296133041382 1.4246246814727783 1.3618069887161255
        1.30281662940979 1.3306442499160767 1.2865667343139648 1.0190613269805908 0.7467847466468811 0.8787538409233093
        1.0878506898880005 1.3570502996444702 0.7990984320640564 1.1293118000030518 3.534728527069092 5.691366672515869
        6.823434829711914 7.184760093688965 6.3792405128479 5.608700275421143 4.639695167541504 4.08442497253418
        3.6132476329803467 3.428581953048706 2.9719479084014893 2.7598893642425537 2.9416565895080566 3.1111817359924316
        3.101046085357666 2.99153733253479 3.094959020614624 3.1353397369384766 3.001781463623047 3.1062355041503906
        3.1484289169311523 3.31708025932312 3.442539691925049 3.8323705196380615 3.969653606414795 4.320566177368164
        4.8261847496032715 5.5447282791137695 6.2269206047058105 6.870594024658203 7.282978534698486 7.2688093185424805
        7.2262187004089355 7.010706424713135 6.744049549102783 6.673574447631836 6.5758843421936035 6.266177654266357
        5.861118793487549 5.679039001464844 5.399416923522949 5.369467735290527 5.247697353363037 4.969244956970215
        4.654897689819336 4.41758394241333 4.130100250244141 4.239706993103027 4.703655242919922 5.064986228942871
        5.255078315734863 5.347349166870117 5.609892845153809 5.964010715484619 6.239927291870117 6.055663585662842
        5.769495487213135 5.893747329711914 5.966179370880127 5.9610595703125 5.581908226013184 5.2096781730651855
        4.959728717803955 5.03915548324585 5.232250213623047 5.245489597320557 5.348694801330566 5.09819221496582
        4.571863174438477 3.978482723236084 3.1279959678649902 2.150956392288208 1.6363381147384644 1.3419740200042725
        1.0674314498901367 1.1671181917190552 1.4170043468475342 1.5174050331115723 1.4656518697738647 1.673991322517395
        1.7129833698272705 1.7451577186584473 1.7876904010772705 1.8041236400604248 1.895250678062439 1.968609094619751
        1.7512421607971191 1.6198586225509644 1.5010333061218262 1.5002756118774414 1.3719370365142822 1.282960295677185
        1.1389083862304688 1.1252321004867554 1.0712162256240845 0.9732227325439453 1.0334917306900024 0.9988979697227478
        0.9811043739318848 0.7462450265884399 0.7182294726371765 1.0706946849822998 1.5291247367858887 1.9453905820846558
        2.189554452896118 2.5558061599731445 2.911628246307373 3.3190224170684814 3.5450544357299805 3.4616246223449707
        3.497328996658325 3.496305227279663 3.518678665161133 3.4801926612854004 3.572617292404175 3.5482163429260254
        3.194485902786255 2.6417016983032227 2.172111988067627 1.893903136253357 1.706687569618225 1.1106436252593994
        0.5685009956359863 0.6565861701965332 0.8240635991096497 0.9801687002182007 2.1543643474578857 2.194186210632324
        2.2591774463653564 2.3018553256988525 2.1996612548828125 2.22023868560791 2.112006187438965 2.117438554763794
        2.122257947921753 2.0862321853637695 2.143747329711914 2.14921498298645 2.20207142829895 2.200594186782837
        2.2189066410064697 2.308905839920044 2.195784568786621 2.081925630569458 1.9493690729141235 1.7330256700515747
        1.6712353229522705 1.5859638452529907 1.6048039197921753 1.556726336479187 1.3405184745788574 1.3280848264694214
        1.3299291133880615 1.1221450567245483 0.9915353655815125 1.1106054782867432 1.3956063985824585 1.4821817874908447
        1.0121499300003052 1.1668038368225098 3.6974146366119385 5.8026323318481445 6.7388129234313965 6.366722583770752
        5.345895290374756 5.3910112380981445 5.213589668273926 4.590117454528809 3.856532096862793 3.531022787094116
        3.137861490249634 2.872746706008911 2.746706247329712 2.6507081985473633 2.5810415744781494 2.3460161685943604
        2.3595798015594482 2.2653725147247314 1.9871938228607178 1.8592278957366943 2.20583438873291 2.7298104763031006
        3.023054599761963 3.3039510250091553 3.578275680541992 4.190013408660889 4.8358001708984375 5.530947685241699
        6.095908164978027 6.4823808670043945 6.601602554321289 6.467177867889404 6.44331693649292 6.615455627441406
        6.731521129608154 6.7018961906433105 6.455113887786865 6.2749714851379395 6.077600479125977 6.052139759063721
        5.901446342468262 5.692663192749023 5.647871971130371 5.44715690612793 5.253058910369873 5.044060230255127
        4.778794288635254 4.78662109375 5.18337869644165 5.533332347869873 5.649345874786377 5.658355712890625
        6.017186164855957 6.472899436950684 6.737066268920898 6.492748260498047 6.226509094238281 6.599371910095215
        7.031928062438965 7.026159763336182 6.446537971496582 5.817864894866943 5.343175888061523 5.146546840667725
        5.4945759773254395 5.497480392456055 5.717991352081299 5.526704788208008 5.210806846618652 4.366584300994873
        3.114161729812622 1.7945401668548584 1.3832439184188843 1.3965070247650146 1.312714695930481 1.3774397373199463
        1.564877986907959 1.6641240119934082 1.6473690271377563 1.8329359292984009 1.7930233478546143 1.8139861822128296
        1.844727635383606 1.8979401588439941 1.9060808420181274 1.838816523551941 1.7446032762527466 1.683978796005249
        1.6542249917984009 1.5561084747314453 1.3575239181518555 1.2839908599853516 1.1849452257156372 1.2328574657440186
        1.03651762008667 0.9041290879249573 0.9724619388580322 1.1557751893997192 1.2701683044433594 1.001285195350647
        1.075749397277832 1.567739725112915 2.0702271461486816 2.57003116607666 2.9593231678009033 3.482771396636963
        3.7460060119628906 3.9553353786468506 4.150748252868652 4.187282562255859 4.054377555847168 3.963571071624756
        3.7272820472717285 3.801870584487915 3.914473295211792 3.7374727725982666 3.1110289096832275 2.3623080253601074
        2.0543243885040283 1.7892701625823975 1.5860612392425537 1.1827704906463623 0.9755061268806458 0.9891952276229858
        1.002193808555603 1.012056827545166 2.5264415740966797 2.481654167175293 2.4041028022766113 2.381849527359009
        2.355445384979248 2.3396952152252197 2.161672592163086 2.0943331718444824 2.0495333671569824 2.087414503097534
        2.2066569328308105 2.2442846298217773 2.229414224624634 2.2192516326904297 2.2708816528320312 2.332612991333008
        2.2155144214630127 2.2123425006866455 2.2040343284606934 2.07635760307312 1.9757897853851318 1.7900540828704834
        1.8461768627166748 1.7984036207199097 1.6101915836334229 1.4143484830856323 1.2507305145263672 1.0386481285095215
        1.0260103940963745 0.9902330636978149 1.1553508043289185 1.0807567834854126 1.0752315521240234 2.373044729232788
        4.537754058837891 5.975703716278076 6.431181907653809 5.580584526062012 4.788393974304199 5.003329277038574
        5.1378679275512695 4.777341842651367 4.1091227531433105 3.6139886379241943 3.2001893520355225 2.770336627960205
        2.4402711391448975 2.2056097984313965 2.0833187103271484 1.8085511922836304 1.688485860824585 1.4611462354660034
        1.2275035381317139 1.0549118518829346 1.3509571552276611 1.876448631286621 2.153776168823242 2.6383047103881836
        3.19667649269104 3.9017372131347656 4.783515453338623 5.811941623687744 6.469000816345215 6.453629493713379
        6.006851673126221 5.628003120422363 5.570212364196777 5.691357612609863 5.968488693237305 6.167652130126953
        6.007118225097656 5.879766941070557 6.0251641273498535 6.149076461791992 6.1290974617004395 5.988526344299316
        5.958601951599121 5.950990676879883 6.027475833892822 5.855073928833008 5.7309722900390625 5.58734655380249
        5.7719011306762695 6.0282368659973145 5.977426528930664 6.096928596496582 6.423469066619873 6.924454212188721
        6.935619831085205 6.733342170715332 6.8107194900512695 7.324013710021973 7.731801986694336 7.8427581787109375
        7.0851263999938965 6.373164653778076 5.646697998046875 5.204071998596191 5.657132148742676 5.9855427742004395
        6.146642208099365 5.998714447021484 6.000111103057861 4.826397895812988 3.17272686958313 1.743091344833374
        1.4037960767745972 1.4050194025039673 1.425360918045044 1.5305827856063843 1.4970533847808838 1.6336307525634766
        1.6762633323669434 1.89338219165802 1.8731904029846191 1.8940545320510864 1.9521985054016113 1.936785101890564
        1.9141228199005127 1.8855940103530884 1.9041695594787598 1.8831737041473389 1.7865442037582397 1.6383132934570312
        1.4217900037765503 1.260403037071228 1.2843353748321533 1.3459322452545166 1.2333892583847046 1.0327339172363281
        1.059079885482788 1.3035892248153687 1.4980288743972778 1.5793743133544922 1.8228087425231934 2.2704544067382812
        2.4958105087280273 2.8274402618408203 3.4098987579345703 4.093272686004639 4.49396276473999 4.375494480133057
        4.342964172363281 4.336772918701172 4.053835868835449 3.994439125061035 3.8813676834106445 4.022136688232422
        3.989727735519409 3.721985101699829 3.1082615852355957 2.5300674438476562 2.322619915008545 1.844498872756958
        1.347381830215454 1.0644314289093018 1.040433406829834 1.1161595582962036 1.2357165813446045 1.628766655921936
        2.7213261127471924 2.679337739944458 2.5966293811798096 2.488535165786743 2.422109603881836 2.3808345794677734
        2.272528648376465 2.2098608016967773 2.154315948486328 2.1867854595184326 2.305098056793213 2.351987600326538
        2.375438690185547 2.302177906036377 2.338801383972168 2.3617215156555176 2.3858578205108643 2.4206905364990234
        2.5390331745147705 2.4609527587890625 2.3406894207000732 2.1860313415527344 2.1975221633911133 2.2068488597869873
        2.0532636642456055 1.9544167518615723 1.8557466268539429 1.5979321002960205 1.3274503946304321 1.0618590116500854
        0.8898562788963318 1.4342012405395508 2.2696707248687744 3.6039745807647705 4.832947731018066 6.059776306152344
        6.162433624267578 5.3154120445251465 4.588092803955078 4.5583343505859375 4.779646396636963 4.691415786743164
        4.246306419372559 3.5251057147979736 3.1462790966033936 2.7185373306274414 2.3396668434143066 1.9464396238327026
        1.666995882987976 1.410987138748169 1.2849715948104858 1.0357275009155273 0.7867465019226074 0.7705820798873901
        0.7204685211181641 0.9833911657333374 1.0857175588607788 1.7447856664657593 2.4710817337036133 3.43526029586792
        4.413108825683594 5.866411209106445 6.8107123374938965 6.853911876678467 6.08682107925415 5.462570667266846
        5.118927001953125 4.943880081176758 4.912499904632568 5.430975914001465 5.606761455535889 5.501124382019043
        5.411569595336914 5.588495254516602 5.765753269195557 5.812887668609619 5.937345027923584 6.108903408050537
        6.493488311767578 6.693821907043457 6.580177307128906 6.518232822418213 6.5311598777771 6.6947245597839355
        6.506770610809326 6.506677627563477 6.376039505004883 6.771481990814209 6.817193984985352 7.06040620803833
        7.400645732879639 7.924911975860596 7.807310581207275 7.686966896057129 7.094985008239746 6.969522953033447
        6.546788692474365 5.998982906341553 5.874502658843994 5.987311840057373 5.892075538635254 5.59661865234375
        5.530839443206787 4.528909206390381 3.298165798187256 2.188953161239624 1.5760854482650757 1.225849986076355
        1.275399088859558 1.4433753490447998 1.4238640069961548 1.5939549207687378 1.6358352899551392 1.8045234680175781
        1.8673049211502075 1.8272570371627808 1.8338314294815063 1.870760440826416 1.9550989866256714 2.0135388374328613
        1.925013542175293 1.9479278326034546 1.7940478324890137 1.7051624059677124 1.5755047798156738 1.3678804636001587
        1.4877521991729736 1.552559494972229 1.6143739223480225 1.478615403175354 1.4965089559555054 1.7366431951522827
        2.0962557792663574 2.292546272277832 2.623140811920166 3.0338175296783447 3.2867226600646973 3.5611422061920166
        4.0110697746276855 4.455763816833496 4.728321075439453 4.720839500427246 4.581124305725098 4.3964362144470215
        4.1740827560424805 4.129673957824707 4.282530784606934 4.146188259124756 4.05400276184082 3.845700979232788
        3.297147512435913 3.0145509243011475 2.7439682483673096 1.9655959606170654 1.3200968503952026 1.1610522270202637
        1.0523697137832642 1.1061196327209473 1.42436683177948 1.933789849281311 2.730424165725708 2.682342767715454
        2.5596020221710205 2.5514345169067383 2.554201602935791 2.469580888748169 2.3228578567504883 2.240833044052124
        2.2184407711029053 2.304875373840332 2.350449562072754 2.3310420513153076 2.2713005542755127 2.3067777156829834
        2.464108943939209 2.457376480102539 2.436612129211426 2.4832677841186523 2.7242960929870605 2.848372220993042
        2.684358835220337 2.5483038425445557 2.513235092163086 2.6620748043060303 2.644423723220825 2.6739275455474854
        2.6070151329040527 2.47537899017334 2.0882034301757812 1.6826592683792114 1.5324302911758423 2.449254035949707
        3.594439744949341 4.528542995452881 5.140427589416504 5.691274166107178 5.413967132568359 4.9302496910095215
        4.868879318237305 4.5288238525390625 4.4366912841796875 4.363866329193115 4.0617241859436035 3.239067554473877
        2.8144025802612305 2.534355878829956 2.262251615524292 1.8931183815002441 1.5231683254241943 1.3336519002914429
        1.2126877307891846 1.1159312725067139 0.788960874080658 0.732475757598877 0.5058549642562866 0.6455984115600586
        0.627705991268158 1.0237083435058594 1.7930998802185059 3.0694565773010254 4.219724178314209 5.696663856506348
        6.678729057312012 7.056895732879639 6.525868892669678 5.835163593292236 5.138857364654541 4.798135757446289
        4.629276752471924 4.886929988861084 5.084558010101318 4.978977680206299 4.677912712097168 4.747654438018799
        5.086095333099365 5.508630275726318 5.825119495391846 6.187773704528809 6.698559761047363 7.117944240570068
        7.22360372543335 7.2256669998168945 7.144271373748779 7.163838863372803 6.768045902252197 6.745179176330566
        6.4079389572143555 6.547349452972412 6.587135314941406 7.077846527099609 7.538088798522949 7.937075138092041
        7.658934116363525 7.585028648376465 7.58195686340332 8.039328575134277 7.784387111663818 7.320793628692627
        6.397601127624512 5.78099250793457 5.15553092956543 4.802639484405518 4.605851173400879 3.981121778488159
        3.161449670791626 2.230292558670044 1.5156422853469849 1.0466046333312988 0.9309090971946716 1.1472773551940918
        1.3211315870285034 1.5587486028671265 1.6828750371932983 1.7572036981582642 1.8892372846603394 1.8295830488204956
        1.8080649375915527 1.8262311220169067 1.8653944730758667 2.056807279586792 2.0405759811401367 2.088853597640991
        1.9349113702774048 1.8238905668258667 1.8426055908203125 1.802512526512146 1.9840044975280762 1.9882415533065796
        2.055445671081543 2.0776753425598145 2.218668222427368 2.4032485485076904 2.746642589569092 3.016505479812622
        3.401594638824463 3.698758602142334 3.9801650047302246 4.254326343536377 4.557863235473633 4.749125957489014
        4.848422050476074 4.675685405731201 4.549622058868408 4.248722076416016 4.07267951965332 3.9490792751312256
        4.007215976715088 4.015843391418457 3.8078184127807617 3.471045732498169 2.9230823516845703 2.719647169113159
        2.1210641860961914 1.2944248914718628 1.300662875175476 1.3938705921173096 1.371004581451416 1.6503782272338867
        2.042618989944458 2.3029582500457764 2.8217294216156006 2.742994546890259 2.645324230194092 2.627457618713379
        2.6591949462890625 2.6145718097686768 2.446213483810425 2.3157734870910645 2.3093724250793457 2.4385428428649902
        2.469733476638794 2.4276363849639893 2.2996671199798584 2.310331106185913 2.484534978866577 2.556166410446167
        2.6007914543151855 2.741543769836426 2.887608051300049 2.9662296772003174 2.9094674587249756 2.9054551124572754
        2.8941729068756104 3.0782887935638428 3.231539249420166 3.3980820178985596 3.4292473793029785 3.3322980403900146
        2.960825204849243 2.512789726257324 2.396505355834961 3.274657726287842 4.348655700683594 5.050975322723389
        5.361942291259766 5.389342784881592 4.867815971374512 4.607324123382568 4.633002758026123 4.293323993682861
        3.9997317790985107 3.8675765991210938 3.5397939682006836 3.188429594039917 2.737863302230835 2.409085273742676
        2.069683313369751 1.8370561599731445 1.5165568590164185 1.344794750213623 1.2427563667297363 1.1901270151138306
        0.8754498362541199 0.6729851961135864 0.41545751690864563 0.5169958472251892 0.499438613653183 0.7827692031860352
        1.5548490285873413 3.0113956928253174 4.383963108062744 5.244539260864258 6.101452350616455 6.676779270172119
        6.60522985458374 6.133829593658447 5.659067630767822 5.072433948516846 4.597689628601074 4.578932285308838
        4.516702651977539 4.551993370056152 4.294522762298584 4.31936502456665 4.592428207397461 5.058242321014404
        5.472726821899414 6.1384148597717285 6.60099458694458 7.014637470245361 7.3074517250061035 7.627349853515625
        7.197624206542969 7.02620267868042 6.670594692230225 6.498381614685059 6.165670871734619 5.628868579864502
        5.438382625579834 6.041485786437988 6.649684906005859 7.106160640716553 7.386959075927734 7.794079303741455
        8.374847412109375 8.88298225402832 9.137234687805176 8.555851936340332 6.8200602531433105 5.451543807983398
        4.446385383605957 3.9548816680908203 3.4106357097625732 2.999791383743286 2.3034493923187256 1.626270055770874
        1.2223373651504517 0.9027751088142395 0.783811628818512 0.9872671365737915 1.2451618909835815 1.487921953201294
        1.6246751546859741 1.6513748168945312 1.7538437843322754 1.818637728691101 1.9277220964431763 1.883548617362976
        1.803381085395813 1.926669955253601 2.1036324501037598 2.1553428173065186 2.0708258152008057 1.975624680519104
        2.1452739238739014 2.1950113773345947 2.283266305923462 2.3096587657928467 2.329676866531372 2.467103958129883
        2.7176473140716553 2.9776759147644043 3.2605299949645996 3.550218343734741 4.093258380889893 4.172058582305908
        4.486522197723389 4.7898383140563965 5.100771903991699 5.130779266357422 4.816003322601318 4.547654151916504
        4.366124153137207 4.321620464324951 4.074963092803955 3.414794445037842 3.1353466510772705 3.279496431350708
        3.2714645862579346 2.9804844856262207 2.1210174560546875 1.9253004789352417 1.595432162284851 1.854755163192749
        2.2820966243743896 2.110697031021118 2.0527310371398926 2.372617483139038 2.4925460815429688 2.572984457015991
        2.912569046020508 2.9691526889801025 2.9321975708007812 2.84977650642395 2.772796630859375 2.7800183296203613
        2.6526341438293457 2.518857955932617 2.4532113075256348 2.4169504642486572 2.4915854930877686 2.4714927673339844
        2.4211413860321045 2.4469220638275146 2.5052828788757324 2.638509750366211 2.7505252361297607 2.9599061012268066
        3.0977234840393066 3.108602285385132 3.086040496826172 3.1081409454345703 3.2559781074523926 3.3859646320343018
        3.5645864009857178 3.763615846633911 4.095821380615234 4.151257514953613 3.89178729057312 3.5136289596557617
        3.5914456844329834 3.992011785507202 4.691643714904785 4.873302459716797 4.918773651123047 4.723963260650635
        4.370054244995117 4.046807765960693 4.076040744781494 3.908419370651245 3.6787269115448 3.320384979248047
        2.9601409435272217 2.803480625152588 2.529299259185791 2.235823154449463 1.9282552003860474 1.727689266204834
        1.4706538915634155 1.3231650590896606 1.284110426902771 1.1747246980667114 0.947439432144165 0.7979648113250732
        0.5539501309394836 0.5426627993583679 0.48359599709510803 0.735168993473053 1.4379329681396484 2.8795485496520996
        4.1696085929870605 4.769426345825195 5.570967674255371 6.092294692993164 6.224751949310303 5.896337032318115
        5.688210487365723 5.076761245727539 4.424291133880615 4.166298866271973 4.009613513946533 4.053018093109131
        3.922497510910034 4.128689289093018 4.411038398742676 4.7570390701293945 5.216739177703857 5.9835710525512695
        6.560115337371826 7.097198486328125 7.339316368103027 7.641574859619141 7.323047161102295 6.951178550720215
        6.791267395019531 6.3004302978515625 5.679757118225098 4.844050407409668 4.23858118057251 4.4485063552856445
        5.163248538970947 6.130542278289795 6.833120346069336 7.49926233291626 8.909438133239746 9.886675834655762
        9.816868782043457 8.541046142578125 6.379551887512207 4.934296131134033 4.0980424880981445 3.9882209300994873
        3.3180789947509766 2.8583221435546875 1.9253935813903809 1.3432329893112183 0.830115020275116 0.9291253685951233
        0.7794128060340881 0.760834813117981 1.1434139013290405 1.4678065776824951 1.5473148822784424 1.5709718465805054
        1.7163281440734863 1.8617576360702515 2.0073773860931396 2.125514030456543 2.054955244064331 1.9739584922790527
        2.209502696990967 2.2907352447509766 2.3555688858032227 2.2853798866271973 2.3970603942871094 2.4109408855438232
        2.5974578857421875 2.8343653678894043 2.8110134601593018 2.858510732650757 3.029050827026367 3.293022871017456
        3.614499092102051 3.9485552310943604 4.310825824737549 4.2833709716796875 4.36842679977417 4.731083393096924
        5.133242130279541 4.907790184020996 4.502338886260986 3.973745107650757 3.833911895751953 3.9773342609405518
        3.5007095336914062 2.7149884700775146 2.1305649280548096 2.2656476497650146 2.2264695167541504 1.8222715854644775
        1.3552354574203491 1.7469210624694824 2.959024429321289 3.7067058086395264 3.932858467102051 3.465934991836548
        3.218137741088867 3.2373664379119873 3.4874775409698486 3.502420663833618 3.241753578186035 3.3033547401428223
        3.2439091205596924 3.1033315658569336 3.0161848068237305 3.005830764770508 2.92983341217041 2.823894739151001
        2.7097885608673096 2.605458974838257 2.6415345668792725 2.6536006927490234 2.6515238285064697 2.663485050201416
        2.7039108276367188 2.8918745517730713 3.0680389404296875 3.223661184310913 3.208991289138794 3.221445083618164
        3.273676633834839 3.3671345710754395 3.565251588821411 3.6465563774108887 3.6937174797058105 3.8960494995117188
        4.302072525024414 4.6665215492248535 4.749677658081055 4.5623979568481445 4.350390434265137 4.441381454467773
        4.669311046600342 4.455135345458984 4.038172245025635 3.9725124835968018 4.011641502380371 3.5414040088653564
        3.2750167846679688 3.062490463256836 3.0195155143737793 2.811826705932617 2.5073866844177246 2.358349323272705
        2.2278494834899902 2.0426785945892334 1.78489351272583 1.5888588428497314 1.317335844039917 1.2233754396438599
        1.2352402210235596 1.1790481805801392 1.0284391641616821 0.8669058084487915 0.617393434047699 0.5375479459762573
        0.5344771146774292 0.9675530195236206 1.8184255361557007 2.957855224609375 3.933506965637207 4.4767680168151855
        5.141360282897949 5.489084720611572 5.758421421051025 5.571497440338135 5.453395843505859 4.953132629394531
        4.379025936126709 3.9835643768310547 3.7837002277374268 3.757556915283203 3.720862865447998 3.9841017723083496
        4.203789710998535 4.558447360992432 5.028895378112793 5.664701461791992 6.001178741455078 6.511794090270996
        7.117499351501465 7.386870861053467 7.315637588500977 6.7059173583984375 6.423964023590088 5.775067329406738
        4.963861465454102 3.9100584983825684 3.012042999267578 2.736095905303955 3.214482307434082 3.5268940925598145
        4.300131320953369 5.704444408416748 7.9044413566589355 10.234480857849121 10.846487045288086 9.241116523742676
        6.628860950469971 4.9787116050720215 4.663639068603516 4.323886871337891 3.2133843898773193 2.6360435485839844
        2.2253754138946533 1.502651572227478 0.4745849668979645 0.8535196185112 0.8400415778160095 0.7165903449058533
        1.015122652053833 1.3815574645996094 1.4359623193740845 1.4599374532699585 1.743212342262268 1.912763237953186
        2.071042776107788 2.222730875015259 2.2528908252716064 2.1199686527252197 2.2733819484710693 2.4807937145233154
        2.5235180854797363 2.4836974143981934 2.5253353118896484 2.6093251705169678 2.779313087463379 2.987361431121826
        3.0378944873809814 3.063586711883545 3.3102755546569824 3.539987087249756 3.706118106842041 3.884547710418701
        3.9898571968078613 4.136746883392334 4.227281093597412 4.565550327301025 4.4930100440979 4.022392272949219
        3.767796039581299 3.3458709716796875 3.2621161937713623 2.9449565410614014 2.70741868019104 2.2261180877685547
        1.8911266326904297 1.6607348918914795 1.364415168762207 1.4202592372894287 1.976108431816101 3.0029256343841553
        3.9652578830718994 4.799075126647949 4.751659870147705 4.408323764801025 3.984750747680664 3.7272984981536865
        3.7459590435028076 3.678877592086792 3.3476836681365967 3.3997442722320557 3.3881726264953613 3.380239486694336
        3.3133082389831543 3.2276883125305176 3.1508595943450928 3.058382272720337 3.0007619857788086 2.8312151432037354
        2.769458532333374 2.7242984771728516 2.7848007678985596 2.903688669204712 2.971792221069336 3.1668365001678467
        3.309661626815796 3.4483256340026855 3.4135680198669434 3.4744036197662354 3.4895615577697754 3.425447940826416
        3.553421974182129 3.686516761779785 3.6666386127471924 3.826446056365967 4.205231666564941 4.803569316864014
        5.194220542907715 5.2416768074035645 4.708255767822266 4.669503211975098 4.367618560791016 3.964181900024414
        3.3484678268432617 3.3043417930603027 3.235147714614868 2.9775784015655518 2.7410011291503906 2.5447027683258057
        2.498176097869873 2.2131388187408447 2.0115506649017334 1.7867431640625 1.8184070587158203 1.7808984518051147
        1.7189699411392212 1.5420968532562256 1.2695913314819336 1.1458247900009155 1.2092924118041992 1.2088465690612793
        1.1127758026123047 0.9574542045593262 0.6901299357414246 0.6556072235107422 0.8521281480789185 1.4016860723495483
        2.1813971996307373 2.9384851455688477 3.68418025970459 4.297041416168213 4.794107437133789 4.980264663696289
        5.181488513946533 5.086200714111328 4.8313093185424805 4.504990577697754 4.305459022521973 3.8995866775512695
        3.3626492023468018 3.399470806121826 3.6276485919952393 3.8015382289886475 3.8445069789886475 4.046531677246094
        4.351637840270996 4.95968770980835 5.3960185050964355 5.738232612609863 6.183545112609863 6.303321361541748
        6.2990803718566895 5.95550012588501 5.601413249969482 4.990949630737305 4.151294708251953 3.198640823364258
        2.2879221439361572 1.1935330629348755 0.9199785590171814 1.0167385339736938 1.501340627670288 3.5508692264556885
        6.716734886169434 9.596394538879395 11.209547996520996 10.241569519042969 8.32285213470459 7.031118392944336
        6.563911437988281 5.250715255737305 3.820094585418701 3.001718759536743 2.878033399581909 2.0118355751037598
        0.8016144633293152 0.7600287795066833 0.9458945393562317 1.1256996393203735 1.13009512424469 1.1397827863693237
        1.2614718675613403 1.5241039991378784 1.921182632446289 2.044753074645996 2.1552016735076904 2.2624003887176514
        2.423670530319214 2.4451024532318115 2.4246928691864014 2.5761725902557373 2.6950736045837402 2.682553768157959
        2.8059818744659424 2.910440683364868 3.016827344894409 3.146921396255493 3.1399447917938232 3.3296966552734375
        3.570173501968384 3.6842682361602783 3.648298740386963 3.6343398094177246 3.6613032817840576 3.7049689292907715
        3.7677667140960693 3.929570436477661 3.6375491619110107 3.531050205230713 3.311655282974243 2.772653102874756
        2.4461259841918945 2.2036631107330322 2.379103183746338 1.9702059030532837 1.831767201423645 2.015580415725708
        2.0524704456329346 2.075913190841675 2.9133222103118896 3.8086814880371094 4.495981693267822 5.1362714767456055
        5.4280781745910645 5.36128044128418 4.867236614227295 4.275929927825928 3.8205726146698 3.6135146617889404
        3.548311233520508 3.5260610580444336 3.488985538482666 3.6151809692382812 3.6790778636932373 3.585495948791504
        3.433126926422119 3.250077724456787 3.1463215351104736 3.035576581954956 2.9450831413269043 2.890998363494873
        2.940722703933716 3.1311144828796387 3.245499610900879 3.3715455532073975 3.5128016471862793 3.6860949993133545
        3.7683236598968506 3.7172839641571045 3.6142914295196533 3.433927297592163 3.48941707611084 3.7161316871643066
        3.840583324432373 4.111423015594482 4.714920520782471 5.474538803100586 5.979062080383301 5.859752178192139
        4.993376731872559 4.526383876800537 4.257833957672119 3.8527493476867676 3.1801421642303467 2.866448402404785
        2.5946731567382812 2.3620269298553467 2.188422203063965 2.0926389694213867 1.933637022972107 1.7046494483947754
        1.4969865083694458 1.4036072492599487 1.51344633102417 1.5688124895095825 1.5160175561904907 1.389066457748413
        1.2365444898605347 1.1769064664840698 1.1495054960250854 1.1601734161376953 1.087807297706604 0.9909108281135559
        0.8702596426010132 0.9564555287361145 1.2022652626037598 1.667365312576294 2.247501850128174 2.943321704864502
        3.4667675495147705 3.9060049057006836 4.2057318687438965 4.457862854003906 4.471710681915283 4.302074909210205
        4.086806774139404 3.810368537902832 3.629694938659668 3.3169331550598145 2.9471707344055176 3.046884775161743
        3.1980104446411133 3.301377773284912 3.229975700378418 3.401416063308716 3.4923839569091797 3.817570209503174
        4.242453575134277 4.36697244644165 4.682009696960449 4.875720024108887 4.850600719451904 4.602869033813477
        4.066783905029297 3.4853389263153076 2.7960989475250244 2.3371763229370117 1.621063232421875 0.6818848848342896
        0.48721805214881897 1.1713049411773682 1.2320177555084229 1.712459683418274 4.353513240814209 7.932921409606934
        10.81971549987793 11.320794105529785 10.198751449584961 8.947943687438965 8.054219245910645 6.359232425689697
        4.877093315124512 3.5301082134246826 3.326972484588623 2.7565078735351562 1.8062800168991089 1.3458338975906372
        1.6416034698486328 1.8772563934326172 1.6216657161712646 1.3308714628219604 1.4175150394439697 1.6515882015228271
        2.1132538318634033 2.351416826248169 2.396836042404175 2.3275091648101807 2.327705144882202 2.488236427307129
        2.4136722087860107 2.443387269973755 2.4619555473327637 2.466435194015503 2.778646945953369 2.9679577350616455
        2.9871952533721924 2.9542832374572754 2.9613876342773438 3.235775947570801 3.477111577987671 3.5000243186950684
        3.3798506259918213 3.2181389331817627 3.249163866043091 3.300595998764038 3.333050489425659 3.2438127994537354
        2.896408796310425 2.785431385040283 2.495687484741211 1.8029195070266724 1.4966870546340942 1.5154857635498047
        1.678614616394043 1.7476319074630737 2.278529644012451 3.0901660919189453 3.2004470825195312 3.2290537357330322
        3.866109609603882 4.259317874908447 4.8778204917907715 5.852444648742676 6.512011528015137 6.289318084716797
        5.226532936096191 4.477744102478027 4.010229587554932 3.657088279724121 3.8224222660064697 3.729051351547241
        3.7270560264587402 3.860896110534668 4.001084804534912 3.9075000286102295 3.6297430992126465 3.319427251815796
        3.204413890838623 3.1244194507598877 3.083057403564453 3.033240795135498 3.05694580078125 3.2386748790740967
        3.483278274536133 3.706444025039673 3.799870729446411 4.039767265319824 4.177894115447998 4.139980792999268
        3.9020814895629883 3.5958597660064697 3.498588800430298 3.6571314334869385 3.8723526000976562 4.329132556915283
        5.193124294281006 6.133025646209717 6.43473482131958 6.2314534187316895 5.438002586364746 4.527182579040527
        3.7496705055236816 3.3468236923217773 3.031336784362793 2.652010679244995 2.1684842109680176 1.8497201204299927
        1.7829679250717163 1.7935911417007446 1.631435751914978 1.468216061592102 1.315108299255371 1.3127148151397705
        1.326163411140442 1.3821475505828857 1.3070878982543945 1.285812497138977 1.3094749450683594 1.2633142471313477
        1.1801100969314575 1.130185842514038 1.1323003768920898 1.1183547973632812 1.0941622257232666 1.1283092498779297
        1.340335726737976 1.6950552463531494 2.056772470474243 2.5999014377593994 3.0568413734436035 3.530463457107544
        3.7074546813964844 3.9396579265594482 3.759087562561035 3.451723337173462 3.383422613143921 3.1573848724365234
        2.9797816276550293 2.66386342048645 2.4080817699432373 2.395813226699829 2.433621644973755 2.5378763675689697
        2.472574234008789 2.6023666858673096 2.6750295162200928 2.7304635047912598 3.043999195098877 3.056734323501587
        3.2167723178863525 3.401427984237671 3.187880277633667 3.047438859939575 2.5989482402801514 2.11820125579834
        1.6137944459915161 1.5592904090881348 1.3187650442123413 1.303347110748291 1.4561092853546143 1.0799839496612549
        1.7541764974594116 1.511490821838379 1.6111613512039185 5.087207794189453 8.507669448852539 10.655179977416992
        10.42001724243164 9.463996887207031 8.672555923461914 7.584383487701416 6.732198715209961 5.233333110809326
        4.4645304679870605 4.059240341186523 3.6021201610565186 2.8999745845794678 2.6109137535095215 2.4046010971069336
        2.0106654167175293 1.5579922199249268 1.5143321752548218 1.8859442472457886 2.3578741550445557 2.462200880050659
        2.264993906021118 2.1525344848632812 2.2149465084075928 2.5301477909088135 2.4698235988616943 2.2628111839294434
        2.1867709159851074 2.190352201461792 2.476520538330078 2.660520315170288 2.7182958126068115 2.6861960887908936
        2.7894368171691895 2.9365711212158203 2.972078800201416 2.9496185779571533 2.9247443675994873 2.742112398147583
        2.7573044300079346 2.597209930419922 2.6513617038726807 2.5318338871002197 2.414564847946167 1.8966540098190308
        1.421450138092041 1.5214545726776123 2.2700817584991455 2.36017107963562 2.358060121536255 2.3894741535186768
        2.910755157470703 3.6321632862091064 3.7810075283050537 4.049057483673096 4.841324806213379 4.848238945007324
        5.22531795501709 6.128936767578125 6.9761223793029785 6.667204856872559 5.610308647155762 4.613506317138672
        4.008307933807373 3.8113296031951904 4.103335857391357 4.145390033721924 4.1991987228393555 4.247572422027588
        4.272525787353516 4.135414123535156 3.8443973064422607 3.523578405380249 3.3511550426483154 3.1827259063720703
        3.2143619060516357 3.2853152751922607 3.3363733291625977 3.4399290084838867 3.6994218826293945 3.9941904544830322
        4.1904778480529785 4.406717777252197 4.51519250869751 4.409387111663818 4.129261016845703 3.8673670291900635
        3.6446075439453125 3.7694640159606934 4.033559322357178 4.616690635681152 5.555378437042236 6.517632007598877
        6.81667947769165 6.207021236419678 5.477530479431152 4.503318786621094 3.691617012023926 2.9225125312805176
        2.6984214782714844 2.477001428604126 2.0721986293792725 1.654592752456665 1.55729079246521 1.5545685291290283
        1.3851109743118286 1.2997956275939941 1.2687419652938843 1.356061577796936 1.3456910848617554 1.332413911819458
        1.2539074420928955 1.2614145278930664 1.3641703128814697 1.3341007232666016 1.2499864101409912 1.1778039932250977
        1.1825649738311768 1.2701770067214966 1.1700438261032104 1.1294022798538208 1.2342280149459839 1.6118371486663818
        1.9509527683258057 2.3072872161865234 2.624272584915161 2.9394264221191406 3.17842960357666 3.3323893547058105
        3.1428120136260986 2.891913414001465 2.6881375312805176 2.3906660079956055 2.234855890274048 2.2543935775756836
        2.2021708488464355 1.8912830352783203 1.61876380443573 1.6884320974349976 1.7536518573760986 2.0023868083953857
        2.027113676071167 1.915516972541809 1.815153956413269 1.8470717668533325 2.1121597290039062 2.283867597579956
        2.0754635334014893 1.9074127674102783 1.827909231185913 1.6140623092651367 1.4200427532196045 1.1841365098953247
        1.302222728729248 1.6838958263397217 1.8149664402008057 1.2531142234802246 2.0362281799316406 2.4287502765655518
        1.4392390251159668 1.6467783451080322 5.185319900512695 8.313232421875 8.997360229492188 9.181482315063477
        9.39755916595459 8.711494445800781 7.800205707550049 6.313510417938232 5.484087944030762 5.681899547576904
        5.69846773147583 4.686123371124268 3.837587356567383 3.3920702934265137 2.903038740158081 2.7160284519195557
        2.208014965057373 2.322239398956299 2.7327823638916016 2.813030958175659 2.378185272216797 2.226980209350586
        2.221122980117798 2.5005311965942383 2.503635883331299 2.3363239765167236 2.1536591053009033 2.0722815990448
        2.3233964443206787 2.527801990509033 2.492913007736206 2.3234376907348633 2.4508326053619385 2.326183319091797
        2.1830010414123535 2.206399440765381 2.3253064155578613 2.2087533473968506 2.254662036895752 2.098111629486084
        2.0221803188323975 2.09389328956604 2.015279531478882 1.81582772731781 2.421595335006714 2.8244307041168213
        3.3595693111419678 3.604245185852051 3.8909149169921875 4.018698215484619 3.937079906463623 3.972360849380493
        4.208460330963135 4.481018543243408 5.334176540374756 5.512063980102539 5.781869411468506 6.265415668487549
        6.59472131729126 5.813602924346924 5.118984222412109 4.537774562835693 4.050760746002197 3.6417958736419678
        4.316118240356445 4.327918529510498 4.403782844543457 4.505889415740967 4.535103797912598 4.323256969451904
        4.036348342895508 3.7522902488708496 3.6026031970977783 3.458310127258301 3.4811630249023438 3.5035853385925293
        3.6336557865142822 3.764676094055176 3.975358724594116 4.2737650871276855 4.448139667510986 4.689957618713379
        4.831802845001221 4.770477771759033 4.49599552154541 4.13965368270874 3.880502462387085 3.9910266399383545
        4.259284496307373 4.819684982299805 5.538260459899902 6.219183444976807 6.606268405914307 6.1695451736450195
        5.465490818023682 4.479729652404785 3.5530805587768555 2.7022135257720947 2.508058547973633 2.425900936126709
        2.0831217765808105 1.8696614503860474 1.7709630727767944 1.510320782661438 1.297086477279663 1.2296007871627808
        1.2723685503005981 1.3608824014663696 1.3479585647583008 1.3536404371261597 1.367542028427124 1.3602491617202759
        1.362472653388977 1.327994704246521 1.33749258518219 1.359067440032959 1.3530147075653076 1.3545516729354858
        1.1503010988235474 1.0885940790176392 1.135501503944397 1.5029573440551758 1.700055718421936 1.9362713098526
        2.2742185592651367 2.5416324138641357 2.764575719833374 2.7187702655792236 2.605205535888672 2.4681172370910645
        2.258115291595459 1.9324285984039307 1.6505184173583984 1.761040449142456 1.8818525075912476 1.7152751684188843
        1.5209808349609375 1.4145463705062866 1.467512845993042 1.5874545574188232 1.6878303289413452 1.702269434928894
        1.5865155458450317 1.6939433813095093 1.7408852577209473 1.848526954650879 1.6996963024139404 1.683914065361023
        1.760272741317749 1.7476433515548706 1.7338886260986328 1.5767441987991333 1.7085459232330322 1.9558089971542358
        2.0156939029693604 1.8094356060028076 2.2308878898620605 2.281858205795288 1.5551809072494507 0.5827550292015076
        1.6986218690872192 4.298435211181641 6.893186569213867 8.297446250915527 9.111980438232422 8.923116683959961
        8.350849151611328 7.673584461212158 7.138932704925537 7.408304214477539 7.286042213439941 6.259304523468018
        4.933177947998047 4.348701000213623 4.086308002471924 4.1814751625061035 3.35860276222229 3.02518892288208
        3.120478391647339 3.3797357082366943 3.1684465408325195 2.900991678237915 2.52683424949646 2.404155969619751
        2.506599187850952 2.552947759628296 2.4023213386535645 2.2158312797546387 2.3591766357421875 2.554896831512451
        2.3961565494537354 2.1920392513275146 2.0025899410247803 1.7431520223617554 1.6629267930984497 1.7838866710662842
        2.0201940536499023 1.9359033107757568 2.048034191131592 2.0931146144866943 2.207956552505493 2.4015748500823975
        2.5018463134765625 2.770568370819092 3.6081254482269287 4.063518047332764 4.210348129272461 4.195734024047852
        4.495626926422119 4.699465751647949 4.9497175216674805 4.662837028503418 4.83720064163208 4.836331844329834
        5.180809020996094 5.574403285980225 6.48150110244751 6.634692668914795 6.064744472503662 5.001764297485352
        4.696601390838623 4.453274250030518 3.9602396488189697 3.272833824157715 4.325207233428955 4.485839366912842
        4.5851287841796875 4.772967338562012 4.722248554229736 4.458422660827637 4.211368560791016 4.030969142913818
        3.915802478790283 3.7857635021209717 3.7627415657043457 3.8332760334014893 4.020245552062988 4.273706436157227
        4.339668273925781 4.453284740447998 4.552214622497559 4.724183559417725 4.91860818862915 4.931954383850098
        4.748176574707031 4.41317081451416 4.257615089416504 4.336095333099365 4.734066486358643 5.194565296173096
        5.76115608215332 6.105671405792236 6.462604522705078 6.012394905090332 5.316678524017334 4.378346920013428
        3.6776180267333984 2.7053682804107666 2.3979101181030273 2.267204761505127 2.2357702255249023 2.1822526454925537
        2.065934419631958 1.6320222616195679 1.3434407711029053 1.2850151062011719 1.3088406324386597 1.412598967552185
        1.5112403631210327 1.4719953536987305 1.459757924079895 1.4178414344787598 1.3912642002105713 1.358036994934082
        1.4591797590255737 1.5247594118118286 1.5105822086334229 1.424372673034668 1.232461929321289 1.160146951675415
        1.223755955696106 1.4397321939468384 1.4773043394088745 1.6266123056411743 2.004342555999756 2.2243316173553467
        2.276874542236328 2.16151762008667 2.090820074081421 2.0811591148376465 1.9622611999511719 1.7220336198806763
        1.4237338304519653 1.288772702217102 1.4009324312210083 1.582739233970642 1.602218508720398 1.3854949474334717
        1.393566608428955 1.5613199472427368 1.8204262256622314 1.9596781730651855 2.0626187324523926 2.1267638206481934
        2.1236448287963867 2.2394890785217285 2.283155918121338 2.1652090549468994 2.0393683910369873 2.1220932006835938
        2.348097085952759 2.2584071159362793 2.0926661491394043 2.0951907634735107 2.1478404998779297 2.1204371452331543
        1.9735771417617798 1.64372980594635 1.466750144958496 1.1652179956436157 0.702176034450531 1.1121336221694946
        3.8228561878204346 6.513004302978516 7.90256404876709 8.622909545898438 8.735604286193848 8.704635620117188
        8.703594207763672 8.77670669555664 8.319372177124023 7.3897504806518555 6.541286468505859 6.495273113250732
        6.19950532913208 5.74650764465332 4.727181911468506 4.199079990386963 3.9165687561035156 4.035698413848877
        3.9441936016082764 3.6215083599090576 2.839808225631714 2.3958940505981445 2.241300106048584 2.364760160446167
        2.2923059463500977 2.3254027366638184 2.339353084564209 2.350478410720825 2.1280550956726074 1.9728895425796509
        1.8307840824127197 1.6192249059677124 1.5808011293411255 1.6182658672332764 1.8595515489578247 2.106614828109741
        2.2986631393432617 2.2632579803466797 2.3707635402679443 2.9237937927246094 3.3752951622009277 3.5649445056915283
        4.202867031097412 4.930289268493652 5.115539073944092 5.1403985023498535 5.710247039794922 6.242157936096191
        6.2515869140625 5.460611820220947 5.343592166900635 5.345203876495361 5.492392063140869 5.747140407562256
        6.453278541564941 6.565426349639893 5.5555901527404785 4.647555828094482 4.247646808624268 4.106980800628662
        3.662879228591919 3.096973419189453 4.554046154022217 4.672757148742676 4.731009483337402 4.847186088562012
        4.7751336097717285 4.590784072875977 4.327973365783691 4.187454700469971 4.174151420593262 4.17744779586792
        4.123170852661133 4.186840057373047 4.388652324676514 4.610977649688721 4.602631568908691 4.6496901512146
        4.732857704162598 4.809131622314453 4.929067134857178 5.0044145584106445 4.857513427734375 4.661921501159668
        4.614527702331543 4.6006340980529785 4.714621067047119 5.003188610076904 5.598811149597168 6.024084091186523
        6.487002849578857 6.282615661621094 5.380385875701904 4.229295253753662 3.4426207542419434 2.7139945030212402
        2.1879968643188477 2.017578601837158 2.106410026550293 2.181241035461426 2.005150079727173 1.8591254949569702
        1.6429961919784546 1.5343350172042847 1.3985363245010376 1.4381853342056274 1.5028742551803589 1.4594554901123047
        1.4984827041625977 1.4695672988891602 1.4932045936584473 1.478652000427246 1.5790563821792603 1.6337895393371582
        1.5975295305252075 1.4845832586288452 1.454466462135315 1.4186980724334717 1.4612641334533691 1.4707093238830566
        1.4508676528930664 1.4863523244857788 1.7340681552886963 1.962905764579773 1.8873496055603027 1.708677053451538
        1.6634114980697632 1.683403730392456 1.6599541902542114 1.5136620998382568 1.354400634765625 1.2017626762390137
        1.217315912246704 1.5069173574447632 1.5902585983276367 1.5141468048095703 1.6048648357391357 1.7783747911453247
        2.0161728858947754 2.2458274364471436 2.421583652496338 2.5428626537323 2.6262404918670654 2.8143796920776367
        2.939887285232544 2.855048656463623 2.5970356464385986 2.6078696250915527 2.865746021270752 2.968928337097168
        2.6984968185424805 2.474489688873291 2.522974729537964 2.4467368125915527 2.3891305923461914 1.8999730348587036
        1.3023638725280762 1.2303822040557861 1.442259430885315 0.6246147751808167 1.9149242639541626 3.9819107055664062
        5.611927509307861 6.6585822105407715 7.63951301574707 8.63414192199707 9.319039344787598 9.36142635345459
        8.247811317443848 7.681774616241455 7.3267059326171875 7.704168796539307 7.5563859939575195 6.834228992462158
        5.798477649688721 5.110139846801758 4.721163749694824 4.512107849121094 4.317324638366699 4.20291805267334
        3.5907602310180664 3.025125741958618 2.4812090396881104 2.4010016918182373 2.404047966003418 2.4240901470184326
        2.267446517944336 2.14312744140625 2.0808985233306885 2.17397403717041 1.9948060512542725 1.785980224609375
        1.7661211490631104 1.8313679695129395 2.1958229541778564 2.4449355602264404 2.532938003540039 2.5305445194244385
        2.718336820602417 3.1505939960479736 3.696866989135742 4.2130913734436035 4.787107467651367 5.3983659744262695
        5.629126071929932 6.300178050994873 7.318442344665527 7.947150230407715 7.550341606140137 6.928730487823486
        6.9034199714660645 6.48621940612793 6.379796981811523 6.256128787994385 6.5279107093811035 6.3250412940979
        5.444333553314209 4.964249610900879 4.274218559265137 3.8846311569213867 3.31020450592041 2.9373087882995605
        4.745291233062744 4.863450527191162 4.928285121917725 4.9050421714782715 4.808454990386963 4.675564289093018
        4.514960765838623 4.344540596008301 4.288669109344482 4.259927749633789 4.300256729125977 4.409851551055908
        4.627774715423584 4.7848968505859375 4.714136600494385 4.707918167114258 4.7953782081604 4.860885143280029
        4.9104413986206055 4.850713729858398 4.682648658752441 4.639819145202637 4.645977020263672 4.629966735839844
        4.414371013641357 4.48032283782959 5.2515668869018555 6.316185474395752 6.840951919555664 6.545048713684082
        5.390904426574707 4.163010120391846 2.937107801437378 2.247983694076538 1.7980705499649048 1.8058825731277466
        1.9143279790878296 2.0116467475891113 1.8443937301635742 1.9205853939056396 1.816057562828064 1.5767101049423218
        1.3913403749465942 1.4536503553390503 1.4175609350204468 1.4069318771362305 1.4926345348358154 1.5031355619430542
        1.5553056001663208 1.5336072444915771 1.5917733907699585 1.5703643560409546 1.6407831907272339 1.667302131652832
        1.7103383541107178 1.6335859298706055 1.5629774332046509 1.5409507751464844 1.6193636655807495 1.6119060516357422
        1.6336098909378052 1.667678952217102 1.6252646446228027 1.591143012046814 1.5040574073791504 1.4493106603622437
        1.3587143421173096 1.3343801498413086 1.378333568572998 1.3886913061141968 1.4396601915359497 1.528982400894165
        1.5195270776748657 1.5312031507492065 1.6659623384475708 1.968189001083374 2.245556354522705 2.4328348636627197
        2.495490789413452 2.712235927581787 2.9803307056427 3.271906852722168 3.370737314224243 3.2332046031951904
        3.054776430130005 3.058572769165039 3.215115547180176 3.2566864490509033 2.977541923522949 2.963027000427246
        2.968308687210083 2.8667943477630615 2.734294891357422 2.41750168800354 2.0570335388183594 2.026684284210205
        1.9135786294937134 1.0187665224075317 0.7581714987754822 1.4942225217819214 2.7446630001068115 3.9892542362213135
        5.3318305015563965 6.819598197937012 8.172880172729492 8.298405647277832 7.578969478607178 7.472675800323486
        7.377863883972168 7.919400691986084 7.7006964683532715 7.577041149139404 6.919644355773926 6.110105037689209
        5.4077911376953125 4.927638053894043 4.6696977615356445 4.665014266967773 4.324258804321289 3.7386441230773926
        3.2009823322296143 2.938246250152588 2.778045177459717 2.596703052520752 2.3027501106262207 2.038088321685791
        2.0171570777893066 2.2122766971588135 2.1340441703796387 1.9872496128082275 1.818387746810913 1.9545619487762451
        2.353654384613037 2.6268906593322754 2.6302239894866943 2.5926930904388428 2.7250328063964844 2.9599061012268066
        3.223100185394287 3.9311025142669678 4.922346591949463 5.639086723327637 6.008454322814941 7.289013385772705
        8.677129745483398 9.04932975769043 8.504112243652344 8.183005332946777 8.28874683380127 7.538849830627441
        6.845180034637451 6.365011215209961 6.256502628326416 5.731945991516113 4.907380104064941 4.296838283538818
        3.801746129989624 3.3875765800476074 3.0218966007232666 2.855687379837036 4.657082557678223 4.839332580566406
        4.9409661293029785 4.906085014343262 4.8489227294921875 4.879021167755127 4.833564758300781 4.668508529663086
        4.525580883026123 4.383550643920898 4.4622416496276855 4.56525993347168 4.856846332550049 5.004745960235596
        4.899808406829834 4.8496623039245605 4.862336158752441 4.874622344970703 4.9262614250183105 4.854310035705566
        4.7366414070129395 4.759864330291748 4.740514278411865 4.621252536773682 4.4212646484375 4.5843729972839355
        5.600242614746094 7.040304183959961 7.579311847686768 6.747161388397217 5.2283711433410645 3.728597640991211
        2.5206704139709473 2.0336906909942627 1.7618310451507568 2.0154144763946533 1.9807184934616089 2.0256640911102295
        1.944787621498108 2.0091912746429443 1.7999846935272217 1.5835012197494507 1.4174054861068726 1.4672921895980835
        1.3641316890716553 1.4080023765563965 1.505491018295288 1.555119276046753 1.6515302658081055 1.6309080123901367
        1.6095507144927979 1.5481319427490234 1.645210862159729 1.7580556869506836 1.7678956985473633 1.6843194961547852
        1.6096041202545166 1.6030865907669067 1.716219186782837 1.6903553009033203 1.6363804340362549 1.5756136178970337
        1.5965989828109741 1.6277979612350464 1.595509648323059 1.5375093221664429 1.4447444677352905 1.4475045204162598
        1.5441124439239502 1.645336627960205 1.64177668094635 1.6607258319854736 1.6246252059936523 1.673926591873169
        1.8200654983520508 2.1106505393981934 2.3400652408599854 2.4443066120147705 2.4763271808624268 2.9104976654052734
        3.3128275871276855 3.5040550231933594 3.476804733276367 3.4117305278778076 3.3934333324432373 3.3797154426574707
        3.3404722213745117 3.312410831451416 3.284282922744751 3.306821346282959 3.168031930923462 2.971266746520996
        3.052154541015625 2.9985930919647217 2.6437013149261475 2.281895399093628 2.191535711288452 1.6651560068130493
        1.4059443473815918 1.0296509265899658 0.6588960289955139 1.452167272567749 2.7901854515075684 3.8351099491119385
        5.238572597503662 5.869396209716797 5.886277675628662 6.053072452545166 5.7427191734313965 6.0239129066467285
        5.903988361358643 6.914539337158203 7.024778842926025 6.7855706214904785 6.066683292388916 5.584142208099365
        5.232858657836914 4.945013523101807 4.782036781311035 4.316971302032471 3.866119861602783 3.604462146759033
        3.513292074203491 3.102308750152588 2.6565823554992676 2.3149147033691406 2.1854279041290283 2.0115840435028076
        1.9723825454711914 1.9235098361968994 1.8670278787612915 1.9905856847763062 2.242058038711548 2.4522829055786133
        2.655062437057495 2.9292588233947754 2.653346061706543 2.6281955242156982 2.7818899154663086 3.804095506668091
        5.168916702270508 6.725849628448486 7.6500773429870605 9.119863510131836 10.28478717803955 10.157364845275879
        9.408671379089355 9.14003849029541 8.96849536895752 8.047344207763672 6.712655067443848 5.820255279541016
        5.577704906463623 5.236373424530029 4.419831275939941 3.6791090965270996 3.2391467094421387 2.935129165649414
        3.0685317516326904 3.166686534881592 4.543107986450195 4.7173686027526855 4.914681434631348 4.962033271789551
        4.919503211975098 4.979625225067139 4.962429046630859 4.906701564788818 4.734429359436035 4.610635757446289
        4.632836818695068 4.714344024658203 4.994344234466553 5.169212341308594 5.085409641265869 4.990313529968262
        4.937068462371826 4.949625015258789 4.9713945388793945 5.0047078132629395 5.130789279937744 5.143306732177734
        5.044478893280029 5.038397312164307 5.0288519859313965 5.534616947174072 6.414323806762695 7.464641571044922
        7.692515850067139 6.467552661895752 4.771676063537598 3.455717086791992 2.450032949447632 1.878600001335144
        1.7052490711212158 1.9886099100112915 2.0469720363616943 2.2590346336364746 2.3121910095214844 2.2442104816436768
        1.9335209131240845 1.6237709522247314 1.5386706590652466 1.5364305973052979 1.496614933013916 1.525052547454834
        1.5244742631912231 1.5866074562072754 1.647121548652649 1.6343847513198853 1.5934643745422363 1.6039528846740723
        1.7109661102294922 1.761885404586792 1.7809964418411255 1.7258944511413574 1.6586867570877075 1.6789406538009644
        1.7601507902145386 1.7101000547409058 1.645407795906067 1.5791475772857666 1.6137934923171997 1.6394164562225342
        1.6383049488067627 1.6106168031692505 1.599684238433838 1.6180752515792847 1.6814641952514648 1.6905421018600464
        1.6782302856445312 1.7917581796646118 1.8192697763442993 1.8819254636764526 1.97334885597229 2.1864800453186035
        2.397082567214966 2.429762125015259 2.4398443698883057 2.823575019836426 3.2352356910705566 3.462258815765381
        3.4040377140045166 3.343656539916992 3.427959442138672 3.6129698753356934 3.5476720333099365 3.4499709606170654
        3.3648781776428223 3.2807767391204834 3.2667033672332764 3.1508946418762207 3.210336208343506 3.182635545730591
        2.946146011352539 2.6925978660583496 2.5645692348480225 2.0146982669830322 1.8247476816177368 1.5641893148422241
        1.0996261835098267 0.8058352470397949 1.2279678583145142 1.7905505895614624 2.655111074447632 3.2011702060699463
        3.3984367847442627 3.5515129566192627 3.4368250370025635 3.9020650386810303 4.054042339324951 5.158281326293945
        5.633941173553467 5.9464006423950195 5.581472396850586 5.447085380554199 5.058708667755127 4.637339115142822
        4.1995134353637695 4.057009220123291 3.9167985916137695 3.8258535861968994 3.797771692276001 3.3749711513519287
        2.862668991088867 2.4556374549865723 2.3763132095336914 1.979540228843689 1.661763310432434 1.4476996660232544
        1.4977543354034424 1.7776415348052979 1.9524550437927246 1.719030737876892 1.983486294746399 2.3111939430236816
        2.315176010131836 2.2591960430145264 2.63797926902771 3.6668124198913574 5.27066707611084 6.994403839111328
        8.472382545471191 10.321895599365234 11.79226016998291 12.099045753479004 10.614442825317383 9.211021423339844
        8.583460807800293 7.98306941986084 6.8709397315979 5.760935306549072 5.362382888793945 4.873422622680664
        4.339822769165039 3.688209295272827 3.2283074855804443 2.8882761001586914 3.0827691555023193 3.1606626510620117
        4.574906826019287 4.748298168182373 4.944635391235352 5.041439056396484 4.992842674255371 5.052429676055908
        5.0509490966796875 5.04341983795166 4.929286003112793 4.865222454071045 4.827280521392822 4.9191718101501465
        5.092276096343994 5.219539642333984 5.198594093322754 5.141798496246338 5.022404193878174 5.025468349456787
        5.0004496574401855 5.205837726593018 5.545698642730713 5.673361778259277 5.5821404457092285 5.607610702514648
        5.338588714599609 5.903439998626709 6.840968132019043 7.576426982879639 7.531458854675293 6.333520412445068
        4.760667324066162 3.363917827606201 2.6483707427978516 2.1209018230438232 1.8894654512405396 1.9345314502716064
        1.9939054250717163 2.5318102836608887 2.7205986976623535 2.5685017108917236 2.2466273307800293 2.0209686756134033
        1.852138638496399 1.6882401704788208 1.6649398803710938 1.6754746437072754 1.6177560091018677 1.6220903396606445
        1.6368175745010376 1.6414767503738403 1.6413164138793945 1.6710227727890015 1.703521490097046 1.64091157913208
        1.658779263496399 1.6765416860580444 1.726240634918213 1.77115797996521 1.702211618423462 1.6631792783737183
        1.6562824249267578 1.6716011762619019 1.6893247365951538 1.6748321056365967 1.7158596515655518 1.7693305015563965
        1.7736091613769531 1.797082781791687 1.841870665550232 1.8788402080535889 1.8412925004959106 1.9572292566299438
        2.0355770587921143 2.123326539993286 2.2033562660217285 2.305765151977539 2.4060168266296387 2.4264843463897705
        2.54168963432312 2.8774850368499756 3.1341240406036377 3.290412187576294 3.3142685890197754 3.4280734062194824
        3.59906005859375 3.768974781036377 3.7377307415008545 3.7301251888275146 3.56240177154541 3.3232946395874023
        3.355275869369507 3.3193442821502686 3.3655242919921875 3.189441680908203 3.0799198150634766 2.809495687484741
        2.6964879035949707 2.2386319637298584 2.0045242309570312 1.9956848621368408 1.5584979057312012 1.1661049127578735
        0.8236235976219177 0.5784429311752319 0.7719404101371765 1.1933512687683105 1.0580037832260132 0.9421877264976501
        0.8545461297035217 1.3722726106643677 1.6656302213668823 2.725126028060913 3.3742570877075195 3.6527388095855713
        3.3260371685028076 3.539104700088501 3.6050469875335693 3.5320687294006348 3.0102884769439697 3.1009342670440674
        3.439417839050293 3.664229393005371 3.691413640975952 3.2158844470977783 2.9692864418029785 2.6335620880126953
        2.420220136642456 1.8594017028808594 1.3091967105865479 0.8639441728591919 0.7432944774627686 0.9847694039344788
        1.2571040391921997 1.0019086599349976 1.0697839260101318 1.347814679145813 1.8079853057861328 1.887674331665039
        2.0653018951416016 3.113870143890381 4.512173175811768 6.303765773773193 8.396068572998047 10.86701774597168
        13.590104103088379 14.025650978088379 12.114331245422363 9.412527084350586 8.512373924255371 7.710877418518066
        6.94950532913208 6.214512825012207 5.748356342315674 4.9707417488098145 4.399783611297607 3.8922219276428223
        3.079139232635498 2.5005972385406494 2.6319215297698975 2.80427885055542 4.806183338165283 4.862715244293213
        5.1111555099487305 5.191553592681885 5.121481895446777 5.0944976806640625 5.15271520614624 5.157675266265869
        5.112267971038818 5.128114700317383 5.074121475219727 5.116001129150391 5.258199691772461 5.3288116455078125
        5.278039455413818 5.1577348709106445 5.043787002563477 5.093602657318115 5.125447750091553 5.220191478729248
        5.402432918548584 5.698533535003662 5.943815231323242 6.162552833557129 6.162426471710205 6.632496356964111
        7.461923599243164 7.97674560546875 7.611895561218262 6.393990516662598 5.135384559631348 3.6042544841766357
        2.702547073364258 1.9325114488601685 1.5687553882598877 1.7313835620880127 2.10036301612854 2.8664016723632812
        3.182154893875122 2.968632221221924 2.550492286682129 2.334869146347046 2.1525111198425293 1.9577692747116089
        1.7862290143966675 1.6689728498458862 1.632251501083374 1.6806926727294922 1.6480207443237305 1.6032341718673706
        1.6224199533462524 1.661331057548523 1.630730152130127 1.5408960580825806 1.5714861154556274 1.6318349838256836
        1.7147552967071533 1.761932611465454 1.6444458961486816 1.6270498037338257 1.656591534614563 1.717512845993042
        1.7383707761764526 1.6734097003936768 1.7366191148757935 1.7758620977401733 1.8450590372085571 1.800192952156067
        1.7735422849655151 1.8858587741851807 1.9073172807693481 2.0100162029266357 2.0492687225341797 2.1278605461120605
        2.219630718231201 2.3316214084625244 2.390691041946411 2.3873322010040283 2.4922945499420166 2.6530768871307373
        2.861776828765869 3.0673394203186035 3.2869203090667725 3.446930408477783 3.591651678085327 3.7931103706359863
        3.888545274734497 3.9386086463928223 3.796588897705078 3.5742287635803223 3.4411144256591797 3.5060219764709473
        3.4918594360351562 3.308397054672241 3.1234583854675293 2.812157392501831 2.626474380493164 2.3178577423095703
        2.211972951889038 2.095247983932495 1.6982576847076416 1.1098586320877075 0.9993478655815125 1.016539454460144
        0.7259674072265625 0.2173658311367035 0.22651727497577667 0.5783917307853699 0.6151866316795349 0.38599833846092224
        0.39900821447372437 1.0974770784378052 1.2811522483825684 1.2556312084197998 0.9549158215522766 1.3993538618087769
        1.8166717290878296 1.9851154088974 1.357426404953003 1.439215064048767 2.3081204891204834 3.0662195682525635
        3.0664846897125244 2.6982343196868896 2.6932313442230225 2.695847988128662 2.377201557159424 1.5118250846862793
        0.8398517370223999 0.2987182140350342 0.3065265417098999 0.7673822045326233 1.2670212984085083 1.3032547235488892
        1.0062274932861328 0.6965776085853577 1.2176016569137573 1.4860129356384277 1.4548906087875366 1.7599399089813232
        3.0285725593566895 5.051413059234619 7.764078140258789 10.816581726074219 14.185365676879883 14.703949928283691
        12.571425437927246 9.84853744506836 9.058130264282227 8.059680938720703 7.35683536529541 6.788294315338135
        6.344676494598389 5.154234409332275 4.626311779022217 4.033738136291504 3.0556583404541016 2.234037399291992
        2.161625862121582 2.2893474102020264 4.978682041168213 4.980112552642822 5.140422821044922 5.2425761222839355
        5.218521595001221 5.232105731964111 5.342206001281738 5.355094909667969 5.238617897033691 5.206633567810059
        5.2576775550842285 5.297610759735107 5.356462001800537 5.410616874694824 5.344150543212891 5.194839954376221
        5.137123107910156 5.194465637207031 5.188930988311768 5.031083583831787 5.070315837860107 5.387343883514404
        5.83207893371582 6.06548547744751 6.370941162109375 7.500095367431641 8.779047012329102 9.387178421020508
        8.469285011291504 6.8836469650268555 5.343454360961914 3.8405630588531494 2.6923654079437256 1.8813202381134033
        1.6398907899856567 1.8813105821609497 2.382481098175049 3.0874266624450684 3.3098690509796143 3.269832134246826
        2.8290810585021973 2.495906114578247 2.217196226119995 1.9946532249450684 1.7054202556610107 1.5486088991165161
        1.5520590543746948 1.6518669128417969 1.6985996961593628 1.6627191305160522 1.6726453304290771 1.60101318359375
        1.6043691635131836 1.576972484588623 1.5592567920684814 1.5326751470565796 1.5578105449676514 1.627637267112732
        1.6044522523880005 1.5334774255752563 1.4712586402893066 1.5277842283248901 1.6411343812942505 1.719165563583374
        1.7034145593643188 1.6703424453735352 1.668786644935608 1.6625642776489258 1.7438743114471436 1.8578875064849854
        1.9288718700408936 1.9337761402130127 1.9125323295593262 1.989569067955017 2.0759060382843018 2.1613588333129883
        2.227156162261963 2.218674659729004 2.2787280082702637 2.428100347518921 2.6309170722961426 2.8776049613952637
        3.1892640590667725 3.315556049346924 3.3799495697021484 3.573672294616699 3.7359445095062256 3.9589571952819824
        3.950240135192871 3.9344844818115234 3.7054383754730225 3.603727102279663 3.5960144996643066 3.3505754470825195
        3.0777387619018555 2.762516736984253 2.742677688598633 2.618783950805664 2.3670248985290527 2.1683402061462402
        1.7632375955581665 1.5116825103759766 1.5082117319107056 1.5301653146743774 1.4642020463943481 1.199120044708252
        1.0923895835876465 1.0127408504486084 1.1172653436660767 1.155423879623413 0.6720060110092163 0.2863348722457886
        0.37105661630630493 0.12924140691757202 0.19478067755699158 0.20643921196460724 0.6076534390449524 0.9983193278312683
        0.444194495677948 0.3115960955619812 1.0832295417785645 2.101785182952881 2.4313676357269287 2.374199390411377
        2.543055534362793 2.695971965789795 2.387993812561035 1.39987313747406 0.879493772983551 0.45875588059425354
        0.34383425116539 0.9035564661026001 1.3047926425933838 1.0609601736068726 0.8270081877708435 0.4756750166416168
        0.4192131757736206 0.9750731587409973 0.9145013689994812 1.0906959772109985 1.9294986724853516 3.1124584674835205
        5.847699165344238 10.171699523925781 13.78816032409668 14.775029182434082 13.18249797821045 11.077082633972168
        10.016925811767578 8.888312339782715 7.677797794342041 6.9612603187561035 6.584072589874268 5.933296203613281
        5.301222801208496 4.375531196594238 3.4155097007751465 2.4466583728790283 2.0712029933929443 2.0276007652282715
        5.044057369232178 5.126280307769775 5.214087963104248 5.329177379608154 5.284084320068359 5.326831340789795
        5.472955703735352 5.5319600105285645 5.405832290649414 5.279669761657715 5.356589317321777 5.4659104347229
        5.5451507568359375 5.58614444732666 5.4641432762146 5.289308547973633 5.182873249053955 5.217690467834473
        5.268857955932617 4.931419372558594 4.966387748718262 5.112193584442139 5.440808296203613 5.715895652770996
        6.305830955505371 8.101421356201172 9.754190444946289 10.62923526763916 9.532649993896484 7.51786470413208
        5.19581937789917 3.762948751449585 2.7337758541107178 2.247537136077881 1.9367194175720215 2.17576265335083
        2.721688747406006 3.2900424003601074 3.3649067878723145 3.2698323726654053 2.9865942001342773 2.6298868656158447
        2.4140470027923584 2.177142381668091 1.8163968324661255 1.6440037488937378 1.590256690979004 1.6579397916793823
        1.7383893728256226 1.6990002393722534 1.6808243989944458 1.6001557111740112 1.6446568965911865 1.6384602785110474
        1.5644373893737793 1.4152657985687256 1.3640519380569458 1.4192605018615723 1.5028212070465088 1.493728518486023
        1.374389410018921 1.346532940864563 1.4511302709579468 1.606390118598938 1.5857182741165161 1.4916685819625854
        1.5159850120544434 1.5583312511444092 1.6344001293182373 1.7367180585861206 1.815558671951294 1.8569622039794922
        1.8823150396347046 1.9412920475006104 2.057997941970825 2.126114845275879 2.1861703395843506 2.18129301071167
        2.1282341480255127 2.250786781311035 2.354018211364746 2.6272308826446533 2.8669838905334473 2.9314990043640137
        2.992401361465454 3.1986165046691895 3.319692850112915 3.5663046836853027 3.7788712978363037 3.896282911300659
        3.751837968826294 3.6990175247192383 3.6328043937683105 3.300699234008789 3.024792194366455 2.7453465461730957
        2.8625152111053467 2.637894630432129 2.311298370361328 2.190387010574341 2.1624929904937744 2.154167890548706
        2.037055015563965 1.9733916521072388 1.813755750656128 1.638942003250122 1.8188591003417969 1.88563871383667
        1.8959554433822632 1.6705105304718018 1.2458070516586304 0.8085272312164307 0.8481952548027039 0.7136616706848145
        0.6385366320610046 0.5071840286254883 0.6286536455154419 0.6318639516830444 0.7201050519943237 0.4172798693180084
        0.14391149580478668 0.7749476432800293 1.0256893634796143 1.2949632406234741 1.774038553237915 2.2191214561462402
        2.185418128967285 1.4543002843856812 1.1370749473571777 0.8722167611122131 0.5941937565803528 0.8214485049247742
        1.1742244958877563 0.7794336080551147 0.6503804326057434 0.23238708078861237 0.28095245361328125 0.6735059022903442
        0.8043962121009827 0.8352630138397217 1.572148323059082 1.8068146705627441 2.9684805870056152 7.262945175170898
        11.98548698425293 14.35900592803955 13.453685760498047 12.458319664001465 10.848871231079102 9.702919006347656
        8.462648391723633 7.448397636413574 7.03798246383667 6.770206451416016 6.33223295211792 5.135279178619385
        3.978980541229248 2.7573087215423584 2.083174705505371 1.7610936164855957 5.331079483032227 5.2949748039245605
        5.358016014099121 5.485795497894287 5.459716796875 5.516479969024658 5.63153076171875 5.656741142272949
        5.412912845611572 5.2704010009765625 5.422263145446777 5.602939128875732 5.6953535079956055 5.728646278381348
        5.695135593414307 5.6438446044921875 5.378694534301758 5.202383518218994 5.205848693847656 4.826735496520996
        4.687869071960449 4.533876419067383 4.926766395568848 5.753598690032959 6.839619159698486 8.833133697509766
        10.460138320922852 11.262761116027832 9.988611221313477 7.5063605308532715 4.8520894050598145 3.256237268447876
        2.485365152359009 2.4190590381622314 2.4120733737945557 2.8246841430664062 3.059971332550049 3.339343547821045
        3.440307140350342 3.3473422527313232 3.218299388885498 2.9001834392547607 2.7200422286987305 2.479477882385254
        2.185817241668701 1.9547772407531738 1.7508381605148315 1.6942368745803833 1.7116986513137817 1.7050269842147827
        1.6895265579223633 1.6003906726837158 1.6108691692352295 1.5523790121078491 1.424338698387146 1.2870566844940186
        1.2300126552581787 1.2668005228042603 1.324734091758728 1.3693655729293823 1.3198660612106323 1.265645980834961
        1.289450764656067 1.372152328491211 1.3838289976119995 1.3801183700561523 1.4449025392532349 1.450952410697937
        1.5017532110214233 1.5841898918151855 1.6941665410995483 1.7325549125671387 1.8255202770233154 1.8666480779647827
        1.9569525718688965 2.0635857582092285 2.150153636932373 2.170914888381958 2.0974245071411133 2.1746253967285156
        2.1649057865142822 2.3612170219421387 2.529569387435913 2.6047792434692383 2.6420469284057617 2.9190852642059326
        3.0377120971679688 3.322397232055664 3.518333673477173 3.454942464828491 3.4753711223602295 3.489381790161133
        3.467252492904663 3.1799893379211426 2.9802958965301514 2.848755121231079 2.9144294261932373 2.666085958480835
        2.3462700843811035 2.3358912467956543 2.4185996055603027 2.4386990070343018 2.088331699371338 1.9122846126556396
        1.8062597513198853 1.8324824571609497 2.060579538345337 2.110670804977417 2.0258779525756836 1.8679442405700684
        1.6222033500671387 1.4505424499511719 1.3947339057922363 1.1770761013031006 1.014557957649231 0.978915274143219
        1.0922280550003052 1.1506760120391846 1.086340308189392 0.7566153407096863 0.49987027049064636 0.6199983358383179
        0.5579567551612854 0.6916583776473999 1.2576370239257812 1.6130707263946533 1.8892414569854736 1.7810885906219482
        1.7823258638381958 1.4649264812469482 1.1136293411254883 1.3349637985229492 1.4416842460632324 1.1775672435760498
        0.7980325818061829 0.8889296054840088 1.1707477569580078 1.4361954927444458 1.6190751791000366 1.4046517610549927
        0.9081325531005859 0.37376636266708374 0.6968001127243042 3.685257911682129 8.536581039428711 12.538232803344727
        13.515839576721191 13.232248306274414 12.090287208557129 11.139620780944824 9.575224876403809 8.041838645935059
        7.4448699951171875 7.461340427398682 7.4447221755981445 6.0787153244018555 4.587070941925049 2.9210219383239746
        2.160423517227173 1.9344943761825562 5.499345779418945 5.432960510253906 5.517016410827637 5.593019962310791
        5.62574577331543 5.571630001068115 5.638265609741211 5.614717483520508 5.397479057312012 5.353915214538574
        5.56580114364624 5.741869926452637 5.815666675567627 5.8490095138549805 5.922979831695557 5.848634243011475
        5.435679912567139 5.123957633972168 5.102762699127197 4.834611415863037 4.5515899658203125 4.222414016723633
        4.606599807739258 5.66105842590332 7.167689323425293 9.148397445678711 11.092300415039062 11.549013137817383
        10.10171890258789 7.091950416564941 4.500590801239014 2.9686391353607178 2.513951301574707 2.4020369052886963
        2.512296199798584 2.8647351264953613 3.184450149536133 3.3927321434020996 3.5898070335388184 3.511523723602295
        3.542109966278076 3.2364444732666016 3.0475103855133057 2.7148542404174805 2.563694477081299 2.328136682510376
        2.005685329437256 1.828424334526062 1.8515650033950806 1.8657094240188599 1.7541790008544922 1.6106281280517578
        1.5526130199432373 1.4932522773742676 1.4090338945388794 1.3285046815872192 1.2663825750350952 1.2426517009735107
        1.3029916286468506 1.417553424835205 1.3978387117385864 1.3236550092697144 1.300445556640625 1.2770785093307495
        1.2287931442260742 1.2585487365722656 1.3346236944198608 1.3648240566253662 1.4071117639541626 1.4534969329833984
        1.5375555753707886 1.6847182512283325 1.7983578443527222 1.8511886596679688 1.9146379232406616 1.9498720169067383
        1.9772955179214478 1.9742088317871094 1.9997068643569946 2.1530134677886963 2.1428751945495605 2.2168564796447754
        2.2657032012939453 2.459693431854248 2.6064224243164062 2.8313934803009033 2.8693721294403076 3.090705156326294
        3.2581005096435547 3.2041707038879395 3.2440223693847656 3.2022268772125244 3.2876570224761963 3.135631799697876
        3.037860870361328 2.953613758087158 2.8577990531921387 2.707554578781128 2.4751570224761963 2.5144567489624023
        2.6222622394561768 2.492856025695801 2.0806384086608887 1.8284945487976074 1.9348276853561401 1.930093765258789
        2.0835964679718018 2.1701340675354004 2.1706008911132812 2.104670524597168 1.8376545906066895 1.916970133781433
        1.9360016584396362 1.9897109270095825 1.7229948043823242 1.4997403621673584 1.5755482912063599 1.6733075380325317
        1.5500568151474 1.276738166809082 1.2410376071929932 1.6541398763656616 1.476388692855835 1.3982383012771606
        1.1642699241638184 1.1756603717803955 1.0551412105560303 1.2967796325683594 1.791968584060669 2.102762222290039
        1.9125027656555176 1.9651639461517334 1.9699698686599731 1.7886688709259033 1.8145817518234253 2.092359781265259
        2.1639530658721924 2.17079496383667 2.6537129878997803 2.734154462814331 1.7953627109527588 1.0926625728607178
        1.1421160697937012 0.9867212176322937 4.583852291107178 8.796334266662598 11.255170822143555 12.186298370361328
        12.215935707092285 11.808945655822754 10.341611862182617 9.021858215332031 8.1936674118042 7.86279821395874
        7.908133506774902 6.578525543212891 4.976077079772949 3.391042709350586 2.4816205501556396 2.0360114574432373
        5.523102283477783 5.417405128479004 5.5730085372924805 5.494492053985596 5.551783561706543 5.482673168182373
        5.556301593780518 5.558290481567383 5.400804042816162 5.298957347869873 5.498497486114502 5.682496547698975
        5.7750043869018555 5.740668773651123 5.839987754821777 5.706155776977539 5.218034267425537 5.001287937164307
        5.001512050628662 4.8932952880859375 4.65532922744751 4.263566970825195 4.420497894287109 5.616976737976074
        7.455102920532227 9.110968589782715 11.066472053527832 11.690271377563477 9.980360984802246 6.667046070098877
        4.738260269165039 3.5353431701660156 3.1446709632873535 2.8402135372161865 2.8620071411132812 3.018705129623413
        3.296356678009033 3.460707902908325 3.793997049331665 3.878441095352173 3.8772356510162354 3.5136823654174805
        3.1891582012176514 2.8469958305358887 2.679965019226074 2.419027328491211 2.1419835090637207 1.9721060991287231
        1.9553998708724976 1.908287763595581 1.7677855491638184 1.6334666013717651 1.5286576747894287 1.4972854852676392
        1.4977848529815674 1.3976738452911377 1.3453634977340698 1.3018168210983276 1.3763401508331299 1.4429906606674194
        1.3558372259140015 1.2980026006698608 1.327549695968628 1.3729671239852905 1.3487963676452637 1.3224507570266724
        1.338273048400879 1.3035467863082886 1.328230857849121 1.3855528831481934 1.4455333948135376 1.581834077835083
        1.6888290643692017 1.7504812479019165 1.786957025527954 1.7656829357147217 1.758508324623108 1.8024272918701172
        1.764631748199463 1.9008159637451172 2.041213274002075 2.1327927112579346 2.1178696155548096 2.1951398849487305
        2.2833504676818848 2.4852592945098877 2.733397960662842 2.8393733501434326 2.9191737174987793 2.936422824859619
        3.035003185272217 3.031724452972412 3.132827043533325 2.9944119453430176 2.9886515140533447 2.9430806636810303
        2.835352897644043 2.6610448360443115 2.5303547382354736 2.5898280143737793 2.6399919986724854 2.5310146808624268
        2.233203649520874 1.990853190422058 2.0732626914978027 2.0754218101501465 2.06728458404541 2.10778546333313
        2.14666485786438 2.235772132873535 2.1747806072235107 2.135953903198242 2.087857961654663 2.086876630783081
        1.9207063913345337 1.8524996042251587 1.8459398746490479 1.9011473655700684 1.7718857526779175 1.6758899688720703
        1.7469958066940308 1.8497992753982544 1.6318256855010986 1.443454623222351 1.3998603820800781 1.4230910539627075
        0.8103868365287781 0.7147715091705322 1.624105453491211 2.445282459259033 2.7026705741882324 2.639354705810547
        2.5917298793792725 2.6338250637054443 2.9762208461761475 3.2803404331207275 3.54799485206604 3.761310338973999
        4.192633152008057 4.119457721710205 3.298588752746582 2.209771156311035 1.743605375289917 0.915360689163208
        2.2394635677337646 5.435561656951904 8.6964111328125 10.900322914123535 11.688382148742676 11.401227951049805
        10.18191909790039 9.066202163696289 8.582119941711426 8.603941917419434 8.120582580566406 6.847216606140137
        5.318521976470947 4.114492416381836 3.1676127910614014 2.404712677001953 5.33658504486084 5.273552894592285
        5.419829845428467 5.332382678985596 5.418191432952881 5.449765682220459 5.52320671081543 5.433279037475586
        5.412967681884766 5.337650299072266 5.349092960357666 5.39298152923584 5.518557548522949 5.581672668457031
        5.65159273147583 5.511111259460449 5.063399314880371 4.837874412536621 4.836555480957031 4.827286720275879
        4.516276836395264 4.1420416831970215 4.564490795135498 5.932142734527588 8.082403182983398 9.659321784973145
        11.076313972473145 11.386589050292969 10.059880256652832 7.363931179046631 5.685118198394775 4.519006252288818
        3.937270402908325 3.456489086151123 3.39552903175354 3.3137354850769043 3.633699893951416 3.7964301109313965
        4.031590461730957 4.001382350921631 4.095944404602051 3.870297431945801 3.4165053367614746 2.8447771072387695
        2.5455946922302246 2.3548877239227295 2.139383554458618 1.9896467924118042 1.926989197731018 1.8946497440338135
        1.7681344747543335 1.6202372312545776 1.570581078529358 1.5058313608169556 1.4782700538635254 1.422312617301941
        1.4107574224472046 1.256562352180481 1.2851073741912842 1.3394039869308472 1.3093984127044678 1.2595574855804443
        1.331741213798523 1.4110915660858154 1.4165669679641724 1.4586186408996582 1.4053006172180176 1.266980767250061
        1.2805159091949463 1.2946200370788574 1.393054723739624 1.4667673110961914 1.549519658088684 1.6832404136657715
        1.6781620979309082 1.6126078367233276 1.595274567604065 1.6556040048599243 1.6318429708480835 1.7462091445922852
        1.8208166360855103 1.8860379457473755 1.89535653591156 2.0104029178619385 2.05690598487854 2.1075916290283203
        2.2444279193878174 2.4502832889556885 2.5958175659179688 2.692878484725952 2.825714111328125 2.842135190963745
        2.922788381576538 2.8679702281951904 2.8972408771514893 2.85742449760437 2.7776665687561035 2.6100497245788574
        2.4997196197509766 2.585329294204712 2.6553168296813965 2.5271377563476562 2.394740581512451 2.224025249481201
        2.2261672019958496 2.119577646255493 2.111938238143921 2.207542896270752 2.2773473262786865 2.421755313873291
        2.273859977722168 2.1876094341278076 2.1461446285247803 2.1203298568725586 2.1608667373657227 2.0895254611968994
        2.1606640815734863 2.187312126159668 2.1004631519317627 2.2266266345977783 2.1843535900115967 1.978464126586914
        1.6983909606933594 1.5718731880187988 1.8673487901687622 1.7750593423843384 1.2097854614257812 0.6987478733062744
        1.4159492254257202 2.2574551105499268 2.7675669193267822 2.939774513244629 3.191420793533325 3.4746510982513428
        4.1174516677856445 4.551106929779053 4.848239421844482 4.721561908721924 5.128537654876709 5.1014323234558105
        4.883718013763428 3.898216724395752 2.8782856464385986 2.052751302719116 2.6721370220184326 4.732900619506836
        6.5304083824157715 8.240212440490723 9.590777397155762 10.082313537597656 9.302647590637207 9.018478393554688
        9.186019897460938 9.139374732971191 8.170642852783203 7.027957439422607 5.928169250488281 4.957683563232422
        3.9864656925201416 3.0718727111816406 5.1749749183654785 5.132669925689697 5.281815528869629 5.277878284454346
        5.277894020080566 5.383677959442139 5.4785075187683105 5.452564239501953 5.32999324798584 5.389737129211426
        5.496778964996338 5.491145610809326 5.538161754608154 5.57328462600708 5.4203925132751465 5.276584148406982
        5.044802665710449 4.865389823913574 4.568627834320068 4.404844760894775 4.218267917633057 4.24552059173584
        5.171111106872559 6.81704044342041 9.00664234161377 10.563565254211426 11.345080375671387 10.645499229431152
        9.449338912963867 7.789708614349365 6.38919734954834 5.265164375305176 4.574247360229492 4.098723411560059
        3.986816644668579 3.8208322525024414 3.86842942237854 4.052528381347656 4.201521873474121 4.242725372314453
        4.377945423126221 4.288601398468018 3.764909505844116 3.0698959827423096 2.502345085144043 2.2648236751556396
        2.1511316299438477 2.0954904556274414 2.0185306072235107 1.8889294862747192 1.7676193714141846 1.6482048034667969
        1.6817375421524048 1.6488621234893799 1.5575556755065918 1.5090783834457397 1.5583471059799194 1.391351342201233
        1.2908587455749512 1.2195104360580444 1.3242026567459106 1.2910869121551514 1.345948338508606 1.329364538192749
        1.3272656202316284 1.445055603981018 1.3971149921417236 1.2573860883712769 1.2668176889419556 1.283265233039856
        1.4353340864181519 1.4602264165878296 1.5339549779891968 1.598429560661316 1.5432051420211792 1.5517748594284058
        1.540212869644165 1.6261564493179321 1.5711734294891357 1.6906826496124268 1.7359907627105713 1.771325945854187
        1.767823576927185 1.9200884103775024 2.123347520828247 2.221724033355713 2.194866180419922 2.202504873275757
        2.2347569465637207 2.3658952713012695 2.594996213912964 2.656165599822998 2.611661672592163 2.5916061401367188
        2.6031250953674316 2.549314260482788 2.521601915359497 2.411684036254883 2.2837302684783936 2.3575072288513184
        2.3621749877929688 2.314856767654419 2.336853504180908 2.2973272800445557 2.2670116424560547 2.126729965209961
        2.063169240951538 2.148585557937622 2.236949920654297 2.3519344329833984 2.234161615371704 2.132491111755371
        2.1789801120758057 2.219827651977539 2.295400619506836 2.167072057723999 2.292569398880005 2.3700051307678223
        2.349607467651367 2.3259541988372803 2.1673989295959473 1.927569031715393 1.8505765199661255 1.9763493537902832
        2.1818838119506836 1.717098593711853 1.0339820384979248 0.7802506685256958 1.3138365745544434 2.122300624847412
        2.821687936782837 3.494986057281494 4.004806041717529 4.2868757247924805 4.759110450744629 5.2798848152160645
        5.848522186279297 5.595978260040283 5.780533313751221 5.644067764282227 5.622626304626465 5.2131476402282715
        4.860047340393066 3.9420907497406006 3.807476758956909 4.893760681152344 5.882753372192383 6.680510520935059
        7.992477893829346 8.844637870788574 8.515400886535645 8.191143989562988 8.852344512939453 9.156611442565918
        8.566078186035156 7.597285747528076 6.747780799865723 5.810734748840332 4.8553147315979 3.835404634475708
        4.806096076965332 4.806021690368652 4.9761061668396 5.03515100479126 5.052215099334717 5.188381195068359
        5.334662914276123 5.368949890136719 5.157410144805908 5.404326915740967 5.606046199798584 5.601200103759766
        5.516687393188477 5.463161468505859 5.218419551849365 5.094753265380859 4.893397808074951 4.745373725891113
        4.436119079589844 4.273160934448242 4.419320583343506 4.782747745513916 6.016386985778809 7.496991157531738
        9.508590698242188 10.615488052368164 10.367756843566895 9.501398086547852 8.451919555664062 7.160283088684082
        5.919795036315918 5.563642978668213 5.224729061126709 4.80738639831543 4.321743965148926 4.2158708572387695
        4.081173419952393 4.230485439300537 4.539925575256348 4.736291408538818 4.707172870635986 4.405831813812256
        3.925100326538086 3.1784794330596924 2.6522510051727295 2.35142183303833 2.2467234134674072 2.146296739578247
        2.069293260574341 1.8787434101104736 1.908753752708435 1.8530532121658325 2.0524797439575195 2.0193207263946533
        1.9509576559066772 1.875259518623352 1.855367660522461 1.6647450923919678 1.4206935167312622 1.3364797830581665
        1.3986347913742065 1.3657875061035156 1.434557318687439 1.3893842697143555 1.3478143215179443 1.3765217065811157
        1.3696457147598267 1.3225598335266113 1.3832430839538574 1.3969731330871582 1.491845965385437 1.5001524686813354
        1.5696686506271362 1.5516419410705566 1.5167765617370605 1.5252076387405396 1.5537807941436768 1.5983949899673462
        1.5801289081573486 1.7283761501312256 1.8228883743286133 1.8369274139404297 1.8310482501983643 2.0197055339813232
        2.2144205570220947 2.2881860733032227 2.252054214477539 2.085947275161743 2.0331637859344482 2.1044349670410156
        2.285731792449951 2.256114959716797 2.1138064861297607 2.140791177749634 2.0985045433044434 2.0729317665100098
        2.0484917163848877 2.104036331176758 2.115506649017334 2.053551435470581 2.009896993637085 1.9773279428482056
        2.083007335662842 2.151576280593872 2.169297695159912 2.069289207458496 2.0058114528656006 2.0148985385894775
        2.0549094676971436 2.0548665523529053 2.0716569423675537 2.0987603664398193 2.2469966411590576 2.231227397918701
        2.1857945919036865 2.0676066875457764 2.220264434814453 2.301017999649048 2.2517592906951904 2.117748975753784
        2.15811824798584 1.9908878803253174 1.8889484405517578 2.023397922515869 1.9930051565170288 1.4102040529251099
        0.6704816818237305 0.4846235513687134 1.181587815284729 1.994529366493225 2.6486599445343018 3.447343349456787
        3.9191033840179443 4.535130977630615 4.943051338195801 5.167984485626221 5.191972732543945 5.050441741943359
        5.610309600830078 5.861342430114746 6.119626998901367 6.119711399078369 6.187379360198975 5.739354610443115
        5.261744022369385 5.356038570404053 5.57924747467041 5.648423194885254 6.348698616027832 7.148558139801025
        7.300899505615234 7.354971885681152 8.0784330368042 8.619844436645508 8.536345481872559 7.821578502655029
        7.155694007873535 6.380959987640381 5.317370891571045 4.19508695602417 4.353414058685303 4.385223388671875
        4.615417003631592 4.756494045257568 4.8674540519714355 4.9575042724609375 5.004105091094971 5.090023040771484
        5.123612880706787 5.348828315734863 5.448445796966553 5.34629487991333 5.286731243133545 5.2683539390563965
        5.1407999992370605 4.949556827545166 4.744805335998535 4.652771949768066 4.470366477966309 4.402614593505859
        4.850546360015869 5.464855670928955 6.554624557495117 8.102533340454102 9.741786003112793 10.297508239746094
        9.725057601928711 8.692562103271484 7.62833309173584 6.781805038452148 5.909770488739014 5.767539024353027
        5.631019115447998 5.282654762268066 4.791148662567139 4.845677852630615 4.913033962249756 5.141043186187744
        5.278292179107666 5.562416076660156 5.309213638305664 4.716001987457275 4.1106486320495605 3.427800178527832
        2.970466136932373 2.710495710372925 2.522639513015747 2.3583829402923584 2.2685763835906982 2.0549476146698
        2.153895378112793 2.191270112991333 2.4482734203338623 2.416332483291626 2.3548457622528076 2.1443395614624023
        2.046449661254883 1.9028515815734863 1.7901047468185425 1.5979219675064087 1.5317003726959229 1.4848626852035522
        1.5344740152359009 1.52398681640625 1.5338557958602905 1.539673089981079 1.5020115375518799 1.429646372795105
        1.4922266006469727 1.5836379528045654 1.6302645206451416 1.6406481266021729 1.6598416566848755 1.6941872835159302
        1.6788362264633179 1.6375213861465454 1.7185108661651611 1.7166396379470825 1.6740247011184692 1.7994821071624756
        1.947030782699585 1.9370566606521606 1.9123491048812866 1.9535905122756958 2.137640953063965 2.264578104019165
        2.295116662979126 2.101430892944336 1.9608498811721802 1.8774991035461426 1.9257795810699463 1.9175843000411987
        1.7892861366271973 1.7653008699417114 1.6882431507110596 1.7320847511291504 1.7470746040344238 1.8619179725646973
        1.8701308965682983 1.7614343166351318 1.6450860500335693 1.6264373064041138 1.9113227128982544 1.9333595037460327
        1.930092453956604 1.810045838356018 1.7962442636489868 1.8031362295150757 1.749024510383606 1.7620247602462769
        1.7969298362731934 1.8806073665618896 2.0364551544189453 1.9619520902633667 1.9494506120681763 1.9380990266799927
        2.0477540493011475 2.132063865661621 1.9716883897781372 1.9292728900909424 2.0811972618103027 1.9968717098236084
        1.8230723142623901 1.7341660261154175 1.7405014038085938 1.399106740951538 1.0643165111541748 0.4933148920536041
        0.638687252998352 1.1249533891677856 1.950202226638794 3.058666467666626 3.5417327880859375 4.04441499710083
        4.201440811157227 4.383247375488281 4.655684471130371 4.868130207061768 5.319307327270508 5.819379806518555
        6.316015243530273 6.637991428375244 6.845066070556641 6.774418830871582 6.28134822845459 5.860416889190674
        5.865300178527832 5.6934919357299805 5.920767307281494 6.121902942657471 6.201333522796631 6.119232654571533
        7.223987579345703 7.821755409240723 8.149088859558105 7.730184078216553 7.264941215515137 6.459853649139404
        5.360492706298828 4.288273811340332 4.0741496086120605 4.14111852645874 4.430124282836914 4.632941246032715
        4.76625394821167 4.789304256439209 4.793552875518799 4.791115760803223 4.967818260192871 5.188727378845215
        5.184370994567871 5.012853622436523 4.949286937713623 5.047603607177734 5.146698951721191 5.0620198249816895
        4.872273921966553 4.891956329345703 4.934430122375488 4.844699859619141 5.269367218017578 6.039792537689209
        7.690401554107666 9.623418807983398 10.825780868530273 10.818193435668945 9.785209655761719 8.832589149475098
        7.69775390625 6.79782772064209 6.276901721954346 6.197522163391113 6.109805107116699 5.799129009246826
        5.3609700202941895 5.295469284057617 5.499816417694092 5.720151424407959 5.986436367034912 6.224818706512451
        6.010225296020508 5.1917338371276855 4.499844551086426 3.6872546672821045 3.13594388961792 2.9901201725006104
        2.9214184284210205 2.689101457595825 2.597806692123413 2.4994518756866455 2.5105974674224854 2.5549023151397705
        2.8262574672698975 2.7571215629577637 2.715773582458496 2.424720287322998 2.3378372192382812 2.059668779373169
        1.960265040397644 1.7337321043014526 1.6256499290466309 1.5615507364273071 1.6291407346725464 1.715463638305664
        1.7522653341293335 1.796323537826538 1.7892132997512817 1.743967890739441 1.779401421546936 1.9004987478256226
        1.9576812982559204 1.9771939516067505 1.9527060985565186 2.009674072265625 1.973644495010376 1.9810458421707153
        2.0214860439300537 2.0407745838165283 1.907808542251587 1.8581501245498657 1.975775122642517 2.018979072570801
        2.1055288314819336 2.099931001663208 2.169041395187378 2.208676338195801 2.188281774520874 2.0876386165618896
        1.9431231021881104 1.8152159452438354 1.6871147155761719 1.6772972345352173 1.5977449417114258 1.5438001155853271
        1.4851802587509155 1.4963467121124268 1.5557031631469727 1.6159018278121948 1.5313400030136108 1.447971224784851
        1.45834219455719 1.522149920463562 1.7362147569656372 1.651105523109436 1.6450031995773315 1.600837230682373
        1.6197874546051025 1.6333529949188232 1.6309329271316528 1.712123155593872 1.685394525527954 1.703670620918274
        1.6676976680755615 1.5900861024856567 1.618569016456604 1.6701377630233765 1.6392509937286377 1.7229323387145996
        1.6296920776367188 1.5871540307998657 1.7769808769226074 1.774429202079773 1.6676850318908691 1.539072871208191
        1.5507129430770874 1.4569885730743408 1.2676832675933838 0.8070629835128784 0.5752958655357361 0.48255231976509094
        1.2095621824264526 2.2967653274536133 3.037640333175659 3.515981435775757 3.7898612022399902 3.9529645442962646
        4.2239227294921875 4.475601673126221 5.067605972290039 5.797885894775391 6.341712474822998 6.712209701538086
        7.326732158660889 7.554100513458252 6.954167366027832 6.203368186950684 6.058854579925537 5.715219974517822
        5.595641613006592 5.5030035972595215 5.3962907791137695 5.381756782531738 6.520155429840088 7.529052257537842
        7.676375389099121 7.259568214416504 7.039220333099365 6.4580888748168945 5.502556324005127 4.255537986755371
        4.198206424713135 4.180412292480469 4.4808878898620605 4.64233922958374 4.815877437591553 4.844621658325195
        4.787243843078613 4.6280951499938965 4.71021032333374 4.951954364776611 5.04118537902832 4.863925933837891
        4.966998100280762 5.084031105041504 5.126285076141357 4.892265319824219 4.882730960845947 4.957508087158203
        5.078507423400879 5.242379665374756 6.167959690093994 7.279850482940674 9.288000106811523 10.91310977935791
        11.629074096679688 11.199076652526855 9.783533096313477 8.574430465698242 7.486264228820801 6.793485164642334
        6.400362491607666 6.007761001586914 6.1906256675720215 6.327250957489014 6.209933280944824 5.756443500518799
        5.790509223937988 5.869059085845947 6.388673305511475 6.850729942321777 6.945690155029297 6.224615097045898
        5.303956031799316 4.350698471069336 3.5791475772857666 3.2951152324676514 3.267508029937744 3.112581491470337
        3.0010619163513184 3.0772643089294434 3.0398247241973877 3.0073049068450928 3.123697519302368 3.020935297012329
        2.912484884262085 2.7110931873321533 2.5481252670288086 2.2657766342163086 1.9365369081497192 1.8088027238845825
        1.7677313089370728 1.771267056465149 1.7034506797790527 1.8368364572525024 1.860431432723999 1.8900988101959229
        1.8506063222885132 1.9843509197235107 2.047389030456543 2.173996686935425 2.143724203109741 2.186786413192749
        2.1603899002075195 2.206251859664917 2.2310538291931152 2.3183016777038574 2.253298759460449 2.264916181564331
        2.3030648231506348 2.249835968017578 2.087705373764038 2.0299603939056396 2.1710431575775146 2.2501087188720703
        2.267902135848999 2.1678738594055176 2.0611541271209717 2.0030910968780518 1.9830807447433472 1.8946539163589478
        1.7625021934509277 1.684690237045288 1.53831946849823 1.4497193098068237 1.3581132888793945 1.3838402032852173
        1.4119712114334106 1.418329119682312 1.314321756362915 1.1470768451690674 1.2146224975585938 1.3602901697158813
        1.5591862201690674 1.4732942581176758 1.340032696723938 1.2818959951400757 1.2655388116836548 1.3948016166687012
        1.5804176330566406 1.6370044946670532 1.4900670051574707 1.310672402381897 1.2131531238555908 1.2116163969039917
        1.2893861532211304 1.170242428779602 1.0854541063308716 1.3228484392166138 1.3117139339447021 1.0980901718139648
        1.0452817678451538 1.0888723134994507 1.3228904008865356 1.300865888595581 1.1874949932098389 1.0130980014801025
        1.0207120180130005 0.9246191382408142 0.5956379771232605 0.2801125645637512 0.8627816438674927 1.7985109090805054
        2.4772753715515137 2.587995767593384 2.7760589122772217 3.2173097133636475 3.75539231300354 4.021625995635986
        4.306588172912598 5.157858371734619 6.192598819732666 6.826136589050293 7.388154983520508 7.646597862243652
        6.921803951263428 6.269618988037109 6.264090538024902 6.163064002990723 5.621229648590088 5.518354415893555
        5.403189182281494 5.406755447387695 5.966556072235107 6.6807169914245605 6.886301517486572 6.558073043823242
        6.369570732116699 5.842629432678223 5.067150115966797 4.028433799743652 4.315207004547119 4.527381420135498
        4.762625217437744 4.924463272094727 4.891729354858398 4.891406059265137 4.863922119140625 4.718715667724609
        4.69397497177124 4.827208042144775 5.037008762359619 5.044815540313721 5.385115623474121 5.5927348136901855
        5.385553359985352 4.9814043045043945 5.0311713218688965 5.0974602699279785 5.4858293533325195 6.156617641448975
        7.5905280113220215 9.306530952453613 11.246912956237793 12.13520336151123 11.942400932312012 10.876736640930176
        9.431421279907227 7.9031081199646 6.956375598907471 6.438046932220459 6.356751918792725 6.106429576873779
        6.449652671813965 6.829483509063721 6.880865097045898 6.230007171630859 6.1346516609191895 6.2495222091674805
        6.77719783782959 7.237049102783203 7.434032917022705 6.839303493499756 6.036464691162109 5.350987911224365
        4.407939434051514 3.907466173171997 3.7379260063171387 3.611461639404297 3.458940029144287 3.494107246398926
        3.5289199352264404 3.5385634899139404 3.519984245300293 3.4321398735046387 3.191622495651245 3.1527059078216553
        2.949197292327881 2.67141056060791 2.249912738800049 2.1567513942718506 2.116353750228882 1.9829044342041016
        1.7581062316894531 1.9209569692611694 1.942214846611023 1.9703192710876465 2.0607051849365234 2.248706817626953
        2.2973101139068604 2.264864921569824 2.225963830947876 2.2912886142730713 2.36175537109375 2.4381120204925537
        2.4612386226654053 2.6117024421691895 2.6145827770233154 2.5405497550964355 2.568211317062378 2.5278260707855225
        2.3750250339508057 2.2879624366760254 2.299060106277466 2.3469181060791016 2.333361864089966 2.2549588680267334
        2.134629249572754 2.077572822570801 2.1159250736236572 2.077385902404785 2.001089572906494 1.8570915460586548
        1.6236426830291748 1.507893681526184 1.3686023950576782 1.405903697013855 1.3899919986724854 1.2910010814666748
        1.2024742364883423 1.0601965188980103 1.061997413635254 1.054524540901184 1.1046340465545654 1.0581947565078735
        0.9848098158836365 0.9642490148544312 0.9671071767807007 1.07789146900177 1.2500141859054565 1.3017140626907349
        1.1367156505584717 0.9432777762413025 0.8994396924972534 0.929203987121582 0.9108009934425354 0.7300944328308105
        0.6903088688850403 0.9616938829421997 0.9956591129302979 0.6346456408500671 0.47252100706100464 0.5407564640045166
        0.9431249499320984 1.0899932384490967 0.8366271257400513 0.569972813129425 0.3856445848941803 0.6007730960845947
        0.36064276099205017 0.06634581834077835 0.8342890739440918 1.2727035284042358 1.5824248790740967 1.7363245487213135
        2.0098698139190674 2.3654191493988037 2.8344945907592773 3.187704086303711 3.4931280612945557 4.3789262771606445
        5.676806926727295 6.567874908447266 7.018051624298096 7.400464057922363 7.243180274963379 6.866082191467285
        6.502012729644775 6.206207752227783 5.515226364135742 5.245834827423096 5.22470235824585 5.337379455566406
        5.51206636428833 6.005260467529297 6.205773830413818 5.946683883666992 5.660339832305908 5.258890151977539
        4.798694610595703 4.02734375 5.010046005249023 5.065741539001465 5.308046817779541 5.582059860229492
        5.568364143371582 5.456173896789551 5.178269386291504 4.924805164337158 4.877297878265381 4.907413005828857
        5.159470081329346 5.2277092933654785 5.609954357147217 5.912113666534424 5.872631072998047 5.482082843780518
        5.429472923278809 5.882810115814209 6.463318347930908 7.041012287139893 8.563769340515137 10.484375
        12.187088966369629 12.293020248413086 11.578526496887207 10.117301940917969 8.884664535522461 7.536913871765137
        6.769779205322266 6.020454406738281 6.230018615722656 6.283366680145264 6.709688186645508 7.059815406799316
        7.111178874969482 6.65442419052124 6.430200576782227 6.700917720794678 7.219890594482422 7.663213729858398
        7.769246578216553 7.270566940307617 6.590490818023682 5.91397762298584 5.155287265777588 4.745072841644287
        4.394267559051514 4.232688903808594 4.23893404006958 4.21978235244751 4.183735370635986 4.129715919494629
        4.025906562805176 3.794799327850342 3.496288776397705 3.5701746940612793 3.416316032409668 3.300117254257202
        3.1376264095306396 3.1218016147613525 2.8789925575256348 2.422309160232544 2.050077438354492 1.8064584732055664
        1.9166775941848755 2.1317319869995117 2.407456398010254 2.5751564502716064 2.5286810398101807 2.4203972816467285
        2.415855646133423 2.488163471221924 2.651401996612549 2.8254542350769043 2.9183273315429688 2.933223009109497
        2.8954739570617676 2.8803393840789795 2.852039098739624 2.7805023193359375 2.640634775161743 2.5589303970336914
        2.489293098449707 2.489838123321533 2.485022783279419 2.433413505554199 2.3520569801330566 2.2482545375823975
        2.2404868602752686 2.201425552368164 2.1808242797851562 2.056903839111328 1.8775063753128052 1.7573145627975464
        1.5818387269973755 1.5817917585372925 1.4906977415084839 1.3732997179031372 1.2915302515029907 1.1855950355529785
        1.0745244026184082 0.8136911392211914 0.7496770024299622 0.7517657279968262 0.7652737498283386 0.7370561957359314
        0.5569239258766174 0.5660663843154907 0.7538893818855286 0.8346368670463562 0.7846348285675049 0.587883472442627
        0.5863069295883179 0.6178255081176758 0.5862590670585632 0.5605096817016602 0.4975355565547943 0.6359386444091797
        0.5393660664558411 0.30048564076423645 0.4298827648162842 0.38075771927833557 0.5351807475090027 0.6751667857170105
        0.43928587436676025 0.36024612188339233 0.2392498105764389 0.2814866006374359 0.2481968253850937 0.17167529463768005
        0.7941692471504211 0.8762080669403076 0.8965510129928589 1.1189779043197632 1.4119675159454346 1.5979427099227905
        1.9994102716445923 2.4708404541015625 3.0095760822296143 3.830955743789673 5.180747985839844 6.480252265930176
        7.071021556854248 7.536001205444336 7.660193920135498 7.123580455780029 6.392004013061523 5.7401251792907715
        5.124551773071289 4.859132766723633 4.921108722686768 5.231299877166748 5.415737628936768 5.558693885803223
        5.6695780754089355 5.605792045593262 5.483082294464111 4.997420310974121 4.437782287597656 3.8183891773223877
        5.500177383422852 5.659207344055176 6.050662517547607 6.29930305480957 6.256082534790039 5.829746723175049
        5.493431568145752 5.415948867797852 5.434188365936279 5.423148155212402 5.730031967163086 5.80634069442749
        5.991273880004883 6.175436496734619 6.334781646728516 6.217399597167969 5.98408842086792 6.436679363250732
        7.105590343475342 7.737179756164551 9.052275657653809 11.303089141845703 12.656366348266602 12.536284446716309
        11.04489517211914 9.24271297454834 8.001492500305176 7.384482383728027 6.892964839935303 6.2950053215026855
        6.405384540557861 6.661497116088867 7.069262504577637 7.11172342300415 7.03606653213501 6.997630596160889
        7.023759365081787 7.3011627197265625 7.59755802154541 7.6768999099731445 7.558549404144287 7.186152458190918
        6.784968376159668 6.2906928062438965 5.824662208557129 5.487171173095703 5.060253143310547 4.855379104614258
        4.905206680297852 4.7588067054748535 4.51104211807251 4.396200656890869 4.433502674102783 4.047863960266113
        3.438201904296875 3.4946892261505127 3.5271060466766357 3.838174819946289 3.712599992752075 3.6261889934539795
        3.3055813312530518 2.7093851566314697 2.287909507751465 1.820054292678833 1.892777681350708 2.197284698486328
        2.5246920585632324 2.693157196044922 2.7029316425323486 2.7251813411712646 2.881134510040283 2.8986411094665527
        2.9266064167022705 3.058154582977295 3.176901340484619 3.1271402835845947 3.108431100845337 3.2075281143188477
        3.200929641723633 3.0469582080841064 2.8466320037841797 2.854623556137085 2.8617520332336426 2.830660343170166
        2.743454694747925 2.626415491104126 2.5535340309143066 2.554868459701538 2.5422143936157227 2.4973347187042236
        2.398345947265625 2.263026714324951 2.166445255279541 2.139160394668579 2.0916850566864014 2.010646343231201
        1.9151283502578735 1.785595178604126 1.70595121383667 1.561450719833374 1.296775221824646 0.9756790995597839
        0.8332924842834473 0.8101879954338074 0.7644140720367432 0.6315281391143799 0.48942992091178894 0.4856114685535431
        0.6442152261734009 0.6536278128623962 0.6079882383346558 0.5250723958015442 0.519587516784668 0.49957460165023804
        0.4862377941608429 0.4988594949245453 0.4454139471054077 0.3517616391181946 0.38793322443962097 0.5634796023368835
        0.7364155650138855 0.7271959781646729 0.5263816714286804 0.5402012467384338 0.4654630124568939 0.36385366320610046
        0.3512015640735626 0.23718000948429108 0.30031245946884155 0.10388396680355072 0.400216668844223 0.42379260063171387
        0.5672772526741028 0.8129327297210693 1.1450989246368408 1.3093454837799072 1.5331863164901733 1.8985031843185425
        2.554295778274536 3.406049966812134 4.651208877563477 6.175369739532471 7.297397613525391 7.575688362121582
        7.436687469482422 6.728259563446045 5.896450042724609 5.157629489898682 4.866757392883301 4.610384941101074
        4.640426158905029 4.847011089324951 5.05714225769043 5.246321201324463 5.4518585205078125 5.516852855682373
        5.315514087677002 4.8978071212768555 4.4266839027404785 4.003956317901611 5.862330436706543 6.0674214363098145
        6.504791259765625 6.791214942932129 6.762841701507568 6.2230987548828125 5.835641384124756 5.783819675445557
        5.919123649597168 6.1126556396484375 6.332448959350586 6.216469764709473 6.1226701736450195 6.208361625671387
        6.581989288330078 6.6157612800598145 6.319816589355469 6.673440933227539 7.481278896331787 8.525784492492676
        9.593603134155273 11.49442195892334 12.855237007141113 12.815478324890137 11.019086837768555 9.179883003234863
        7.701733589172363 7.302394866943359 7.131469249725342 6.529889106750488 6.056056976318359 6.442981243133545
        7.354403018951416 7.620397090911865 7.439981937408447 7.55733585357666 7.444735527038574 7.612196922302246
        7.6807074546813965 7.8497633934021 7.7398762702941895 7.394174098968506 6.960007667541504 6.5393829345703125
        6.282699108123779 5.977876663208008 5.526340961456299 5.1310224533081055 5.150832176208496 5.043468475341797
        4.841362953186035 4.524387359619141 4.626280784606934 4.3123459815979 3.884963035583496 3.863924980163574
        4.0624589920043945 4.568614482879639 4.516908168792725 4.116385459899902 3.476997137069702 2.732837438583374
        2.2234184741973877 1.7995476722717285 1.830229640007019 2.1453728675842285 2.485178232192993 2.771881103515625
        3.020521879196167 3.3331124782562256 3.492987632751465 3.4392025470733643 3.336276054382324 3.3684535026550293
        3.5172483921051025 3.526500701904297 3.522780179977417 3.635176658630371 3.7455146312713623 3.7052087783813477
        3.500727891921997 3.3758082389831543 3.3022656440734863 3.348219871520996 3.2870540618896484 3.104175329208374
        2.891049861907959 2.845094680786133 2.9039676189422607 2.8924293518066406 2.7515177726745605 2.624060869216919
        2.578460693359375 2.613373041152954 2.663133144378662 2.5924272537231445 2.513166904449463 2.3447389602661133
        2.3107006549835205 2.065410852432251 1.742577314376831 1.369564414024353 1.1538407802581787 1.0296335220336914
        0.9365018010139465 0.8098832964897156 0.7443570494651794 0.7035090923309326 0.7502159476280212 0.6392627954483032
        0.5496425628662109 0.5400444269180298 0.5120197534561157 0.6178719997406006 0.5737303495407104 0.5933205485343933
        0.6611535549163818 0.7129356861114502 0.9636667966842651 1.1827608346939087 1.2705129384994507 1.2097805738449097
        0.9947975277900696 0.7547658681869507 0.4491175413131714 0.396881103515625 0.3386877179145813 0.2578393518924713
        0.15377165377140045 0.16519516706466675 0.18618430197238922 0.41156983375549316 0.6032790541648865 0.7495269179344177
        1.169259786605835 1.298767328262329 1.3662158250808716 1.6587436199188232 2.407334089279175 3.3073675632476807
        4.406337738037109 5.987626552581787 7.430235862731934 7.460999488830566 6.746647357940674 6.048004150390625
        5.624685764312744 5.114558696746826 4.810615062713623 4.591371536254883 4.737560272216797 4.743558406829834
        4.966703414916992 5.168550968170166 5.370084762573242 5.412044048309326 5.248927116394043 4.837841510772705
        4.460286617279053 4.024534702301025 6.370341777801514 6.493831157684326 6.864809513092041 7.032026767730713
        6.90414571762085 6.453018665313721 6.165215492248535 6.009657859802246 6.134697437286377 6.571849346160889
        6.845881462097168 6.852084636688232 6.528820991516113 6.395887851715088 6.643939971923828 6.47725772857666
        6.29343318939209 6.338472366333008 7.232424259185791 8.940862655639648 10.726466178894043 12.203169822692871
        13.246390342712402 13.11294937133789 11.179043769836426 9.326595306396484 7.731410503387451 7.1318464279174805
        6.9998779296875 6.7290239334106445 6.3610711097717285 6.755849361419678 7.919981002807617 8.522417068481445
        8.465765953063965 8.340629577636719 7.957558631896973 7.735289573669434 7.4946465492248535 7.705156326293945
        7.635477542877197 7.418584823608398 7.113575458526611 6.790044784545898 6.645058631896973 6.269679069519043
        5.776671409606934 5.285618305206299 5.241938591003418 5.170405864715576 5.127808094024658 4.835739612579346
        4.649639129638672 4.317708492279053 4.25968074798584 4.5832133293151855 5.005213737487793 5.221312046051025
        4.862287521362305 4.274773597717285 3.4920413494110107 2.670243978500366 2.0131478309631348 1.7382290363311768
        1.9416145086288452 2.392533302307129 2.7490556240081787 3.121952772140503 3.390737533569336 3.8508286476135254
        4.0467729568481445 3.9313113689422607 3.7681190967559814 3.641739845275879 3.740823268890381 3.887028455734253
        3.96307373046875 4.06487512588501 4.030577659606934 3.9561638832092285 3.827237606048584 3.705608367919922
        3.621079444885254 3.5205085277557373 3.478625774383545 3.3726754188537598 3.1936728954315186 3.10595440864563
        3.068593978881836 3.0264499187469482 2.9441728591918945 2.8874268531799316 2.862309694290161 2.7665367126464844
        2.7772810459136963 2.7692790031433105 2.7847514152526855 2.609201669692993 2.389265775680542 2.180335283279419
        1.9255719184875488 1.7573540210723877 1.4896212816238403 1.1957956552505493 1.103153944015503 1.1087299585342407
        1.1871970891952515 1.0004633665084839 0.8104140162467957 0.6877814531326294 0.6399399638175964 0.7221539616584778
        0.7086233496665955 0.7497255802154541 0.7110191583633423 0.7318695187568665 0.880817711353302 0.977357804775238
        1.128763198852539 1.4889699220657349 1.641364574432373 1.5923511981964111 1.190619707107544 0.9531716704368591
        0.5545693635940552 0.44131267070770264 0.3980954885482788 0.31891751289367676 0.2139962911605835 0.36355701088905334
        0.4785550832748413 0.6028445959091187 0.7009307742118835 0.7401875257492065 0.9492037892341614 1.184569001197815
        1.355902075767517 1.6004806756973267 2.3141896724700928 3.2188165187835693 4.4141316413879395 5.510539531707764
        6.761948108673096 6.731137275695801 6.081010341644287 5.386775016784668 5.465145587921143 5.1632771492004395
        4.796420574188232 4.571658611297607 4.772926330566406 4.767167568206787 4.95256233215332 5.104007720947266
        5.2439188957214355 5.221668720245361 5.2070722579956055 4.889316558837891 4.581686973571777 4.144480228424072
        6.642820358276367 6.919224739074707 7.263034820556641 7.42736291885376 7.042627334594727 6.7045440673828125
        6.465569496154785 6.386685848236084 6.3652262687683105 6.557158470153809 6.800867080688477 6.838802337646484
        6.656156063079834 6.406425952911377 6.252548694610596 6.172063827514648 6.258477687835693 6.345071315765381
        7.449135780334473 9.290517807006836 11.425228118896484 12.790962219238281 13.300565719604492 12.895522117614746
        11.450868606567383 9.435464859008789 7.698404312133789 7.070489406585693 6.87107515335083 6.739261627197266
        6.735165119171143 7.380705833435059 8.453014373779297 9.146096229553223 9.166574478149414 8.887566566467285
        8.266914367675781 7.835973739624023 7.634441375732422 7.797915458679199 7.780290603637695 7.673558712005615
        7.323492050170898 6.813058853149414 6.485789775848389 6.2385945320129395 5.917257308959961 5.641640663146973
        5.642335891723633 5.2264404296875 5.143313407897949 5.018235206604004 4.852863311767578 4.4879326820373535
        5.319708824157715 6.357259750366211 6.429638862609863 5.870639801025391 5.53122091293335 4.543410301208496
        3.377990484237671 2.435516834259033 2.034898281097412 1.90095055103302 2.1040070056915283 2.679482936859131
        3.3263750076293945 3.646408796310425 3.90148663520813 4.373892307281494 4.533562183380127 4.508284568786621
        4.378995895385742 4.374488353729248 4.368173122406006 4.453978538513184 4.546006679534912 4.579628944396973
        4.546931743621826 4.373390197753906 4.286105632781982 4.100380897521973 3.980712890625 3.850939989089966
        3.735743522644043 3.6520304679870605 3.4956748485565186 3.3727407455444336 3.2908992767333984 3.202502965927124
        3.195862293243408 3.1316323280334473 3.090278387069702 2.979400634765625 2.79744029045105 2.791236162185669
        2.787881851196289 2.685875415802002 2.5372400283813477 2.2554686069488525 2.076430559158325 1.9959133863449097
        1.8071075677871704 1.5338221788406372 1.2941356897354126 1.4013272523880005 1.4559555053710938 1.2777385711669922
        0.9826502799987793 0.8244416117668152 0.9384406208992004 1.0672650337219238 0.9668287634849548 0.8574164509773254
        0.8225781321525574 0.9451347589492798 1.0983192920684814 1.109276533126831 1.1841111183166504 1.4775164127349854
        1.6984643936157227 1.5702377557754517 1.203885793685913 1.0805302858352661 0.6657794117927551 0.49260976910591125
        0.39488741755485535 0.3498751223087311 0.3328111469745636 0.3785513639450073 0.4154122769832611 0.6420794725418091
        0.7766056060791016 0.8431140780448914 0.8967952132225037 1.0810765027999878 1.3188468217849731 1.5930190086364746
        2.321763753890991 3.3533692359924316 4.576754093170166 5.410038471221924 6.153538703918457 6.2638678550720215
        5.802081108093262 5.231813430786133 5.258423328399658 5.068554878234863 4.652293682098389 4.525947570800781
        4.6315999031066895 4.722157001495361 4.84788179397583 5.012329578399658 5.06065034866333 5.077995300292969
        5.0192975997924805 4.758049488067627 4.513449192047119 4.147846698760986 7.189960956573486 7.343650817871094
        7.566530704498291 7.521354675292969 7.126392364501953 6.829684734344482 6.677237033843994 6.689463138580322
        6.555272579193115 6.588740825653076 6.727917671203613 6.740754127502441 6.628615856170654 6.360691070556641
        6.169769763946533 6.119510650634766 6.2188873291015625 6.503600597381592 7.753267765045166 9.8002347946167
        11.894042015075684 13.192036628723145 13.41314697265625 12.629997253417969 11.07593822479248 9.364965438842773
        8.088987350463867 7.4721527099609375 6.994113445281982 6.9021477699279785 7.376107215881348 7.943915367126465
        8.55715274810791 9.24740219116211 9.282983779907227 9.324938774108887 9.018880844116211 8.518279075622559
        7.943216323852539 7.868218421936035 7.8007378578186035 7.678389072418213 7.416830062866211 6.882966995239258
        6.483155727386475 6.273140907287598 6.025973796844482 5.90037727355957 5.94035530090332 5.578105926513672
        5.394569396972656 5.354769706726074 5.495713233947754 5.630095958709717 6.8302202224731445 7.827508926391602
        7.525691509246826 6.574263572692871 5.74697732925415 4.416577339172363 3.213951587677002 2.458993911743164
        2.3219008445739746 2.1993682384490967 2.3260109424591064 2.9582509994506836 3.6911206245422363 4.107059955596924
        4.471164226531982 4.884476184844971 5.0523762702941895 5.006857872009277 4.949870586395264 4.9414825439453125
        4.866297721862793 4.885149955749512 4.97261905670166 4.998485565185547 4.929371356964111 4.752154350280762
        4.718693733215332 4.516729354858398 4.380775451660156 4.154049873352051 4.03096866607666 3.9621613025665283
        3.8035519123077393 3.714850664138794 3.613553762435913 3.5076286792755127 3.5009162425994873 3.4022648334503174
        3.3203723430633545 3.1489100456237793 2.930561065673828 2.874135971069336 2.877000570297241 2.8563477993011475
        2.6662473678588867 2.4432899951934814 2.2888243198394775 2.1818301677703857 2.136767864227295 1.9404720067977905
        1.662993311882019 1.6445212364196777 1.5994583368301392 1.4885293245315552 1.2669055461883545 1.1668477058410645
        1.2384510040283203 1.335630178451538 1.2161892652511597 1.049042820930481 1.1126084327697754 1.2381010055541992
        1.3529994487762451 1.274472713470459 1.2187546491622925 1.4055818319320679 1.5992497205734253 1.5250543355941772
        1.2201381921768188 1.050655484199524 0.80461186170578 0.5764305591583252 0.25385743379592896 0.20725898444652557
        0.2699567973613739 0.2480701208114624 0.1819368153810501 0.6220297813415527 0.891167938709259 0.7947748303413391
        0.7814397215843201 0.9799923300743103 1.1575069427490234 1.5923770666122437 2.538501262664795 3.488386392593384
        4.549999713897705 5.315703868865967 5.740878105163574 5.891496181488037 5.633518695831299 5.227076053619385
        4.9018778800964355 4.811114311218262 4.534568786621094 4.378771781921387 4.291869163513184 4.495466709136963
        4.724732875823975 4.969655990600586 4.963555812835693 4.962656021118164 4.801235675811768 4.626436710357666
        4.384978771209717 4.153342247009277 7.50088357925415 7.729879379272461 7.835166931152344 7.64827823638916
        7.2562150955200195 7.0579752922058105 6.894508361816406 6.933398246765137 6.88787317276001 6.78359842300415
        6.839572906494141 6.685220718383789 6.554072380065918 6.390837669372559 6.390867233276367 6.60599422454834
        6.751891136169434 7.2124528884887695 8.446381568908691 10.569644927978516 12.138614654541016 13.333342552185059
        13.1917085647583 12.35587215423584 10.860467910766602 9.74206256866455 8.722448348999023 7.956470489501953
        7.495645999908447 7.509174346923828 7.888620853424072 8.352453231811523 8.782339096069336 9.353090286254883
        9.377378463745117 9.52071762084961 9.43396282196045 9.10243034362793 8.447811126708984 8.207463264465332
        8.096901893615723 7.651392459869385 7.356103420257568 6.98820686340332 6.694576263427734 6.341646671295166
        6.025137901306152 5.86314058303833 6.03326940536499 5.846749782562256 5.923704147338867 6.0963664054870605
        6.909948348999023 7.320371627807617 8.172914505004883 8.430815696716309 8.005324363708496 6.967366695404053
        5.826637268066406 4.286576747894287 2.8243207931518555 2.292405843734741 2.473587989807129 2.5012965202331543
        2.5958259105682373 3.123262405395508 3.962712287902832 4.602842330932617 5.129042625427246 5.461515426635742
        5.481375217437744 5.434679985046387 5.535426139831543 5.533540725708008 5.404569625854492 5.3114166259765625
        5.35359525680542 5.314615249633789 5.226189613342285 5.147317409515381 5.130600452423096 4.914546966552734
        4.7874908447265625 4.59598970413208 4.411551475524902 4.24907112121582 4.021090507507324 3.9551236629486084
        3.9350504875183105 3.828312397003174 3.710106134414673 3.515974521636963 3.4392433166503906 3.3173632621765137
        3.1285440921783447 3.0324208736419678 2.8857688903808594 2.8573544025421143 2.727944850921631 2.608614683151245
        2.4739608764648438 2.2328453063964844 2.178682804107666 2.062631368637085 1.9816184043884277 1.8554480075836182
        1.6912786960601807 1.552289605140686 1.386473536491394 1.3088656663894653 1.3140493631362915 1.3100863695144653
        1.3004943132400513 1.186763882637024 1.1957546472549438 1.331146001815796 1.3999199867248535 1.337830901145935
        1.2127494812011719 1.2656515836715698 1.3737165927886963 1.3042594194412231 1.1665666103363037 0.9916738867759705
        0.8646515607833862 0.5887543559074402 0.40010973811149597 0.052448730915784836 0.04839456453919411 0.11783813685178757
        0.21210302412509918 0.5373178720474243 0.6968923211097717 0.5745513439178467 0.7650152444839478 0.8885999917984009
        1.1896740198135376 1.8892462253570557 2.8472490310668945 3.3274874687194824 4.022404670715332 5.0181565284729
        5.778439998626709 5.91771125793457 5.714950084686279 5.478029251098633 5.048778533935547 4.852903366088867
        4.651732921600342 4.391821384429932 4.205008506774902 4.432871341705322 4.72644567489624 4.9218573570251465
        4.865415573120117 4.819188594818115 4.614130973815918 4.53822660446167 4.3706207275390625 4.166184425354004
        7.908186912536621 8.020718574523926 8.059635162353516 7.878037452697754 7.634461402893066 7.397227764129639
        7.162460803985596 7.049133777618408 7.064121723175049 7.094046592712402 7.113901615142822 6.901165008544922
        6.784182071685791 6.7092461585998535 6.639962673187256 6.789480686187744 7.106955051422119 7.963677883148193
        9.513647079467773 11.413920402526855 12.539851188659668 13.10150146484375 12.866572380065918 11.940993309020996
        10.808595657348633 10.00072956085205 9.270109176635742 8.54928207397461 8.198833465576172 8.313987731933594
        8.539741516113281 8.533679962158203 8.918042182922363 9.51220989227295 9.856766700744629 9.888325691223145
        9.730210304260254 9.330516815185547 8.79648208618164 8.509415626525879 8.336374282836914 7.9432053565979
        7.440652847290039 7.148009777069092 7.019572734832764 6.860577583312988 6.320031642913818 5.740121841430664
        5.835232257843018 6.131360054016113 6.5192461013793945 7.078544616699219 8.189632415771484 8.87116527557373
        8.895467758178711 8.661409378051758 7.846625804901123 6.869431972503662 5.449079990386963 4.0896315574646
        2.9396233558654785 2.5107595920562744 2.4909253120422363 2.6409201622009277 2.887233018875122 3.424328327178955
        4.293396949768066 5.097987174987793 5.739398956298828 6.1534423828125 6.120290279388428 5.976751327514648
        6.036485195159912 6.031565189361572 5.850329399108887 5.784037113189697 5.79888391494751 5.678945064544678
        5.558691024780273 5.450701713562012 5.364612102508545 5.225902080535889 5.087324142456055 4.914286136627197
        4.657791614532471 4.443975925445557 4.284919738769531 4.201484203338623 4.14656925201416 3.9587812423706055
        3.798529863357544 3.6661829948425293 3.612393617630005 3.4726181030273438 3.1966395378112793 3.1051089763641357
        2.9979796409606934 2.878767490386963 2.6965179443359375 2.617151975631714 2.5585527420043945 2.414205312728882
        2.295475482940674 2.213829517364502 2.1452560424804688 2.000035285949707 1.8923979997634888 1.7104555368423462
        1.621423602104187 1.474937915802002 1.4370503425598145 1.505689024925232 1.470545768737793 1.3512362241744995
        1.2813984155654907 1.3796212673187256 1.4379099607467651 1.329847812652588 1.2582460641860962 1.3171194791793823
        1.4006284475326538 1.3652642965316772 1.1467615365982056 1.129943609237671 1.0543768405914307 0.8190930485725403
        0.5727078318595886 0.21498234570026398 0.25018274784088135 0.20938928425312042 0.18283146619796753 0.28630879521369934
        0.4064500033855438 0.47608551383018494 0.6799299120903015 0.7392648458480835 1.16032874584198 1.922614336013794
        2.845165729522705 3.4847469329833984 3.988229751586914 4.467186450958252 5.318488597869873 5.622554779052734
        5.530682563781738 5.361823081970215 5.0536932945251465 4.742945194244385 4.5676703453063965 4.440248966217041
        4.371544361114502 4.431172847747803 4.5996904373168945 4.659045696258545 4.6866559982299805 4.630433559417725
        4.429488182067871 4.288486480712891 4.216358184814453 4.009892463684082 8.283982276916504 8.275528907775879
        8.411656379699707 8.140532493591309 7.8523712158203125 7.583226203918457 7.420523643493652 7.32901668548584
        7.213566303253174 7.070996284484863 7.001061916351318 6.9916839599609375 7.04709529876709 6.943325996398926
        6.871177673339844 7.182919025421143 7.945253849029541 8.986248970031738 10.286755561828613 11.800111770629883
        12.824987411499023 12.731515884399414 12.175899505615234 11.385957717895508 10.84554386138916 10.185976028442383
        9.492465019226074 8.831489562988281 8.685317039489746 8.973012924194336 9.226495742797852 9.183391571044922
        9.153975486755371 9.374491691589355 9.864130973815918 10.173979759216309 10.008943557739258 9.571441650390625
        9.156610488891602 8.8977689743042 8.530753135681152 8.261770248413086 7.915109157562256 7.787055015563965
        7.413407325744629 7.273427963256836 6.83232307434082 5.937360763549805 5.696073532104492 6.421089172363281
        7.028707504272461 7.698197364807129 8.846354484558105 9.21871280670166 8.815288543701172 8.278923988342285
        7.4775390625 6.304924488067627 5.02688455581665 3.8153696060180664 3.1028966903686523 2.664646625518799
        2.72270131111145 2.8997411727905273 3.264239549636841 3.831437826156616 4.569782257080078 5.5353922843933105
        6.13089656829834 6.6854963302612305 6.604398727416992 6.499824523925781 6.395911693572998 6.328548908233643
        6.252536296844482 6.193878173828125 6.178510665893555 5.992849349975586 5.84194278717041 5.736523151397705
        5.624239921569824 5.492823123931885 5.2060370445251465 4.977050304412842 4.7070417404174805 4.515731334686279
        4.399206638336182 4.253121376037598 4.096149921417236 3.9425771236419678 3.8233225345611572 3.6827661991119385
        3.6248955726623535 3.5408530235290527 3.322120428085327 3.1797823905944824 2.992776393890381 2.854147434234619
        2.7178757190704346 2.6997804641723633 2.587613582611084 2.398094654083252 2.3068687915802 2.2097113132476807
        2.197006940841675 2.1076622009277344 1.9953829050064087 1.8994433879852295 1.778947114944458 1.5895689725875854
        1.5117747783660889 1.594773769378662 1.6085149049758911 1.465723991394043 1.3691902160644531 1.4476102590560913
        1.425161361694336 1.3071914911270142 1.2360979318618774 1.238608956336975 1.341438889503479 1.2960950136184692
        1.1753276586532593 1.1844362020492554 1.0972543954849243 1.044520616531372 0.7612253427505493 0.44773900508880615
        0.450644850730896 0.5652915835380554 0.6139788627624512 0.4621836841106415 0.45016515254974365 0.5564583539962769
        0.729584276676178 0.8699047565460205 1.371736764907837 2.1493566036224365 2.9154388904571533 3.723783493041992
        4.184337139129639 4.323037624359131 4.784543037414551 5.1824445724487305 5.368189811706543 5.395077228546143
        5.156676769256592 4.599025726318359 4.387324810028076 4.568454742431641 4.726246356964111 4.6903462409973145
        4.578987121582031 4.6004438400268555 4.620937824249268 4.507012367248535 4.323390007019043 4.0947065353393555
        4.060728073120117 3.9932610988616943 8.627717018127441 8.691671371459961 8.91324520111084 8.668647766113281
        8.269789695739746 7.82037353515625 7.764743328094482 7.728662014007568 7.63082218170166 7.273148059844971
        7.040110111236572 7.258960247039795 7.594386577606201 7.607842922210693 7.563594341278076 8.026813507080078
        9.076498985290527 10.058908462524414 11.027573585510254 11.896660804748535 12.511877059936523 12.255043983459473
        11.714374542236328 11.098735809326172 10.737870216369629 10.4151611328125 9.893399238586426 9.420992851257324
        9.350102424621582 9.691871643066406 9.67477035522461 9.522881507873535 9.283211708068848 9.513912200927734
        9.95169448852539 10.46581745147705 10.233753204345703 9.833797454833984 9.435505867004395 9.190559387207031
        8.860608100891113 8.76952075958252 8.783191680908203 8.771852493286133 8.390115737915039 7.996016502380371
        7.325399398803711 6.314875602722168 5.986984729766846 6.553317070007324 7.349947929382324 8.36581802368164
        9.321491241455078 9.489522933959961 8.695523262023926 8.368430137634277 7.886521339416504 6.422255039215088
        4.8032145500183105 3.7348556518554688 3.371037483215332 3.108306407928467 3.274083137512207 3.4291019439697266
        3.767045497894287 4.255529403686523 4.7979936599731445 5.771233558654785 6.465725898742676 7.033668041229248
        6.723329067230225 6.569584846496582 6.539944648742676 6.61259126663208 6.610469818115234 6.466861724853516
        6.275177955627441 6.052311897277832 6.063748836517334 5.9838080406188965 5.814992904663086 5.539880275726318
        5.264113903045654 5.005173683166504 4.682248115539551 4.55336856842041 4.383864879608154 4.173684120178223
        4.053410530090332 3.9053616523742676 3.8386712074279785 3.725536346435547 3.6521759033203125 3.55853271484375
        3.378305673599243 3.3008320331573486 3.17726993560791 3.0291569232940674 2.910759210586548 2.7634592056274414
        2.658548355102539 2.510843276977539 2.4560296535491943 2.3956940174102783 2.2676475048065186 2.210780382156372
        2.1498820781707764 2.134164333343506 2.049419403076172 1.790399193763733 1.6993954181671143 1.7587884664535522
        1.8188512325286865 1.7435284852981567 1.587979793548584 1.6136927604675293 1.4873089790344238 1.4104951620101929
        1.3857134580612183 1.3877812623977661 1.4927759170532227 1.4461567401885986 1.3950724601745605 1.3791557550430298
        1.2254400253295898 1.1663522720336914 0.9396473169326782 0.833437442779541 0.897890567779541 0.9471971988677979
        0.9323907494544983 0.7580328583717346 0.815739095211029 0.8497417569160461 1.0132249593734741 1.2225388288497925
        1.795401692390442 2.544761896133423 3.1522929668426514 3.773221015930176 4.100525856018066 4.144240856170654
        4.348190784454346 4.735562324523926 5.048600673675537 5.107982635498047 4.969776153564453 4.553603172302246
        4.30348014831543 4.424890995025635 4.666446685791016 4.49322509765625 4.278975009918213 4.374249458312988
        4.469626426696777 4.324534893035889 4.152163505554199 3.9646220207214355 3.8368477821350098 3.850959300994873
        9.425827026367188 9.301082611083984 9.42117977142334 9.249424934387207 8.762091636657715 8.159575462341309
        8.09166431427002 8.160788536071777 7.976531505584717 7.550403118133545 7.37157678604126 7.707864284515381
        8.188933372497559 8.390570640563965 8.509310722351074 9.04234790802002 9.992773056030273 10.901264190673828
        11.46984577178955 11.795936584472656 12.1006498336792 11.98624038696289 11.245408058166504 10.679304122924805
        10.345924377441406 10.392294883728027 10.111750602722168 9.906035423278809 9.810088157653809 10.102150917053223
        9.986991882324219 9.899177551269531 9.700794219970703 9.917997360229492 10.16632080078125 10.666620254516602
        10.560039520263672 10.27470874786377 9.827958106994629 9.54832935333252 9.255101203918457 9.494322776794434
        9.6897554397583 9.336481094360352 9.21313190460205 8.786352157592773 8.07065200805664 6.650070667266846
        6.0926713943481445 6.434978008270264 7.561386585235596 8.724660873413086 9.498290061950684 9.650299072265625
        9.013213157653809 8.94647216796875 8.27417278289795 6.831069469451904 5.151826858520508 4.129823684692383
        3.850023031234741 3.661181688308716 3.7841691970825195 4.250165939331055 4.442192077636719 4.736001491546631
        5.0100932121276855 5.744264125823975 6.268618106842041 6.720206260681152 6.657598495483398 6.602262496948242
        6.629733085632324 6.761890411376953 6.864912033081055 6.749546527862549 6.548682689666748 6.366087913513184
        6.327847003936768 6.16542387008667 5.972639083862305 5.624111175537109 5.418763637542725 5.164046287536621
        4.911719799041748 4.701833248138428 4.431469917297363 4.271111965179443 4.179594039916992 4.0966925621032715
        4.036454200744629 3.9125187397003174 3.866908073425293 3.7662618160247803 3.670315980911255 3.658095359802246
        3.5601024627685547 3.447251558303833 3.2868902683258057 3.1454060077667236 3.0636346340179443 2.91827130317688
        2.8246097564697266 2.7082865238189697 2.615804433822632 2.528635263442993 2.5109410285949707 2.449537515640259
        2.3306169509887695 2.1954233646392822 2.129615545272827 2.1306378841400146 2.150153160095215 2.1131656169891357
        2.0662598609924316 1.996274471282959 1.8302664756774902 1.771722674369812 1.7123774290084839 1.8024911880493164
        1.8701444864273071 1.9036537408828735 1.8213151693344116 1.6853457689285278 1.603858232498169 1.5567251443862915
        1.4377613067626953 1.4012255668640137 1.5259108543395996 1.6256245374679565 1.6117401123046875 1.501482367515564
        1.4856326580047607 1.397470235824585 1.708217978477478 2.0654590129852295 2.557450294494629 2.9038546085357666
        3.212350845336914 3.6470370292663574 4.032424449920654 4.198670864105225 4.185867786407471 4.369550704956055
        4.600044250488281 4.778604984283447 4.752546787261963 4.506283760070801 4.425678253173828 4.515554428100586
        4.630593299865723 4.370941162109375 4.1848931312561035 4.214225769042969 4.332073211669922 4.18243932723999
        4.040815353393555 3.9366912841796875 3.741630792617798 3.735499620437622 9.592646598815918 9.786104202270508
        9.771217346191406 9.84581184387207 9.518071174621582 8.987017631530762 8.613826751708984 8.595267295837402
        8.43244457244873 8.15680980682373 8.003478050231934 8.22714900970459 8.662541389465332 9.022290229797363
        9.417889595031738 9.830077171325684 10.553243637084961 11.234219551086426 11.838088989257812 11.905488014221191
        11.76235580444336 11.36857795715332 10.866372108459473 10.47032356262207 10.223936080932617 10.340737342834473
        10.257184028625488 10.333207130432129 10.454947471618652 10.701083183288574 10.396513938903809 10.153884887695312
        10.050780296325684 10.363926887512207 10.507240295410156 10.800212860107422 10.694376945495605 10.56427001953125
        10.39871597290039 10.130001068115234 10.20466423034668 10.530144691467285 10.498323440551758 9.837645530700684
        9.721217155456543 9.513708114624023 8.767827033996582 7.191039562225342 6.533982276916504 6.689990997314453
        7.734132766723633 8.602041244506836 9.307719230651855 9.625443458557129 9.273646354675293 9.281111717224121
        8.388524055480957 7.282419681549072 5.825171947479248 5.178961753845215 4.583117485046387 4.244317531585693
        4.242040634155273 4.59398889541626 4.711798191070557 4.9042181968688965 5.232802867889404 5.681468963623047
        5.935840129852295 6.088876724243164 6.4009013175964355 6.422954082489014 6.481417179107666 6.579075813293457
        6.695301532745361 6.768421173095703 6.7400288581848145 6.807778358459473 6.695724010467529 6.405920505523682
        6.108475208282471 5.692951202392578 5.457796096801758 5.1762309074401855 5.037428379058838 4.85399055480957
        4.532484531402588 4.384742736816406 4.350268363952637 4.322818756103516 4.256995677947998 4.151862621307373
        4.154346466064453 4.0953874588012695 4.018465042114258 3.9647586345672607 3.916259765625 3.820310592651367
        3.6704766750335693 3.520568370819092 3.3938372135162354 3.2708351612091064 3.215266227722168 3.091007709503174
        2.9595983028411865 2.8198482990264893 2.7234506607055664 2.6169536113739014 2.529398202896118 2.4820377826690674
        2.4678218364715576 2.4308736324310303 2.4317946434020996 2.396907329559326 2.307595729827881 2.2204675674438477
        2.1105737686157227 2.1209561824798584 2.1050314903259277 2.162146806716919 2.1472342014312744 2.149038553237915
        2.1192867755889893 2.052685499191284 1.9941511154174805 1.9232509136199951 1.9201617240905762 1.981229543685913
        2.145562171936035 2.251995801925659 2.201565742492676 2.1426098346710205 2.1841483116149902 2.1586475372314453
        2.35489559173584 2.488156795501709 2.823760986328125 3.0038115978240967 3.2330079078674316 3.51393461227417
        3.804297924041748 3.9203288555145264 4.009929180145264 4.164315700531006 4.261218547821045 4.420284271240234
        4.479878902435303 4.3938164710998535 4.427268981933594 4.455699920654297 4.510857582092285 4.392910957336426
        4.311766624450684 4.239487171173096 4.204692363739014 4.030227184295654 3.8615665435791016 3.788483142852783
        3.665067672729492 3.5931551456451416 9.89464282989502 10.211751937866211 10.244417190551758 10.401870727539062
        10.152814865112305 9.815641403198242 9.206347465515137 8.959567070007324 8.7589111328125 8.680261611938477
        8.806272506713867 8.880699157714844 9.2500638961792 9.662827491760254 10.27888011932373 10.661381721496582
        11.011438369750977 11.252699851989746 11.677085876464844 11.727629661560059 11.52420425415039 10.99577522277832
        10.536898612976074 10.249255180358887 10.24113941192627 10.410282135009766 10.546199798583984 10.581019401550293
        10.821695327758789 11.106555938720703 10.969879150390625 10.566490173339844 10.50916576385498 10.651997566223145
        10.619244575500488 10.746057510375977 10.622183799743652 10.482131958007812 10.453556060791016 10.423211097717285
        10.79808521270752 10.883739471435547 10.668181419372559 9.975916862487793 9.389911651611328 8.993282318115234
        8.754404067993164 7.756509780883789 7.346153259277344 7.464395046234131 8.357093811035156 8.435297966003418
        8.965792655944824 9.369860649108887 9.24169921875 8.882844924926758 8.27898120880127 7.642120838165283
        6.765383720397949 6.217555046081543 5.438882827758789 4.900958061218262 4.793619155883789 4.882439613342285
        4.93516206741333 5.170108318328857 5.639437198638916 6.068448543548584 6.112054347991943 6.038168907165527
        6.3137431144714355 6.468003273010254 6.506444931030273 6.414441108703613 6.437219619750977 6.653017997741699
        7.003874778747559 7.207181453704834 7.081643104553223 6.769984245300293 6.371103286743164 5.890609264373779
        5.489642143249512 5.2348761558532715 5.0926289558410645 4.931817531585693 4.756389617919922 4.656696796417236
        4.609365940093994 4.584745407104492 4.559717178344727 4.502465724945068 4.467945575714111 4.525649070739746
        4.519834995269775 4.434700012207031 4.318650245666504 4.16778039932251 4.0533576011657715 3.971008062362671
        3.872570514678955 3.7089715003967285 3.55806565284729 3.4968531131744385 3.4459338188171387 3.3382434844970703
        3.0865478515625 2.86849308013916 2.826014280319214 2.8484883308410645 2.889263153076172 2.8182575702667236
        2.7033441066741943 2.662323474884033 2.654764413833618 2.6252009868621826 2.5348422527313232 2.4786007404327393
        2.4600772857666016 2.5195999145507812 2.5445950031280518 2.5021135807037354 2.487602710723877 2.5325565338134766
        2.536569356918335 2.4566967487335205 2.494311571121216 2.6217143535614014 2.871826648712158 2.9326298236846924
        2.7406654357910156 2.664902448654175 2.7433359622955322 2.8614377975463867 2.902797222137451 2.8999550342559814
        2.9514002799987793 3.121659278869629 3.406312942504883 3.637596845626831 3.834275007247925 3.9072225093841553
        3.9549171924591064 4.044856548309326 4.160989761352539 4.266059398651123 4.314857006072998 4.268013954162598
        4.282670021057129 4.349256992340088 4.486701965332031 4.457418918609619 4.508079528808594 4.359310150146484
        4.163002014160156 3.91721773147583 3.7451393604278564 3.649538993835449 3.5562140941619873 3.4805729389190674
        10.157085418701172 10.470558166503906 10.72996997833252 10.77617073059082 10.561376571655273 10.31177806854248
        9.823714256286621 9.428068161010742 9.214345932006836 9.21298885345459 9.313766479492188 9.434724807739258
        9.82145881652832 10.125343322753906 10.684185028076172 11.087642669677734 11.370203971862793 11.246583938598633
        11.282143592834473 11.263431549072266 11.161922454833984 10.862757682800293 10.636139869689941 10.357078552246094
        10.520377159118652 10.68665885925293 10.973706245422363 10.635608673095703 10.803438186645508 11.038154602050781
        11.192477226257324 10.885187149047852 11.049581527709961 11.08922290802002 11.063727378845215 10.814935684204102
        10.713761329650879 10.671335220336914 10.822038650512695 10.955549240112305 11.253409385681152 11.255696296691895
        11.009371757507324 10.44013786315918 10.174872398376465 9.55519962310791 9.206646919250488 8.598374366760254
        8.403393745422363 8.24700927734375 7.8988776206970215 7.439308166503906 7.763984203338623 8.527910232543945
        8.534618377685547 8.49522876739502 8.28682804107666 8.076428413391113 7.470852851867676 6.97627592086792
        6.226444721221924 5.426082134246826 5.091446399688721 4.968679904937744 4.99858283996582 5.2561211585998535
        5.793431758880615 6.192182540893555 6.6048102378845215 6.53654670715332 6.513902187347412 6.349966526031494
        6.492802143096924 6.457156181335449 6.536221981048584 6.774664402008057 7.131956577301025 7.217889785766602
        7.252127647399902 7.11803674697876 6.696700096130371 6.095400810241699 5.566408634185791 5.255120277404785
        5.096277713775635 5.006884574890137 4.903046131134033 4.8273515701293945 4.758734226226807 4.775613307952881
        4.813879013061523 4.814286231994629 4.794705867767334 4.783687591552734 4.791689395904541 4.745899200439453
        4.624385833740234 4.484376907348633 4.324478626251221 4.238009929656982 4.159144878387451 4.040115833282471
        3.913893938064575 3.817751884460449 3.708137273788452 3.6070704460144043 3.434969186782837 3.273775815963745
        3.1160337924957275 3.070652723312378 3.096129894256592 3.066960096359253 2.9973108768463135 2.922459602355957
        2.898207902908325 2.8735291957855225 2.793902635574341 2.7334325313568115 2.6818158626556396 2.731379270553589
        2.7924554347991943 2.7439606189727783 2.8383023738861084 2.865809679031372 2.961581230163574 2.931478500366211
        2.910301923751831 3.067962169647217 3.216989517211914 3.2461445331573486 2.9800667762756348 2.9930260181427
        3.0599365234375 3.150301933288574 3.1214370727539062 3.0768449306488037 3.0655696392059326 3.2261719703674316
        3.3745064735412598 3.536954164505005 3.7169785499572754 3.799144983291626 3.8202266693115234 3.894289255142212
        3.9898781776428223 4.060725688934326 4.152207374572754 4.146518707275391 4.123189926147461 4.202592372894287
        4.337595462799072 4.333016395568848 4.350471496582031 4.25333833694458 4.084523677825928 3.8059332370758057
        3.6447887420654297 3.4938440322875977 3.4303951263427734 3.3691959381103516 10.358532905578613 10.624505996704102
        10.95149040222168 11.06309986114502 10.877429008483887 10.51254940032959 10.152997970581055 9.837305068969727
        9.643174171447754 9.646283149719238 9.600790023803711 9.988847732543945 10.447054862976074 10.795356750488281
        11.104957580566406 11.289774894714355 11.17650032043457 11.129341125488281 11.202488899230957 11.235661506652832
        11.058218002319336 10.748804092407227 10.747345924377441 10.672409057617188 10.89974594116211 11.008031845092773
        11.344562530517578 10.843830108642578 10.907092094421387 10.909564018249512 11.005203247070312 10.876564025878906
        11.209944725036621 11.305570602416992 11.24644660949707 11.102876663208008 11.009343147277832 11.144607543945312
        11.287080764770508 11.466659545898438 11.801045417785645 11.677331924438477 11.342605590820312 11.022140502929688
        11.344712257385254 10.958281517028809 10.262557029724121 9.308445930480957 8.783090591430664 8.473978996276855
        7.944472789764404 7.2737250328063965 6.723267555236816 7.2557759284973145 7.4715189933776855 7.344649314880371
        7.243534088134766 7.350399017333984 7.4441237449646 7.0782856941223145 6.632483959197998 5.850543975830078
        5.327591896057129 5.101424694061279 5.211350440979004 5.39735221862793 5.723701000213623 6.144362449645996
        6.756401062011719 6.888939380645752 6.855335235595703 6.539545059204102 6.689174175262451 6.608499526977539
        6.617966175079346 6.795914173126221 7.1412506103515625 7.121915340423584 7.255334854125977 7.226341247558594
        7.039079666137695 6.451401710510254 5.939705848693848 5.501287937164307 5.187056541442871 5.1133131980896
        5.093693256378174 5.060347080230713 5.017232418060303 5.012510776519775 5.081157207489014 5.137416362762451
        5.13964319229126 5.182563781738281 5.100764274597168 5.078896522521973 4.9613261222839355 4.859095096588135
        4.745238304138184 4.580324649810791 4.510632514953613 4.42815637588501 4.3433122634887695 4.2389960289001465
        4.022429943084717 3.921959400177002 3.7879178524017334 3.703446865081787 3.566694736480713 3.3738226890563965
        3.3438119888305664 3.2904114723205566 3.308759927749634 3.300206184387207 3.177881956100464 3.129087209701538
        3.056931734085083 3.069854259490967 3.018904209136963 2.9524171352386475 3.030722141265869 3.059858560562134
        3.174781322479248 3.241387128829956 3.395771026611328 3.4537384510040283 3.367502450942993 3.415818214416504
        3.5212888717651367 3.496567487716675 3.354950189590454 3.3500542640686035 3.392285108566284 3.3973639011383057
        3.2570555210113525 3.254610300064087 3.312166213989258 3.4398632049560547 3.4806010723114014 3.608583927154541
        3.858152151107788 3.892885684967041 3.805635690689087 3.8063979148864746 3.8474433422088623 3.9401004314422607
        4.051220417022705 4.082657337188721 4.104157447814941 4.187231063842773 4.1989521980285645 4.156363487243652
        4.142458438873291 4.1313276290893555 3.9351885318756104 3.719235420227051 3.556631326675415 3.363781213760376
        3.2976903915405273 3.2077951431274414 10.67103099822998 10.66629695892334 10.918553352355957 11.135324478149414
        11.147637367248535 10.841748237609863 10.630376815795898 10.3862886428833 10.123239517211914 10.010228157043457
        9.983911514282227 10.545496940612793 10.921099662780762 11.07963752746582 11.3965482711792 11.687071800231934
        11.395676612854004 10.982295036315918 10.992947578430176 10.988029479980469 10.879679679870605 10.73242473602295
        10.950994491577148 11.107117652893066 11.21656322479248 11.098248481750488 11.211882591247559 11.089415550231934
        11.307538986206055 11.232625961303711 11.15046501159668 11.229949951171875 11.21263599395752 11.084680557250977
        10.986516952514648 11.241601943969727 11.455002784729004 11.816601753234863 12.06476879119873 12.021712303161621
        12.140969276428223 11.916622161865234 11.803023338317871 12.03033447265625 12.40860652923584 12.316914558410645
        11.324742317199707 10.119270324707031 8.881513595581055 8.512377738952637 8.134540557861328 7.390251636505127
        6.083577632904053 5.761592864990234 5.787797451019287 5.812552452087402 6.0451555252075195 6.349123477935791
        6.80023193359375 6.729302883148193 6.608242511749268 5.881101131439209 5.384274005889893 5.23579216003418
        5.377360820770264 5.609521389007568 5.764880657196045 6.13171911239624 6.627241134643555 6.958294868469238
        7.162644863128662 6.889868259429932 6.948386192321777 6.919191360473633 7.005845069885254 7.041019439697266
        7.199847221374512 7.210931777954102 7.3532233238220215 7.469563961029053 7.408367156982422 6.873621463775635
        6.40877628326416 5.809660911560059 5.46995210647583 5.403508186340332 5.3977437019348145 5.355189323425293
        5.29990816116333 5.368585586547852 5.486719131469727 5.49769926071167 5.470576763153076 5.436661720275879
        5.39497184753418 5.413954257965088 5.332111358642578 5.23974609375 5.125049591064453 4.980649471282959
        4.926168441772461 4.8510050773620605 4.751306056976318 4.6463236808776855 4.453271389007568 4.322759628295898
        4.192722797393799 4.085143566131592 3.9496262073516846 3.8041625022888184 3.732713460922241 3.679084062576294
        3.6525135040283203 3.6858692169189453 3.5905492305755615 3.513094902038574 3.4608893394470215 3.5035712718963623
        3.491185426712036 3.4238228797912598 3.45393705368042 3.4959514141082764 3.5881664752960205 3.620844841003418
        3.7892754077911377 3.8735694885253906 3.7839977741241455 3.6904468536376953 3.705209732055664 3.703190803527832
        3.670097827911377 3.607074499130249 3.590632438659668 3.5598037242889404 3.474022150039673 3.4103386402130127
        3.481710910797119 3.5503740310668945 3.585953712463379 3.738145589828491 3.9129903316497803 3.8923351764678955
        3.7567081451416016 3.7423038482666016 3.7720160484313965 3.8931968212127686 3.970662832260132 3.995126485824585
        4.033689498901367 4.136070251464844 4.134357929229736 4.086762428283691 4.009674072265625 3.964017629623413
        3.7683584690093994 3.654989242553711 3.5151758193969727 3.3981821537017822 3.330869197845459 3.266989231109619
        10.871999740600586 11.097515106201172 11.25319766998291 11.461585998535156 11.4876127243042 11.2837553024292
        10.86015510559082 10.572526931762695 10.345993041992188 10.395431518554688 10.633383750915527 11.172037124633789
        11.325854301452637 11.216939926147461 11.376091003417969 11.577879905700684 11.314391136169434 10.918392181396484
        10.907512664794922 10.870107650756836 10.953185081481934 10.84993839263916 11.005041122436523 11.17802619934082
        11.532411575317383 11.63631534576416 11.51070785522461 11.342249870300293 11.501713752746582 11.405755996704102
        11.19979190826416 11.24781608581543 11.066910743713379 11.065793991088867 11.004875183105469 11.54317855834961
        11.952452659606934 12.474102020263672 12.41135025024414 11.914373397827148 12.030202865600586 12.00450325012207
        11.909173011779785 12.429084777832031 12.509116172790527 12.153963088989258 10.439386367797852 9.676115036010742
        8.505849838256836 8.1998291015625 7.933387279510498 7.405261993408203 6.1042585372924805 5.369407653808594
        5.238354206085205 5.365215301513672 5.603177547454834 5.849456787109375 6.200969219207764 6.180944919586182
        6.3685197830200195 5.931945323944092 5.495497703552246 5.412932395935059 5.671329975128174 5.932221412658691
        6.012538433074951 6.278321266174316 6.3865647315979 6.591373920440674 7.097103118896484 7.352638244628906
        7.331512451171875 7.166837215423584 7.109823226928711 7.1134209632873535 7.283903121948242 7.352959156036377
        7.474289894104004 7.657828330993652 7.612245559692383 7.1252970695495605 6.693880558013916 6.145590782165527
        5.861184120178223 5.668659210205078 5.632957935333252 5.568899631500244 5.559045314788818 5.590339183807373
        5.711777210235596 5.77580451965332 5.774803638458252 5.769676208496094 5.729531288146973 5.69031286239624
        5.633342266082764 5.591274261474609 5.4651198387146 5.355532169342041 5.33690071105957 5.258808612823486
        5.120332717895508 4.951338768005371 4.795456886291504 4.647339344024658 4.490198612213135 4.349566459655762
        4.24353551864624 4.156439304351807 4.035435676574707 3.9599831104278564 3.9030675888061523 3.934941291809082
        3.905144691467285 3.831036329269409 3.8062589168548584 3.8534021377563477 3.8593833446502686 3.7866272926330566
        3.807284355163574 3.8502020835876465 3.9293720722198486 3.9305973052978516 3.9700584411621094 3.9578495025634766
        3.8926360607147217 3.86875057220459 3.8788843154907227 3.839026689529419 3.7760024070739746 3.6539459228515625
        3.636009693145752 3.6277379989624023 3.614230155944824 3.563920021057129 3.5822157859802246 3.679028034210205
        3.7439939975738525 3.8635456562042236 3.914003372192383 3.914461374282837 3.8699748516082764 3.8920254707336426
        3.8455820083618164 3.854548454284668 3.886568307876587 3.9913361072540283 4.0560302734375 4.0190019607543945
        3.9688377380371094 3.935636043548584 3.9039108753204346 3.821805000305176 3.6902995109558105 3.6222054958343506
        3.532613754272461 3.487067699432373 3.377007246017456 3.290076732635498 11.235076904296875 11.460260391235352
        11.615159034729004 11.766387939453125 11.781149864196777 11.614933967590332 11.230239868164062 11.008784294128418
        11.066407203674316 10.96744441986084 10.95059871673584 11.174116134643555 11.380380630493164 11.136948585510254
        11.098461151123047 11.089696884155273 11.08310317993164 10.997376441955566 10.929983139038086 10.764104843139648
        10.851173400878906 10.834660530090332 10.799610137939453 10.819417953491211 11.399538040161133 11.66826343536377
        11.571823120117188 11.471576690673828 11.490403175354004 11.243729591369629 11.235565185546875 11.356374740600586
        11.263607025146484 11.044110298156738 11.154475212097168 11.889259338378906 12.901820182800293 13.539609909057617
        13.256214141845703 12.54886245727539 12.646939277648926 12.7173490524292 12.519437789916992 12.493255615234375
        11.687105178833008 10.997084617614746 9.117716789245605 8.746785163879395 8.081504821777344 7.921811103820801
        7.407042980194092 6.764620780944824 6.064234733581543 5.434635639190674 5.135183334350586 5.361542701721191
        5.933218002319336 6.150653839111328 5.990645408630371 6.076732158660889 6.202040672302246 6.051393985748291
        5.778572082519531 5.836495876312256 6.0183329582214355 6.19677734375 6.176258563995361 6.456202507019043
        6.475546836853027 6.603307247161865 7.221118450164795 7.68907356262207 7.754260063171387 7.583412170410156
        7.569265365600586 7.635127067565918 7.656567573547363 7.616545677185059 7.747824668884277 7.902521133422852
        7.750069618225098 7.368470668792725 6.943894863128662 6.552830219268799 6.336084365844727 6.148443222045898
        6.0206193923950195 5.883139133453369 5.865699291229248 5.920053005218506 6.0593953132629395 6.143932342529297
        6.109421730041504 6.141221523284912 6.114226818084717 6.087467670440674 6.029897212982178 5.927009582519531
        5.840622901916504 5.746391296386719 5.7389349937438965 5.652360439300537 5.46314811706543 5.359716415405273
        5.20402717590332 5.052159786224365 4.885497093200684 4.718595027923584 4.64033317565918 4.5604143142700195
        4.459141254425049 4.348687171936035 4.227553844451904 4.2567338943481445 4.2458109855651855 4.207448482513428
        4.1705708503723145 4.164983749389648 4.224303722381592 4.202371597290039 4.219662189483643 4.2125043869018555
        4.203515529632568 4.260629653930664 4.278147220611572 4.195703506469727 4.094655513763428 4.035830974578857
        4.0578460693359375 4.066545486450195 4.008322238922119 3.8692078590393066 3.7539799213409424 3.801832675933838
        3.8156137466430664 3.7904062271118164 3.724898099899292 3.7608449459075928 3.8207573890686035 3.9498205184936523
        3.9831364154815674 3.9704675674438477 3.911936044692993 3.909289598464966 3.8957645893096924 3.8491010665893555
        3.844649314880371 3.9497902393341064 3.9995622634887695 3.9884848594665527 3.964794397354126 3.901813507080078
        3.8466644287109375 3.7705068588256836 3.6955387592315674 3.616722822189331 3.5123062133789062 3.490736246109009
        3.3676178455352783 3.2943503856658936 11.415221214294434 11.717605590820312 11.837444305419922 11.85100269317627
        11.828398704528809 11.702188491821289 11.562517166137695 11.603445053100586 11.740989685058594 11.76523494720459
        11.5454683303833 11.53820514678955 11.450249671936035 11.214778900146484 10.98889446258545 10.8370943069458
        10.738115310668945 10.678321838378906 10.649198532104492 10.68276596069336 10.773362159729004 10.755495071411133
        10.40792179107666 10.281299591064453 10.992573738098145 11.452284812927246 11.624475479125977 11.281840324401855
        11.169803619384766 10.933755874633789 11.146162986755371 11.378142356872559 11.405379295349121 11.213216781616211
        11.525492668151855 12.341343879699707 13.388243675231934 14.137574195861816 14.24406909942627 14.069451332092285
        14.316774368286133 13.981366157531738 13.325793266296387 12.559295654296875 11.123395919799805 9.684150695800781
        8.01392936706543 7.570703506469727 7.527918338775635 7.838038444519043 7.544241905212402 7.021242141723633
        6.476635932922363 5.68485689163208 5.03429651260376 5.036304950714111 5.571051597595215 5.810918807983398
        5.7805681228637695 5.872250080108643 5.991674900054932 6.025574684143066 5.938497543334961 6.001508712768555
        6.1645073890686035 6.350683689117432 6.256874084472656 6.491684436798096 6.561458110809326 6.800067901611328
        7.461423873901367 7.971282482147217 8.27466869354248 8.192777633666992 8.115937232971191 8.010709762573242
        8.091938972473145 8.023011207580566 8.08482551574707 8.097792625427246 7.908878803253174 7.628749847412109
        7.293483257293701 6.881061553955078 6.622872829437256 6.431504726409912 6.301957130432129 6.204976558685303
        6.148072719573975 6.225585460662842 6.410001754760742 6.444119930267334 6.419911861419678 6.413185119628906
        6.452226638793945 6.483089923858643 6.379157543182373 6.22374963760376 6.1283040046691895 6.075164318084717
        6.081905841827393 5.967189788818359 5.7565836906433105 5.600903034210205 5.491933345794678 5.4377546310424805
        5.253401279449463 5.0589704513549805 4.912190914154053 4.8525800704956055 4.798716068267822 4.6416215896606445
        4.50386381149292 4.391351222991943 4.370028018951416 4.428195953369141 4.426356792449951 4.424510478973389
        4.364706516265869 4.389690399169922 4.486763000488281 4.5012311935424805 4.460412502288818 4.426236629486084
        4.494422435760498 4.425389289855957 4.292613506317139 4.185522556304932 4.181999683380127 4.259132385253906
        4.222196102142334 4.089643955230713 3.9177896976470947 3.8513808250427246 3.888720750808716 3.9218411445617676
        3.8769850730895996 3.8772456645965576 3.9050025939941406 4.006584644317627 4.078287601470947 4.037290096282959
        3.9620609283447266 3.9254868030548096 3.9041407108306885 3.8549437522888184 3.8391878604888916 3.8989906311035156
        3.9204394817352295 3.8843300342559814 3.871234893798828 3.8846938610076904 3.8176217079162598 3.702925682067871
        3.6557259559631348 3.629120111465454 3.492807149887085 3.4010353088378906 3.29984188079834 3.2291150093078613
        11.376020431518555 11.821517944335938 11.808344841003418 11.823465347290039 11.68716812133789 11.723749160766602
        11.825057983398438 12.128432273864746 12.257566452026367 12.285013198852539 11.918620109558105 11.776427268981934
        11.519596099853516 11.46196174621582 11.105472564697266 10.890006065368652 10.644338607788086 10.680272102355957
        10.622845649719238 10.64745044708252 10.785932540893555 10.83936595916748 10.503507614135742 10.419598579406738
        10.841968536376953 11.109084129333496 11.422405242919922 11.233471870422363 11.039773941040039 10.93543529510498
        11.302011489868164 11.31350326538086 11.287324905395508 11.385904312133789 11.978745460510254 12.875929832458496
        13.84322452545166 14.480880737304688 15.050396919250488 15.880036354064941 16.405105590820312 15.763497352600098
        14.150806427001953 12.293695449829102 10.438057899475098 8.950851440429688 7.7732110023498535 7.153862476348877
        7.355838298797607 7.771403789520264 7.761605262756348 7.288651466369629 6.782816410064697 6.054903030395508
        5.506793022155762 5.2071027755737305 5.451284408569336 5.558107376098633 5.816915035247803 5.923186302185059
        6.006824970245361 6.178310871124268 6.382675647735596 6.403311729431152 6.465616703033447 6.615399360656738
        6.47479248046875 6.5722975730896 6.77495813369751 7.2677154541015625 7.809930324554443 8.305636405944824
        8.74090576171875 8.932964324951172 8.845519065856934 8.568394660949707 8.69948673248291 8.60202693939209
        8.642902374267578 8.406325340270996 8.19255256652832 7.828564643859863 7.620462417602539 7.242532730102539
        6.908302307128906 6.714104175567627 6.645595073699951 6.596749782562256 6.603915214538574 6.6777191162109375
        6.810392379760742 6.803275108337402 6.7809343338012695 6.772224426269531 6.746271133422852 6.8195648193359375
        6.7624101638793945 6.606158256530762 6.508191108703613 6.376908779144287 6.352707386016846 6.265883922576904
        6.110402584075928 5.952637195587158 5.809443473815918 5.784242153167725 5.599392890930176 5.41438102722168
        5.28464412689209 5.160091400146484 5.13569974899292 4.987212181091309 4.859625816345215 4.709649085998535
        4.63616418838501 4.712543964385986 4.737663745880127 4.765383720397949 4.694929599761963 4.6306233406066895
        4.718453884124756 4.733827114105225 4.735240459442139 4.664834499359131 4.616104602813721 4.583787441253662
        4.4131693840026855 4.339655876159668 4.344074249267578 4.385471820831299 4.37175178527832 4.26655912399292
        4.129514217376709 4.045973777770996 3.995969295501709 3.990463972091675 3.9864768981933594 3.984431266784668
        4.003375053405762 4.02015495300293 4.106362819671631 4.068915367126465 3.9862070083618164 3.9477956295013428
        3.9439454078674316 3.9505043029785156 3.9151039123535156 3.827662467956543 3.7952826023101807 3.7562692165374756
        3.816002607345581 3.8351261615753174 3.7599196434020996 3.64276385307312 3.5701944828033447 3.5418639183044434
        3.458737850189209 3.3618109226226807 3.2588140964508057 3.139469861984253 11.751572608947754 11.965574264526367
        11.763212203979492 11.764589309692383 11.463468551635742 11.820439338684082 12.054630279541016 12.434248924255371
        12.497004508972168 12.603660583496094 12.326794624328613 11.996675491333008 11.501275062561035 11.488593101501465
        11.353691101074219 10.954841613769531 11.103935241699219 11.210601806640625 10.858297348022461 10.596426010131836
        10.656753540039062 10.476045608520508 10.186838150024414 10.310301780700684 10.871696472167969 11.355624198913574
        11.51405143737793 11.296077728271484 11.340958595275879 11.020295143127441 11.26473331451416 11.105012893676758
        11.646018028259277 12.256430625915527 12.855018615722656 13.33725643157959 14.610946655273438 15.3007173538208
        15.789281845092773 16.410533905029297 17.034543991088867 16.257095336914062 14.295210838317871 11.812140464782715
        9.692371368408203 8.281160354614258 6.935454845428467 6.39485502243042 6.864138603210449 7.4211649894714355
        7.7544755935668945 7.607523441314697 7.205905437469482 6.901669502258301 6.718693733215332 6.2915239334106445
        5.8340253829956055 5.441502094268799 5.682814598083496 5.891360759735107 6.175290584564209 6.309443473815918
        6.496551990509033 6.575816631317139 6.640935897827148 6.772963047027588 6.636262893676758 6.6212615966796875
        6.904693603515625 7.504397392272949 8.000446319580078 8.39659309387207 8.808388710021973 9.21976089477539
        9.226858139038086 9.058600425720215 9.104940414428711 9.045499801635742 8.940003395080566 8.638531684875488
        8.46238899230957 8.0669584274292 7.855626106262207 7.464949607849121 7.145634174346924 6.97946834564209
        6.927330017089844 6.898180961608887 6.914384365081787 7.031646728515625 7.112957000732422 7.09830379486084
        7.091285228729248 7.084477424621582 7.0544962882995605 7.087228775024414 7.007214546203613 6.895017623901367
        6.766139984130859 6.6648268699646 6.600250720977783 6.493551731109619 6.3861470222473145 6.246585369110107
        6.116756439208984 6.051940441131592 5.905783176422119 5.757192611694336 5.646758556365967 5.51270055770874
        5.446576118469238 5.3177666664123535 5.2437968254089355 5.140034198760986 5.065975189208984 5.065173149108887
        5.104830265045166 5.10530424118042 5.066950798034668 4.937797546386719 4.940781116485596 4.968935489654541
        4.987745761871338 4.900394439697266 4.749892234802246 4.691945552825928 4.580824375152588 4.558953285217285
        4.513813018798828 4.485262870788574 4.478830337524414 4.388084411621094 4.302652835845947 4.219676971435547
        4.162509441375732 4.093286514282227 4.061549186706543 4.062265396118164 4.039003849029541 4.046271324157715
        4.094468593597412 4.09193229675293 4.035045146942139 3.964203357696533 3.9569625854492188 3.9821624755859375
        3.953756809234619 3.818221092224121 3.791921377182007 3.7560315132141113 3.7702295780181885 3.761923313140869
        3.7201919555664062 3.682856559753418 3.6274938583374023 3.5865559577941895 3.49698805809021 3.3897101879119873
        3.298356533050537 3.1733481884002686 11.609130859375 11.973471641540527 11.862200736999512 11.753846168518066
        11.495320320129395 11.947940826416016 12.350860595703125 12.696125984191895 12.740793228149414 12.588725090026855
        12.226346969604492 11.84421157836914 11.636035919189453 11.35271167755127 11.202779769897461 10.840080261230469
        11.233590126037598 11.390793800354004 11.081303596496582 10.642127990722656 10.72191047668457 10.249520301818848
        9.902929306030273 9.995292663574219 10.533571243286133 10.851201057434082 11.008903503417969 11.093093872070312
        11.440722465515137 11.148919105529785 11.358302116394043 11.355888366699219 12.001262664794922 12.565829277038574
        13.272998809814453 14.185312271118164 15.974410057067871 16.7026424407959 16.805234909057617 16.694786071777344
        16.677993774414062 15.346613883972168 13.40299129486084 10.665616989135742 8.76957893371582 7.781763076782227
        7.049458980560303 6.457747936248779 6.439291000366211 6.976291179656982 7.751323699951172 8.044085502624512
        7.889943599700928 7.8572611808776855 7.777981281280518 7.1008758544921875 6.468343257904053 5.986189365386963
        5.988079071044922 6.010214805603027 6.240067005157471 6.404544830322266 6.518900394439697 6.5754852294921875
        6.595334529876709 6.736876487731934 6.747398376464844 6.790748119354248 7.042802333831787 7.615384578704834
        8.070470809936523 8.469390869140625 8.806110382080078 9.215203285217285 9.301413536071777 9.271167755126953
        9.30122184753418 9.271768569946289 9.0822114944458 8.798748970031738 8.560698509216309 8.203363418579102
        7.94923210144043 7.556052207946777 7.272469997406006 7.275062084197998 7.29679536819458 7.241173267364502
        7.201954364776611 7.263468265533447 7.375930309295654 7.399805545806885 7.399397373199463 7.3762078285217285
        7.313279151916504 7.334945201873779 7.296647548675537 7.199573516845703 7.0128302574157715 6.834436893463135
        6.771397590637207 6.6680450439453125 6.6145429611206055 6.506405830383301 6.331045627593994 6.207958221435547
        6.073697566986084 6.01405668258667 5.913875102996826 5.796439170837402 5.676838397979736 5.577392578125
        5.555301189422607 5.4912519454956055 5.4157586097717285 5.334925174713135 5.306663990020752 5.310901641845703
        5.292534351348877 5.165790557861328 5.127132892608643 5.078286170959473 5.093742847442627 5.030452728271484
        4.880602836608887 4.817265510559082 4.728211402893066 4.746873378753662 4.708878993988037 4.639864444732666
        4.597132682800293 4.5003790855407715 4.432398796081543 4.375050067901611 4.275693416595459 4.190412521362305
        4.110506534576416 4.128940105438232 4.101747989654541 4.090297222137451 4.08679723739624 4.06996488571167
        4.067344665527344 4.003815174102783 3.9828920364379883 3.9687845706939697 3.9218387603759766 3.8422083854675293
        3.8103866577148438 3.7485485076904297 3.708289384841919 3.6781091690063477 3.7321901321411133 3.7606420516967773
        3.686753511428833 3.6065289974212646 3.5611610412597656 3.5063846111297607 3.4135851860046387 3.27549409866333
        11.730430603027344 11.862082481384277 11.989234924316406 12.007905006408691 11.73112964630127 11.934124946594238
        12.348276138305664 12.815474510192871 12.743947982788086 12.710304260253906 12.528546333312988 11.988261222839355
        11.738880157470703 11.360899925231934 11.238058090209961 11.100500106811523 11.3010892868042 11.320718765258789
        10.817527770996094 10.497899055480957 10.418094635009766 9.972416877746582 9.59781551361084 9.595844268798828
        10.00738525390625 9.94957160949707 9.902544975280762 10.215011596679688 10.883013725280762 11.051239967346191
        11.567403793334961 11.716896057128906 12.484282493591309 12.929685592651367 13.70115852355957 14.83076286315918
        17.16026496887207 18.075096130371094 17.344022750854492 15.447689056396484 14.343912124633789 12.179932594299316
        11.543529510498047 10.116331100463867 8.900738716125488 7.743956089019775 7.166784763336182 6.84529972076416
        6.550788879394531 7.0193281173706055 7.8816351890563965 8.72152328491211 8.641379356384277 8.475722312927246
        8.321637153625488 7.643075942993164 7.138116359710693 6.919684886932373 6.677730560302734 6.288597583770752
        6.235133647918701 6.3295698165893555 6.501114845275879 6.547081470489502 6.4756951332092285 6.714405536651611
        6.834007263183594 6.967023849487305 7.210729598999023 7.7181267738342285 8.215662956237793 8.590996742248535
        8.86771011352539 9.239778518676758 9.423606872558594 9.44582462310791 9.424715995788574 9.290095329284668
        9.141756057739258 8.938064575195312 8.67855453491211 8.393943786621094 8.067927360534668 7.790709018707275
        7.599931716918945 7.645322799682617 7.668426036834717 7.554327011108398 7.5168137550354 7.55126428604126
        7.689076900482178 7.727972507476807 7.732624053955078 7.721791744232178 7.673667907714844 7.67561674118042
        7.611198902130127 7.45526123046875 7.300611972808838 7.151749610900879 7.066341876983643 6.965023994445801
        6.828906059265137 6.74571418762207 6.645424842834473 6.520660877227783 6.392459869384766 6.279269695281982
        6.228457927703857 6.1674275398254395 6.0137224197387695 5.908693313598633 5.806605815887451 5.78918981552124
        5.747969150543213 5.676481246948242 5.589877128601074 5.495563507080078 5.498015880584717 5.397091388702393
        5.36739444732666 5.293116569519043 5.232409477233887 5.193120956420898 5.111985206604004 5.049513816833496
        4.945016860961914 4.929870128631592 4.934457302093506 4.892502307891846 4.817145347595215 4.71153450012207
        4.572841167449951 4.503567218780518 4.458707332611084 4.408905506134033 4.298335075378418 4.246272563934326
        4.201548099517822 4.189438819885254 4.1498847007751465 4.10209321975708 4.075063705444336 4.035932540893555
        4.021072864532471 3.966059446334839 3.907895088195801 3.8581418991088867 3.8089215755462646 3.7511327266693115
        3.671868324279785 3.6540329456329346 3.712191343307495 3.7440998554229736 3.7570254802703857 3.675706386566162
        3.6286473274230957 3.588682174682617 3.4783871173858643 3.3025691509246826 11.58554458618164 11.875142097473145
        12.043871879577637 12.089920997619629 11.925921440124512 12.0136137008667 12.400434494018555 12.82862377166748
        12.86715030670166 12.869697570800781 12.644027709960938 12.339115142822266 11.834542274475098 11.645444869995117
        11.215133666992188 11.059521675109863 10.89310073852539 10.734528541564941 10.3212890625 10.262359619140625
        10.076666831970215 9.89792251586914 9.563210487365723 9.492077827453613 9.656376838684082 9.3165283203125
        9.17770767211914 9.756940841674805 10.491304397583008 11.284160614013672 12.259979248046875 12.428126335144043
        13.114596366882324 14.008917808532715 15.558833122253418 16.773204803466797 18.175504684448242 18.384597778320312
        17.067537307739258 14.736665725708008 12.400489807128906 9.903087615966797 9.411870956420898 9.43095874786377
        9.156636238098145 8.237345695495605 7.567113876342773 7.187546253204346 6.959949016571045 7.260608673095703
        8.231579780578613 8.92448616027832 9.082832336425781 8.8902587890625 8.894646644592285 8.17126750946045
        7.8008341789245605 7.319794654846191 7.154248237609863 6.762539863586426 6.539694309234619 6.458115100860596
        6.767562389373779 6.8888959884643555 6.632394313812256 6.583658218383789 6.752023696899414 7.15653657913208
        7.4180684089660645 7.891602993011475 8.40822696685791 8.720768928527832 9.044995307922363 9.313864707946777
        9.463092803955078 9.41861629486084 9.462545394897461 9.304498672485352 9.181483268737793 9.019011497497559
        8.81373405456543 8.571915626525879 8.28565788269043 8.01486587524414 7.9453654289245605 7.989824295043945
        8.005825996398926 7.82682466506958 7.760528087615967 7.87648868560791 8.036012649536133 8.067574501037598
        7.992757797241211 7.974886417388916 7.945222854614258 7.946815013885498 7.838261604309082 7.6462273597717285
        7.504919052124023 7.388419151306152 7.3175811767578125 7.208630561828613 7.063621997833252 6.928981304168701
        6.873631954193115 6.823792457580566 6.7332377433776855 6.592546463012695 6.470313549041748 6.402719020843506
        6.334139823913574 6.2642717361450195 6.11384916305542 5.971951961517334 5.879854679107666 5.857703685760498
        5.798902988433838 5.684062957763672 5.607570648193359 5.47890043258667 5.4759345054626465 5.442639350891113
        5.364549160003662 5.288566589355469 5.230000019073486 5.180249214172363 5.096957206726074 5.062756538391113
        5.046346187591553 5.02362060546875 5.0107011795043945 4.875167369842529 4.7192912101745605 4.541110038757324
        4.503625869750977 4.48884916305542 4.4172515869140625 4.325087070465088 4.2311248779296875 4.199867248535156
        4.186191082000732 4.159329414367676 4.094635009765625 4.04421854019165 4.031102657318115 4.038094997406006
        4.003609657287598 3.8921523094177246 3.7863621711730957 3.680896759033203 3.6322836875915527 3.640643358230591
        3.659670114517212 3.647052526473999 3.665088176727295 3.6284077167510986 3.6066060066223145 3.526451587677002
        3.4421017169952393 3.279184579849243 11.632834434509277 11.836623191833496 12.026413917541504 12.021029472351074
        11.737817764282227 11.49722671508789 11.677204132080078 12.41431713104248 12.973819732666016 13.170889854431152
        12.935279846191406 12.5289306640625 12.10573959350586 12.13124942779541 11.85545539855957 11.53669548034668
        10.799588203430176 10.460906028747559 10.086479187011719 9.817793846130371 9.21278190612793 8.957996368408203
        8.906072616577148 9.193805694580078 9.25456428527832 9.067228317260742 8.843230247497559 9.517823219299316
        10.288932800292969 11.299850463867188 12.402185440063477 13.203139305114746 14.48215103149414 15.558453559875488
        17.55877685546875 18.274106979370117 19.784666061401367 18.799888610839844 16.167917251586914 13.117490768432617
        10.36135482788086 8.694936752319336 8.496612548828125 9.80212116241455 9.79789924621582 9.112687110900879
        8.012741088867188 7.439563751220703 7.345771789550781 8.208073616027832 9.298630714416504 9.659411430358887
        9.697379112243652 9.259390830993652 9.105361938476562 8.406006813049316 8.003256797790527 7.288104057312012
        7.1572041511535645 7.008723735809326 6.826730251312256 6.644540786743164 6.82913064956665 6.949143409729004
        6.83006477355957 6.750932693481445 6.8843560218811035 7.29932165145874 7.61524772644043 8.026958465576172
        8.506661415100098 8.861822128295898 9.153616905212402 9.515336990356445 9.635354042053223 9.575155258178711
        9.533895492553711 9.41701889038086 9.267474174499512 9.15074634552002 8.993473052978516 8.778985977172852
        8.615662574768066 8.371997833251953 8.253841400146484 8.217963218688965 8.216646194458008 8.107627868652344
        8.064737319946289 8.141891479492188 8.26850700378418 8.275291442871094 8.174924850463867 8.209441184997559
        8.176863670349121 8.140373229980469 8.033157348632812 7.902213096618652 7.839317321777344 7.685842037200928
        7.593182563781738 7.437572956085205 7.324328899383545 7.226212024688721 7.1503095626831055 7.145625114440918
        7.07891321182251 6.966996192932129 6.853598594665527 6.746703147888184 6.711164474487305 6.620974063873291
        6.468667030334473 6.312682628631592 6.120277404785156 6.126033306121826 6.0680832862854 5.989208221435547
        5.90743350982666 5.744797229766846 5.745272159576416 5.706900119781494 5.647614479064941 5.561492919921875
        5.448575019836426 5.407658100128174 5.325108051300049 5.280580997467041 5.268317699432373 5.178515434265137
        5.154430866241455 5.017086982727051 4.9152960777282715 4.764642715454102 4.633426666259766 4.571475028991699
        4.499147415161133 4.431059837341309 4.328516006469727 4.2122626304626465 4.23632287979126 4.223958492279053
        4.154263019561768 4.060534954071045 4.014861106872559 4.041210174560547 3.9599967002868652 3.839893102645874
        3.7372891902923584 3.6013174057006836 3.5864040851593018 3.5602428913116455 3.5737762451171875 3.5573151111602783
        3.5565922260284424 3.555616617202759 3.4936909675598145 3.4033000469207764 3.345611810684204 3.2082278728485107
        11.792817115783691 12.17973518371582 12.44546127319336 12.183903694152832 11.369584083557129 10.849428176879883
        11.00656509399414 12.039603233337402 12.881678581237793 13.167756080627441 12.924375534057617 12.441988945007324
        12.188469886779785 12.3622407913208 12.071767807006836 11.611662864685059 10.80690860748291 10.47677993774414
        9.823612213134766 9.333407402038574 8.609922409057617 8.569822311401367 8.77468204498291 9.077463150024414
        8.956202507019043 8.584470748901367 8.305013656616211 9.391592979431152 10.911355972290039 12.347084045410156
        13.420205116271973 13.899688720703125 14.831591606140137 15.47579288482666 17.1011905670166 17.801410675048828
        18.75113868713379 17.271459579467773 14.657133102416992 12.032313346862793 10.668985366821289 9.628474235534668
        9.190814971923828 10.009819984436035 9.907232284545898 9.616592407226562 8.818681716918945 8.179035186767578
        7.933427333831787 8.718761444091797 10.053499221801758 10.130895614624023 9.977413177490234 9.609270095825195
        9.302542686462402 8.491047859191895 8.073809623718262 7.551390171051025 7.337893486022949 7.129913806915283
        6.955799102783203 6.725792407989502 6.842737197875977 6.943764686584473 6.925684452056885 7.054673671722412
        7.149043560028076 7.41690731048584 7.795478820800781 8.312479019165039 8.744697570800781 9.1795072555542
        9.447916984558105 9.758153915405273 9.833477020263672 9.748953819274902 9.633325576782227 9.551994323730469
        9.343070030212402 9.202407836914062 9.096662521362305 8.911739349365234 8.849557876586914 8.639687538146973
        8.458245277404785 8.356770515441895 8.348387718200684 8.314194679260254 8.283150672912598 8.382124900817871
        8.406673431396484 8.323478698730469 8.299164772033691 8.390332221984863 8.435566902160645 8.366873741149902
        8.248065948486328 8.167159080505371 8.088849067687988 7.9463419914245605 7.854680061340332 7.7049126625061035
        7.609546661376953 7.539437770843506 7.470611095428467 7.423389434814453 7.32411003112793 7.274954319000244
        7.185464382171631 7.075394153594971 7.004349231719971 6.9000654220581055 6.759170055389404 6.602969646453857
        6.416029930114746 6.3804497718811035 6.320328712463379 6.251922607421875 6.177302837371826 6.041572093963623
        5.996081352233887 5.926502704620361 5.8992156982421875 5.8213396072387695 5.645564556121826 5.596380233764648
        5.550448417663574 5.537148475646973 5.510916233062744 5.351512908935547 5.2961506843566895 5.160161972045898
        5.089656352996826 4.955883026123047 4.796817779541016 4.687780380249023 4.604506492614746 4.559693336486816
        4.458322525024414 4.324643135070801 4.291822910308838 4.277977466583252 4.226491451263428 4.08720064163208
        4.036664962768555 4.0085039138793945 3.9413809776306152 3.826155185699463 3.7186272144317627 3.598282814025879
        3.5758039951324463 3.5392696857452393 3.5610671043395996 3.513075113296509 3.5005297660827637 3.4262068271636963
        3.347177267074585 3.29426908493042 3.2736525535583496 3.1954145431518555 11.803937911987305 12.403489112854004
        13.052764892578125 12.473588943481445 11.172759056091309 10.33523941040039 10.683886528015137 11.610040664672852
        12.082030296325684 12.385851860046387 12.864888191223145 12.9966459274292 12.878093719482422 12.750717163085938
        12.250243186950684 11.654622077941895 10.887190818786621 10.48766803741455 9.573205947875977 9.012456893920898
        8.307306289672852 8.067750930786133 8.26294231414795 8.516541481018066 8.26980972290039 7.568211078643799
        7.586212635040283 9.303606986999512 11.880162239074707 13.274221420288086 14.516201972961426 15.670095443725586
        15.979281425476074 15.83233642578125 16.846200942993164 17.34703254699707 17.79185676574707 15.997617721557617
        13.918313026428223 11.601357460021973 11.094664573669434 10.16463851928711 9.891570091247559 10.103018760681152
        10.072410583496094 9.626935958862305 9.136362075805664 9.045449256896973 8.520219802856445 8.795737266540527
        9.835939407348633 10.704959869384766 10.48721694946289 10.074579238891602 9.496302604675293 8.648689270019531
        8.147547721862793 7.882909297943115 7.705150604248047 7.439372539520264 7.135751247406006 6.940881729125977
        7.166675090789795 7.227477550506592 7.208533763885498 7.419105529785156 7.717823028564453 7.919560432434082
        8.207399368286133 8.621532440185547 8.962767601013184 9.425772666931152 9.753408432006836 9.965723037719727
        9.946244239807129 9.960521697998047 9.830623626708984 9.640854835510254 9.387228965759277 9.264918327331543
        9.227331161499023 9.112448692321777 9.018770217895508 8.842273712158203 8.61436939239502 8.624865531921387
        8.64448070526123 8.590328216552734 8.481508255004883 8.486615180969238 8.477912902832031 8.447697639465332
        8.48981761932373 8.598424911499023 8.608917236328125 8.576860427856445 8.505179405212402 8.46352481842041
        8.35238265991211 8.141088485717773 8.079507827758789 7.9840803146362305 7.856449604034424 7.75830602645874
        7.68922758102417 7.671694278717041 7.586237907409668 7.537412643432617 7.434311866760254 7.283268928527832
        7.2023162841796875 7.081915378570557 6.966078758239746 6.833636283874512 6.669875621795654 6.5810089111328125
        6.465444564819336 6.398857116699219 6.329970359802246 6.231899738311768 6.196618556976318 6.097846508026123
        6.07806921005249 5.9668073654174805 5.80573844909668 5.753282070159912 5.686311721801758 5.680037498474121
        5.584262371063232 5.442131042480469 5.352311134338379 5.227372169494629 5.181512355804443 5.078500270843506
        4.905941963195801 4.790078163146973 4.6781768798828125 4.662596225738525 4.556522369384766 4.434688568115234
        4.358654499053955 4.304173946380615 4.263641357421875 4.178510665893555 4.080787658691406 3.989934206008911
        3.8794429302215576 3.7865335941314697 3.7125141620635986 3.617262363433838 3.5558040142059326 3.5054728984832764
        3.48721981048584 3.459869623184204 3.419586658477783 3.3503952026367188 3.2438275814056396 3.204380989074707
        3.1637210845947266 3.122986316680908 11.85569953918457 12.205740928649902 13.144003868103027 12.439576148986816
        11.069817543029785 10.140453338623047 10.649723052978516 11.243215560913086 11.225617408752441 11.408198356628418
        12.53857707977295 13.514472961425781 13.74789810180664 13.066431045532227 11.827505111694336 11.089927673339844
        10.543235778808594 10.317193984985352 9.271695137023926 8.848134994506836 8.175731658935547 7.543365001678467
        7.3598952293396 7.188007354736328 7.292994022369385 7.062375545501709 8.0711030960083 10.051042556762695
        13.351247787475586 14.903515815734863 15.913941383361816 16.441974639892578 16.609722137451172 16.39584732055664
        16.837125778198242 16.599098205566406 15.55024242401123 14.497937202453613 13.684916496276855 12.100207328796387
        11.348873138427734 10.353885650634766 10.107565879821777 10.108346939086914 9.971667289733887 9.362616539001465
        9.19545841217041 9.575862884521484 9.099138259887695 8.85488224029541 9.573104858398438 10.660669326782227
        10.673751831054688 10.284833908081055 9.624485969543457 8.82722282409668 8.248590469360352 7.94648551940918
        7.8758649826049805 7.622646808624268 7.425568580627441 7.057116508483887 7.127021789550781 7.357010841369629
        7.68113899230957 7.845273971557617 8.071550369262695 8.333857536315918 8.676944732666016 8.97667407989502
        9.261664390563965 9.591638565063477 9.922540664672852 10.08133316040039 10.037969589233398 9.976248741149902
        9.908074378967285 9.693819999694824 9.47911548614502 9.42371654510498 9.298859596252441 9.252486228942871
        9.185434341430664 9.064345359802246 8.85307502746582 8.886336326599121 8.898886680603027 8.815985679626465
        8.675546646118164 8.634971618652344 8.60067367553711 8.625239372253418 8.637067794799805 8.736540794372559
        8.774413108825684 8.820066452026367 8.792168617248535 8.708678245544434 8.59048843383789 8.388371467590332
        8.325860977172852 8.284499168395996 8.093851089477539 7.980058670043945 7.90394401550293 7.915722370147705
        7.849945545196533 7.732364177703857 7.6229376792907715 7.46513557434082 7.4078240394592285 7.317091464996338
        7.176481246948242 7.0400390625 6.879176616668701 6.801431179046631 6.687318801879883 6.532801151275635
        6.448824405670166 6.376555442810059 6.385223865509033 6.288590431213379 6.174549102783203 6.06417179107666
        5.963041305541992 5.944913864135742 5.868211269378662 5.778411865234375 5.657231330871582 5.579380035400391
        5.5432586669921875 5.433403491973877 5.309837818145752 5.163629531860352 5.025271415710449 4.945985794067383
        4.842748165130615 4.735932350158691 4.61334228515625 4.569571495056152 4.487922668457031 4.406900405883789
        4.325027942657471 4.244674205780029 4.150113105773926 4.049504280090332 3.9565298557281494 3.8495147228240967
        3.756720542907715 3.6592276096343994 3.5749924182891846 3.51308274269104 3.4845852851867676 3.445756435394287
        3.370192050933838 3.315969705581665 3.2283990383148193 3.1920926570892334 3.143082857131958 3.104208469390869
        11.713456153869629 11.84001636505127 12.437251091003418 12.216490745544434 11.191756248474121 10.097637176513672
        10.278260231018066 10.329584121704102 10.204777717590332 10.995396614074707 12.624086380004883 13.511372566223145
        13.862470626831055 13.27543830871582 12.058038711547852 11.01620864868164 10.356767654418945 9.64719295501709
        8.631759643554688 8.711493492126465 7.939521312713623 7.1801042556762695 6.500246047973633 6.34970235824585
        7.018856525421143 8.054118156433105 9.53152084350586 11.488018989562988 14.398603439331055 16.054540634155273
        16.616395950317383 16.397279739379883 17.355117797851562 17.229246139526367 17.194242477416992 16.310245513916016
        15.226836204528809 14.612594604492188 13.931009292602539 12.342665672302246 10.965131759643555 10.143402099609375
        9.806671142578125 10.019814491271973 9.885138511657715 9.596784591674805 9.292823791503906 9.79269790649414
        9.673574447631836 9.5399169921875 9.935647010803223 10.773494720458984 10.891125679016113 10.447178840637207
        9.690464973449707 9.013046264648438 8.452064514160156 8.122754096984863 8.086991310119629 7.852400779724121
        7.571690082550049 7.0808329582214355 7.090287685394287 7.439194202423096 8.025470733642578 8.262275695800781
        8.52803897857666 8.689457893371582 8.955894470214844 9.1817045211792 9.45212173461914 9.635765075683594
        9.907197952270508 10.069371223449707 9.979815483093262 9.802403450012207 9.867226600646973 9.72720718383789
        9.581323623657227 9.531947135925293 9.394213676452637 9.331001281738281 9.251953125 9.141480445861816
        8.985679626464844 9.018624305725098 9.046374320983887 8.973542213439941 8.84619140625 8.735000610351562
        8.681361198425293 8.729334831237793 8.714506149291992 8.730709075927734 8.766907691955566 8.866353988647461
        8.891586303710938 8.822099685668945 8.710639953613281 8.582846641540527 8.533302307128906 8.435755729675293
        8.250595092773438 8.112862586975098 8.070947647094727 8.069720268249512 7.9920525550842285 7.86270809173584
        7.753726959228516 7.670473575592041 7.645983695983887 7.5256781578063965 7.341365814208984 7.200512409210205
        7.053160667419434 7.003325462341309 6.873445510864258 6.691839694976807 6.5543012619018555 6.459409713745117
        6.482468128204346 6.389069080352783 6.2749834060668945 6.143111228942871 6.048958778381348 6.032670021057129
        5.933046817779541 5.838105201721191 5.728409290313721 5.703219890594482 5.676835060119629 5.5852484703063965
        5.477519512176514 5.333077430725098 5.161417484283447 5.064034461975098 4.9891462326049805 4.870616436004639
        4.747006893157959 4.685858249664307 4.635175704956055 4.582512378692627 4.48489236831665 4.379795074462891
        4.2593770027160645 4.178391933441162 4.0683274269104 3.926485061645508 3.79166579246521 3.6535532474517822
        3.617572069168091 3.524338722229004 3.4984333515167236 3.4417312145233154 3.3700387477874756 3.334301471710205
        3.23647403717041 3.181757688522339 3.1101300716400146 3.0577666759490967 11.905182838439941 11.78431224822998
        11.830886840820312 11.561423301696777 10.955251693725586 10.213318824768066 9.90532112121582 9.829243659973145
        9.508004188537598 10.578226089477539 12.183560371398926 12.74126148223877 13.001399993896484 13.435736656188965
        12.894614219665527 11.361312866210938 10.106390953063965 9.041386604309082 8.106013298034668 8.34666633605957
        7.956238746643066 7.191847801208496 6.233883380889893 6.580747604370117 8.059915542602539 9.723077774047852
        11.179500579833984 12.654597282409668 14.406160354614258 15.924714088439941 16.188859939575195 15.294295310974121
        15.894445419311523 16.090679168701172 16.744733810424805 15.80424690246582 14.784067153930664 14.080706596374512
        14.008062362670898 13.447080612182617 11.78355884552002 10.99657917022705 10.447242736816406 10.202200889587402
        10.013153076171875 10.000956535339355 9.593537330627441 9.721258163452148 9.910491943359375 10.330001831054688
        10.535009384155273 10.9176607131958 10.833982467651367 10.379997253417969 9.782011032104492 9.232020378112793
        8.7318115234375 8.435590744018555 8.217606544494629 7.9680986404418945 7.7147393226623535 7.400085926055908
        7.358484268188477 7.619634628295898 8.323519706726074 8.648640632629395 8.907759666442871 9.010431289672852
        9.333556175231934 9.60538101196289 9.922501564025879 9.892446517944336 9.896371841430664 9.975532531738281
        9.927227020263672 9.76628303527832 9.699864387512207 9.734588623046875 9.621552467346191 9.572988510131836
        9.510085105895996 9.479363441467285 9.428912162780762 9.352757453918457 9.201436996459961 9.186450004577637
        9.20950984954834 9.131662368774414 9.021282196044922 8.907889366149902 8.841052055358887 8.808700561523438
        8.772908210754395 8.84119701385498 8.869585037231445 8.890192031860352 8.892802238464355 8.871575355529785
        8.829557418823242 8.779472351074219 8.71778392791748 8.595297813415527 8.459016799926758 8.35403060913086
        8.253464698791504 8.20802116394043 8.123970985412598 8.026920318603516 7.963432312011719 7.883179664611816
        7.852512836456299 7.733666896820068 7.553442478179932 7.440944194793701 7.274755954742432 7.225025653839111
        7.0753278732299805 6.925111770629883 6.7854790687561035 6.615484237670898 6.609393119812012 6.5132737159729
        6.43283224105835 6.354620456695557 6.232091426849365 6.171880722045898 6.024226665496826 5.964261531829834
        5.902524948120117 5.843245506286621 5.838873863220215 5.720612525939941 5.64192008972168 5.525296688079834
        5.3393354415893555 5.252270698547363 5.164120674133301 5.03004264831543 4.9324140548706055 4.859416961669922
        4.860014915466309 4.7900519371032715 4.684976577758789 4.575855731964111 4.43749475479126 4.379127502441406
        4.270036697387695 4.113919258117676 3.961059093475342 3.7570273876190186 3.7332215309143066 3.5990641117095947
        3.5532233715057373 3.4790284633636475 3.4250030517578125 3.406806468963623 3.287663221359253 3.195847988128662
        3.1298763751983643 3.0477566719055176 11.500282287597656 11.570064544677734 11.827282905578613 11.335667610168457
        10.683448791503906 10.229568481445312 9.923347473144531 9.632453918457031 9.164749145507812 10.199548721313477
        11.758249282836914 12.521073341369629 12.801047325134277 13.823637962341309 13.51618766784668 11.795283317565918
        10.040242195129395 8.761543273925781 7.898252487182617 7.831882953643799 8.340984344482422 8.15286922454834
        6.642862319946289 6.9518842697143555 8.737574577331543 11.568376541137695 12.713138580322266 13.830521583557129
        13.97828483581543 14.666356086730957 14.928088188171387 14.557206153869629 14.621391296386719 15.366799354553223
        16.59867286682129 16.404268264770508 15.472175598144531 14.467554092407227 14.26422119140625 13.92923641204834
        12.850151062011719 12.188529014587402 11.333182334899902 10.668757438659668 10.192879676818848 10.071467399597168
        9.787803649902344 9.700446128845215 10.151541709899902 10.889642715454102 11.348875999450684 11.254067420959473
        10.948301315307617 10.627069473266602 10.054530143737793 9.475703239440918 8.956863403320312 8.711740493774414
        8.38992691040039 8.004046440124512 7.712228298187256 7.755061149597168 8.026016235351562 8.214131355285645
        8.672982215881348 8.966398239135742 9.249285697937012 9.385717391967773 9.679590225219727 9.960280418395996
        10.186705589294434 10.034747123718262 9.958189964294434 9.947440147399902 9.819805145263672 9.647180557250977
        9.607815742492676 9.728442192077637 9.60114860534668 9.575749397277832 9.615478515625 9.641282081604004
        9.648900032043457 9.62849235534668 9.524255752563477 9.430035591125488 9.369763374328613 9.271419525146484
        9.130258560180664 9.088878631591797 9.0289945602417 8.938446998596191 8.93320369720459 9.0028715133667
        9.052047729492188 9.007235527038574 8.974691390991211 8.961487770080566 8.993338584899902 8.945281982421875
        8.899616241455078 8.78547477722168 8.659722328186035 8.556211471557617 8.461668968200684 8.393806457519531
        8.306065559387207 8.230774879455566 8.186315536499023 8.099465370178223 8.03321647644043 7.900256633758545
        7.746021747589111 7.631158828735352 7.469573974609375 7.378505229949951 7.216744422912598 7.087684631347656
        6.951493263244629 6.796380519866943 6.724386215209961 6.632709503173828 6.572803974151611 6.486102104187012
        6.328925609588623 6.2360758781433105 6.109822750091553 6.066634654998779 6.007918834686279 5.907063007354736
        5.848390579223633 5.744135856628418 5.695873737335205 5.603633880615234 5.446725845336914 5.351475238800049
        5.272559642791748 5.146299362182617 5.091732025146484 5.019688129425049 4.983630657196045 4.896396160125732
        4.822495937347412 4.7761921882629395 4.641926288604736 4.558112144470215 4.41605806350708 4.304622650146484
        4.162929058074951 3.944345712661743 3.8630504608154297 3.7291619777679443 3.6804873943328857 3.5956971645355225
        3.549644947052002 3.525747299194336 3.418647289276123 3.320358991622925 3.223820924758911 3.12726092338562
        10.958877563476562 11.238369941711426 11.648079872131348 11.301395416259766 10.597309112548828 10.142523765563965
        9.881574630737305 9.523296356201172 9.091498374938965 9.761164665222168 11.002565383911133 12.324877738952637
        12.748827934265137 13.94332218170166 13.743304252624512 12.52551555633545 10.742802619934082 9.301793098449707
        8.243024826049805 7.926138877868652 9.119303703308105 9.240031242370605 7.989760875701904 8.419526100158691
        10.405990600585938 13.152125358581543 13.988866806030273 14.118142127990723 13.41883373260498 13.596261978149414
        13.995881080627441 13.615635871887207 13.007616996765137 13.62121295928955 14.896257400512695 15.813827514648438
        14.920230865478516 14.4742431640625 14.134562492370605 14.204124450683594 13.35680103302002 12.814020156860352
        12.627599716186523 11.904887199401855 11.05074691772461 10.059473991394043 9.679583549499512 9.578620910644531
        10.168957710266113 11.092804908752441 11.783327102661133 11.616304397583008 10.959187507629395 10.626214027404785
        10.229126930236816 9.667926788330078 9.187195777893066 8.992883682250977 8.56928825378418 8.104364395141602
        7.938961029052734 8.153698921203613 8.428682327270508 8.592105865478516 8.866310119628906 9.19064712524414
        9.521059036254883 9.678025245666504 9.929620742797852 10.130274772644043 10.258993148803711 10.178502082824707
        10.078969955444336 9.982294082641602 9.748250961303711 9.61658763885498 9.495611190795898 9.493497848510742
        9.450053215026855 9.524640083312988 9.759373664855957 9.853323936462402 9.875882148742676 9.862115859985352
        9.71493911743164 9.619264602661133 9.463303565979004 9.295867919921875 9.124200820922852 9.122538566589355
        9.091304779052734 9.037460327148438 9.067361831665039 9.14954948425293 9.172308921813965 9.126111030578613
        9.094903945922852 9.115599632263184 9.137076377868652 9.046380043029785 8.99881649017334 8.920069694519043
        8.822225570678711 8.725255012512207 8.592595100402832 8.528033256530762 8.450249671936035 8.395658493041992
        8.318181991577148 8.20856761932373 8.164390563964844 8.012449264526367 7.893791675567627 7.778404712677002
        7.606205463409424 7.467941761016846 7.26892614364624 7.175429344177246 7.038854598999023 6.895110607147217
        6.822788238525391 6.712817668914795 6.651011943817139 6.540056228637695 6.3954691886901855 6.3060197830200195
        6.17595100402832 6.111810207366943 6.071141242980957 5.9634928703308105 5.875570774078369 5.751319885253906
        5.728194236755371 5.6388044357299805 5.516200542449951 5.424342632293701 5.345290660858154 5.2530694007873535
        5.199132442474365 5.157193660736084 5.081457614898682 4.981446743011475 4.951836585998535 4.890397071838379
        4.782100677490234 4.66286563873291 4.550814151763916 4.500155925750732 4.370405673980713 4.1597700119018555
        3.9843478202819824 3.8704605102539062 3.8052878379821777 3.7517895698547363 3.681241750717163 3.5914456844329834
        3.5099122524261475 3.4325644969940186 3.349229335784912 3.1972622871398926 10.675987243652344 10.871511459350586
        11.522404670715332 11.781206130981445 11.147248268127441 10.200478553771973 9.680397033691406 9.349699020385742
        9.137030601501465 9.798712730407715 11.113033294677734 12.429333686828613 13.01977825164795 13.649554252624512
        13.61256217956543 13.004105567932129 11.55163288116455 9.928817749023438 8.977840423583984 8.437362670898438
        9.5345458984375 10.340898513793945 10.61152458190918 10.833048820495605 12.138744354248047 14.131242752075195
        14.69300651550293 14.688610076904297 13.785646438598633 13.343070983886719 13.088489532470703 12.668622016906738
        12.331866264343262 12.658896446228027 13.331744194030762 14.244524955749512 13.952497482299805 14.12443733215332
        13.677608489990234 13.794219017028809 13.15661334991455 12.780179977416992 12.794609069824219 12.236895561218262
        11.282782554626465 9.959041595458984 9.5442476272583 9.664258003234863 10.46729564666748 11.314746856689453
        11.761908531188965 11.462597846984863 10.90980339050293 10.635854721069336 10.298479080200195 9.808110237121582
        9.463774681091309 9.19619083404541 8.903083801269531 8.531020164489746 8.377836227416992 8.418916702270508
        8.689214706420898 8.941116333007812 9.124981880187988 9.380910873413086 9.672930717468262 9.884902000427246
        10.089471817016602 10.263205528259277 10.31777572631836 10.29797649383545 10.166418075561523 10.060999870300293
        9.810145378112793 9.624751091003418 9.480961799621582 9.355744361877441 9.317394256591797 9.456669807434082
        9.76233959197998 9.918891906738281 10.013176918029785 10.007267951965332 9.878156661987305 9.780153274536133
        9.56096076965332 9.36429500579834 9.194657325744629 9.162739753723145 9.129108428955078 9.106239318847656
        9.099302291870117 9.183802604675293 9.213871002197266 9.214661598205566 9.213371276855469 9.211274147033691
        9.204614639282227 9.155689239501953 9.156781196594238 9.099167823791504 8.96803092956543 8.877598762512207
        8.750630378723145 8.701787948608398 8.63542652130127 8.538987159729004 8.449557304382324 8.353574752807617
        8.327523231506348 8.174958229064941 7.998600959777832 7.870076656341553 7.70621395111084 7.573604583740234
        7.387242794036865 7.24454402923584 7.1165452003479 6.9918622970581055 6.938747406005859 6.835965633392334
        6.724085807800293 6.61478328704834 6.501652240753174 6.422356128692627 6.32939338684082 6.2211456298828125
        6.153091907501221 6.055534839630127 6.001866340637207 5.899667263031006 5.8112616539001465 5.734262943267822
        5.647729873657227 5.568102836608887 5.455616474151611 5.3663740158081055 5.339873790740967 5.323157787322998
        5.220480442047119 5.087488651275635 5.04483699798584 5.005443096160889 4.955927848815918 4.837479591369629
        4.716802597045898 4.6147308349609375 4.520274639129639 4.390639781951904 4.20996618270874 4.077357769012451
        3.946098804473877 3.8728132247924805 3.827989101409912 3.7403411865234375 3.660426616668701 3.5343523025512695
        3.4405691623687744 3.305288314819336 10.879094123840332 10.785405158996582 11.419149398803711 11.611516952514648
        11.214249610900879 9.918974876403809 9.392056465148926 9.188237190246582 9.217252731323242 9.827558517456055
        11.381743431091309 12.790996551513672 13.750059127807617 13.676194190979004 13.12977123260498 12.420127868652344
        11.379074096679688 10.140586853027344 9.157715797424316 8.937434196472168 9.346102714538574 10.115934371948242
        11.574840545654297 12.58544921875 13.596426963806152 14.439719200134277 15.257813453674316 15.097494125366211
        13.71489143371582 12.444334030151367 12.091094017028809 11.631627082824707 11.397562980651855 11.773234367370605
        12.214667320251465 12.997021675109863 13.567391395568848 14.446560859680176 14.150189399719238 14.12289047241211
        13.403958320617676 13.06418228149414 12.62356185913086 12.137127876281738 11.221395492553711 9.965121269226074
        9.784127235412598 9.993389129638672 10.74370002746582 11.248881340026855 11.62100601196289 11.275704383850098
        11.036726951599121 10.602564811706543 10.048588752746582 9.626768112182617 9.47120189666748 9.200875282287598
        8.917470932006836 8.77173137664795 8.804619789123535 8.81942081451416 8.939627647399902 9.154072761535645
        9.320076942443848 9.578641891479492 9.834707260131836 9.993062019348145 10.138527870178223 10.299503326416016
        10.401857376098633 10.395624160766602 10.265788078308105 10.122368812561035 9.855573654174805 9.59756851196289
        9.442981719970703 9.324956893920898 9.290776252746582 9.447463989257812 9.75312328338623 9.990246772766113
        10.112707138061523 10.05250072479248 9.891212463378906 9.802783966064453 9.660518646240234 9.465238571166992
        9.30497932434082 9.250057220458984 9.20103931427002 9.183956146240234 9.135319709777832 9.158839225769043
        9.187792778015137 9.250727653503418 9.28226089477539 9.302963256835938 9.25798225402832 9.227463722229004
        9.233677864074707 9.192756652832031 9.083942413330078 8.992231369018555 8.89619255065918 8.849217414855957
        8.789300918579102 8.669992446899414 8.567005157470703 8.454120635986328 8.410459518432617 8.28607177734375
        8.123920440673828 7.970107078552246 7.788956642150879 7.667817115783691 7.521917819976807 7.3765058517456055
        7.252026081085205 7.13323974609375 7.085169315338135 6.969382286071777 6.862592697143555 6.7843756675720215
        6.673348426818848 6.551967144012451 6.413247585296631 6.331826210021973 6.264771461486816 6.150157928466797
        6.095438003540039 5.983297824859619 5.928913116455078 5.850347518920898 5.770516395568848 5.691590309143066
        5.545764446258545 5.473901748657227 5.42492151260376 5.44380521774292 5.385634422302246 5.260438442230225
        5.17519474029541 5.120515823364258 5.113327980041504 5.043079376220703 4.923046588897705 4.775249004364014
        4.720717906951904 4.669520378112793 4.516931056976318 4.318666934967041 4.117678165435791 3.9960408210754395
        3.9427330493927 3.8893179893493652 3.7910752296447754 3.6566758155822754 3.538808822631836 3.4021847248077393
        10.604527473449707 10.614764213562012 11.346904754638672 11.471760749816895 11.26657772064209 10.280635833740234
        9.782933235168457 9.348103523254395 9.366708755493164 10.263837814331055 11.821589469909668 13.318319320678711
        14.204025268554688 14.057923316955566 13.133793830871582 11.576432228088379 10.385909080505371 9.960423469543457
        9.592846870422363 9.112940788269043 8.645551681518555 9.414499282836914 10.946989059448242 11.823271751403809
        12.859716415405273 14.130575180053711 15.496312141418457 15.693047523498535 13.98863697052002 12.242049217224121
        11.172585487365723 10.78877067565918 10.914316177368164 11.218311309814453 11.394092559814453 11.95599365234375
        13.1900634765625 14.678667068481445 14.622507095336914 14.203371047973633 13.33561897277832 12.865346908569336
        12.043813705444336 11.436264991760254 10.947623252868652 10.175688743591309 10.069220542907715 10.15743350982666
        10.807613372802734 11.337456703186035 11.54912281036377 11.040194511413574 10.932331085205078 10.535185813903809
        9.938953399658203 9.466291427612305 9.40787124633789 9.175293922424316 8.965781211853027 9.04163932800293
        9.098520278930664 9.104530334472656 9.086812019348145 9.382646560668945 9.538569450378418 9.789313316345215
        9.939046859741211 10.054277420043945 10.19063663482666 10.343497276306152 10.518853187561035 10.436562538146973
        10.355181694030762 10.20142936706543 9.896913528442383 9.560027122497559 9.415688514709473 9.414993286132812
        9.368560791015625 9.485671997070312 9.691967964172363 10.039011001586914 10.18320083618164 10.117880821228027
        9.936841011047363 9.863617897033691 9.697834968566895 9.515176773071289 9.435324668884277 9.372118949890137
        9.32429027557373 9.326931953430176 9.2827730178833 9.293411254882812 9.295795440673828 9.370528221130371
        9.404826164245605 9.39256477355957 9.340677261352539 9.307262420654297 9.322331428527832 9.300980567932129
        9.25426197052002 9.195762634277344 9.08158016204834 9.01744270324707 8.94826602935791 8.857439041137695
        8.78292465209961 8.61375904083252 8.52556324005127 8.387215614318848 8.247364044189453 8.11636734008789
        7.92832088470459 7.822539806365967 7.679549217224121 7.553425312042236 7.462203025817871 7.342355728149414
        7.278446197509766 7.137816905975342 7.034355163574219 6.971074104309082 6.825568675994873 6.723459720611572
        6.556390762329102 6.474887847900391 6.403265953063965 6.263620853424072 6.21417236328125 6.094871520996094
        6.033877372741699 5.9913330078125 5.887331008911133 5.794284820556641 5.665637969970703 5.591091632843018
        5.556785583496094 5.527381896972656 5.51199197769165 5.379305839538574 5.281691074371338 5.242469787597656
        5.209634780883789 5.193382740020752 5.055354118347168 4.9271626472473145 4.92249059677124 4.899150371551514
        4.770547389984131 4.541924476623535 4.334530353546143 4.232093334197998 4.12504768371582 4.099163055419922
        3.981668710708618 3.87640380859375 3.7641875743865967 3.5778486728668213 10.750783920288086 10.671452522277832
        11.313111305236816 11.535897254943848 11.393221855163574 10.892589569091797 10.335583686828613 9.612805366516113
        9.529010772705078 10.607745170593262 12.408823013305664 13.71454906463623 14.545910835266113 14.963226318359375
        14.134958267211914 12.067863464355469 10.28232192993164 9.73729419708252 9.194445610046387 8.59923267364502
        7.574917793273926 7.877306938171387 9.517518997192383 11.712706565856934 13.394240379333496 15.331907272338867
        16.524023056030273 16.48645782470703 14.739748001098633 12.749473571777344 10.685601234436035 10.535710334777832
        10.495856285095215 10.10081672668457 9.427062034606934 10.406033515930176 12.454089164733887 14.576027870178223
        14.599483489990234 13.965714454650879 13.111611366271973 12.578594207763672 12.14005184173584 11.564693450927734
        10.823492050170898 10.0572509765625 10.152100563049316 10.46782398223877 11.032527923583984 11.384657859802246
        11.457319259643555 11.026336669921875 10.875935554504395 10.600722312927246 10.036909103393555 9.516378402709961
        9.41740894317627 9.418781280517578 9.158610343933105 9.212156295776367 9.263871192932129 9.318520545959473
        9.291862487792969 9.557038307189941 9.755369186401367 9.95491886138916 10.045329093933105 10.105742454528809
        10.223155975341797 10.44286060333252 10.620138168334961 10.471155166625977 10.410218238830566 10.234113693237305
        9.950535774230957 9.562199592590332 9.393465995788574 9.399354934692383 9.363163948059082 9.546456336975098
        9.737534523010254 10.045069694519043 10.240215301513672 10.328340530395508 10.16462516784668 9.978930473327637
        9.74915599822998 9.590991020202637 9.54554271697998 9.495790481567383 9.442299842834473 9.423547744750977
        9.442294120788574 9.451864242553711 9.461447715759277 9.462942123413086 9.459242820739746 9.488310813903809
        9.480924606323242 9.461709976196289 9.416839599609375 9.40646743774414 9.368717193603516 9.35074234008789
        9.256092071533203 9.190382957458496 9.119366645812988 9.054129600524902 8.960578918457031 8.81393051147461
        8.66628360748291 8.497998237609863 8.364665031433105 8.255280494689941 8.11334228515625 7.986676216125488
        7.826113700866699 7.707263469696045 7.630947589874268 7.5217390060424805 7.417357921600342 7.291064739227295
        7.208806991577148 7.1102495193481445 6.952291965484619 6.834913730621338 6.666306972503662 6.5744948387146
        6.497732639312744 6.385048866271973 6.309981346130371 6.1967644691467285 6.130478858947754 6.098510265350342
        6.022642135620117 5.9105424880981445 5.815591335296631 5.744741439819336 5.698838710784912 5.627652168273926
        5.6025495529174805 5.4997758865356445 5.397505760192871 5.309711933135986 5.232720375061035 5.193234920501709
        5.1136860847473145 5.039833068847656 5.035013675689697 4.989228248596191 4.893089771270752 4.696230888366699
        4.528206825256348 4.4189605712890625 4.288924694061279 4.252158164978027 4.148558139801025 4.037336349487305
        3.9103281497955322 3.7099549770355225 11.173702239990234 11.472685813903809 12.045557975769043 12.137438774108887
        11.910534858703613 11.586115837097168 11.15220832824707 10.235575675964355 10.006160736083984 11.199807167053223
        12.923715591430664 13.988265037536621 14.47264575958252 15.066596031188965 14.391934394836426 12.599392890930176
        10.507473945617676 9.696394920349121 9.02858829498291 7.87925386428833 6.631622314453125 6.8270769119262695
        8.487343788146973 11.21546745300293 13.53665542602539 15.97493839263916 17.685367584228516 17.640169143676758
        16.22684097290039 13.80367374420166 11.236310958862305 10.294669151306152 9.889307022094727 9.894637107849121
        9.217825889587402 10.224349975585938 11.745391845703125 13.78991413116455 14.140342712402344 13.832171440124512
        13.06269359588623 12.660504341125488 12.233824729919434 11.695714950561523 11.109042167663574 10.429908752441406
        10.417756080627441 10.995219230651855 11.493515014648438 11.770604133605957 11.464286804199219 11.288104057312012
        10.95750904083252 10.614169120788574 10.114112854003906 9.748842239379883 9.545022010803223 9.601568222045898
        9.43714427947998 9.403844833374023 9.436630249023438 9.524292945861816 9.553105354309082 9.736544609069824
        9.912405967712402 10.070637702941895 10.198272705078125 10.284740447998047 10.415929794311523 10.543025970458984
        10.665529251098633 10.459052085876465 10.390413284301758 10.220608711242676 9.927556991577148 9.636425971984863
        9.400054931640625 9.2499361038208 9.3062162399292 9.555023193359375 9.82051944732666 10.071682929992676
        10.292842864990234 10.483122825622559 10.354827880859375 10.125463485717773 9.836904525756836 9.697463989257812
        9.563484191894531 9.487226486206055 9.468350410461426 9.46109390258789 9.51108455657959 9.542862892150879
        9.553141593933105 9.524036407470703 9.501626014709473 9.556429862976074 9.611992835998535 9.588902473449707
        9.57150650024414 9.5347900390625 9.471221923828125 9.458784103393555 9.381467819213867 9.37492561340332
        9.283522605895996 9.192541122436523 9.042094230651855 8.889939308166504 8.771878242492676 8.577914237976074
        8.409770965576172 8.297745704650879 8.21317195892334 8.106186866760254 7.906683921813965 7.779106140136719
        7.689303398132324 7.616357326507568 7.516101360321045 7.392494201660156 7.309473037719727 7.1905903816223145
        7.055276393890381 6.945333957672119 6.787569999694824 6.680942535400391 6.589881896972656 6.499663352966309
        6.421825408935547 6.331332206726074 6.258516311645508 6.187844753265381 6.111949920654297 6.028919696807861
        5.932406902313232 5.8673553466796875 5.805992603302002 5.71132230758667 5.635217189788818 5.530148029327393
        5.426309585571289 5.316159248352051 5.214083671569824 5.144374370574951 5.090409755706787 5.052391052246094
        5.027047157287598 4.967993259429932 4.87702751159668 4.725813865661621 4.664071559906006 4.5571417808532715
        4.4433465003967285 4.337617874145508 4.2539777755737305 4.129635334014893 3.950195074081421 3.740307331085205
        11.36546516418457 11.945867538452148 12.67728328704834 12.705177307128906 12.363174438476562 11.921833992004395
        11.56080150604248 10.95250415802002 10.768990516662598 11.543867111206055 13.326752662658691 14.841530799865723
        15.56934928894043 15.299792289733887 14.143275260925293 12.542657852172852 10.555228233337402 9.69984245300293
        8.92409896850586 7.35819673538208 6.213274002075195 6.3307671546936035 7.721516132354736 10.313885688781738
        13.362140655517578 16.139501571655273 18.12714385986328 18.82064437866211 17.377431869506836 15.04128646850586
        12.626351356506348 10.565921783447266 9.139982223510742 8.920720100402832 8.86316967010498 10.032508850097656
        11.62452507019043 13.653886795043945 14.33824348449707 14.06318473815918 13.724564552307129 13.225425720214844
        12.341026306152344 11.6846342086792 11.154620170593262 10.805373191833496 10.630281448364258 11.207204818725586
        11.656661033630371 11.780096054077148 11.480978012084961 11.447126388549805 10.988789558410645 10.657570838928223
        10.30576229095459 10.0725679397583 9.786967277526855 9.779830932617188 9.678781509399414 9.641676902770996
        9.716568946838379 9.699211120605469 9.715548515319824 9.871082305908203 10.066946983337402 10.185502052307129
        10.303696632385254 10.396429061889648 10.538511276245117 10.61963939666748 10.720712661743164 10.506134033203125
        10.362409591674805 10.201494216918945 10.009978294372559 9.672768592834473 9.399072647094727 9.14472770690918
        9.200448989868164 9.496922492980957 9.84520435333252 10.049541473388672 10.31129264831543 10.514348983764648
        10.52039623260498 10.266311645507812 9.916747093200684 9.738893508911133 9.595372200012207 9.523643493652344
        9.517667770385742 9.515226364135742 9.50795841217041 9.535019874572754 9.557558059692383 9.545462608337402
        9.54556941986084 9.59021282196045 9.681221008300781 9.703051567077637 9.692612648010254 9.63578987121582
        9.547334671020508 9.55965518951416 9.540040016174316 9.534263610839844 9.42936897277832 9.289166450500488
        9.156179428100586 8.998673439025879 8.877312660217285 8.705183029174805 8.502788543701172 8.38223648071289
        8.28964900970459 8.193445205688477 8.013307571411133 7.868396759033203 7.794499397277832 7.70762300491333
        7.612493515014648 7.499347686767578 7.40153169631958 7.329456329345703 7.207425117492676 7.076878070831299
        6.904387950897217 6.787440776824951 6.71820592880249 6.636764049530029 6.54549503326416 6.4335761070251465
        6.341376781463623 6.287786960601807 6.233283519744873 6.162872314453125 6.060104846954346 5.97370719909668
        5.922945976257324 5.846728324890137 5.755620002746582 5.6302170753479 5.486762523651123 5.388044834136963
        5.286641597747803 5.186725616455078 5.125199317932129 5.058749675750732 5.057476043701172 5.002265453338623
        4.914506912231445 4.785403251647949 4.731019973754883 4.680696964263916 4.622120380401611 4.495708465576172
        4.381567478179932 4.207758903503418 4.046884059906006 3.8774242401123047 11.034406661987305 11.487457275390625
        12.168521881103516 12.6094388961792 12.481962203979492 12.203008651733398 11.888031005859375 11.518238067626953
        11.246599197387695 11.768009185791016 13.035158157348633 14.612227439880371 15.787367820739746 15.746477127075195
        14.631173133850098 12.814234733581543 11.057546615600586 9.500068664550781 8.883129119873047 7.665085792541504
        6.575070858001709 6.457309722900391 6.931687831878662 8.549093246459961 11.960460662841797 15.919478416442871
        18.39751625061035 19.496400833129883 18.42978286743164 16.097545623779297 13.295784950256348 10.930502891540527
        9.074616432189941 8.425437927246094 9.05436897277832 10.413087844848633 11.954200744628906 13.742980003356934
        14.67607307434082 14.410834312438965 13.947874069213867 13.172924041748047 11.98297119140625 11.095962524414062
        10.97605037689209 11.158742904663086 10.891100883483887 11.318402290344238 11.595029830932617 11.573392868041992
        11.358994483947754 11.323134422302246 10.987468719482422 10.703609466552734 10.462026596069336 10.233572006225586
        10.088785171508789 9.978924751281738 9.920332908630371 9.869453430175781 9.946203231811523 9.89633846282959
        9.900596618652344 10.0300874710083 10.15618896484375 10.269033432006836 10.382913589477539 10.513558387756348
        10.7114896774292 10.744973182678223 10.752585411071777 10.592645645141602 10.491618156433105 10.315217018127441
        10.051628112792969 9.638667106628418 9.336884498596191 9.102879524230957 9.14746379852295 9.449270248413086
        9.851654052734375 10.080159187316895 10.352235794067383 10.50473403930664 10.446992874145508 10.26355266571045
        10.057424545288086 9.900660514831543 9.723042488098145 9.64705753326416 9.615313529968262 9.62714672088623
        9.56336784362793 9.581314086914062 9.623383522033691 9.649024963378906 9.677109718322754 9.709832191467285
        9.733739852905273 9.728075981140137 9.726224899291992 9.698528289794922 9.642759323120117 9.64552116394043
        9.634969711303711 9.615860939025879 9.523907661437988 9.379406929016113 9.255355834960938 9.06778621673584
        8.9473237991333 8.807771682739258 8.628822326660156 8.453705787658691 8.308767318725586 8.239006996154785
        8.113157272338867 7.993989944458008 7.892772674560547 7.79606294631958 7.7190704345703125 7.602189540863037
        7.500112533569336 7.427815914154053 7.311427593231201 7.189690589904785 7.021315574645996 6.900446891784668
        6.832150936126709 6.757254600524902 6.679673194885254 6.555006504058838 6.468503952026367 6.408669948577881
        6.349752426147461 6.278664588928223 6.162642002105713 6.07207727432251 6.046280860900879 5.956652641296387
        5.845380783081055 5.695823669433594 5.5700273513793945 5.466439723968506 5.325004577636719 5.217741012573242
        5.130712032318115 5.09680700302124 5.061092376708984 4.99104118347168 4.944990158081055 4.855895519256592
        4.825961589813232 4.7938456535339355 4.758293628692627 4.677868366241455 4.507557392120361 4.373923301696777
        4.254581451416016 4.139965534210205 10.440423965454102 10.705709457397461 11.57264232635498 12.246058464050293
        12.59348201751709 12.309762954711914 11.709051132202148 11.620546340942383 11.568151473999023 11.949722290039062
        12.759561538696289 14.41651725769043 15.840815544128418 16.059097290039062 15.388053894042969 13.761024475097656
        11.924114227294922 10.090926170349121 9.012063980102539 7.800467491149902 7.205506801605225 6.8739333152771
        7.069410800933838 8.518633842468262 12.120746612548828 16.469390869140625 19.510663986206055 20.977582931518555
        19.868797302246094 17.356258392333984 14.136024475097656 11.911666870117188 10.322328567504883 8.909253120422363
        8.938831329345703 10.012497901916504 11.681439399719238 13.297632217407227 14.337058067321777 14.23123836517334
        13.710190773010254 12.914348602294922 11.803115844726562 10.759995460510254 10.830775260925293 10.982861518859863
        11.186714172363281 11.643880844116211 11.94838809967041 11.740094184875488 11.55457878112793 11.132532119750977
        10.858209609985352 10.824331283569336 10.802203178405762 10.429293632507324 10.310983657836914 10.196497917175293
        10.148673057556152 10.088698387145996 10.157191276550293 10.155515670776367 10.142274856567383 10.21741008758545
        10.203579902648926 10.348373413085938 10.463332176208496 10.572248458862305 10.747095108032227 10.836149215698242
        10.858375549316406 10.740442276000977 10.70532512664795 10.451821327209473 10.066327095031738 9.692362785339355
        9.409624099731445 9.234495162963867 9.199298858642578 9.484214782714844 9.854143142700195 10.169464111328125
        10.402984619140625 10.52125358581543 10.461548805236816 10.346200942993164 10.201098442077637 10.09144401550293
        9.938633918762207 9.810302734375 9.733203887939453 9.697622299194336 9.632683753967285 9.658059120178223
        9.731689453125 9.779881477355957 9.826936721801758 9.849568367004395 9.85828971862793 9.817352294921875
        9.808161735534668 9.776524543762207 9.725603103637695 9.733479499816895 9.713217735290527 9.663869857788086
        9.606856346130371 9.520895004272461 9.442328453063965 9.228005409240723 9.085593223571777 8.909760475158691
        8.766968727111816 8.608378410339355 8.402888298034668 8.325321197509766 8.240826606750488 8.146240234375
        8.052001953125 7.931215763092041 7.854724407196045 7.741210460662842 7.6335062980651855 7.555699825286865
        7.411991119384766 7.307285785675049 7.152480602264404 7.043677806854248 6.977261066436768 6.865760326385498
        6.7926506996154785 6.689845085144043 6.626234531402588 6.573588848114014 6.49121618270874 6.43087911605835
        6.292224407196045 6.198423862457275 6.1733245849609375 6.059473037719727 5.949380397796631 5.783997058868408
        5.662603378295898 5.5892462730407715 5.400048732757568 5.296102523803711 5.180213451385498 5.128895282745361
        5.093905448913574 5.017611980438232 5.022215366363525 4.964568138122559 4.908778190612793 4.874917030334473
        4.838592052459717 4.795795440673828 4.6422247886657715 4.542152404785156 4.486092567443848 4.3766279220581055
        9.851329803466797 10.142746925354004 11.207837104797363 11.693808555603027 11.899923324584961 11.598377227783203
        11.316938400268555 11.198720932006836 11.28622055053711 11.390871047973633 12.27602481842041 14.122297286987305
        15.870074272155762 16.04801368713379 15.351303100585938 14.176580429077148 12.609760284423828 10.953559875488281
        9.371964454650879 7.816659927368164 7.533344745635986 7.314986705780029 7.505603790283203 8.977967262268066
        12.48099422454834 16.8642520904541 20.573562622070312 22.0159854888916 20.857593536376953 18.05976104736328
        14.847370147705078 12.660353660583496 11.15226936340332 9.661067962646484 9.32232666015625 10.663183212280273
        11.522502899169922 12.49404239654541 13.264058113098145 13.709683418273926 13.352958679199219 12.84736156463623
        11.817877769470215 10.767946243286133 10.633492469787598 10.658635139465332 11.275873184204102 11.640697479248047
        11.780776977539062 11.557863235473633 11.463329315185547 11.195154190063477 10.958452224731445 10.902562141418457
        10.896974563598633 10.616447448730469 10.444724082946777 10.415534973144531 10.348909378051758 10.331841468811035
        10.363192558288574 10.396941184997559 10.386765480041504 10.369964599609375 10.367883682250977 10.47122573852539
        10.576577186584473 10.679765701293945 10.780187606811523 10.91771125793457 10.972702026367188 10.854083061218262
        10.825943946838379 10.55101490020752 10.10910415649414 9.68903923034668 9.437701225280762 9.318781852722168
        9.354266166687012 9.679144859313965 9.952651023864746 10.228280067443848 10.438167572021484 10.57229232788086
        10.547788619995117 10.448344230651855 10.295602798461914 10.198019981384277 10.094488143920898 9.993118286132812
        9.86282730102539 9.758187294006348 9.72396183013916 9.750129699707031 9.881420135498047 9.907097816467285
        9.912820816040039 9.976218223571777 10.012409210205078 9.989105224609375 9.90638256072998 9.88255500793457
        9.831438064575195 9.864924430847168 9.884078025817871 9.8292875289917 9.751199722290039 9.668588638305664
        9.567594528198242 9.389001846313477 9.191247940063477 9.001343727111816 8.856566429138184 8.710536003112793
        8.550551414489746 8.443365097045898 8.352418899536133 8.2477388381958 8.166053771972656 8.085869789123535
        7.979816913604736 7.857369422912598 7.75683069229126 7.664224147796631 7.527043342590332 7.393481254577637
        7.251818656921387 7.154013633728027 7.097869396209717 6.99008321762085 6.918347358703613 6.817225456237793
        6.757579803466797 6.702384948730469 6.631752014160156 6.54311466217041 6.396124839782715 6.306865215301514
        6.2608842849731445 6.172768592834473 6.031060695648193 5.874824523925781 5.7675557136535645 5.70704984664917
        5.53007698059082 5.424003601074219 5.282197952270508 5.213615417480469 5.193017482757568 5.120904922485352
        5.071448802947998 5.004932880401611 4.968804359436035 4.959585666656494 4.892606735229492 4.8450212478637695
        4.725433826446533 4.656078815460205 4.628598213195801 4.491132736206055 9.101663589477539 9.690495491027832
        10.550134658813477 10.590767860412598 10.562520980834961 10.736541748046875 10.682534217834473 10.285961151123047
        10.7391357421875 10.573742866516113 11.388272285461426 13.467774391174316 15.352470397949219 15.269549369812012
        14.728779792785645 13.980704307556152 12.880756378173828 11.27936840057373 9.778305053710938 8.499662399291992
        8.182487487792969 8.25833797454834 8.688899040222168 9.883232116699219 12.895674705505371 16.933652877807617
        20.678922653198242 21.8991756439209 20.943134307861328 18.640838623046875 15.749052047729492 13.31258773803711
        11.200815200805664 9.856021881103516 9.664454460144043 11.117393493652344 11.463312149047852 12.023786544799805
        12.814898490905762 13.608272552490234 13.152746200561523 12.526127815246582 11.742803573608398 10.977798461914062
        10.665804862976074 10.818567276000977 11.414830207824707 11.6009521484375 11.49597454071045 11.365184783935547
        11.3512601852417 11.22164535522461 11.014861106872559 10.995635986328125 10.907206535339355 10.80195426940918
        10.655542373657227 10.618568420410156 10.516478538513184 10.49754810333252 10.559405326843262 10.554872512817383
        10.519680976867676 10.46502685546875 10.442023277282715 10.511998176574707 10.58445930480957 10.652544021606445
        10.77003288269043 10.886962890625 10.971866607666016 10.896510124206543 10.814440727233887 10.638327598571777
        10.259175300598145 9.915120124816895 9.591902732849121 9.418708801269531 9.49120044708252 9.826817512512207
        10.078779220581055 10.278215408325195 10.452239990234375 10.699423789978027 10.690340995788574 10.610276222229004
        10.378548622131348 10.257768630981445 10.122915267944336 9.99821662902832 9.870872497558594 9.772414207458496
        9.765547752380371 9.837684631347656 10.010214805603027 10.109395027160645 10.078995704650879 10.084017753601074
        10.138720512390137 10.073020935058594 10.039546012878418 10.00699520111084 9.943872451782227 9.97747802734375
        10.029582023620605 10.011832237243652 9.887697219848633 9.794770240783691 9.671250343322754 9.492934226989746
        9.311271667480469 9.073824882507324 8.911208152770996 8.779047966003418 8.665173530578613 8.549015045166016
        8.399971008300781 8.28408432006836 8.204313278198242 8.162330627441406 8.0798978805542 7.943479061126709
        7.848545551300049 7.739555358886719 7.618906021118164 7.496856689453125 7.348891258239746 7.251796722412109
        7.164924144744873 7.082841396331787 7.035646915435791 6.941308975219727 6.857789516448975 6.79889440536499
        6.715684413909912 6.6202545166015625 6.484602451324463 6.381433486938477 6.321714401245117 6.2368597984313965
        6.0971269607543945 5.951070308685303 5.836790561676025 5.737459659576416 5.642241477966309 5.545723915100098
        5.432346343994141 5.349618911743164 5.291879653930664 5.218513488769531 5.122854232788086 5.064448356628418
        5.060188293457031 5.03176212310791 4.956422328948975 4.877933502197266 4.807520866394043 4.784283638000488
        4.736116886138916 4.577641487121582 8.801262855529785 9.146466255187988 9.586135864257812 9.634153366088867
        9.693525314331055 10.156905174255371 10.231725692749023 9.865410804748535 10.06253719329834 9.917769432067871
        10.598308563232422 12.258100509643555 14.204703330993652 14.314515113830566 14.271726608276367 13.696036338806152
        12.542415618896484 11.0757474899292 9.823079109191895 8.77221965789795 8.513394355773926 8.735812187194824
        9.196242332458496 10.209534645080566 12.816864013671875 16.750215530395508 20.1385555267334 21.260690689086914
        20.492647171020508 18.45249366760254 15.995404243469238 13.481205940246582 11.404959678649902 10.38137149810791
        10.323355674743652 11.915122032165527 12.706483840942383 13.36526107788086 13.828460693359375 14.02735424041748
        13.086580276489258 12.163653373718262 11.421151161193848 11.109105110168457 10.869534492492676 11.193592071533203
        11.306462287902832 11.476724624633789 11.323773384094238 11.21095085144043 11.228487968444824 11.322759628295898
        11.162287712097168 11.160843849182129 11.038290977478027 10.990715980529785 10.854415893554688 10.778908729553223
        10.721923828125 10.693622589111328 10.7027587890625 10.585532188415527 10.548882484436035 10.561713218688965
        10.632761001586914 10.605624198913574 10.659599304199219 10.67742919921875 10.787520408630371 10.918241500854492
        11.023270606994629 10.946839332580566 10.825296401977539 10.708467483520508 10.443456649780273 10.065961837768555
        9.682191848754883 9.45029067993164 9.495072364807129 9.801093101501465 10.111233711242676 10.232609748840332
        10.450878143310547 10.800886154174805 10.910906791687012 10.789016723632812 10.472238540649414 10.356538772583008
        10.213796615600586 10.067121505737305 9.911489486694336 9.83853816986084 9.80532169342041 9.894679069519043
        10.055529594421387 10.186199188232422 10.16146469116211 10.156299591064453 10.205113410949707 10.153243064880371
        10.122065544128418 10.091259956359863 10.027966499328613 10.037428855895996 10.094477653503418 10.106255531311035
        9.98338508605957 9.863183975219727 9.738161087036133 9.575981140136719 9.399551391601562 9.172258377075195
        8.976082801818848 8.859856605529785 8.738698959350586 8.609643936157227 8.456713676452637 8.34435749053955
        8.282014846801758 8.21232795715332 8.157365798950195 8.052709579467773 7.932815074920654 7.840357780456543
        7.726059913635254 7.60786771774292 7.460525035858154 7.354735374450684 7.278927326202393 7.220186233520508
        7.1701741218566895 7.073531627655029 6.974266052246094 6.9178080558776855 6.833158493041992 6.753764629364014
        6.63360071182251 6.4997453689575195 6.4311323165893555 6.347827434539795 6.209447383880615 6.028526306152344
        5.897590637207031 5.812918663024902 5.769326686859131 5.686647891998291 5.596491813659668 5.493648529052734
        5.422633647918701 5.326623916625977 5.239573955535889 5.183538436889648 5.176758289337158 5.167773723602295
        5.094535827636719 4.9732537269592285 4.884110450744629 4.859759330749512 4.891826629638672 4.798824310302734
        9.077765464782715 9.047004699707031 9.163643836975098 9.116177558898926 9.467419624328613 10.202648162841797
        10.345636367797852 10.02212142944336 9.771194458007812 9.708062171936035 10.021157264709473 11.317923545837402
        12.713821411132812 12.974077224731445 13.038315773010254 12.936030387878418 12.29089641571045 11.380725860595703
        10.521706581115723 9.365002632141113 8.498120307922363 8.666154861450195 8.981744766235352 10.014704704284668
        12.639249801635742 16.387920379638672 19.0101261138916 20.128490447998047 20.174299240112305 18.670433044433594
        16.578256607055664 14.66840648651123 12.968093872070312 11.596970558166504 11.610922813415527 12.655957221984863
        13.592000961303711 14.33094310760498 14.618144989013672 13.853507995605469 12.842286109924316 12.084182739257812
        11.575322151184082 11.328571319580078 11.296109199523926 11.444080352783203 11.401241302490234 11.458962440490723
        11.493387222290039 11.279069900512695 11.295677185058594 11.322304725646973 11.259562492370605 11.230846405029297
        11.260664939880371 11.146919250488281 10.950671195983887 10.850495338439941 10.837844848632812 10.877204895019531
        10.879766464233398 10.724018096923828 10.620030403137207 10.629270553588867 10.587010383605957 10.48416519165039
        10.547903060913086 10.621039390563965 10.739566802978516 10.870525360107422 11.008933067321777 10.946686744689941
        10.848790168762207 10.706035614013672 10.463756561279297 10.153364181518555 9.83321762084961 9.55034065246582
        9.502673149108887 9.714041709899902 10.03628158569336 10.229127883911133 10.43974781036377 10.758173942565918
        10.903514862060547 10.858967781066895 10.63943099975586 10.52275276184082 10.31498908996582 10.132436752319336
        9.935040473937988 9.9395112991333 9.944948196411133 10.026226043701172 10.106585502624512 10.206378936767578
        10.246052742004395 10.253045082092285 10.270729064941406 10.213506698608398 10.194466590881348 10.20182991027832
        10.155845642089844 10.121609687805176 10.110902786254883 10.117757797241211 10.008241653442383 9.906574249267578
        9.775196075439453 9.641691207885742 9.492064476013184 9.31116008758545 9.09730052947998 8.940909385681152
        8.793342590332031 8.696538925170898 8.575525283813477 8.450551986694336 8.367021560668945 8.265923500061035
        8.22861385345459 8.136027336120605 8.015454292297363 7.907718181610107 7.780956268310547 7.673444747924805
        7.5421462059021 7.4535956382751465 7.381198883056641 7.3063225746154785 7.26427698135376 7.151351451873779
        7.057108402252197 7.009984016418457 6.917402267456055 6.852667808532715 6.726901531219482 6.609477996826172
        6.490201473236084 6.362521648406982 6.263979434967041 6.113401889801025 6.002377986907959 5.896275043487549
        5.826414585113525 5.783478736877441 5.697314262390137 5.6034321784973145 5.511379241943359 5.371001720428467
        5.286458969116211 5.22614860534668 5.220767498016357 5.228928089141846 5.147461891174316 5.045696258544922
        4.976823329925537 4.952247142791748 4.9895219802856445 4.9143452644348145 9.215815544128418 9.192949295043945
        9.3076171875 9.370448112487793 9.495612144470215 9.881827354431152 10.080472946166992 10.228921890258789
        9.795621871948242 9.589229583740234 9.619019508361816 11.0925874710083 12.512149810791016 13.231035232543945
        13.087438583374023 12.910478591918945 12.179374694824219 11.40883731842041 10.586827278137207 9.822038650512695
        8.786964416503906 9.15676498413086 9.91733455657959 11.1607027053833 13.076061248779297 15.918340682983398
        17.81387710571289 18.72852325439453 19.52281951904297 18.869661331176758 17.253664016723633 15.089930534362793
        13.662070274353027 12.360456466674805 12.362218856811523 13.286012649536133 14.073392868041992 14.421114921569824
        14.501651763916016 13.666015625 12.69601821899414 12.082107543945312 11.839815139770508 11.49223804473877
        11.716797828674316 11.551066398620605 11.493990898132324 11.405657768249512 11.473840713500977 11.198535919189453
        11.286680221557617 11.278413772583008 11.323236465454102 11.348892211914062 11.408041954040527 11.181684494018555
        10.991766929626465 10.891119003295898 10.862245559692383 10.927756309509277 11.042481422424316 10.936196327209473
        10.734619140625 10.69900131225586 10.667628288269043 10.551277160644531 10.463305473327637 10.537436485290527
        10.637951850891113 10.756048202514648 10.872448921203613 10.920222282409668 10.904362678527832 10.709811210632324
        10.434187889099121 10.154314041137695 9.974617958068848 9.713456153869629 9.643341064453125 9.698448181152344
        9.928925514221191 10.114975929260254 10.390470504760742 10.669074058532715 10.886287689208984 10.914628028869629
        10.79802131652832 10.700397491455078 10.563868522644043 10.39036750793457 10.124375343322754 9.957474708557129
        9.973830223083496 10.113632202148438 10.216015815734863 10.231633186340332 10.306318283081055 10.402027130126953
        10.449801445007324 10.351167678833008 10.255789756774902 10.263585090637207 10.247016906738281 10.25632095336914
        10.152952194213867 10.118929862976074 9.99489974975586 9.932880401611328 9.84305477142334 9.72475528717041
        9.573273658752441 9.42927074432373 9.26444149017334 9.100805282592773 8.889688491821289 8.802207946777344
        8.709549903869629 8.581669807434082 8.477746963500977 8.363333702087402 8.30953311920166 8.228816986083984
        8.102493286132812 7.973016262054443 7.828126907348633 7.730407238006592 7.637524127960205 7.572542190551758
        7.5153889656066895 7.407465934753418 7.35826301574707 7.269271373748779 7.170538425445557 7.114731788635254
        6.987686634063721 6.935002326965332 6.825622081756592 6.722315788269043 6.607519626617432 6.408421993255615
        6.303750038146973 6.1886491775512695 6.117955684661865 6.02644681930542 5.888762474060059 5.839415550231934
        5.739053249359131 5.6611714363098145 5.5918755531311035 5.450362682342529 5.3647589683532715 5.248256683349609
        5.22086238861084 5.252289295196533 5.192800521850586 5.1484832763671875 5.067862033843994 5.029820442199707
        5.041600227355957 4.974611759185791 10.59091854095459 10.088850021362305 9.746696472167969 9.57498836517334
        9.552680015563965 9.509286880493164 9.530415534973145 9.545160293579102 9.188216209411621 9.449371337890625
        9.46817684173584 10.641877174377441 11.667224884033203 12.406709671020508 12.404383659362793 12.387609481811523
        12.120132446289062 11.386188507080078 10.486034393310547 9.912408828735352 9.604952812194824 10.167207717895508
        10.9278564453125 12.46937370300293 13.464366912841797 14.775906562805176 16.045774459838867 17.18950843811035
        18.437875747680664 18.53380012512207 17.505428314208984 15.432042121887207 14.082864761352539 13.1262788772583
        13.030739784240723 13.527073860168457 14.0071439743042 14.028433799743652 14.051849365234375 13.478540420532227
        12.798227310180664 12.121092796325684 11.970229148864746 11.54638385772705 11.737739562988281 11.495305061340332
        11.693880081176758 11.61243724822998 11.463074684143066 11.243426322937012 11.346198081970215 11.307673454284668
        11.396001815795898 11.367871284484863 11.446859359741211 11.158747673034668 11.074359893798828 11.052207946777344
        11.007604598999023 11.095174789428711 11.196518898010254 11.196146965026855 11.006720542907715 10.82120418548584
        10.758975982666016 10.565369606018066 10.396796226501465 10.496589660644531 10.585854530334473 10.722342491149902
        10.721121788024902 10.831520080566406 10.897050857543945 10.705255508422852 10.479850769042969 10.263116836547852
        10.157816886901855 9.933464050292969 9.862933158874512 9.905098915100098 9.90782356262207 9.99937629699707
        10.256654739379883 10.544708251953125 10.811529159545898 11.062739372253418 11.020709037780762 10.911935806274414
        10.724714279174805 10.57419204711914 10.209904670715332 9.95824909210205 9.946553230285645 10.134833335876465
        10.322332382202148 10.361352920532227 10.439641952514648 10.548688888549805 10.571168899536133 10.481608390808105
        10.316384315490723 10.28597640991211 10.281569480895996 10.284967422485352 10.238569259643555 10.138120651245117
        10.043522834777832 9.976085662841797 9.917230606079102 9.830341339111328 9.676004409790039 9.502890586853027
        9.371552467346191 9.228314399719238 9.054000854492188 8.907711029052734 8.776673316955566 8.650639533996582
        8.547715187072754 8.490214347839355 8.38807487487793 8.286551475524902 8.172125816345215 8.046685218811035
        7.915362358093262 7.799479961395264 7.714664936065674 7.652392864227295 7.601358413696289 7.501084327697754
        7.423329830169678 7.349739074707031 7.2718682289123535 7.2197113037109375 7.0954060554504395 6.989777088165283
        6.871566295623779 6.792219161987305 6.697098731994629 6.505216598510742 6.3615617752075195 6.2565598487854
        6.183198928833008 6.113675594329834 5.990750312805176 5.92304801940918 5.810164451599121 5.726639270782471
        5.6551055908203125 5.564173221588135 5.4457550048828125 5.30185079574585 5.255003929138184 5.281533241271973
        5.246745586395264 5.2034077644348145 5.136687755584717 5.096623420715332 5.073245525360107 5.006555557250977
        11.057989120483398 10.791650772094727 10.287803649902344 9.95521354675293 9.73283863067627 9.37057876586914
        9.042181968688965 8.718788146972656 8.643696784973145 8.891077995300293 9.132664680480957 9.934505462646484
        10.744616508483887 11.43792724609375 11.56882381439209 11.703234672546387 11.5341796875 10.906244277954102
        10.154974937438965 10.133106231689453 10.617593765258789 11.692462921142578 12.380966186523438 13.953189849853516
        14.532651901245117 14.493131637573242 15.201753616333008 16.304065704345703 17.492643356323242 17.866127014160156
        17.380701065063477 15.617021560668945 14.322203636169434 13.617101669311523 13.278388023376465 13.28185749053955
        13.623332023620605 13.717581748962402 14.052760124206543 13.727214813232422 13.370047569274902 12.561140060424805
        12.129548072814941 11.728915214538574 11.65351676940918 11.570487976074219 11.71591854095459 11.689152717590332
        11.506014823913574 11.419255256652832 11.487066268920898 11.363959312438965 11.352651596069336 11.486799240112305
        11.510614395141602 11.359786987304688 11.24179744720459 11.18488597869873 11.12967300415039 11.144030570983887
        11.311577796936035 11.315666198730469 11.10158920288086 10.922367095947266 10.83537769317627 10.640195846557617
        10.427282333374023 10.477489471435547 10.619040489196777 10.662897109985352 10.702011108398438 10.78738784790039
        10.816938400268555 10.75536823272705 10.603918075561523 10.510934829711914 10.317317962646484 10.10705280303955
        9.976882934570312 9.903536796569824 9.828415870666504 9.930166244506836 10.180856704711914 10.55398941040039
        10.89587116241455 11.285075187683105 11.293066024780273 11.132233619689941 10.910735130310059 10.734041213989258
        10.373112678527832 10.067190170288086 9.985633850097656 10.107439041137695 10.300548553466797 10.447039604187012
        10.565119743347168 10.665197372436523 10.66984748840332 10.53886604309082 10.435799598693848 10.33796501159668
        10.274727821350098 10.270962715148926 10.252737998962402 10.186919212341309 10.099242210388184 10.067452430725098
        10.046014785766602 9.936239242553711 9.810296058654785 9.594679832458496 9.475128173828125 9.325708389282227
        9.142010688781738 8.978989601135254 8.798567771911621 8.666433334350586 8.591442108154297 8.5483980178833
        8.445433616638184 8.326866149902344 8.238025665283203 8.122922897338867 8.006362915039062 7.915387153625488
        7.808136940002441 7.723287582397461 7.669184684753418 7.585146903991699 7.50767183303833 7.432225704193115
        7.3695149421691895 7.303144454956055 7.201896667480469 7.088427543640137 6.951172351837158 6.857060432434082
        6.752224922180176 6.589290618896484 6.451220512390137 6.3347063064575195 6.244025707244873 6.160781383514404
        6.090647220611572 6.016168594360352 5.900717258453369 5.783510684967041 5.677391052246094 5.625707149505615
        5.559497356414795 5.4443678855896 5.347156047821045 5.302068710327148 5.2858147621154785 5.235533237457275
        5.19414758682251 5.158107757568359 5.112668037414551 5.042587757110596 12.339553833007812 11.920957565307617
        11.161933898925781 10.335859298706055 9.972453117370605 9.491880416870117 8.990049362182617 8.563807487487793
        8.496321678161621 8.702094078063965 9.199935913085938 9.662017822265625 10.02095890045166 10.314949989318848
        10.920406341552734 11.278769493103027 10.999194145202637 10.617183685302734 10.50136947631836 11.015152931213379
        11.975778579711914 13.044914245605469 13.630382537841797 14.59325885772705 15.185453414916992 15.118707656860352
        15.248770713806152 15.960484504699707 16.803503036499023 16.98185920715332 16.524097442626953 15.614622116088867
        14.564647674560547 14.294568061828613 13.99030590057373 13.772379875183105 13.383893013000488 13.519232749938965
        14.01347827911377 13.848773956298828 13.368098258972168 12.763602256774902 12.416916847229004 11.985127449035645
        11.672533988952637 11.656670570373535 11.516335487365723 11.505139350891113 11.53719711303711 11.586359024047852
        11.512389183044434 11.34553337097168 11.26843547821045 11.480616569519043 11.553157806396484 11.485321998596191
        11.355575561523438 11.287562370300293 11.23156452178955 11.289336204528809 11.366889953613281 11.231928825378418
        11.043922424316406 10.98825454711914 10.931877136230469 10.657062530517578 10.447586059570312 10.506153106689453
        10.644721031188965 10.692930221557617 10.736062049865723 10.702432632446289 10.73216438293457 10.74817943572998
        10.757750511169434 10.65931510925293 10.410965919494629 10.198586463928223 10.063186645507812 9.938206672668457
        9.864177703857422 9.968920707702637 10.240324020385742 10.537084579467773 10.921463012695312 11.372081756591797
        11.502800941467285 11.39001178741455 11.15526008605957 10.950458526611328 10.576699256896973 10.251941680908203
        10.127740859985352 10.136343002319336 10.253474235534668 10.482677459716797 10.649901390075684 10.748207092285156
        10.75468635559082 10.653079986572266 10.572850227355957 10.427565574645996 10.308880805969238 10.276289939880371
        10.297490119934082 10.271259307861328 10.166157722473145 10.148737907409668 10.147054672241211 10.045132637023926
        9.897181510925293 9.699653625488281 9.554435729980469 9.390904426574707 9.209674835205078 9.054436683654785
        8.898628234863281 8.739045143127441 8.655204772949219 8.579864501953125 8.502161979675293 8.402352333068848
        8.294707298278809 8.209573745727539 8.123815536499023 8.024656295776367 7.899237632751465 7.795022010803223
        7.744757175445557 7.679981231689453 7.617486953735352 7.5199151039123535 7.43171501159668 7.3824310302734375
        7.294387340545654 7.178657054901123 7.037098407745361 6.906774044036865 6.804389953613281 6.677173137664795
        6.552696704864502 6.434976100921631 6.341914653778076 6.25381326675415 6.171689987182617 6.092868804931641
        5.98657751083374 5.852490425109863 5.7642436027526855 5.693196773529053 5.6087164878845215 5.53372859954834
        5.4531965255737305 5.415554046630859 5.3666229248046875 5.312434196472168 5.277210712432861 5.245237350463867
        5.216649055480957 5.141643524169922 12.847311973571777 12.596781730651855 12.091376304626465 10.978513717651367
        10.359968185424805 9.912369728088379 9.573705673217773 9.250990867614746 8.907991409301758 8.725714683532715
        8.976908683776855 9.664199829101562 10.047168731689453 10.143204689025879 10.696136474609375 11.029985427856445
        10.775443077087402 10.818641662597656 10.90317153930664 11.935195922851562 13.187406539916992 14.615398406982422
        15.328007698059082 15.518099784851074 15.71052360534668 15.798707962036133 16.065458297729492 16.29003143310547
        16.40812110900879 16.109189987182617 15.71679973602295 15.345937728881836 14.73393726348877 14.68066692352295
        14.791875839233398 14.418789863586426 13.938274383544922 13.812188148498535 14.363760948181152 14.182150840759277
        13.595211029052734 12.808444023132324 12.449028015136719 12.058761596679688 11.87752914428711 11.886580467224121
        11.693132400512695 11.472722053527832 11.548192024230957 11.550103187561035 11.55689525604248 11.399715423583984
        11.367053985595703 11.447319030761719 11.516403198242188 11.473631858825684 11.398273468017578 11.389939308166504
        11.369170188903809 11.362937927246094 11.380206108093262 11.187581062316895 11.028453826904297 10.9647798538208
        10.917799949645996 10.639914512634277 10.509777069091797 10.646116256713867 10.721421241760254 10.690789222717285
        10.728273391723633 10.698878288269043 10.721027374267578 10.803861618041992 10.852438926696777 10.721141815185547
        10.534823417663574 10.358774185180664 10.180686950683594 9.922789573669434 9.812442779541016 9.883214950561523
        10.213362693786621 10.514420509338379 11.036499977111816 11.47126293182373 11.648200035095215 11.557401657104492
        11.378413200378418 11.083868026733398 10.67949104309082 10.412907600402832 10.311478614807129 10.268006324768066
        10.327692985534668 10.52505874633789 10.716055870056152 10.836298942565918 10.852850914001465 10.780879974365234
        10.689435958862305 10.610269546508789 10.45831298828125 10.37739086151123 10.315505027770996 10.282666206359863
        10.217144966125488 10.22133731842041 10.2055025100708 10.121665954589844 10.009049415588379 9.865344047546387
        9.678186416625977 9.490015983581543 9.290002822875977 9.160669326782227 9.01934814453125 8.861443519592285
        8.742313385009766 8.642858505249023 8.604042053222656 8.495357513427734 8.363868713378906 8.25220012664795
        8.160774230957031 8.085713386535645 7.962779521942139 7.872101306915283 7.804205894470215 7.734623432159424
        7.705613613128662 7.609170436859131 7.514800548553467 7.455832481384277 7.337888717651367 7.2339396476745605
        7.097923755645752 6.971281051635742 6.860558986663818 6.733944416046143 6.638145446777344 6.497068881988525
        6.412038803100586 6.318088531494141 6.199906349182129 6.136777400970459 6.047481060028076 5.919970989227295
        5.795743942260742 5.699623107910156 5.674670696258545 5.622258186340332 5.544004440307617 5.472326278686523
        5.422006130218506 5.385058879852295 5.320882797241211 5.290895938873291 5.2357048988342285 5.14453125
        13.546711921691895 13.337677955627441 12.816332817077637 11.795732498168945 11.34941291809082 10.989375114440918
        10.46527099609375 9.93702507019043 9.456026077270508 9.043954849243164 9.008905410766602 9.600692749023438
        10.195732116699219 10.3909273147583 10.688838005065918 10.974638938903809 11.02065372467041 10.988933563232422
        11.21168327331543 12.39615535736084 13.431563377380371 14.763092041015625 15.608551979064941 15.642633438110352
        15.7354154586792 15.831903457641602 16.047767639160156 16.086841583251953 16.004474639892578 15.610709190368652
        15.287471771240234 15.065543174743652 14.848851203918457 14.5853853225708 14.873668670654297 14.758105278015137
        14.486371994018555 14.039481163024902 14.419402122497559 14.310540199279785 13.956343650817871 13.075723648071289
        12.639134407043457 12.059454917907715 11.94340991973877 11.854231834411621 11.850834846496582 11.645394325256348
        11.724225044250488 11.568887710571289 11.619426727294922 11.544549942016602 11.539352416992188 11.485061645507812
        11.513472557067871 11.501896858215332 11.447205543518066 11.387497901916504 11.42361068725586 11.38716983795166
        11.375616073608398 11.17341423034668 11.057209968566895 11.000608444213867 10.893184661865234 10.694440841674805
        10.597201347351074 10.719745635986328 10.721322059631348 10.650463104248047 10.72347640991211 10.730107307434082
        10.72021198272705 10.739998817443848 10.770905494689941 10.72695541381836 10.704075813293457 10.507214546203613
        10.278279304504395 10.01461410522461 9.862947463989258 9.781365394592285 10.046208381652832 10.312641143798828
        10.921656608581543 11.409711837768555 11.695298194885254 11.615750312805176 11.462605476379395 11.187234878540039
        10.835702896118164 10.528478622436523 10.426600456237793 10.411431312561035 10.482396125793457 10.606011390686035
        10.745850563049316 10.86088752746582 10.935924530029297 10.887526512145996 10.799935340881348 10.779356956481934
        10.65818977355957 10.534480094909668 10.395867347717285 10.317464828491211 10.25717544555664 10.251594543457031
        10.221633911132812 10.143075942993164 10.063668251037598 9.984932899475098 9.846930503845215 9.675677299499512
        9.442586898803711 9.261628150939941 9.109919548034668 8.97551155090332 8.868339538574219 8.719754219055176
        8.663880348205566 8.578320503234863 8.442187309265137 8.3085355758667 8.202237129211426 8.123181343078613
        8.038873672485352 7.954376220703125 7.891727924346924 7.791049003601074 7.751709938049316 7.699113845825195
        7.61539363861084 7.54341459274292 7.370689868927002 7.276272296905518 7.1593403816223145 7.07275390625
        6.968486309051514 6.829896450042725 6.720226287841797 6.596458911895752 6.532873630523682 6.458624362945557
        6.279073238372803 6.194730758666992 6.101025581359863 6.025277614593506 5.927472114562988 5.786326885223389
        5.725858688354492 5.6761393547058105 5.6324143409729 5.582400798797607 5.487557888031006 5.4517292976379395
        5.368317604064941 5.31206750869751 5.2791428565979 5.18629789352417 14.67535400390625 14.290314674377441
        13.770825386047363 12.725838661193848 11.956199645996094 11.680180549621582 11.318913459777832 10.776019096374512
        10.33150577545166 9.954127311706543 9.523649215698242 9.596000671386719 9.999629020690918 10.275338172912598
        10.559829711914062 11.276423454284668 11.615209579467773 11.628600120544434 11.601913452148438 12.615707397460938
        13.265722274780273 14.40303897857666 15.028070449829102 15.334373474121094 15.455294609069824 15.619465827941895
        15.879993438720703 15.69914436340332 15.807366371154785 15.66998291015625 15.495705604553223 15.091851234436035
        15.100119590759277 14.852681159973145 14.762208938598633 14.445392608642578 14.445833206176758 13.974997520446777
        14.086977005004883 14.086490631103516 14.005635261535645 13.194948196411133 12.83957576751709 12.259374618530273
        12.001941680908203 11.656502723693848 11.735539436340332 11.813681602478027 11.916184425354004 11.819803237915039
        11.816694259643555 11.71161937713623 11.803793907165527 11.754307746887207 11.806841850280762 11.693927764892578
        11.645330429077148 11.568178176879883 11.532413482666016 11.523550033569336 11.434516906738281 11.25670337677002
        11.19631576538086 11.077519416809082 10.947664260864258 10.72012996673584 10.613564491271973 10.761041641235352
        10.761579513549805 10.73614501953125 10.667110443115234 10.690718650817871 10.713483810424805 10.697379112243652
        10.744099617004395 10.796846389770508 10.818835258483887 10.669295310974121 10.378775596618652 10.059165000915527
        9.770987510681152 9.703375816345215 9.873324394226074 10.164738655090332 10.78653621673584 11.33470630645752
        11.58888053894043 11.537936210632324 11.399341583251953 11.192118644714355 10.942420959472656 10.732369422912598
        10.611418724060059 10.590363502502441 10.685859680175781 10.760952949523926 10.844106674194336 10.929634094238281
        11.052087783813477 11.049219131469727 10.956698417663574 10.863777160644531 10.759535789489746 10.606226921081543
        10.497208595275879 10.348997116088867 10.285886764526367 10.26881217956543 10.194486618041992 10.162416458129883
        10.14427375793457 10.088269233703613 9.985026359558105 9.823628425598145 9.610088348388672 9.3303804397583
        9.169524192810059 9.0698881149292 8.951151847839355 8.819573402404785 8.720499992370605 8.651305198669434
        8.526554107666016 8.383835792541504 8.298563957214355 8.18857192993164 8.13825511932373 8.081277847290039
        8.022452354431152 7.9196882247924805 7.849259376525879 7.795107364654541 7.722425937652588 7.64394474029541
        7.507290840148926 7.3928632736206055 7.254551887512207 7.167110919952393 7.062916278839111 6.9375786781311035
        6.787302494049072 6.670897006988525 6.613758087158203 6.5453572273254395 6.382396697998047 6.275084018707275
        6.171626567840576 6.115224838256836 6.027777671813965 5.893412113189697 5.820215702056885 5.769322395324707
        5.723104953765869 5.656991958618164 5.585178852081299 5.535617828369141 5.465487003326416 5.383637428283691
        5.3384623527526855 5.232116222381592 15.448634147644043 15.629605293273926 15.133636474609375 14.012473106384277
        12.94963550567627 12.546021461486816 12.093302726745605 11.578760147094727 11.048337936401367 10.944231033325195
        10.3834867477417 10.233162879943848 10.262489318847656 10.551734924316406 10.958507537841797 11.985736846923828
        12.467635154724121 12.229948043823242 12.309310913085938 12.966018676757812 13.332716941833496 13.82085132598877
        14.320602416992188 14.646666526794434 14.86977767944336 15.032468795776367 15.289361953735352 15.422682762145996
        15.99279499053955 16.14484977722168 16.043336868286133 15.376851081848145 15.077674865722656 14.982954978942871
        14.79488468170166 14.627073287963867 14.551889419555664 14.100996971130371 13.720548629760742 13.718632698059082
        13.777264595031738 13.341482162475586 13.04906940460205 12.568984031677246 12.042211532592773 11.659116744995117
        11.72276496887207 11.854486465454102 11.959739685058594 11.975814819335938 11.989741325378418 11.870026588439941
        11.961009979248047 12.027503967285156 11.983851432800293 11.888507843017578 11.74952507019043 11.656142234802246
        11.531594276428223 11.483182907104492 11.458101272583008 11.292417526245117 11.215582847595215 11.183099746704102
        11.057828903198242 10.85544204711914 10.673799514770508 10.710023880004883 10.722503662109375 10.666040420532227
        10.604089736938477 10.642473220825195 10.676401138305664 10.746847152709961 10.814613342285156 10.901033401489258
        10.822945594787598 10.696412086486816 10.488521575927734 10.157843589782715 9.842863082885742 9.693714141845703
        9.748591423034668 10.123039245605469 10.64769458770752 11.164920806884766 11.428325653076172 11.368395805358887
        11.301004409790039 11.205297470092773 11.110770225524902 10.871903419494629 10.728891372680664 10.655994415283203
        10.722707748413086 10.882437705993652 11.008267402648926 11.054777145385742 11.13369369506836 11.137632369995117
        11.072671890258789 10.861078262329102 10.741108894348145 10.639202117919922 10.528905868530273 10.413259506225586
        10.329845428466797 10.280282974243164 10.239176750183105 10.229514122009277 10.26634407043457 10.177160263061523
        10.084526062011719 9.969715118408203 9.751774787902832 9.50369644165039 9.306112289428711 9.173877716064453
        9.012202262878418 8.885017395019531 8.796425819396973 8.697550773620605 8.597846031188965 8.485451698303223
        8.394142150878906 8.311424255371094 8.260470390319824 8.192642211914062 8.131396293640137 8.045513153076172
        7.996219158172607 7.900707721710205 7.800180435180664 7.704808712005615 7.592223167419434 7.5052642822265625
        7.3596391677856445 7.249353408813477 7.164216995239258 7.037872314453125 6.884228229522705 6.739612579345703
        6.667666435241699 6.626488208770752 6.506014823913574 6.370959758758545 6.2286529541015625 6.170540809631348
        6.098631381988525 5.9914093017578125 5.866157054901123 5.80366849899292 5.7448859214782715 5.650639057159424
        5.5866804122924805 5.558871746063232 5.54323148727417 5.442002773284912 5.357303142547607 5.27250862121582
        15.490958213806152 16.017337799072266 15.91468620300293 15.180429458618164 13.900384902954102 13.291370391845703
        12.800407409667969 12.2551908493042 11.633380889892578 11.359919548034668 10.934976577758789 10.926698684692383
        10.751714706420898 11.110733032226562 11.421541213989258 12.532230377197266 13.075247764587402 13.00515365600586
        13.128620147705078 13.450699806213379 13.550764083862305 13.526738166809082 13.9073486328125 14.355464935302734
        14.611467361450195 14.678207397460938 14.903589248657227 15.096159934997559 15.894457817077637 16.115158081054688
        16.05282211303711 15.377267837524414 14.854766845703125 15.040862083435059 15.092591285705566 15.060866355895996
        14.719656944274902 14.394636154174805 13.830421447753906 13.519708633422852 13.476709365844727 13.264522552490234
        13.074542999267578 12.808878898620605 12.376136779785156 11.995512962341309 11.887012481689453 11.902449607849121
        12.032842636108398 12.028775215148926 12.11279010772705 11.917447090148926 12.02227783203125 12.164386749267578
        12.165474891662598 12.000383377075195 11.809077262878418 11.773259162902832 11.66325569152832 11.581808090209961
        11.473649978637695 11.279489517211914 11.155197143554688 11.140495300292969 11.127935409545898 10.949210166931152
        10.766215324401855 10.713408470153809 10.708900451660156 10.697157859802246 10.630082130432129 10.611407279968262
        10.653326034545898 10.749237060546875 10.893392562866211 10.92653751373291 10.744962692260742 10.590893745422363
        10.531558990478516 10.335586547851562 10.01930046081543 9.734516143798828 9.717423439025879 10.20589542388916
        10.85221004486084 11.260711669921875 11.257696151733398 11.234542846679688 11.159950256347656 11.1656494140625
        11.099790573120117 10.886154174804688 10.800641059875488 10.766469955444336 10.831067085266113 11.02856159210205
        11.137938499450684 11.1576509475708 11.2261323928833 11.27636432647705 11.1515474319458 10.860088348388672
        10.723515510559082 10.660624504089355 10.561381340026855 10.474695205688477 10.417451858520508 10.350902557373047
        10.363058090209961 10.40835952758789 10.431960105895996 10.302725791931152 10.177190780639648 10.045001029968262
        9.837050437927246 9.646674156188965 9.456254959106445 9.274449348449707 9.08923053741455 8.937992095947266
        8.840765953063965 8.732328414916992 8.636772155761719 8.55856990814209 8.492063522338867 8.411335945129395
        8.339245796203613 8.260334968566895 8.211179733276367 8.150251388549805 8.100905418395996 8.008401870727539
        7.890503406524658 7.786964416503906 7.67698335647583 7.590965747833252 7.459476470947266 7.326587677001953
        7.2469162940979 7.123661994934082 6.971401214599609 6.80988073348999 6.704428195953369 6.642619609832764
        6.5855183601379395 6.463444709777832 6.323009014129639 6.213094234466553 6.150502681732178 6.061948299407959
        5.940988063812256 5.869070053100586 5.79598331451416 5.6955180168151855 5.620723724365234 5.58961296081543
        5.59437894821167 5.510141372680664 5.432969570159912 5.333194732666016 15.000624656677246 15.718488693237305
        16.301313400268555 16.123701095581055 15.171019554138184 14.435287475585938 13.841575622558594 13.376049041748047
        12.590590476989746 11.959904670715332 11.404268264770508 11.499759674072266 11.552690505981445 11.913497924804688
        12.425036430358887 13.243000030517578 13.460555076599121 13.50041675567627 13.554885864257812 13.724392890930176
        13.604690551757812 13.597267150878906 14.043930053710938 14.701824188232422 14.798857688903809 14.708293914794922
        14.707974433898926 14.937122344970703 15.583590507507324 15.807336807250977 15.755023002624512 15.315607070922852
        14.758965492248535 14.869815826416016 14.852542877197266 14.770414352416992 14.555535316467285 14.437230110168457
        13.879429817199707 13.567510604858398 13.557088851928711 13.371232986450195 13.14664077758789 12.982938766479492
        12.701761245727539 12.340909957885742 12.179816246032715 12.025450706481934 12.077707290649414 12.025345802307129
        12.147602081298828 12.009439468383789 12.12118148803711 12.198405265808105 12.170225143432617 12.062301635742188
        11.919147491455078 11.843996047973633 11.711941719055176 11.577230453491211 11.408672332763672 11.257258415222168
        11.206148147583008 11.167450904846191 11.157622337341309 11.017058372497559 10.910627365112305 10.887086868286133
        10.821425437927246 10.680736541748047 10.60770034790039 10.570467948913574 10.631623268127441 10.687222480773926
        10.76150131225586 10.834620475769043 10.728229522705078 10.604671478271484 10.479743957519531 10.273528099060059
        10.009330749511719 9.770700454711914 9.852761268615723 10.2996244430542 10.893321990966797 11.194743156433105
        11.197234153747559 11.211291313171387 11.10531997680664 11.035630226135254 10.92471981048584 10.853055953979492
        10.895020484924316 10.887530326843262 10.96560001373291 11.134380340576172 11.269681930541992 11.293663024902344
        11.392193794250488 11.348440170288086 11.135310173034668 10.92574405670166 10.77483081817627 10.665120124816895
        10.534878730773926 10.485740661621094 10.497868537902832 10.450366020202637 10.4370756149292 10.49260139465332
        10.532341957092285 10.445989608764648 10.29379653930664 10.118823051452637 9.931807518005371 9.786174774169922
        9.627503395080566 9.392585754394531 9.203152656555176 9.045365333557129 8.953083992004395 8.836552619934082
        8.721741676330566 8.636608123779297 8.564412117004395 8.503804206848145 8.425705909729004 8.327801704406738
        8.279073715209961 8.211816787719727 8.193286895751953 8.09624195098877 7.967068672180176 7.856383323669434
        7.734042644500732 7.667654514312744 7.547330379486084 7.418482303619385 7.324835300445557 7.196964740753174
        7.063101291656494 6.916970729827881 6.828013896942139 6.758607387542725 6.686990261077881 6.594078540802002
        6.453760623931885 6.324166297912598 6.238607406616211 6.126190185546875 6.06000280380249 5.977858066558838
        5.895302772521973 5.781848907470703 5.6809587478637695 5.674978256225586 5.654130935668945 5.565095901489258
        5.456129550933838 5.370080947875977 14.960371971130371 15.589448928833008 16.286531448364258 16.423282623291016
        16.161123275756836 15.687840461730957 14.517803192138672 13.735910415649414 13.06456470489502 12.656261444091797
        11.9599609375 11.864583969116211 12.044443130493164 12.326644897460938 13.069864273071289 13.794611930847168
        13.849858283996582 13.846739768981934 13.807634353637695 13.96520709991455 13.695806503295898 13.731966018676758
        14.218770027160645 14.697859764099121 14.892865180969238 15.056605339050293 14.756684303283691 14.704876899719238
        15.004819869995117 15.56340503692627 15.492936134338379 15.326552391052246 14.991117477416992 14.99928092956543
        14.884313583374023 14.686624526977539 14.402358055114746 14.383859634399414 13.962593078613281 13.751676559448242
        13.715139389038086 13.575335502624512 13.349231719970703 13.136967658996582 12.945199012756348 12.584406852722168
        12.276399612426758 12.041894912719727 12.103277206420898 12.122383117675781 12.222502708435059 12.097857475280762
        12.128451347351074 12.225174903869629 12.201080322265625 12.173218727111816 12.01504898071289 11.92933464050293
        11.801424980163574 11.646865844726562 11.4849271774292 11.330585479736328 11.30793571472168 11.222746849060059
        11.119169235229492 10.985548973083496 10.94229793548584 10.93924331665039 10.893193244934082 10.742130279541016
        10.654473304748535 10.638476371765137 10.653712272644043 10.66004467010498 10.639976501464844 10.758098602294922
        10.750273704528809 10.648565292358398 10.401801109313965 10.206531524658203 10.038734436035156 9.99871826171875
        10.102241516113281 10.328282356262207 10.691959381103516 10.994139671325684 11.054823875427246 11.167464256286621
        11.077773094177246 11.054498672485352 10.995943069458008 11.077009201049805 11.11952018737793 11.159627914428711
        11.232221603393555 11.345808982849121 11.391908645629883 11.409804344177246 11.516745567321777 11.422910690307617
        11.169671058654785 10.983512878417969 10.856790542602539 10.746638298034668 10.615598678588867 10.52692985534668
        10.54293441772461 10.526322364807129 10.455881118774414 10.445239067077637 10.48232650756836 10.505387306213379
        10.412240028381348 10.244636535644531 10.010937690734863 9.833401679992676 9.708466529846191 9.505870819091797
        9.313804626464844 9.101605415344238 9.004655838012695 8.90259838104248 8.76828384399414 8.693886756896973
        8.625210762023926 8.570711135864258 8.551045417785645 8.46442985534668 8.412088394165039 8.308727264404297
        8.292183876037598 8.201515197753906 8.075273513793945 7.984002113342285 7.821435928344727 7.731751441955566
        7.617852210998535 7.515740871429443 7.421524524688721 7.256902694702148 7.133265495300293 7.0261549949646
        6.971067428588867 6.927614688873291 6.811808109283447 6.732336044311523 6.60685396194458 6.506959438323975
        6.422197341918945 6.26890754699707 6.198155879974365 6.125060558319092 6.086874485015869 5.995858669281006
        5.842337608337402 5.801536560058594 5.686661720275879 5.614519119262695 5.526874542236328 5.40444803237915
        15.130716323852539 15.573212623596191 16.19977569580078 16.567842483520508 16.80238914489746 16.649856567382812
        15.363876342773438 14.119664192199707 13.6243896484375 13.381670951843262 12.363432884216309 12.142219543457031
        12.36313533782959 12.80356216430664 13.315119743347168 14.011061668395996 14.243717193603516 14.256640434265137
        14.251522064208984 14.3436861038208 13.962936401367188 14.050712585449219 14.443815231323242 14.879060745239258
        15.074484825134277 15.14598560333252 15.216172218322754 15.194089889526367 15.16097640991211 15.622237205505371
        15.464940071105957 15.400630950927734 15.317644119262695 15.181761741638184 14.847493171691895 14.52895450592041
        14.523158073425293 14.40536880493164 14.01172161102295 13.855096817016602 13.740912437438965 13.696266174316406
        13.637174606323242 13.322104454040527 13.067745208740234 12.66369342803955 12.47014045715332 12.22351360321045
        12.175215721130371 12.328097343444824 12.35960865020752 12.255145072937012 12.285595893859863 12.410746574401855
        12.407928466796875 12.285911560058594 12.108885765075684 12.04757022857666 11.889545440673828 11.78443717956543
        11.52381706237793 11.38489055633545 11.377653121948242 11.29644775390625 11.166157722473145 10.938632011413574
        10.916271209716797 10.923237800598145 10.883756637573242 10.773959159851074 10.671734809875488 10.690718650817871
        10.7055082321167 10.76583194732666 10.758905410766602 10.778321266174316 10.742650032043457 10.665946006774902
        10.421334266662598 10.19083023071289 10.145430564880371 10.192605972290039 10.178674697875977 10.222119331359863
        10.497733116149902 10.598420143127441 10.767289161682129 10.938178062438965 10.993682861328125 10.993890762329102
        11.144268035888672 11.29508113861084 11.372186660766602 11.488332748413086 11.605329513549805 11.557942390441895
        11.44416618347168 11.429534912109375 11.455723762512207 11.379558563232422 11.198380470275879 11.063840866088867
        11.00009822845459 10.882915496826172 10.719587326049805 10.548948287963867 10.544647216796875 10.565508842468262
        10.475471496582031 10.474747657775879 10.53182315826416 10.571479797363281 10.493782043457031 10.379907608032227
        10.185354232788086 9.9550142288208 9.80557632446289 9.598499298095703 9.370442390441895 9.215452194213867
        9.111042022705078 8.9938325881958 8.85806941986084 8.765222549438477 8.690495491027832 8.6348876953125
        8.651233673095703 8.61134147644043 8.546804428100586 8.444494247436523 8.400527954101562 8.283186912536621
        8.167252540588379 8.053223609924316 7.905697822570801 7.780612945556641 7.665714263916016 7.581451416015625
        7.503985404968262 7.3804521560668945 7.246030807495117 7.1333327293396 7.097233772277832 7.057563304901123
        6.945883274078369 6.834963321685791 6.719526767730713 6.662232875823975 6.574854850769043 6.461249351501465
        6.395609378814697 6.316900730133057 6.252768039703369 6.146856784820557 6.052523136138916 5.95413875579834
        5.783944129943848 5.674706935882568 5.583193302154541 5.488297462463379 14.923689842224121 15.752821922302246
        16.310630798339844 16.580408096313477 16.737123489379883 16.86995506286621 15.687026977539062 14.278383255004883
        13.865562438964844 13.839020729064941 12.90616512298584 12.375529289245605 12.383902549743652 12.859975814819336
        13.268033981323242 14.071606636047363 14.336756706237793 14.296889305114746 14.33454704284668 14.539987564086914
        14.504165649414062 14.171884536743164 14.128337860107422 14.376364707946777 14.771866798400879 15.003430366516113
        15.380268096923828 15.466336250305176 15.548104286193848 15.663203239440918 15.966958045959473 15.728788375854492
        15.515121459960938 15.30660343170166 15.003313064575195 14.772398948669434 14.582561492919922 14.226418495178223
        13.98896312713623 13.807154655456543 13.794923782348633 13.778871536254883 13.780574798583984 13.513822555541992
        13.218605041503906 12.895358085632324 12.57016372680664 12.355480194091797 12.344876289367676 12.52723503112793
        12.588253021240234 12.43111801147461 12.423190116882324 12.571541786193848 12.555398941040039 12.41340160369873
        12.147655487060547 12.000823020935059 11.927614212036133 11.832412719726562 11.629026412963867 11.385295867919922
        11.312637329101562 11.306718826293945 11.194881439208984 11.057473182678223 10.947002410888672 10.893247604370117
        10.834020614624023 10.731908798217773 10.714559555053711 10.714275360107422 10.751419067382812 10.828629493713379
        10.812989234924316 10.851728439331055 10.756224632263184 10.633548736572266 10.497883796691895 10.39366626739502
        10.520421028137207 10.505108833312988 10.351347923278809 10.25642204284668 10.355158805847168 10.27605152130127
        10.285591125488281 10.420332908630371 10.693100929260254 10.87775993347168 11.27867317199707 11.470675468444824
        11.509394645690918 11.619485855102539 11.725682258605957 11.68752384185791 11.541765213012695 11.435941696166992
        11.42372989654541 11.416696548461914 11.290070533752441 11.11060905456543 11.074511528015137 10.961124420166016
        10.767749786376953 10.64018440246582 10.613127708435059 10.618887901306152 10.584870338439941 10.602846145629883
        10.670863151550293 10.646598815917969 10.569131851196289 10.491476058959961 10.311003684997559 10.1312894821167
        9.911492347717285 9.695473670959473 9.456088066101074 9.277642250061035 9.161447525024414 9.01900863647461
        8.909382820129395 8.834555625915527 8.78744125366211 8.739543914794922 8.725615501403809 8.742475509643555
        8.670888900756836 8.564057350158691 8.474432945251465 8.354305267333984 8.237459182739258 8.122567176818848
        7.962826728820801 7.873235702514648 7.7765960693359375 7.68248987197876 7.5766215324401855 7.474862575531006
        7.397435665130615 7.285119533538818 7.226258754730225 7.142479419708252 7.030689239501953 6.929326057434082
        6.820697784423828 6.74325704574585 6.707697868347168 6.6414995193481445 6.5655436515808105 6.48399019241333
        6.441044330596924 6.299592971801758 6.155346870422363 5.999507427215576 5.866616725921631 5.747608661651611
        5.6344828605651855 5.500515460968018 15.294968605041504 15.9357271194458 16.501171112060547 16.933979034423828
        17.032684326171875 17.183515548706055 16.44017791748047 15.43596076965332 14.727564811706543 14.261690139770508
        13.495007514953613 13.099979400634766 12.856696128845215 13.072126388549805 13.153512001037598 13.948952674865723
        14.416605949401855 14.58239459991455 14.501788139343262 14.517212867736816 14.646390914916992 14.595098495483398
        14.499547004699707 14.244966506958008 14.436695098876953 14.743353843688965 15.261148452758789 15.390497207641602
        15.597169876098633 15.616774559020996 16.00361442565918 15.961715698242188 15.781228065490723 15.386876106262207
        15.13086986541748 14.783353805541992 14.434296607971191 13.986560821533203 13.909790992736816 13.858604431152344
        13.827695846557617 13.731444358825684 13.69694709777832 13.606310844421387 13.331721305847168 13.01896858215332
        12.619596481323242 12.46910285949707 12.522611618041992 12.635520935058594 12.69970703125 12.563397407531738
        12.588579177856445 12.653877258300781 12.579150199890137 12.390484809875488 12.135335922241211 11.952390670776367
        11.935771942138672 11.886828422546387 11.688813209533691 11.401697158813477 11.307003021240234 11.316612243652344
        11.257974624633789 11.120318412780762 10.949992179870605 10.89708137512207 10.843778610229492 10.777365684509277
        10.69387149810791 10.623658180236816 10.682862281799316 10.772969245910645 10.836796760559082 10.829401016235352
        10.69813060760498 10.640178680419922 10.638014793395996 10.649858474731445 10.76021957397461 10.707012176513672
        10.602359771728516 10.379192352294922 10.351107597351074 10.00535774230957 9.874446868896484 9.993412971496582
        10.344219207763672 10.636102676391602 11.17384147644043 11.509599685668945 11.701751708984375 11.857644081115723
        11.90303897857666 11.839336395263672 11.618029594421387 11.476320266723633 11.397353172302246 11.401712417602539
        11.256265640258789 11.100128173828125 11.077683448791504 10.97130298614502 10.78808879852295 10.677878379821777
        10.659128189086914 10.637537956237793 10.640711784362793 10.725772857666016 10.800261497497559 10.72011947631836
        10.617815017700195 10.527139663696289 10.397201538085938 10.256938934326172 10.030548095703125 9.801080703735352
        9.5802001953125 9.371171951293945 9.203540802001953 9.055384635925293 8.934712409973145 8.889857292175293
        8.879989624023438 8.853554725646973 8.80862045288086 8.817153930664062 8.794285774230957 8.728705406188965
        8.59229564666748 8.451805114746094 8.304549217224121 8.194811820983887 8.054948806762695 7.962125301361084
        7.870201110839844 7.766213893890381 7.6493964195251465 7.567404747009277 7.509786605834961 7.405245780944824
        7.30879020690918 7.220732688903809 7.127823829650879 7.053414821624756 6.953258991241455 6.825885772705078
        6.781961917877197 6.750617504119873 6.704309940338135 6.627316474914551 6.563429832458496 6.453425407409668
        6.3072943687438965 6.13194465637207 6.0392351150512695 5.893670082092285 5.750257968902588 5.590839862823486
        15.264894485473633 15.765860557556152 16.42091178894043 16.94023895263672 17.361583709716797 17.540672302246094
        16.85957908630371 15.95281982421875 15.234732627868652 14.582223892211914 13.818536758422852 13.58747386932373
        13.333422660827637 13.08443832397461 13.271333694458008 13.872146606445312 14.296710968017578 14.61296558380127
        14.778356552124023 14.746539115905762 14.699151992797852 14.964144706726074 14.874573707580566 14.246697425842285
        13.977219581604004 14.3579683303833 14.800511360168457 15.048626899719238 15.559679985046387 15.69632625579834
        15.726280212402344 15.827041625976562 15.724298477172852 15.501705169677734 15.0233154296875 14.632674217224121
        14.32690143585205 13.978209495544434 13.773541450500488 13.813931465148926 13.936224937438965 13.829514503479004
        13.71582317352295 13.69975757598877 13.461474418640137 13.103346824645996 12.751760482788086 12.63010025024414
        12.633800506591797 12.659943580627441 12.738961219787598 12.627195358276367 12.626066207885742 12.588848114013672
        12.45576000213623 12.263612747192383 12.080942153930664 11.95478630065918 11.941380500793457 11.817340850830078
        11.644393920898438 11.45554256439209 11.439217567443848 11.358956336975098 11.241482734680176 11.097131729125977
        10.974696159362793 10.934231758117676 10.836966514587402 10.693039894104004 10.617270469665527 10.593500137329102
        10.658916473388672 10.687055587768555 10.64887809753418 10.68437671661377 10.652274131774902 10.662527084350586
        10.7311372756958 10.874799728393555 10.992769241333008 10.977079391479492 10.959909439086914 10.662263870239258
        10.194171905517578 9.579050064086914 9.464296340942383 9.616216659545898 9.946100234985352 10.468583106994629
        11.12109088897705 11.583343505859375 11.905651092529297 12.10580062866211 12.040329933166504 11.94757080078125
        11.79064655303955 11.619514465332031 11.414313316345215 11.358169555664062 11.205994606018066 11.11044692993164
        11.059026718139648 10.993037223815918 10.84645938873291 10.759791374206543 10.796032905578613 10.74525260925293
        10.725526809692383 10.749066352844238 10.828975677490234 10.77490234375 10.670438766479492 10.562492370605469
        10.445103645324707 10.322371482849121 10.141222953796387 9.87791919708252 9.624776840209961 9.384056091308594
        9.189146041870117 9.046819686889648 8.915556907653809 8.865942001342773 8.914259910583496 8.9607572555542
        8.928864479064941 8.891070365905762 8.906360626220703 8.84730052947998 8.726895332336426 8.564470291137695
        8.429572105407715 8.311823844909668 8.152209281921387 8.081926345825195 7.978653430938721 7.853511810302734
        7.728381633758545 7.621896743774414 7.615147113800049 7.529088497161865 7.399449348449707 7.291425704956055
        7.22835111618042 7.1615376472473145 7.061141014099121 6.944947242736816 6.870043754577637 6.842918872833252
        6.844545364379883 6.785062313079834 6.710525989532471 6.639166831970215 6.463124752044678 6.317251682281494
        6.183549404144287 6.044070720672607 5.893767356872559 5.684135913848877 15.507028579711914 15.907221794128418
        16.128421783447266 16.73360824584961 17.26689910888672 17.747074127197266 17.13422203063965 16.148847579956055
        15.287514686584473 14.784443855285645 14.035374641418457 13.830574035644531 13.695113182067871 13.58149242401123
        13.902399063110352 14.339098930358887 14.432727813720703 14.732490539550781 15.0713529586792 15.253499031066895
        15.032200813293457 15.066201210021973 14.886865615844727 14.403965950012207 14.108291625976562 14.427407264709473
        14.699773788452148 15.098566055297852 15.523009300231934 15.794296264648438 15.51358413696289 15.541464805603027
        15.499674797058105 15.436707496643066 14.962599754333496 14.6397066116333 14.412521362304688 14.188045501708984
        13.83814811706543 13.825469970703125 13.958479881286621 13.918636322021484 13.761716842651367 13.749346733093262
        13.512168884277344 13.187742233276367 12.988707542419434 12.813980102539062 12.707674026489258 12.66342830657959
        12.755646705627441 12.647459983825684 12.618758201599121 12.61535930633545 12.467071533203125 12.283148765563965
        12.112446784973145 12.025577545166016 11.966596603393555 11.757088661193848 11.614622116088867 11.497150421142578
        11.504283905029297 11.400118827819824 11.228858947753906 11.059501647949219 10.961374282836914 10.921293258666992
        10.828043937683105 10.693131446838379 10.645830154418945 10.62362003326416 10.63379192352295 10.641374588012695
        10.547957420349121 10.565363883972168 10.613190650939941 10.737773895263672 10.815999031066895 10.99884033203125
        11.271157264709473 11.439644813537598 11.418519020080566 11.02035140991211 10.280999183654785 9.569340705871582
        9.26663589477539 9.423050880432129 9.725086212158203 10.360340118408203 10.912487030029297 11.47714900970459
        11.861405372619629 12.227704048156738 12.144230842590332 11.986515998840332 11.802698135375977 11.65912914276123
        11.416872024536133 11.301326751708984 11.191272735595703 11.125884056091309 11.045554161071777 11.003716468811035
        10.917106628417969 10.841195106506348 10.898077011108398 10.844688415527344 10.782692909240723 10.757460594177246
        10.843789100646973 10.854538917541504 10.735058784484863 10.62081241607666 10.469256401062012 10.369771003723145
        10.212923049926758 9.955241203308105 9.671146392822266 9.409520149230957 9.196693420410156 9.032299995422363
        8.909832000732422 8.871926307678223 8.908453941345215 8.922386169433594 8.979799270629883 8.949097633361816
        8.99819564819336 8.896501541137695 8.82154655456543 8.691737174987793 8.582468032836914 8.44675064086914
        8.247832298278809 8.149271011352539 8.068772315979004 7.961475372314453 7.8770270347595215 7.72712516784668
        7.697068214416504 7.594588756561279 7.476038455963135 7.346710681915283 7.283478260040283 7.230364799499512
        7.131767272949219 7.051646709442139 6.999134063720703 6.961871147155762 6.96276330947876 6.950493335723877
        6.879187107086182 6.834829807281494 6.6905198097229 6.5865092277526855 6.424582481384277 6.318600654602051
        6.190783500671387 5.9390363693237305 16.126842498779297 16.152851104736328 15.998104095458984 16.534393310546875
        17.241575241088867 17.871164321899414 17.18135643005371 16.143991470336914 15.20847225189209 14.73105525970459
        14.148118019104004 14.041242599487305 13.66922664642334 13.748149871826172 14.228039741516113 14.611403465270996
        14.713120460510254 14.826750755310059 15.104043960571289 15.278480529785156 15.245133399963379 15.041861534118652
        14.85457706451416 14.501704216003418 14.339547157287598 14.30284595489502 14.711633682250977 15.277430534362793
        15.471837043762207 15.732568740844727 15.570308685302734 15.660734176635742 15.57374382019043 15.426728248596191
        15.115730285644531 14.745575904846191 14.616920471191406 14.383562088012695 13.983648300170898 14.009987831115723
        14.140796661376953 14.178970336914062 14.059538841247559 13.877553939819336 13.655470848083496 13.326318740844727
        13.240297317504883 13.062355995178223 12.896326065063477 12.865239143371582 12.81825065612793 12.754810333251953
        12.76855182647705 12.75529670715332 12.601276397705078 12.370732307434082 12.21211051940918 12.132600784301758
        12.007735252380371 11.830833435058594 11.594364166259766 11.474915504455566 11.504610061645508 11.476863861083984
        11.317063331604004 11.089106559753418 11.015562057495117 10.957125663757324 10.829358100891113 10.744837760925293
        10.607897758483887 10.570571899414062 10.579963684082031 10.585434913635254 10.489800453186035 10.404229164123535
        10.494720458984375 10.66811466217041 10.824238777160645 11.100385665893555 11.54201602935791 11.745782852172852
        11.678534507751465 11.21195125579834 10.410277366638184 9.563858985900879 9.239072799682617 9.405284881591797
        9.610441207885742 10.13524341583252 10.656031608581543 11.260128021240234 11.769651412963867 12.182930946350098
        12.188913345336914 12.058943748474121 11.940876960754395 11.801583290100098 11.491924285888672 11.3156156539917
        11.202364921569824 11.181596755981445 11.159771919250488 11.0673246383667 10.958155632019043 10.871023178100586
        10.926619529724121 10.922492027282715 10.849863052368164 10.808469772338867 10.855745315551758 10.914982795715332
        10.811511993408203 10.690505981445312 10.560441017150879 10.449747085571289 10.27175235748291 10.036825180053711
        9.761618614196777 9.533498764038086 9.2835693359375 9.110201835632324 8.98424243927002 8.937625885009766
        8.964921951293945 8.971085548400879 9.059993743896484 9.052852630615234 9.099325180053711 9.008907318115234
        8.914592742919922 8.796335220336914 8.704545021057129 8.563360214233398 8.375737190246582 8.289259910583496
        8.196538925170898 8.103616714477539 8.017084121704102 7.911947727203369 7.809751987457275 7.655851364135742
        7.542949199676514 7.454220771789551 7.4002790451049805 7.30007266998291 7.191162586212158 7.141550540924072
        7.117786407470703 7.061740398406982 7.0311384201049805 7.030233383178711 7.007770538330078 6.9783616065979
        6.838304042816162 6.765861511230469 6.635651111602783 6.5410332679748535 6.3923845291137695 6.184471130371094
        16.036008834838867 16.055965423583984 15.744430541992188 16.125207901000977 17.12285041809082 17.940393447875977
        17.662111282348633 16.601234436035156 15.564230918884277 14.993648529052734 14.6747465133667 14.167924880981445
        13.659733772277832 13.745485305786133 14.07299518585205 14.424020767211914 14.62087345123291 14.829573631286621
        15.107043266296387 15.220085144042969 15.601632118225098 15.421651840209961 15.21016788482666 14.822168350219727
        14.586792945861816 14.47948169708252 14.608214378356934 14.973539352416992 15.368334770202637 15.59382438659668
        15.758217811584473 15.773712158203125 15.653166770935059 15.496026992797852 15.234834671020508 15.017788887023926
        14.867838859558105 14.466736793518066 14.198875427246094 14.05191421508789 14.137640953063965 14.096146583557129
        14.09387493133545 13.914043426513672 13.719923973083496 13.483518600463867 13.320008277893066 13.125917434692383
        13.065858840942383 12.9671049118042 12.90760326385498 12.784666061401367 12.803115844726562 12.84731674194336
        12.665247917175293 12.54275131225586 12.309403419494629 12.163287162780762 12.01667594909668 11.851492881774902
        11.631595611572266 11.441230773925781 11.40398120880127 11.394319534301758 11.267160415649414 11.1425142288208
        11.015603065490723 10.93244743347168 10.87233829498291 10.792532920837402 10.65478515625 10.462821960449219
        10.462696075439453 10.50995922088623 10.395329475402832 10.337679862976074 10.415754318237305 10.55168628692627
        10.877565383911133 11.213034629821777 11.788519859313965 12.030518531799316 11.899405479431152 11.38756275177002
        10.612534523010254 9.719585418701172 9.277464866638184 9.199251174926758 9.430869102478027 9.901026725769043
        10.6491060256958 11.315589904785156 11.83736801147461 12.18305778503418 12.201438903808594 12.116256713867188
        11.926138877868652 11.726409912109375 11.530965805053711 11.393537521362305 11.287362098693848 11.22127914428711
        11.237630844116211 11.163298606872559 11.06061840057373 10.996959686279297 10.980937004089355 10.955734252929688
        10.942872047424316 10.905352592468262 10.918864250183105 10.9669828414917 10.92464542388916 10.848990440368652
        10.684855461120605 10.578106880187988 10.312122344970703 10.078559875488281 9.856135368347168 9.625388145446777
        9.372498512268066 9.169203758239746 9.042940139770508 8.970088958740234 8.986780166625977 9.037799835205078
        9.103596687316895 9.138635635375977 9.179086685180664 9.108078002929688 9.003710746765137 8.890750885009766
        8.816644668579102 8.691651344299316 8.503446578979492 8.396190643310547 8.260186195373535 8.187570571899414
        8.107414245605469 8.009013175964355 7.886770725250244 7.732736587524414 7.607789993286133 7.512604713439941
        7.4409356117248535 7.376368522644043 7.280762672424316 7.234858512878418 7.181522846221924 7.126717567443848
        7.070180416107178 7.059509754180908 7.069887161254883 7.090116500854492 7.0457305908203125 6.981020927429199
        6.84742546081543 6.741095066070557 6.586127281188965 6.3780517578125 16.253145217895508 15.950166702270508
        15.909553527832031 16.377159118652344 17.261201858520508 17.654701232910156 17.713998794555664 17.052736282348633
        16.097043991088867 15.427846908569336 15.287312507629395 14.503999710083008 13.977946281433105 13.91145133972168
        14.203581809997559 14.31528091430664 14.505232810974121 14.771309852600098 15.365139961242676 15.680377960205078
        16.13504409790039 16.127418518066406 15.99481201171875 15.331207275390625 14.927732467651367 14.728728294372559
        14.676169395446777 14.84914779663086 15.344846725463867 15.643513679504395 15.746541976928711 15.75235366821289
        15.71804141998291 15.560242652893066 15.316367149353027 15.095329284667969 14.825053215026855 14.38298511505127
        14.273479461669922 14.181652069091797 14.194751739501953 13.967031478881836 13.983011245727539 13.92605972290039
        13.789290428161621 13.550824165344238 13.343269348144531 13.179642677307129 13.176684379577637 13.129996299743652
        13.042404174804688 12.818611145019531 12.827371597290039 12.81314468383789 12.687274932861328 12.608007431030273
        12.422181129455566 12.209510803222656 12.007113456726074 11.891610145568848 11.682405471801758 11.434223175048828
        11.327719688415527 11.325387954711914 11.2772216796875 11.172971725463867 10.972301483154297 10.892675399780273
        10.878251075744629 10.810686111450195 10.631993293762207 10.359132766723633 10.355645179748535 10.410112380981445
        10.34382438659668 10.302735328674316 10.309114456176758 10.518701553344727 10.885171890258789 11.383345603942871
        11.921290397644043 12.104680061340332 12.012810707092285 11.574394226074219 10.816277503967285 9.85632610321045
        9.319844245910645 9.104806900024414 9.285285949707031 9.845725059509277 10.81755542755127 11.398065567016602
        11.882072448730469 12.152047157287598 12.216422080993652 12.076136589050293 11.858975410461426 11.624725341796875
        11.490426063537598 11.41776180267334 11.35097885131836 11.286815643310547 11.274404525756836 11.203862190246582
        11.132003784179688 11.054450035095215 11.016542434692383 10.9632568359375 10.965721130371094 10.988094329833984
        11.013500213623047 10.969474792480469 10.952202796936035 10.934686660766602 10.843741416931152 10.69787883758545
        10.365277290344238 10.061245918273926 9.865446090698242 9.651185035705566 9.41313362121582 9.199272155761719
        9.060959815979004 8.971965789794922 8.979050636291504 9.06950855255127 9.120487213134766 9.193044662475586
        9.229259490966797 9.186424255371094 9.067547798156738 8.957027435302734 8.871418952941895 8.78614330291748
        8.644916534423828 8.503642082214355 8.388595581054688 8.297606468200684 8.19394302368164 8.058259963989258
        7.934398174285889 7.855954170227051 7.708614826202393 7.586757659912109 7.475907325744629 7.408560276031494
        7.335750579833984 7.293312072753906 7.232608318328857 7.183774948120117 7.182495594024658 7.162617206573486
        7.147578239440918 7.159915447235107 7.171915054321289 7.109518051147461 6.9779462814331055 6.829590320587158
        6.704070091247559 6.530518054962158 15.680706977844238 15.849617958068848 15.885032653808594 16.40501594543457
        16.650827407836914 16.930526733398438 17.258390426635742 17.09963035583496 16.17466926574707 15.421289443969727
        15.259049415588379 14.90658187866211 14.340241432189941 14.089241981506348 14.091552734375 13.990025520324707
        14.226950645446777 14.520078659057617 15.290371894836426 16.229307174682617 16.826828002929688 16.744356155395508
        16.312353134155273 15.739294052124023 15.224906921386719 14.897658348083496 14.80906867980957 14.948087692260742
        15.361310958862305 15.774615287780762 15.920166969299316 15.888153076171875 15.72375202178955 15.605355262756348
        15.330902099609375 15.112974166870117 14.95984172821045 14.597078323364258 14.340657234191895 14.232963562011719
        14.199524879455566 13.898458480834961 13.862586975097656 13.939115524291992 13.818245887756348 13.579341888427734
        13.434144973754883 13.289590835571289 13.192904472351074 13.088123321533203 13.075557708740234 12.924846649169922
        12.920257568359375 12.875224113464355 12.707101821899414 12.598438262939453 12.436286926269531 12.237197875976562
        11.973837852478027 11.848824501037598 11.707971572875977 11.497912406921387 11.371943473815918 11.28217601776123
        11.206679344177246 11.07476806640625 10.94741439819336 10.883562088012695 10.86949348449707 10.710335731506348
        10.56931209564209 10.412062644958496 10.431795120239258 10.42580509185791 10.320080757141113 10.289332389831543
        10.330827713012695 10.557390213012695 10.9014892578125 11.343572616577148 11.874730110168457 12.133678436279297
        12.182677268981934 11.725454330444336 10.931061744689941 9.918659210205078 9.4279146194458 9.196756362915039
        9.290508270263672 9.884761810302734 10.930275917053223 11.531303405761719 11.901445388793945 12.078789710998535
        12.001116752624512 11.81154727935791 11.704116821289062 11.529117584228516 11.429221153259277 11.43246841430664
        11.395170211791992 11.310786247253418 11.275388717651367 11.222996711730957 11.144989013671875 11.085820198059082
        11.096545219421387 11.009439468383789 10.956562995910645 10.985102653503418 11.103233337402344 11.092421531677246
        11.035207748413086 11.0274658203125 10.944549560546875 10.787796974182129 10.458415985107422 10.111154556274414
        9.897815704345703 9.691730499267578 9.456706047058105 9.24985122680664 9.096116065979004 8.978256225585938
        8.989602088928223 9.09384822845459 9.181257247924805 9.218717575073242 9.207771301269531 9.120089530944824
        9.074036598205566 9.00126838684082 8.897930145263672 8.829296112060547 8.73316764831543 8.632848739624023
        8.504790306091309 8.375532150268555 8.260091781616211 8.098045349121094 8.000219345092773 7.887743949890137
        7.739634990692139 7.6111650466918945 7.478511810302734 7.433938980102539 7.3374457359313965 7.282830238342285
        7.244986057281494 7.246902942657471 7.246679306030273 7.225795745849609 7.208164215087891 7.215078830718994
        7.222581386566162 7.198691368103027 7.087711811065674 6.953921794891357 6.840170860290527 6.706355094909668
        15.130881309509277 15.691377639770508 16.01606559753418 16.475404739379883 16.50541114807129 16.7957706451416
        16.81531524658203 16.772417068481445 16.185361862182617 15.695240020751953 15.307270050048828 15.186630249023438
        14.716394424438477 14.305161476135254 14.16972541809082 13.912436485290527 13.844244003295898 14.242715835571289
        15.211137771606445 16.334779739379883 16.911287307739258 16.568571090698242 16.06639289855957 15.90501880645752
        15.73076343536377 15.244453430175781 15.142043113708496 15.327391624450684 15.599222183227539 15.935406684875488
        16.132946014404297 15.94643497467041 15.64885425567627 15.495607376098633 15.264593124389648 15.163054466247559
        15.02020263671875 14.724261283874512 14.468053817749023 14.3944730758667 14.251319885253906 13.976225852966309
        13.8649263381958 13.872701644897461 13.761295318603516 13.588820457458496 13.43612289428711 13.294771194458008
        13.166236877441406 13.10586929321289 13.07091236114502 12.986504554748535 13.003918647766113 13.016002655029297
        12.795137405395508 12.648602485656738 12.433658599853516 12.248422622680664 11.981613159179688 11.851971626281738
        11.688305854797363 11.513110160827637 11.426013946533203 11.356249809265137 11.234784126281738 11.051103591918945
        10.898289680480957 10.832239151000977 10.814057350158691 10.653738021850586 10.583640098571777 10.53907585144043
        10.530234336853027 10.437145233154297 10.309060096740723 10.31958293914795 10.434876441955566 10.592653274536133
        10.924665451049805 11.26740550994873 11.74246883392334 11.939644813537598 12.079394340515137 11.660643577575684
        10.956847190856934 10.100332260131836 9.724013328552246 9.588242530822754 9.643321990966797 10.114526748657227
        10.979414939880371 11.471358299255371 11.766186714172363 11.958539009094238 11.960041046142578 11.76121711730957
        11.613774299621582 11.50346565246582 11.390974998474121 11.42499828338623 11.386300086975098 11.32206916809082
        11.24400806427002 11.190509796142578 11.081008911132812 11.047842979431152 11.082293510437012 11.011738777160645
        10.951493263244629 10.986645698547363 11.103609085083008 11.193819999694824 11.134637832641602 11.133820533752441
        11.020703315734863 10.832612037658691 10.520623207092285 10.236114501953125 9.988844871520996 9.732990264892578
        9.50559139251709 9.3169584274292 9.164799690246582 9.070144653320312 9.0664644241333 9.132770538330078
        9.20351791381836 9.18372917175293 9.173633575439453 9.059587478637695 9.026529312133789 9.017093658447266
        8.978811264038086 8.920853614807129 8.79869556427002 8.70815372467041 8.598325729370117 8.472954750061035
        8.317997932434082 8.139204978942871 8.049884796142578 7.916832447052002 7.806998252868652 7.682653903961182
        7.518754959106445 7.456930637359619 7.362837314605713 7.303313732147217 7.258175849914551 7.256847381591797
        7.264482021331787 7.251964569091797 7.281307697296143 7.307235240936279 7.279825687408447 7.250645637512207
        7.18502950668335 7.069773197174072 6.9634857177734375 6.879097938537598 15.044194221496582 15.542061805725098
        16.04530906677246 16.459836959838867 16.418237686157227 16.607065200805664 16.817651748657227 16.759645462036133
        16.322704315185547 15.88672924041748 15.52221965789795 15.244321823120117 14.894786834716797 14.566228866577148
        14.335898399353027 13.772528648376465 13.752289772033691 14.072653770446777 14.794524192810059 15.737754821777344
        16.337406158447266 16.230663299560547 15.805488586425781 15.777246475219727 15.847076416015625 15.527191162109375
        15.449928283691406 15.648690223693848 15.802905082702637 16.083003997802734 16.228994369506836 16.160009384155273
        15.922450065612793 15.677330017089844 15.418356895446777 15.24463176727295 15.190149307250977 14.966879844665527
        14.6163911819458 14.520666122436523 14.264749526977539 14.146180152893066 14.08705997467041 14.012398719787598
        13.88595199584961 13.673194885253906 13.58754825592041 13.485786437988281 13.32348918914795 13.25083065032959
        13.07580852508545 13.070310592651367 13.143706321716309 13.204660415649414 13.016057968139648 12.768391609191895
        12.498379707336426 12.319913864135742 12.10588550567627 11.970280647277832 11.714978218078613 11.580812454223633
        11.552804946899414 11.468990325927734 11.30161190032959 11.012323379516602 10.89880084991455 10.86096477508545
        10.851725578308105 10.730672836303711 10.615999221801758 10.576329231262207 10.569215774536133 10.477778434753418
        10.383184432983398 10.396951675415039 10.572480201721191 10.738044738769531 11.059610366821289 11.36590576171875
        11.713949203491211 11.763954162597656 11.842146873474121 11.526862144470215 11.002570152282715 10.338509559631348
        10.0303316116333 9.802038192749023 9.915166854858398 10.435029983520508 11.135591506958008 11.493868827819824
        11.67770004272461 11.8589448928833 11.905346870422363 11.80849552154541 11.646851539611816 11.568032264709473
        11.406768798828125 11.416245460510254 11.33375072479248 11.307226181030273 11.253047943115234 11.217784881591797
        11.115078926086426 11.080925941467285 11.117899894714355 11.070884704589844 11.035659790039062 11.114013671875
        11.182640075683594 11.267467498779297 11.256606101989746 11.270471572875977 11.145106315612793 10.926459312438965
        10.602243423461914 10.360588073730469 10.086549758911133 9.827374458312988 9.612878799438477 9.438374519348145
        9.287109375 9.184369087219238 9.212451934814453 9.215070724487305 9.252134323120117 9.175811767578125
        9.142061233520508 9.095187187194824 9.049615859985352 9.063363075256348 9.043049812316895 8.98479175567627
        8.852581977844238 8.744802474975586 8.670618057250977 8.56480598449707 8.415416717529297 8.224658012390137
        8.129936218261719 7.998934268951416 7.913394451141357 7.779560089111328 7.628240585327148 7.5511627197265625
        7.443093776702881 7.33177375793457 7.291247844696045 7.333000659942627 7.2943854331970215 7.252039432525635
        7.261451244354248 7.36331033706665 7.366852760314941 7.31810998916626 7.226954460144043 7.0965576171875
        7.015369892120361 6.920331954956055 15.318479537963867 15.506402015686035 15.799278259277344 16.212923049926758
        16.365615844726562 16.429183959960938 16.663223266601562 16.61244773864746 16.329809188842773 16.007831573486328
        15.972505569458008 15.507290840148926 15.170823097229004 14.812370300292969 14.616174697875977 14.057299613952637
        13.983241081237793 14.110466003417969 14.565651893615723 14.891464233398438 15.50478458404541 15.871589660644531
        15.806761741638184 15.784649848937988 15.694497108459473 15.790057182312012 15.764168739318848 15.829339027404785
        15.858936309814453 15.920860290527344 16.152435302734375 16.24268341064453 16.069211959838867 15.864117622375488
        15.561511039733887 15.58716106414795 15.392763137817383 15.116994857788086 14.786293029785156 14.650321960449219
        14.465044975280762 14.296286582946777 14.230183601379395 14.113227844238281 13.9567289352417 13.894468307495117
        13.70425796508789 13.533452987670898 13.42735481262207 13.295737266540527 13.196107864379883 13.113404273986816
        13.153712272644043 13.22849178314209 13.055580139160156 12.894102096557617 12.58216667175293 12.330435752868652
        12.16297721862793 12.03155517578125 11.866511344909668 11.680116653442383 11.60168170928955 11.493402481079102
        11.29380989074707 11.077075958251953 10.89635944366455 10.858320236206055 10.870561599731445 10.810185432434082
        10.728169441223145 10.650857925415039 10.594161987304688 10.577180862426758 10.482912063598633 10.569991111755371
        10.823479652404785 11.073409080505371 11.329169273376465 11.482028007507324 11.699110984802246 11.72486400604248
        11.671454429626465 11.477502822875977 11.167916297912598 10.861241340637207 10.559555053710938 10.26654052734375
        10.295635223388672 10.68303108215332 11.126350402832031 11.397029876708984 11.517193794250488 11.759469985961914
        11.785131454467773 11.739725112915039 11.556289672851562 11.477056503295898 11.3593168258667 11.296675682067871
        11.30252742767334 11.330924987792969 11.32964038848877 11.321206092834473 11.242627143859863 11.218732833862305
        11.165824890136719 11.124479293823242 11.149039268493652 11.224408149719238 11.332834243774414 11.389192581176758
        11.408154487609863 11.45321273803711 11.266830444335938 11.035345077514648 10.6644287109375 10.423456192016602
        10.18232250213623 9.947327613830566 9.797438621520996 9.597832679748535 9.445268630981445 9.28277587890625
        9.230463981628418 9.231575012207031 9.259438514709473 9.174169540405273 9.153412818908691 9.143627166748047
        9.123007774353027 9.059991836547852 9.020730018615723 9.012670516967773 8.870712280273438 8.770844459533691
        8.683234214782715 8.599430084228516 8.470904350280762 8.29812240600586 8.212824821472168 8.101171493530273
        8.001188278198242 7.848611354827881 7.7022786140441895 7.617951393127441 7.520871162414551 7.386903762817383
        7.293121337890625 7.2840166091918945 7.2919392585754395 7.2572479248046875 7.242536544799805 7.281991958618164
        7.302093982696533 7.305678367614746 7.245905876159668 7.105169773101807 7.025880336761475 6.960778713226318
        15.7920503616333 15.40022087097168 15.496499061584473 15.836716651916504 16.145259857177734 16.06149673461914
        16.394426345825195 16.43146514892578 16.214149475097656 15.966719627380371 16.00803565979004 15.65102767944336
        15.351479530334473 14.893630981445312 14.673908233642578 14.278481483459473 14.243647575378418 14.348970413208008
        14.527536392211914 14.582283020019531 15.009749412536621 15.52604866027832 15.609715461730957 15.59310531616211
        15.528064727783203 15.667745590209961 15.65504264831543 15.748350143432617 15.81092643737793 15.988459587097168
        16.100223541259766 16.071439743041992 16.009471893310547 15.951926231384277 15.77099895477295 15.731194496154785
        15.493155479431152 15.158697128295898 14.887845039367676 14.779949188232422 14.714947700500488 14.413866996765137
        14.305500030517578 14.300947189331055 14.15648365020752 14.00609302520752 13.741901397705078 13.594131469726562
        13.519960403442383 13.411599159240723 13.356167793273926 13.174147605895996 13.1920166015625 13.181965827941895
        13.012041091918945 12.869560241699219 12.605106353759766 12.349127769470215 12.177764892578125 12.040315628051758
        11.940750122070312 11.743378639221191 11.605412483215332 11.460301399230957 11.335020065307617 11.156793594360352
        10.94853401184082 10.887237548828125 10.908329010009766 10.856328010559082 10.762248992919922 10.60716724395752
        10.540536880493164 10.595857620239258 10.656899452209473 10.749110221862793 10.972458839416504 11.267450332641602
        11.477409362792969 11.561903953552246 11.655146598815918 11.639374732971191 11.573846817016602 11.425633430480957
        11.229595184326172 11.062090873718262 10.822345733642578 10.579668045043945 10.513069152832031 10.76126766204834
        11.047710418701172 11.282723426818848 11.473958015441895 11.66864013671875 11.669327735900879 11.58661937713623
        11.488706588745117 11.388026237487793 11.316177368164062 11.307607650756836 11.42195987701416 11.408472061157227
        11.380365371704102 11.39816665649414 11.358248710632324 11.272445678710938 11.151597023010254 11.134171485900879
        11.190247535705566 11.31847095489502 11.442584991455078 11.476066589355469 11.486673355102539 11.538617134094238
        11.412147521972656 11.170531272888184 10.793739318847656 10.489157676696777 10.244728088378906 10.076224327087402
        9.931726455688477 9.768789291381836 9.590415000915527 9.385221481323242 9.267098426818848 9.279135704040527
        9.309282302856445 9.25189208984375 9.196170806884766 9.148926734924316 9.131616592407227 9.073892593383789
        9.01706600189209 8.984452247619629 8.89755916595459 8.816797256469727 8.708295822143555 8.600826263427734
        8.496408462524414 8.383947372436523 8.290631294250488 8.15689754486084 8.014395713806152 7.888760089874268
        7.798238754272461 7.700883865356445 7.59020471572876 7.460261821746826 7.346641540527344 7.231138229370117
        7.170778274536133 7.192691802978516 7.204921245574951 7.216595649719238 7.218096733093262 7.232039928436279
        7.187741279602051 7.117015838623047 7.054311275482178 6.987396717071533 15.771827697753906 15.563935279846191
        15.376288414001465 15.706557273864746 15.935873031616211 15.87350082397461 16.135684967041016 16.310293197631836
        16.187728881835938 16.03872299194336 16.090824127197266 15.940919876098633 15.545517921447754 15.094852447509766
        14.777588844299316 14.478509902954102 14.348255157470703 14.362174987792969 14.52171802520752 14.567045211791992
        14.705194473266602 14.893731117248535 15.140192031860352 15.236133575439453 15.452714920043945 15.477418899536133
        15.600008010864258 15.692696571350098 15.815705299377441 15.994540214538574 16.094650268554688 15.979437828063965
        15.884855270385742 15.869951248168945 15.843542098999023 15.797924995422363 15.654483795166016 15.29079532623291
        14.987070083618164 14.867551803588867 14.776520729064941 14.499800682067871 14.408378601074219 14.477275848388672
        14.261882781982422 13.952877044677734 13.729543685913086 13.582151412963867 13.477408409118652 13.417737007141113
        13.420122146606445 13.269054412841797 13.224197387695312 13.118914604187012 12.921767234802246 12.814589500427246
        12.652914047241211 12.443502426147461 12.200284004211426 12.038989067077637 11.966136932373047 11.802297592163086
        11.656064987182617 11.47425651550293 11.326623916625977 11.146492004394531 10.993305206298828 10.961606979370117
        10.957921981811523 10.87465763092041 10.795327186584473 10.671433448791504 10.642423629760742 10.61962890625
        10.627591133117676 10.760527610778809 11.024491310119629 11.3975830078125 11.654648780822754 11.642875671386719
        11.634234428405762 11.618033409118652 11.62199878692627 11.450332641601562 11.284480094909668 11.164756774902344
        11.060249328613281 10.923389434814453 10.863256454467773 10.964421272277832 11.074851036071777 11.231197357177734
        11.40325927734375 11.54060173034668 11.492493629455566 11.360223770141602 11.337163925170898 11.302647590637207
        11.276288986206055 11.367910385131836 11.530016899108887 11.534420013427734 11.436535835266113 11.462563514709473
        11.43074893951416 11.355195045471191 11.23268985748291 11.194994926452637 11.222765922546387 11.320828437805176
        11.461573600769043 11.51511287689209 11.502309799194336 11.591777801513672 11.49164867401123 11.208847999572754
        10.84926986694336 10.569340705871582 10.32880687713623 10.199555397033691 10.063804626464844 9.922554969787598
        9.717695236206055 9.503066062927246 9.339778900146484 9.335006713867188 9.345088958740234 9.292387008666992
        9.23503303527832 9.15960693359375 9.1156005859375 9.094354629516602 9.035501480102539 8.9760103225708
        8.864656448364258 8.80390453338623 8.666440963745117 8.545145034790039 8.479789733886719 8.414532661437988
        8.359493255615234 8.196728706359863 8.047036170959473 7.945301532745361 7.879090309143066 7.823185920715332
        7.686164855957031 7.516548156738281 7.357872486114502 7.13434362411499 7.072445392608643 7.0995659828186035
        7.09713888168335 7.079344272613525 7.049114227294922 7.006373882293701 7.010687828063965 6.976016521453857
        6.956335067749023 6.883727550506592 16.128938674926758 15.985944747924805 15.699909210205078 15.790786743164062
        15.89123249053955 15.933737754821777 16.021575927734375 16.194290161132812 16.1915225982666 16.241313934326172
        16.28012466430664 16.200098037719727 15.706106185913086 15.329290390014648 15.207337379455566 14.863969802856445
        14.53993034362793 14.399396896362305 14.4649019241333 14.558581352233887 14.687300682067871 14.72658920288086
        14.890887260437012 15.034502029418945 15.42534351348877 15.492382049560547 15.55029010772705 15.44826889038086
        15.666234970092773 15.974495887756348 16.093551635742188 15.979171752929688 15.901680946350098 16.038755416870117
        16.060867309570312 15.974691390991211 15.703022003173828 15.320618629455566 15.034615516662598 14.958870887756348
        14.838740348815918 14.691791534423828 14.618694305419922 14.67303466796875 14.322345733642578 13.999622344970703
        13.747014045715332 13.604450225830078 13.488415718078613 13.451628684997559 13.458340644836426 13.363903999328613
        13.292972564697266 13.199742317199707 12.975532531738281 12.809611320495605 12.616039276123047 12.488685607910156
        12.269072532653809 12.068336486816406 11.952730178833008 11.784092903137207 11.634597778320312 11.463287353515625
        11.34716510772705 11.202594757080078 11.088069915771484 11.010345458984375 10.963890075683594 10.854835510253906
        10.798181533813477 10.725973129272461 10.677947044372559 10.684514045715332 10.75522518157959 10.896095275878906
        11.078696250915527 11.335004806518555 11.609418869018555 11.670973777770996 11.720170974731445 11.603179931640625
        11.558277130126953 11.391968727111816 11.331847190856934 11.248785972595215 11.314805030822754 11.261993408203125
        11.207327842712402 11.247589111328125 11.306137084960938 11.268314361572266 11.291979789733887 11.396280288696289
        11.354164123535156 11.312928199768066 11.264448165893555 11.295248985290527 11.258508682250977 11.413421630859375
        11.46507740020752 11.544278144836426 11.435954093933105 11.44814395904541 11.359260559082031 11.324442863464355
        11.261273384094238 11.244871139526367 11.267004013061523 11.352288246154785 11.464430809020996 11.50377368927002
        11.488822937011719 11.584714889526367 11.463479042053223 11.22576904296875 10.931042671203613 10.69748592376709
        10.44466781616211 10.265547752380371 10.116179466247559 9.975790977478027 9.776436805725098 9.62777042388916
        9.439071655273438 9.396452903747559 9.386432647705078 9.346707344055176 9.280815124511719 9.167919158935547
        9.109724044799805 9.103842735290527 9.025070190429688 8.916374206542969 8.752898216247559 8.700472831726074
        8.592052459716797 8.529725074768066 8.479287147521973 8.396146774291992 8.342310905456543 8.247716903686523
        8.124083518981934 8.04050064086914 7.960453987121582 7.971134662628174 7.805047512054443 7.617621898651123
        7.444948673248291 7.139824390411377 7.008836269378662 6.935240268707275 6.9423675537109375 6.946850776672363
        6.939245223999023 6.88560676574707 6.794358253479004 6.824864387512207 6.819254398345947 6.75078010559082
        16.44371223449707 16.11483383178711 15.858327865600586 15.788788795471191 15.779146194458008 15.765626907348633
        15.953081130981445 16.139732360839844 16.225370407104492 16.333044052124023 16.36009979248047 16.278221130371094
        15.915355682373047 15.59139633178711 15.386370658874512 14.962740898132324 14.668999671936035 14.47414779663086
        14.463644981384277 14.487659454345703 14.684865951538086 14.961776733398438 14.961902618408203 14.978727340698242
        15.339287757873535 15.589101791381836 15.705833435058594 15.586585998535156 15.787882804870605 16.090782165527344
        16.092803955078125 16.119373321533203 16.16570281982422 16.36260414123535 16.40091896057129 16.314931869506836
        15.916044235229492 15.601397514343262 15.3150634765625 15.239439964294434 14.975995063781738 15.000378608703613
        14.98024845123291 14.863279342651367 14.448325157165527 14.084909439086914 13.85538387298584 13.735424041748047
        13.576852798461914 13.541037559509277 13.484389305114746 13.448022842407227 13.405522346496582 13.33263111114502
        13.145617485046387 12.873360633850098 12.655815124511719 12.517332077026367 12.340804100036621 12.1357421875
        11.960953712463379 11.843008041381836 11.729570388793945 11.557818412780762 11.405150413513184 11.193483352661133
        11.144009590148926 11.110801696777344 11.028897285461426 10.905855178833008 10.824566841125488 10.843290328979492
        10.863101959228516 10.862757682800293 10.928333282470703 11.012595176696777 11.179539680480957 11.35677433013916
        11.543354034423828 11.629188537597656 11.659098625183105 11.542276382446289 11.4542875289917 11.262350082397461
        11.233745574951172 11.280394554138184 11.464822769165039 11.498477935791016 11.429600715637207 11.427712440490723
        11.391169548034668 11.305006980895996 11.254594802856445 11.29314136505127 11.248117446899414 11.216266632080078
        11.194082260131836 11.292360305786133 11.240411758422852 11.386863708496094 11.378254890441895 11.552699089050293
        11.500948905944824 11.47213363647461 11.354962348937988 11.321870803833008 11.302459716796875 11.3128662109375
        11.336767196655273 11.424030303955078 11.465271949768066 11.512716293334961 11.544902801513672 11.577974319458008
        11.436686515808105 11.234894752502441 11.02429485321045 10.812576293945312 10.534144401550293 10.359407424926758
        10.211573600769043 10.091903686523438 9.89738655090332 9.758546829223633 9.621649742126465 9.505173683166504
        9.483390808105469 9.398205757141113 9.331036567687988 9.249898910522461 9.188272476196289 9.13828182220459
        9.04665756225586 8.921204566955566 8.725709915161133 8.581823348999023 8.532307624816895 8.502994537353516
        8.490301132202148 8.405278205871582 8.395171165466309 8.353957176208496 8.289618492126465 8.208381652832031
        8.136035919189453 8.119196891784668 7.942745685577393 7.728294849395752 7.486606121063232 7.260542869567871
        7.091824054718018 6.933588027954102 6.875173568725586 6.878073215484619 6.894924163818359 6.784370422363281
        6.66602087020874 6.711740493774414 6.753655433654785 6.717094898223877 16.188617706298828 16.15961265563965
        15.825973510742188 15.648341178894043 15.648344993591309 15.793319702148438 15.874109268188477 15.863783836364746
        15.975564956665039 16.21570587158203 16.401443481445312 16.32216453552246 15.96188735961914 15.626493453979492
        15.3989896774292 15.172165870666504 14.872036933898926 14.573031425476074 14.448954582214355 14.5480375289917
        14.848343849182129 15.09659194946289 15.060487747192383 15.055449485778809 15.200657844543457 15.642910957336426
        15.753204345703125 15.75207805633545 15.92849063873291 16.077857971191406 16.144227981567383 16.163352966308594
        16.245075225830078 16.51151466369629 16.514604568481445 16.511642456054688 16.026031494140625 15.737846374511719
        15.559671401977539 15.506566047668457 15.427229881286621 15.322251319885254 15.216729164123535 14.932596206665039
        14.49951171875 14.248411178588867 13.937234878540039 13.780715942382812 13.698346138000488 13.70374870300293
        13.721463203430176 13.57962703704834 13.528096199035645 13.484396934509277 13.263937950134277 12.98587417602539
        12.668343544006348 12.483807563781738 12.385271072387695 12.197628021240234 12.05746841430664 11.852907180786133
        11.799405097961426 11.665794372558594 11.508943557739258 11.362710952758789 11.23122787475586 11.13412094116211
        11.050374984741211 10.978886604309082 10.962835311889648 10.936986923217773 10.978442192077637 11.079041481018066
        11.119654655456543 11.2176513671875 11.354389190673828 11.474828720092773 11.580156326293945 11.543316841125488
        11.566631317138672 11.529295921325684 11.429183006286621 11.35558032989502 11.321033477783203 11.492164611816406
        11.597847938537598 11.642752647399902 11.555268287658691 11.477550506591797 11.411745071411133 11.332499504089355
        11.267499923706055 11.34775161743164 11.340982437133789 11.368151664733887 11.321416854858398 11.383805274963379
        11.3521089553833 11.379684448242188 11.375752449035645 11.4871826171875 11.503555297851562 11.547045707702637
        11.421736717224121 11.383275985717773 11.33491039276123 11.347196578979492 11.43661880493164 11.488212585449219
        11.496955871582031 11.548940658569336 11.578571319580078 11.610596656799316 11.421754837036133 11.288349151611328
        11.075759887695312 10.857933044433594 10.60226058959961 10.433676719665527 10.349983215332031 10.173722267150879
        9.953872680664062 9.78078556060791 9.681471824645996 9.615151405334473 9.555737495422363 9.497154235839844
        9.403135299682617 9.334263801574707 9.292317390441895 9.162576675415039 8.991402626037598 8.912702560424805
        8.729866981506348 8.548401832580566 8.429913520812988 8.435325622558594 8.461774826049805 8.435903549194336
        8.469171524047852 8.410979270935059 8.413372039794922 8.393562316894531 8.310139656066895 8.215993881225586
        8.024935722351074 7.7590742111206055 7.545276165008545 7.360843181610107 7.150839805603027 6.981600284576416
        6.9077043533325195 6.841690540313721 6.768452167510986 6.674574851989746 6.554907321929932 6.547219753265381
        6.601147174835205 6.595517158508301 15.86986255645752 15.805037498474121 15.63736343383789 15.521440505981445
        15.51040267944336 15.564167976379395 15.603914260864258 15.639985084533691 15.862832069396973 16.026643753051758
        16.22391128540039 16.212141036987305 16.030792236328125 15.638721466064453 15.32952880859375 15.126867294311523
        14.887532234191895 14.65512466430664 14.496842384338379 14.620641708374023 14.819957733154297 14.904498100280762
        15.070738792419434 15.229188919067383 15.394454002380371 15.697833061218262 15.858919143676758 16.02143096923828
        16.192127227783203 16.200151443481445 16.21007537841797 16.248851776123047 16.316646575927734 16.512252807617188
        16.472537994384766 16.405969619750977 16.1552677154541 16.03351593017578 15.827593803405762 15.735000610351562
        15.752860069274902 15.566666603088379 15.327926635742188 15.02282428741455 14.657679557800293 14.349054336547852
        14.043172836303711 13.843391418457031 13.77041244506836 13.823784828186035 13.912421226501465 13.721329689025879
        13.600798606872559 13.496996879577637 13.29862117767334 13.036616325378418 12.692322731018066 12.455162048339844
        12.389336585998535 12.264566421508789 12.132915496826172 11.870505332946777 11.780054092407227 11.727241516113281
        11.651710510253906 11.486678123474121 11.261487007141113 11.148307800292969 11.150925636291504 11.104360580444336
        11.044373512268066 10.96247386932373 11.021932601928711 11.133214950561523 11.198052406311035 11.265371322631836
        11.363039016723633 11.537890434265137 11.640812873840332 11.652079582214355 11.608122825622559 11.607963562011719
        11.534897804260254 11.47360610961914 11.474440574645996 11.666446685791016 11.683345794677734 11.650111198425293
        11.5939359664917 11.528943061828613 11.457000732421875 11.378003120422363 11.303227424621582 11.346670150756836
        11.412470817565918 11.427263259887695 11.405574798583984 11.453282356262207 11.403836250305176 11.432794570922852
        11.483366012573242 11.512642860412598 11.504363059997559 11.554139137268066 11.513742446899414 11.467750549316406
        11.413091659545898 11.376522064208984 11.431767463684082 11.49761962890625 11.52851390838623 11.56836986541748
        11.586668014526367 11.562445640563965 11.445780754089355 11.329826354980469 11.091647148132324 10.854473114013672
        10.64354133605957 10.518224716186523 10.442159652709961 10.260876655578613 10.022374153137207 9.841108322143555
        9.737885475158691 9.687678337097168 9.628026962280273 9.58705997467041 9.485157012939453 9.41067886352539
        9.35331916809082 9.198060035705566 8.960792541503906 8.882179260253906 8.701165199279785 8.512957572937012
        8.378084182739258 8.406195640563965 8.451835632324219 8.502701759338379 8.561264038085938 8.449987411499023
        8.482297897338867 8.530060768127441 8.501934051513672 8.342700004577637 8.128589630126953 7.800329208374023
        7.589481830596924 7.418491363525391 7.20880651473999 7.061554908752441 6.961879253387451 6.825265884399414
        6.67008638381958 6.562709331512451 6.5165510177612305 6.465038299560547 6.459549427032471 6.418532371520996
        15.776165008544922 15.683549880981445 15.453241348266602 15.216778755187988 15.194945335388184 15.202468872070312
        15.349834442138672 15.479697227478027 15.738566398620605 15.894064903259277 16.156295776367188 16.148517608642578
        15.933090209960938 15.47548770904541 15.260748863220215 15.026610374450684 14.945075035095215 14.75910758972168
        14.691143989562988 14.735754013061523 14.88235855102539 14.855107307434082 15.150254249572754 15.51689338684082
        15.759505271911621 15.814176559448242 16.033571243286133 16.168594360351562 16.308917999267578 16.2475528717041
        16.12549591064453 16.198854446411133 16.2747802734375 16.427732467651367 16.35062599182129 16.244029998779297
        16.186433792114258 16.17511558532715 16.059141159057617 15.922080039978027 15.914216041564941 15.78958511352539
        15.521347999572754 15.242010116577148 14.829174041748047 14.46444034576416 14.158939361572266 13.960427284240723
        13.824776649475098 13.826874732971191 13.929393768310547 13.820720672607422 13.697603225708008 13.559688568115234
        13.316668510437012 13.030618667602539 12.739799499511719 12.56032657623291 12.39791202545166 12.219950675964355
        12.093050003051758 11.90859603881836 11.799088478088379 11.702903747558594 11.636051177978516 11.506755828857422
        11.333874702453613 11.211706161499023 11.193588256835938 11.172891616821289 11.163311958312988 11.065601348876953
        11.094430923461914 11.146822929382324 11.24295711517334 11.316597938537598 11.403841972351074 11.552543640136719
        11.681109428405762 11.671622276306152 11.623675346374512 11.594900131225586 11.560249328613281 11.521661758422852
        11.553939819335938 11.706583976745605 11.72301959991455 11.71292781829834 11.766841888427734 11.62783432006836
        11.452223777770996 11.333109855651855 11.368474006652832 11.434983253479004 11.471240043640137 11.457599639892578
        11.40117073059082 11.484183311462402 11.487815856933594 11.549182891845703 11.55847454071045 11.543002128601074
        11.521523475646973 11.553349494934082 11.534049987792969 11.481271743774414 11.417941093444824 11.437912940979004
        11.460790634155273 11.53858470916748 11.597887992858887 11.614299774169922 11.606032371520996 11.578649520874023
        11.508895874023438 11.413317680358887 11.209014892578125 10.934037208557129 10.711526870727539 10.622785568237305
        10.530455589294434 10.344940185546875 10.096162796020508 9.915106773376465 9.769932746887207 9.722660064697266
        9.670904159545898 9.630645751953125 9.529986381530762 9.391908645629883 9.321065902709961 9.186116218566895
        8.976633071899414 8.843244552612305 8.598876953125 8.430252075195312 8.325483322143555 8.382752418518066
        8.390175819396973 8.478595733642578 8.606352806091309 8.541484832763672 8.501368522644043 8.540611267089844
        8.559075355529785 8.437073707580566 8.230077743530273 7.96013879776001 7.74839448928833 7.479270935058594
        7.2548675537109375 7.104461193084717 7.023327827453613 6.844615936279297 6.567065238952637 6.512747764587402
        6.485842704772949 6.417112350463867 6.333656311035156 6.239136219024658 15.795845031738281 15.515523910522461
        15.258801460266113 15.057714462280273 15.113789558410645 15.065235137939453 15.379732131958008 15.600149154663086
        15.82831859588623 15.948366165161133 16.143850326538086 15.935043334960938 15.616148948669434 15.26080322265625
        15.231560707092285 14.977447509765625 14.943711280822754 14.803874015808105 14.754925727844238 14.839269638061523
        14.961956024169922 14.901021957397461 15.074801445007324 15.527382850646973 15.857996940612793 15.951787948608398
        16.09526824951172 16.252105712890625 16.363327026367188 16.288972854614258 16.134740829467773 16.06876564025879
        16.094011306762695 16.25450325012207 16.261632919311523 16.17949676513672 16.067157745361328 16.103899002075195
        16.10482406616211 16.005149841308594 15.989727020263672 15.943842887878418 15.738221168518066 15.54502010345459
        15.12999439239502 14.725373268127441 14.337984085083008 14.13969898223877 13.953192710876465 13.888510704040527
        13.911603927612305 13.865001678466797 13.756617546081543 13.644075393676758 13.361351013183594 13.101629257202148
        12.84321403503418 12.695363998413086 12.492294311523438 12.270423889160156 12.152432441711426 12.013043403625488
        11.87116527557373 11.753947257995605 11.691078186035156 11.595475196838379 11.459430694580078 11.329767227172852
        11.279504776000977 11.21106243133545 11.212199211120605 11.162981986999512 11.134414672851562 11.18065071105957
        11.295449256896973 11.369187355041504 11.425695419311523 11.497724533081055 11.538846015930176 11.578191757202148
        11.66366958618164 11.598299980163574 11.531763076782227 11.484918594360352 11.593361854553223 11.695442199707031
        11.792555809020996 11.724099159240723 11.781793594360352 11.665431022644043 11.515183448791504 11.402350425720215
        11.462536811828613 11.479598045349121 11.505972862243652 11.507733345031738 11.46584415435791 11.45419692993164
        11.465043067932129 11.553735733032227 11.584176063537598 11.634418487548828 11.576826095581055 11.595968246459961
        11.531493186950684 11.481705665588379 11.42757511138916 11.461037635803223 11.443533897399902 11.495832443237305
        11.563252449035645 11.589273452758789 11.544248580932617 11.589733123779297 11.54164981842041 11.467641830444336
        11.29404354095459 11.063471794128418 10.820544242858887 10.702028274536133 10.56289005279541 10.423929214477539
        10.207452774047852 10.034740447998047 9.827169418334961 9.754985809326172 9.694414138793945 9.58440113067627
        9.509919166564941 9.387006759643555 9.336304664611816 9.21521282196045 9.073301315307617 8.89319133758545
        8.62272834777832 8.469186782836914 8.368709564208984 8.41981315612793 8.445690155029297 8.470939636230469
        8.563820838928223 8.560206413269043 8.569856643676758 8.604601860046387 8.616662979125977 8.539480209350586
        8.376641273498535 8.171913146972656 7.934001922607422 7.634365558624268 7.420285224914551 7.184307098388672
        7.112337589263916 6.976654529571533 6.678164005279541 6.494024276733398 6.327367305755615 6.333581924438477
        6.298877239227295 6.19158411026001 15.951720237731934 15.542656898498535 15.336699485778809 15.039430618286133
        14.969252586364746 14.936687469482422 15.363931655883789 15.594362258911133 15.734189987182617 15.908329963684082
        15.98281192779541 15.861100196838379 15.580681800842285 15.26578426361084 15.197589874267578 14.945442199707031
        14.986144065856934 14.850055694580078 14.736841201782227 14.836772918701172 15.036563873291016 15.182199478149414
        15.327259063720703 15.6149320602417 15.9390869140625 16.082923889160156 16.33945655822754 16.49460220336914
        16.44059181213379 16.3491268157959 16.12079429626465 16.096511840820312 16.153701782226562 16.167524337768555
        16.17606544494629 16.008460998535156 16.045673370361328 16.098731994628906 16.130802154541016 16.130643844604492
        16.088638305664062 16.10283088684082 15.961424827575684 15.754328727722168 15.399029731750488 14.942730903625488
        14.55647087097168 14.347926139831543 14.195496559143066 14.123319625854492 14.004631996154785 13.967757225036621
        13.868829727172852 13.851579666137695 13.619241714477539 13.292498588562012 12.966655731201172 12.772249221801758
        12.671175003051758 12.489901542663574 12.291108131408691 12.087164878845215 11.982356071472168 11.87767219543457
        11.805931091308594 11.689229965209961 11.620684623718262 11.531000137329102 11.389836311340332 11.309680938720703
        11.232793807983398 11.246064186096191 11.318068504333496 11.362004280090332 11.445878028869629 11.40047836303711
        11.484356880187988 11.531073570251465 11.501618385314941 11.529119491577148 11.577156066894531 11.571513175964355
        11.584037780761719 11.572671890258789 11.715386390686035 11.736028671264648 11.844531059265137 11.786334037780762
        11.80118179321289 11.689013481140137 11.498517990112305 11.469017028808594 11.571379661560059 11.592164993286133
        11.582354545593262 11.542502403259277 11.561962127685547 11.602893829345703 11.568011283874512 11.591197967529297
        11.564445495605469 11.685044288635254 11.692344665527344 11.670654296875 11.5904541015625 11.485177040100098
        11.459728240966797 11.534072875976562 11.522420883178711 11.558613777160645 11.548076629638672 11.63203239440918
        11.60653018951416 11.644462585449219 11.57538890838623 11.440299034118652 11.294209480285645 11.154528617858887
        10.93750286102295 10.821877479553223 10.576014518737793 10.454012870788574 10.283842086791992 10.117314338684082
        9.889782905578613 9.724839210510254 9.686394691467285 9.559249877929688 9.479074478149414 9.410399436950684
        9.372159004211426 9.303189277648926 9.171598434448242 8.990257263183594 8.748589515686035 8.551782608032227
        8.421889305114746 8.392204284667969 8.471651077270508 8.508004188537598 8.533731460571289 8.554210662841797
        8.578397750854492 8.677066802978516 8.736654281616211 8.693269729614258 8.512310028076172 8.34408187866211
        8.102481842041016 7.8567914962768555 7.648863792419434 7.3827900886535645 7.213376522064209 7.034388542175293
        6.7869157791137695 6.543939590454102 6.314209938049316 6.263733386993408 6.233012676239014 6.212735176086426
        15.416694641113281 15.42837142944336 15.157584190368652 14.917828559875488 14.845126152038574 15.003052711486816
        15.277956008911133 15.47153377532959 15.678842544555664 15.719308853149414 15.728110313415527 15.693855285644531
        15.484496116638184 15.266854286193848 15.141565322875977 15.046828269958496 14.954818725585938 14.903006553649902
        14.819129943847656 14.863587379455566 15.09152603149414 15.412827491760254 15.575809478759766 15.743171691894531
        15.932939529418945 16.22032928466797 16.417564392089844 16.436336517333984 16.358509063720703 16.220050811767578
        16.150022506713867 16.060359954833984 16.068588256835938 16.147045135498047 16.03782081604004 15.968812942504883
        15.96998119354248 16.045730590820312 16.077228546142578 15.999015808105469 16.07247543334961 16.036041259765625
        15.9431734085083 15.781022071838379 15.477911949157715 15.192230224609375 14.749797821044922 14.500007629394531
        14.347495079040527 14.227344512939453 14.150091171264648 14.08690071105957 14.030988693237305 13.980938911437988
        13.754335403442383 13.5020170211792 13.071098327636719 12.792264938354492 12.731316566467285 12.644700050354004
        12.5033540725708 12.178892135620117 12.074636459350586 11.964017868041992 11.850800514221191 11.771821975708008
        11.685855865478516 11.590001106262207 11.46474552154541 11.349254608154297 11.30754566192627 11.285154342651367
        11.362550735473633 11.493762016296387 11.507478713989258 11.507118225097656 11.515583038330078 11.50143051147461
        11.502511024475098 11.482501029968262 11.54139232635498 11.551712036132812 11.623144149780273 11.722217559814453
        11.747248649597168 11.808774948120117 11.865967750549316 11.824590682983398 11.777276992797852 11.644477844238281
        11.58467960357666 11.584507942199707 11.5853853225708 11.605646133422852 11.613506317138672 11.637057304382324
        11.698631286621094 11.721242904663086 11.686290740966797 11.64742374420166 11.659762382507324 11.706844329833984
        11.69667911529541 11.727502822875977 11.618898391723633 11.584031105041504 11.511395454406738 11.539125442504883
        11.608633041381836 11.610295295715332 11.62490177154541 11.712736129760742 11.810140609741211 11.81440258026123
        11.61351490020752 11.489669799804688 11.3319091796875 11.210953712463379 11.062238693237305 10.894047737121582
        10.701547622680664 10.549694061279297 10.373859405517578 10.215704917907715 9.997123718261719 9.837553024291992
        9.694706916809082 9.585941314697266 9.51247787475586 9.484347343444824 9.448705673217773 9.355548858642578
        9.190484046936035 9.019673347473145 8.821433067321777 8.706541061401367 8.555521965026855 8.461077690124512
        8.46479606628418 8.483231544494629 8.529532432556152 8.536177635192871 8.55712604522705 8.656850814819336
        8.672423362731934 8.691184043884277 8.566408157348633 8.458621978759766 8.284882545471191 8.079715728759766
        7.870598793029785 7.602714538574219 7.413393974304199 7.260033130645752 6.9853644371032715 6.663208484649658
        6.458679676055908 6.349558353424072 6.255409240722656 6.156510353088379 15.105260848999023 15.13392448425293
        14.844804763793945 14.735190391540527 14.714104652404785 14.897329330444336 14.991898536682129 15.215561866760254
        15.41240406036377 15.500323295593262 15.431685447692871 15.425975799560547 15.240415573120117 15.11083698272705
        14.997018814086914 14.986763954162598 14.866844177246094 14.900628089904785 14.939543724060059 15.031820297241211
        15.228248596191406 15.53308391571045 15.779558181762695 15.969115257263184 16.128314971923828 16.311853408813477
        16.460355758666992 16.431394577026367 16.350191116333008 16.215320587158203 16.149795532226562 16.07387351989746
        16.02859878540039 16.12066650390625 16.04094886779785 15.993884086608887 15.913837432861328 16.03706932067871
        16.095041275024414 16.07804298400879 16.055639266967773 15.914337158203125 15.82663631439209 15.705032348632812
        15.454084396362305 15.230652809143066 14.915472984313965 14.683457374572754 14.512777328491211 14.33401107788086
        14.259620666503906 14.170371055603027 14.177348136901855 14.123303413391113 13.911591529846191 13.60284423828125
        13.154924392700195 12.886141777038574 12.822260856628418 12.709945678710938 12.58371353149414 12.253460884094238
        12.181292533874512 12.062821388244629 11.9424409866333 11.745314598083496 11.642463684082031 11.530320167541504
        11.466270446777344 11.41098690032959 11.376773834228516 11.321288108825684 11.362113952636719 11.48147964477539
        11.554121017456055 11.544160842895508 11.468193054199219 11.420636177062988 11.465520858764648 11.514178276062012
        11.545877456665039 11.500275611877441 11.617496490478516 11.719330787658691 11.775039672851562 11.784011840820312
        11.793025016784668 11.823455810546875 11.780159950256348 11.679375648498535 11.632647514343262 11.610513687133789
        11.53243637084961 11.549054145812988 11.663700103759766 11.694565773010254 11.705804824829102 11.764235496520996
        11.798233985900879 11.87442398071289 11.836935043334961 11.704137802124023 11.60236644744873 11.680445671081543
        11.662108421325684 11.620355606079102 11.55679988861084 11.55721664428711 11.631031036376953 11.688047409057617
        11.732503890991211 11.752819061279297 11.874717712402344 11.893982887268066 11.73653507232666 11.537823677062988
        11.335984230041504 11.182574272155762 11.081239700317383 10.997564315795898 10.853829383850098 10.638916015625
        10.380119323730469 10.236302375793457 10.087069511413574 9.969079971313477 9.717621803283691 9.605000495910645
        9.5870943069458 9.608202934265137 9.506793975830078 9.365483283996582 9.157783508300781 9.048084259033203
        8.91248607635498 8.77477741241455 8.627861976623535 8.543246269226074 8.50170612335205 8.595128059387207
        8.7078218460083 8.647356986999512 8.575493812561035 8.605757713317871 8.59821891784668 8.6033296585083
        8.498462677001953 8.420141220092773 8.37357234954834 8.262540817260742 8.054298400878906 7.832803726196289
        7.641275405883789 7.425619125366211 7.090767860412598 6.803589344024658 6.6213555335998535 6.42711877822876
        6.242125988006592 6.08734655380249 14.945049285888672 15.012099266052246 14.765610694885254 14.632047653198242
        14.660889625549316 14.869935989379883 15.014403343200684 15.211111068725586 15.330156326293945 15.375955581665039
        15.285079956054688 15.229305267333984 15.05782699584961 14.946460723876953 14.922338485717773 15.004682540893555
        15.02270221710205 15.165035247802734 15.241558074951172 15.411530494689941 15.514288902282715 15.707479476928711
        15.873820304870605 16.102182388305664 16.236040115356445 16.3293514251709 16.440753936767578 16.383039474487305
        16.33562469482422 16.227447509765625 16.130878448486328 16.092838287353516 16.111469268798828 16.154081344604492
        16.121511459350586 16.039133071899414 15.930314064025879 15.968438148498535 16.035398483276367 16.022844314575195
        15.943926811218262 15.869056701660156 15.77503776550293 15.64254093170166 15.409686088562012 15.196617126464844
        14.961533546447754 14.753491401672363 14.566712379455566 14.38601016998291 14.343761444091797 14.305461883544922
        14.302084922790527 14.182108879089355 13.890679359436035 13.58406925201416 13.283527374267578 13.041817665100098
        12.88996410369873 12.70771598815918 12.568952560424805 12.367591857910156 12.313614845275879 12.200397491455078
        12.045312881469727 11.844156265258789 11.736071586608887 11.627848625183105 11.494765281677246 11.387723922729492
        11.369882583618164 11.357831001281738 11.387328147888184 11.488425254821777 11.554397583007812 11.548568725585938
        11.466105461120605 11.436915397644043 11.4348726272583 11.46706771850586 11.564691543579102 11.536437034606934
        11.671216011047363 11.754293441772461 11.835735321044922 11.830048561096191 11.834896087646484 11.84045696258545
        11.816971778869629 11.677370071411133 11.614068984985352 11.597577095031738 11.574445724487305 11.555136680603027
        11.684937477111816 11.785665512084961 11.787189483642578 11.808083534240723 11.821494102478027 11.883052825927734
        11.853462219238281 11.742467880249023 11.662328720092773 11.700892448425293 11.729864120483398 11.718169212341309
        11.693140983581543 11.69691276550293 11.72661018371582 11.731494903564453 11.77164077758789 11.811147689819336
        11.851029396057129 11.86461067199707 11.766213417053223 11.624261856079102 11.405298233032227 11.238887786865234
        11.084551811218262 10.969766616821289 10.887970924377441 10.705243110656738 10.417713165283203 10.213887214660645
        10.132588386535645 10.091097831726074 9.931476593017578 9.830714225769043 9.738826751708984 9.726935386657715
        9.600916862487793 9.411962509155273 9.199625015258789 9.113568305969238 8.932438850402832 8.839717864990234
        8.705471992492676 8.630048751831055 8.6293306350708 8.677695274353027 8.71780776977539 8.587505340576172
        8.54273509979248 8.553653717041016 8.510814666748047 8.454357147216797 8.427287101745605 8.369800567626953
        8.357572555541992 8.260374069213867 8.116036415100098 7.999337196350098 7.850724220275879 7.650145053863525
        7.370608806610107 7.102954864501953 6.799032211303711 6.547384738922119 6.307741641998291 6.055080890655518
        15.020505905151367 14.917036056518555 14.743635177612305 14.683749198913574 14.797646522521973 14.889212608337402
        15.127311706542969 15.2974271774292 15.339762687683105 15.315935134887695 15.256953239440918 15.102041244506836
        14.928478240966797 14.862001419067383 14.95392894744873 15.01730728149414 15.198042869567871 15.341917991638184
        15.531060218811035 15.788207054138184 15.795918464660645 15.770843505859375 15.834539413452148 16.153152465820312
        16.259483337402344 16.342483520507812 16.3361759185791 16.259626388549805 16.279193878173828 16.276317596435547
        16.17973518371582 16.140348434448242 16.185470581054688 16.18246841430664 16.139122009277344 16.073925018310547
        15.974663734436035 15.885578155517578 15.94031810760498 15.93741226196289 15.936111450195312 15.842620849609375
        15.691490173339844 15.581803321838379 15.395840644836426 15.195944786071777 14.917844772338867 14.67304515838623
        14.554348945617676 14.43675422668457 14.414420127868652 14.353211402893066 14.285604476928711 14.231170654296875
        13.956289291381836 13.673781394958496 13.287262916564941 13.07561206817627 12.900274276733398 12.763899803161621
        12.611468315124512 12.443849563598633 12.324332237243652 12.250720977783203 12.138666152954102 12.017570495605469
        11.882100105285645 11.750182151794434 11.568825721740723 11.474565505981445 11.469154357910156 11.489124298095703
        11.44807243347168 11.497867584228516 11.508137702941895 11.50367546081543 11.45322322845459 11.415964126586914
        11.397052764892578 11.431331634521484 11.561575889587402 11.572848320007324 11.643549919128418 11.697206497192383
        11.815377235412598 11.846181869506836 11.867829322814941 11.809703826904297 11.790596961975098 11.696391105651855
        11.629655838012695 11.625746726989746 11.638293266296387 11.598852157592773 11.673124313354492 11.787057876586914
        11.867210388183594 11.872420310974121 11.918695449829102 11.900980949401855 11.900403022766113 11.826043128967285
        11.795257568359375 11.803094863891602 11.81620979309082 11.76774787902832 11.771193504333496 11.763959884643555
        11.788885116577148 11.754534721374512 11.812201499938965 11.838273048400879 11.818595886230469 11.844846725463867
        11.799169540405273 11.654994010925293 11.386537551879883 11.21160888671875 11.042204856872559 10.883402824401855
        10.805364608764648 10.701979637145996 10.507425308227539 10.343684196472168 10.206851959228516 10.117779731750488
        10.06196403503418 9.977376937866211 9.872913360595703 9.743724822998047 9.701976776123047 9.525139808654785
        9.372699737548828 9.306822776794434 9.071178436279297 8.953391075134277 8.791364669799805 8.786028861999512
        8.763409614562988 8.731900215148926 8.756001472473145 8.619210243225098 8.633127212524414 8.60803508758545
        8.4850435256958 8.382885932922363 8.272834777832031 8.246028900146484 8.224127769470215 8.202013969421387
        8.071216583251953 7.989491939544678 7.917582988739014 7.809121131896973 7.692897796630859 7.49599027633667
        7.122547626495361 6.857065200805664 6.597626209259033 6.241049289703369 15.341550827026367 14.962028503417969
        14.886667251586914 14.635337829589844 14.785726547241211 14.882486343383789 15.290149688720703 15.484029769897461
        15.45903491973877 15.37521743774414 15.24726390838623 15.225408554077148 15.192137718200684 15.022615432739258
        15.13004207611084 15.182587623596191 15.544646263122559 15.710576057434082 15.90625286102295 16.1610050201416
        16.14463996887207 16.17923927307129 16.21656608581543 16.314395904541016 16.33916473388672 16.352537155151367
        16.42133903503418 16.382221221923828 16.355945587158203 16.398351669311523 16.309301376342773 16.347715377807617
        16.40547752380371 16.463119506835938 16.36569595336914 16.199647903442383 16.13788604736328 16.064319610595703
        16.0355167388916 16.00155258178711 15.859967231750488 15.785290718078613 15.713271141052246 15.63359546661377
        15.458195686340332 15.130960464477539 14.860966682434082 14.62926197052002 14.565113067626953 14.523666381835938
        14.520349502563477 14.439261436462402 14.280710220336914 14.181900024414062 13.982555389404297 13.667349815368652
        13.280532836914062 13.079524040222168 12.949572563171387 12.83529281616211 12.633590698242188 12.5014009475708
        12.366114616394043 12.346198081970215 12.272336959838867 12.163057327270508 12.021169662475586 11.895940780639648
        11.75126838684082 11.67199993133545 11.569567680358887 11.58163833618164 11.57484245300293 11.595690727233887
        11.586087226867676 11.536686897277832 11.506614685058594 11.502507209777832 11.47612190246582 11.557095527648926
        11.582892417907715 11.629697799682617 11.731868743896484 11.815665245056152 11.92748737335205 11.836468696594238
        11.857905387878418 11.846707344055176 11.855066299438477 11.752108573913574 11.615644454956055 11.635881423950195
        11.671530723571777 11.682244300842285 11.796363830566406 11.868295669555664 11.969573974609375 11.977132797241211
        12.023622512817383 12.031160354614258 12.000700950622559 11.969320297241211 11.964558601379395 11.945244789123535
        11.91341781616211 11.796974182128906 11.797187805175781 11.83409309387207 11.827784538269043 11.849526405334473
        11.891316413879395 11.918622970581055 11.916460037231445 11.861919403076172 11.797701835632324 11.59727954864502
        11.417798042297363 11.201859474182129 11.024507522583008 10.879287719726562 10.75918960571289 10.714558601379395
        10.576987266540527 10.46883773803711 10.330168724060059 10.172990798950195 10.113040924072266 10.07811164855957
        10.038049697875977 9.802663803100586 9.69266128540039 9.596519470214844 9.54220199584961 9.491351127624512
        9.1878080368042 9.100726127624512 8.996790885925293 9.060413360595703 8.888944625854492 8.7954740524292
        8.71387767791748 8.651583671569824 8.656028747558594 8.521733283996582 8.384027481079102 8.265518188476562
        8.179746627807617 8.158376693725586 8.182304382324219 8.23188304901123 8.112809181213379 8.057523727416992
        8.060205459594727 8.116589546203613 8.02997875213623 7.786253929138184 7.357380390167236 7.085491180419922
        6.83074951171875 6.449239253997803 14.986013412475586 14.97330093383789 14.80316162109375 14.654970169067383
        14.76467514038086 14.93646240234375 15.226947784423828 15.373297691345215 15.455777168273926 15.392206192016602
        15.390270233154297 15.380867004394531 15.358122825622559 15.278057098388672 15.317998886108398 15.475476264953613
        15.774903297424316 15.926518440246582 16.12915802001953 16.26128387451172 16.441986083984375 16.600130081176758
        16.62319564819336 16.524898529052734 16.44228172302246 16.445907592773438 16.478675842285156 16.409536361694336
        16.410011291503906 16.397924423217773 16.496728897094727 16.498868942260742 16.484678268432617 16.580150604248047
        16.445728302001953 16.41573715209961 16.265790939331055 16.14908790588379 16.092327117919922 15.994885444641113
        15.96466064453125 15.734210014343262 15.546061515808105 15.51846694946289 15.341611862182617 15.178962707519531
        14.876368522644043 14.742195129394531 14.678095817565918 14.587782859802246 14.716073036193848 14.574697494506836
        14.351324081420898 14.178553581237793 14.029450416564941 13.71445083618164 13.235501289367676 13.06733226776123
        13.046117782592773 12.90593433380127 12.745869636535645 12.531065940856934 12.436020851135254 12.386249542236328
        12.341554641723633 12.301901817321777 12.116393089294434 11.959980964660645 11.886425018310547 11.791534423828125
        11.693756103515625 11.600395202636719 11.608393669128418 11.638203620910645 11.585793495178223 11.62701416015625
        11.610745429992676 11.573285102844238 11.587762832641602 11.638203620910645 11.700780868530273 11.772321701049805
        11.840901374816895 11.982843399047852 11.97109317779541 11.935661315917969 11.882163047790527 11.840123176574707
        11.864076614379883 11.770639419555664 11.766398429870605 11.78195571899414 11.791047096252441 11.864212989807129
        11.922853469848633 12.001627922058105 12.040325164794922 12.104371070861816 12.200542449951172 12.173004150390625
        12.153057098388672 12.100890159606934 12.05056381225586 12.093503952026367 11.988909721374512 11.925737380981445
        11.883045196533203 11.885889053344727 11.881619453430176 11.917305946350098 12.028279304504395 12.027873039245605
        11.984519958496094 11.953448295593262 11.769196510314941 11.598175048828125 11.454500198364258 11.199962615966797
        10.983606338500977 10.815900802612305 10.767450332641602 10.712580680847168 10.58619213104248 10.452555656433105
        10.306971549987793 10.21685791015625 10.075499534606934 10.090993881225586 10.058558464050293 9.958436965942383
        9.841992378234863 9.68873119354248 9.571063041687012 9.544437408447266 9.384532928466797 9.318202018737793
        9.198777198791504 9.087387084960938 8.919857025146484 8.881361961364746 8.8453369140625 8.796056747436523
        8.677628517150879 8.518357276916504 8.30655288696289 8.151555061340332 7.96136474609375 7.826892852783203
        7.9066596031188965 8.013150215148926 8.041257858276367 8.004592895507812 8.06509017944336 8.195732116699219
        8.167638778686523 8.02834701538086 7.718868732452393 7.417160511016846 7.102978706359863 6.704674243927002
        14.928316116333008 14.911348342895508 14.685976028442383 14.707348823547363 14.823904037475586 14.985952377319336
        15.128270149230957 15.27298355102539 15.443452835083008 15.467567443847656 15.500316619873047 15.53498363494873
        15.55764102935791 15.634491920471191 15.666910171508789 15.813084602355957 16.046796798706055 16.308853149414062
        16.463817596435547 16.454513549804688 16.68790054321289 16.836427688598633 16.885841369628906 16.777952194213867
        16.712833404541016 16.554889678955078 16.529069900512695 16.507238388061523 16.547273635864258 16.54741668701172
        16.607986450195312 16.6272029876709 16.659500122070312 16.718814849853516 16.604900360107422 16.529781341552734
        16.395936965942383 16.302230834960938 16.204675674438477 16.04720115661621 15.967984199523926 15.722888946533203
        15.498358726501465 15.427029609680176 15.345354080200195 15.25256061553955 14.973698616027832 14.904348373413086
        14.826409339904785 14.760656356811523 14.848318099975586 14.60840892791748 14.372956275939941 14.155853271484375
        13.946877479553223 13.598155975341797 13.259910583496094 13.110875129699707 13.105008125305176 12.984705924987793
        12.815006256103516 12.511849403381348 12.47114372253418 12.480612754821777 12.475071907043457 12.3688383102417
        12.14132022857666 11.975096702575684 11.955589294433594 11.911606788635254 11.761040687561035 11.559672355651855
        11.526188850402832 11.606096267700195 11.672019958496094 11.688322067260742 11.64871883392334 11.635485649108887
        11.668619155883789 11.742834091186523 11.783563613891602 11.815411567687988 11.934109687805176 12.07756233215332
        12.131028175354004 12.084182739257812 11.947107315063477 11.858455657958984 11.844829559326172 11.875134468078613
        11.918240547180176 11.916231155395508 11.939046859741211 12.012713432312012 12.087359428405762 12.141563415527344
        12.143404006958008 12.210855484008789 12.245814323425293 12.24589729309082 12.225973129272461 12.190715789794922
        12.133111000061035 12.185624122619629 12.117327690124512 12.0711088180542 12.04958438873291 12.047262191772461
        11.984987258911133 11.987706184387207 12.090015411376953 12.071517944335938 11.945712089538574 11.845036506652832
        11.698819160461426 11.587162971496582 11.491133689880371 11.200305938720703 10.939990043640137 10.74406909942627
        10.739322662353516 10.634858131408691 10.5067720413208 10.386031150817871 10.318757057189941 10.254057884216309
        10.081274032592773 10.018526077270508 9.87791919708252 9.797384262084961 9.729829788208008 9.617424964904785
        9.523008346557617 9.564939498901367 9.470273971557617 9.342610359191895 9.157785415649414 8.8401517868042
        8.766404151916504 8.965229988098145 9.00235652923584 8.919822692871094 8.770421981811523 8.685053825378418
        8.483195304870605 8.274535179138184 8.012016296386719 7.733529567718506 7.670918941497803 7.653441429138184
        7.772214889526367 7.848302364349365 7.984123706817627 8.153120040893555 8.194253921508789 8.191603660583496
        8.088232040405273 7.803369998931885 7.384882926940918 6.903553009033203 14.83115291595459 14.944985389709473
        14.806857109069824 14.823957443237305 14.975196838378906 15.173901557922363 15.309020042419434 15.439026832580566
        15.594881057739258 15.652887344360352 15.663029670715332 15.760181427001953 15.825711250305176 15.960336685180664
        16.055267333984375 16.21268653869629 16.418737411499023 16.648590087890625 16.789886474609375 16.685739517211914
        16.767105102539062 16.842144012451172 16.91254425048828 16.979171752929688 16.95522689819336 16.67768669128418
        16.541698455810547 16.539974212646484 16.582233428955078 16.60580825805664 16.6712589263916 16.738283157348633
        16.70636749267578 16.66408920288086 16.602069854736328 16.558242797851562 16.450096130371094 16.343259811401367
        16.270069122314453 16.098648071289062 15.945151329040527 15.70130729675293 15.45026683807373 15.293633460998535
        15.232601165771484 15.19713020324707 15.070795059204102 15.020742416381836 14.942957878112793 14.811624526977539
        14.83594799041748 14.642082214355469 14.415141105651855 14.18277359008789 13.84915542602539 13.430685997009277
        13.232210159301758 13.151992797851562 13.114487648010254 12.97573471069336 12.853663444519043 12.64535140991211
        12.587488174438477 12.54625129699707 12.460025787353516 12.341106414794922 12.18663501739502 12.059697151184082
        12.010311126708984 11.967462539672852 11.808967590332031 11.626198768615723 11.567097663879395 11.613899230957031
        11.677658081054688 11.692054748535156 11.672921180725098 11.680405616760254 11.670724868774414 11.705212593078613
        11.767005920410156 11.803163528442383 11.889899253845215 11.993551254272461 12.098631858825684 12.12439250946045
        12.036310195922852 11.9274263381958 11.839262008666992 11.937862396240234 12.055665969848633 12.087512016296387
        12.115553855895996 12.116442680358887 12.22898006439209 12.29545783996582 12.333353042602539 12.362948417663574
        12.348889350891113 12.33546257019043 12.324329376220703 12.327082633972168 12.246443748474121 12.206307411193848
        12.201844215393066 12.230010032653809 12.219615936279297 12.12728214263916 11.994633674621582 12.021980285644531
        12.168021202087402 12.069464683532715 11.878873825073242 11.765294075012207 11.666665077209473 11.55150318145752
        11.377823829650879 11.094664573669434 10.893683433532715 10.788026809692383 10.799036979675293 10.622761726379395
        10.449986457824707 10.340974807739258 10.327953338623047 10.265523910522461 10.113710403442383 9.901223182678223
        9.690242767333984 9.596230506896973 9.61440658569336 9.602272033691406 9.652323722839355 9.691811561584473
        9.732050895690918 9.500229835510254 9.255125999450684 8.983838081359863 8.938058853149414 9.069503784179688
        9.16672420501709 9.117945671081543 9.010815620422363 8.914193153381348 8.620352745056152 8.39683723449707
        8.068745613098145 7.716670036315918 7.493881702423096 7.44328498840332 7.526405334472656 7.6606125831604
        7.770230293273926 7.886889457702637 7.981049060821533 8.127142906188965 8.218396186828613 8.088916778564453
        7.7397141456604 7.2964887619018555 14.96436595916748 15.009539604187012 14.997222900390625 15.034632682800293
        15.177800178527832 15.299504280090332 15.45289421081543 15.558597564697266 15.691904067993164 15.818553924560547
        15.853238105773926 15.903800964355469 16.010395050048828 16.235849380493164 16.39606475830078 16.47844696044922
        16.642364501953125 16.813732147216797 16.990800857543945 16.981334686279297 17.022218704223633 16.953386306762695
        16.93815040588379 17.05892562866211 17.076534271240234 16.79806900024414 16.495521545410156 16.436786651611328
        16.52365493774414 16.630765914916992 16.66753578186035 16.637235641479492 16.54007911682129 16.583511352539062
        16.66806983947754 16.627145767211914 16.421491622924805 16.309534072875977 16.291898727416992 16.163829803466797
        15.946735382080078 15.675578117370605 15.440454483032227 15.27686882019043 15.197798728942871 15.127914428710938
        15.100796699523926 14.966449737548828 14.944415092468262 14.868188858032227 14.871312141418457 14.668839454650879
        14.408878326416016 14.212198257446289 13.874343872070312 13.539891242980957 13.3179349899292 13.18137264251709
        13.045557975769043 12.999550819396973 12.961435317993164 12.84479808807373 12.662814140319824 12.593000411987305
        12.513687133789062 12.482687950134277 12.32072925567627 12.168777465820312 12.102028846740723 12.063520431518555
        11.994580268859863 11.851241111755371 11.715709686279297 11.72286605834961 11.744059562683105 11.787769317626953
        11.707310676574707 11.667154312133789 11.692063331604004 11.775606155395508 11.813210487365723 11.837932586669922
        11.85009765625 11.961177825927734 12.089065551757812 12.139349937438965 12.054861068725586 11.938148498535156
        11.8950777053833 11.96590518951416 12.091525077819824 12.173521041870117 12.21111011505127 12.263897895812988
        12.401578903198242 12.4673433303833 12.379631996154785 12.31295108795166 12.358424186706543 12.400640487670898
        12.42802619934082 12.442666053771973 12.342325210571289 12.278974533081055 12.262046813964844 12.251544952392578
        12.208333969116211 12.113327980041504 12.049843788146973 12.090571403503418 12.131019592285156 11.98643970489502
        11.8014554977417 11.7063570022583 11.573188781738281 11.450674057006836 11.238598823547363 11.017324447631836
        10.878503799438477 10.7503080368042 10.756799697875977 10.548995018005371 10.384481430053711 10.312646865844727
        10.218655586242676 10.110937118530273 9.89258098602295 9.702207565307617 9.586949348449707 9.391200065612793
        9.348674774169922 9.403107643127441 9.571215629577637 9.627347946166992 9.707521438598633 9.549337387084961
        9.32690715789795 9.168848991394043 9.072074890136719 9.150599479675293 9.259251594543457 9.243008613586426
        9.27003288269043 9.261711120605469 8.859831809997559 8.520526885986328 8.104504585266113 7.8585381507873535
        7.685756206512451 7.5791449546813965 7.46019172668457 7.441439151763916 7.590093612670898 7.733444690704346
        7.856575965881348 7.934898376464844 8.066587448120117 8.155917167663574 7.954375743865967 7.669882297515869
        15.423733711242676 15.233979225158691 15.305957794189453 15.242802619934082 15.3493013381958 15.394548416137695
        15.562378883361816 15.623973846435547 15.789224624633789 15.978743553161621 16.063159942626953 16.1561336517334
        16.29250717163086 16.511178970336914 16.710386276245117 16.724458694458008 16.828094482421875 16.943349838256836
        17.087684631347656 17.21807289123535 17.19306182861328 17.199676513671875 17.213693618774414 17.21929168701172
        17.138151168823242 16.786678314208984 16.59433364868164 16.582441329956055 16.615177154541016 16.677600860595703
        16.62877082824707 16.65100860595703 16.602344512939453 16.654184341430664 16.736055374145508 16.571413040161133
        16.411197662353516 16.350191116333008 16.2559757232666 16.140300750732422 15.851333618164062 15.734474182128906
        15.580327033996582 15.428522109985352 15.305702209472656 15.09301471710205 15.127406120300293 15.075249671936035
        15.096061706542969 15.055184364318848 14.948797225952148 14.741239547729492 14.469269752502441 14.271024703979492
        14.029465675354004 13.681614875793457 13.37342643737793 13.205387115478516 13.159368515014648 13.125004768371582
        13.038677215576172 12.996432304382324 12.81397819519043 12.721734046936035 12.683496475219727 12.619623184204102
        12.466444969177246 12.324137687683105 12.276525497436523 12.242982864379883 12.11052417755127 11.998017311096191
        11.8893404006958 11.862674713134766 11.862466812133789 11.794504165649414 11.728348731994629 11.747859001159668
        11.759126663208008 11.854205131530762 11.781913757324219 11.837272644042969 11.879157066345215 12.001787185668945
        12.142823219299316 12.140400886535645 12.079863548278809 12.019283294677734 11.990861892700195 12.024781227111816
        12.073601722717285 12.18204116821289 12.284099578857422 12.37302303314209 12.540876388549805 12.459012031555176
        12.331587791442871 12.290331840515137 12.327194213867188 12.367422103881836 12.367955207824707 12.459599494934082
        12.4131441116333 12.327896118164062 12.303503036499023 12.198113441467285 12.18427848815918 12.12562370300293
        12.091202735900879 12.119109153747559 12.093181610107422 12.03133773803711 11.873125076293945 11.736690521240234
        11.52753734588623 11.325732231140137 11.2000150680542 10.997811317443848 10.87193775177002 10.788337707519531
        10.802447319030762 10.637308120727539 10.431859970092773 10.242788314819336 10.197724342346191 10.039305686950684
        9.813244819641113 9.57076358795166 9.483427047729492 9.321102142333984 9.1502046585083 9.311067581176758
        9.49045467376709 9.600871086120605 9.48556137084961 9.441692352294922 9.298215866088867 9.279953956604004
        9.275336265563965 9.29660415649414 9.461020469665527 9.626415252685547 9.758625984191895 9.58661937713623
        9.044907569885254 8.653962135314941 8.213164329528809 7.864529609680176 7.578553676605225 7.3776960372924805
        7.11353874206543 6.9906816482543945 7.185290813446045 7.439334392547607 7.705176830291748 7.808483600616455
        8.04955768585205 8.235769271850586 8.198979377746582 8.000685691833496
      </DataArray>
    </PointData>
    <CellData>
    </CellData>
  </Piece>
  </ImageData>
</VTKFile>
