<?xml version="1.0"?>
<VTKFile type="ImageData" version="0.1" byte_order="LittleEndian" header_type="UInt32" compressor="vtkZLibDataCompressor">
  <ImageData WholeExtent="0 159 0 159 0 0" Origin="0 0 0" Spacing="1 1 1" Direction="1 0 0 0 1 0 0 0 1">
  <Piece Extent="0 159 0 159 0 0">
    <PointData Scalars="wind_speed">
      <DataArray type="Float32" Name="wind_speed" format="ascii" RangeMin="0.10833412408828735" RangeMax="26.120901107788086">
        6.367417335510254 6.229573726654053 6.3670806884765625 8.226811408996582 9.021798133850098 9.994987487792969
        10.620465278625488 10.919167518615723 9.535920143127441 5.920479774475098 6.6321306228637695 7.880176067352295
        8.342059135437012 8.119878768920898 7.014886856079102 8.487244606018066 9.120072364807129 10.188633918762207
        11.307999610900879 10.986908912658691 8.97076416015625 6.514459133148193 6.126423358917236 6.043618679046631
        5.257966995239258 5.2093377113342285 5.063475131988525 4.622077465057373 4.326906681060791 3.452631950378418
        5.395092010498047 5.546350479125977 6.293111324310303 7.185400485992432 8.02495002746582 8.244467735290527
        7.6541643142700195 7.502052307128906 8.183462142944336 7.8753156661987305 9.963674545288086 10.748416900634766
        11.070459365844727 10.368852615356445 9.114657402038574 7.673674583435059 6.105778217315674 5.630282402038574
        5.783572196960449 6.19523286819458 6.565297603607178 6.688154220581055 6.968196392059326 8.071343421936035
        7.922217845916748 8.184678077697754 7.897041320800781 8.954787254333496 9.614651679992676 10.20754623413086
        10.012344360351562 9.145484924316406 7.431918144226074 5.815231800079346 4.754547595977783 6.668485164642334
        7.583300590515137 8.00638484954834 8.62948989868164 9.259925842285156 11.0510892868042 10.667859077453613
        9.83666706085205 8.11830997467041 8.693084716796875 8.323049545288086 7.126810550689697 7.06156587600708
        6.869430065155029 4.896589756011963 4.327383995056152 5.667318344116211 9.395543098449707 10.426467895507812
        10.225138664245605 9.908113479614258 8.36660099029541 8.465048789978027 7.048283100128174 6.201169013977051
        6.05360746383667 6.263723373413086 6.094610691070557 7.2381510734558105 7.141740798950195 8.746885299682617
        8.199227333068848 7.996286869049072 7.815528869628906 8.592571258544922 8.585997581481934 6.67631721496582
        6.008490562438965 5.856729984283447 6.352492332458496 7.640077590942383 8.878549575805664 9.17471694946289
        9.573139190673828 10.275931358337402 11.217257499694824 11.447293281555176 10.032191276550293 10.054722785949707
        8.355241775512695 8.844669342041016 7.846716403961182 7.9860663414001465 8.307125091552734 9.041090965270996
        9.638516426086426 10.161977767944336 9.605865478515625 10.547039031982422 9.858964920043945 10.287564277648926
        9.295923233032227 9.663481712341309 9.754400253295898 9.061628341674805 9.429537773132324 8.989409446716309
        8.372918128967285 8.648893356323242 8.73946762084961 9.296778678894043 7.50212287902832 6.935039043426514
        6.182704925537109 5.494264602661133 3.192662477493286 3.179330587387085 7.3830060958862305 7.418275833129883
        8.100325584411621 8.820758819580078 9.176815032958984 9.016241073608398 9.072857856750488 9.297762870788574
        8.487462043762207 7.682267665863037 7.437554836273193 7.336581707000732 7.573257923126221 7.69994592666626
        7.809742450714111 7.889883995056152 7.435486316680908 7.169631481170654 7.452295303344727 6.863687992095947
        6.257002830505371 6.549709796905518 8.428939819335938 10.990952491760254 12.867243766784668 12.711956977844238
        9.844976425170898 7.970905303955078 8.012439727783203 8.273597717285156 8.88207721710205 9.093483924865723
        9.694281578063965 9.836250305175781 10.33396053314209 11.173934936523438 12.569197654724121 11.807897567749023
        9.186593055725098 6.436634063720703 5.528759002685547 5.458159446716309 4.718599319458008 4.718029022216797
        4.746546268463135 5.2694268226623535 4.416788101196289 3.6661436557769775 4.967771053314209 5.9105224609375
        6.423360824584961 7.095648288726807 8.162099838256836 8.157666206359863 7.822037220001221 7.543613433837891
        8.187044143676758 9.28502368927002 11.66732406616211 12.381409645080566 11.989182472229004 10.35517692565918
        8.985857963562012 7.383181571960449 6.088265419006348 5.637430667877197 5.824739933013916 6.600086688995361
        7.337920188903809 7.758744716644287 7.549009323120117 8.136972427368164 7.755542278289795 7.7783684730529785
        7.690522193908691 7.880062103271484 8.02882194519043 8.726414680480957 9.473855972290039 9.000435829162598
        7.957974910736084 6.312803745269775 5.073004245758057 6.083398342132568 7.262815952301025 8.189225196838379
        9.014459609985352 8.609089851379395 10.440539360046387 10.047441482543945 8.837096214294434 6.955833435058594
        6.970833778381348 7.981039524078369 7.143589019775391 6.815293312072754 6.637195110321045 5.538837909698486
        5.486023902893066 6.379391670227051 9.213492393493652 10.06810474395752 10.566963195800781 10.297340393066406
        8.951743125915527 9.387918472290039 10.427260398864746 9.922739028930664 8.277772903442383 6.645808696746826
        6.159087657928467 6.8782196044921875 7.0351176261901855 8.260194778442383 8.149553298950195 8.31273078918457
        7.679452419281006 8.062986373901367 7.968769550323486 7.051494598388672 6.406896114349365 6.193188190460205
        7.550137996673584 8.300737380981445 9.539050102233887 9.238527297973633 9.1903076171875 10.41136360168457
        11.784002304077148 12.468299865722656 11.305370330810547 10.516072273254395 9.50652027130127 9.283690452575684
        8.797709465026855 8.330001831054688 8.05246353149414 8.846299171447754 9.803812026977539 10.978469848632812
        10.612787246704102 10.839083671569824 10.364938735961914 10.008134841918945 9.532392501831055 9.6051025390625
        9.519704818725586 9.281196594238281 9.128396987915039 9.103447914123535 8.531682014465332 8.71943473815918
        8.877728462219238 9.31747055053711 8.96744155883789 8.428262710571289 7.153697490692139 5.805841445922852
        3.3701117038726807 3.7542080879211426 7.186888217926025 7.672878742218018 8.15339469909668 9.113301277160645
        9.28580379486084 8.922562599182129 8.864228248596191 9.344301223754883 8.742180824279785 7.777764320373535
        7.516129970550537 7.148952007293701 7.200599670410156 7.23403263092041 7.565254211425781 7.259486675262451
        7.5411763191223145 7.575647830963135 8.583060264587402 7.587306976318359 7.568238258361816 7.824414253234863
        9.385982513427734 9.807304382324219 10.774497985839844 10.72928524017334 9.140356063842773 9.46993637084961
        10.376046180725098 9.641800880432129 9.65149211883545 9.06551456451416 9.863405227661133 8.724658966064453
        7.680209636688232 7.584822654724121 9.752049446105957 9.558197021484375 6.7280378341674805 5.162598609924316
        4.754627704620361 4.16477632522583 3.964397430419922 5.371262550354004 6.204768657684326 5.9599103927612305
        5.233487129211426 5.024039268493652 6.031868934631348 6.812705039978027 7.527363300323486 8.247782707214355
        8.48721694946289 8.320249557495117 7.724149703979492 7.788882732391357 9.376724243164062 10.112552642822266
        11.307280540466309 11.349987983703613 10.675371170043945 8.999058723449707 8.797612190246582 8.039599418640137
        6.5571393966674805 5.1398138999938965 6.077324867248535 7.182192802429199 7.520258903503418 7.6817851066589355
        7.361210346221924 7.628466606140137 6.988913536071777 6.702472686767578 6.825850963592529 6.826209545135498
        6.806163311004639 7.2612128257751465 8.15915584564209 7.976963996887207 7.381319046020508 6.477449417114258
        5.933132171630859 6.091831207275391 8.348625183105469 8.220160484313965 8.897066116333008 8.254613876342773
        9.37168025970459 9.172135353088379 8.836124420166016 6.81101655960083 7.188262939453125 8.454187393188477
        8.82805061340332 7.166173934936523 6.207486152648926 6.168460369110107 5.724231243133545 6.1971001625061035
        7.452260494232178 8.902908325195312 10.925643920898438 11.518444061279297 10.9610013961792 10.650642395019531
        11.970208168029785 12.432147026062012 9.846734046936035 7.170417785644531 6.078545093536377 6.2843804359436035
        5.467835903167725 5.813117027282715 7.934239387512207 9.677639961242676 8.304312705993652 7.017483711242676
        7.5085768699646 8.291816711425781 7.921091079711914 8.037593841552734 8.311017990112305 8.633421897888184
        8.672171592712402 9.002758026123047 9.172115325927734 10.324077606201172 10.920816421508789 11.423995018005371
        10.05384349822998 10.34769058227539 9.725834846496582 9.70907211303711 8.15795612335205 7.762349605560303
        7.513871669769287 7.998595714569092 8.367147445678711 9.697078704833984 10.138221740722656 10.630483627319336
        9.921996116638184 9.591164588928223 9.34691047668457 9.682859420776367 9.709576606750488 9.031966209411621
        8.678235054016113 8.709551811218262 8.498205184936523 8.49742317199707 8.298365592956543 8.560114860534668
        9.0623779296875 9.262229919433594 8.029967308044434 6.37775993347168 4.172623157501221 4.303067684173584
        6.670726299285889 7.788288593292236 9.208349227905273 10.587920188903809 10.770082473754883 9.85393238067627
        8.578800201416016 8.978405952453613 8.799720764160156 8.378357887268066 8.166059494018555 8.136030197143555
        8.156567573547363 7.640568256378174 7.954735279083252 7.796723365783691 7.780027389526367 8.474042892456055
        8.61915111541748 8.504874229431152 8.359981536865234 7.956408977508545 8.792981147766113 9.070535659790039
        8.26382827758789 6.886479377746582 6.929503440856934 9.448562622070312 8.34241771697998 8.738405227661133
        8.364441871643066 7.879185676574707 8.660396575927734 7.379631996154785 6.021792411804199 5.646971225738525
        6.43478536605835 6.163139820098877 5.286263942718506 4.994874954223633 4.707696437835693 4.136439800262451
        4.525094985961914 6.745194911956787 8.227949142456055 7.312108516693115 7.585650444030762 8.463692665100098
        8.96647834777832 7.074855327606201 7.313931941986084 7.878693580627441 8.526704788208008 8.325794219970703
        7.9052886962890625 9.14608097076416 11.16264533996582 11.56177806854248 12.569793701171875 12.729747772216797
        11.228325843811035 8.459768295288086 9.33452320098877 9.019437789916992 7.364167213439941 5.674840927124023
        6.74998140335083 7.332720756530762 7.679888725280762 7.702471733093262 7.6486992835998535 7.286286354064941
        6.949615955352783 6.7616963386535645 6.853333473205566 7.132424831390381 6.9327592849731445 7.12280797958374
        7.862606048583984 7.793909072875977 7.876471042633057 6.730998516082764 6.000541687011719 5.356110095977783
        6.805916786193848 7.530297756195068 9.033143043518066 9.420573234558105 8.999918937683105 7.738819122314453
        8.295051574707031 7.609333038330078 7.8376054763793945 8.821120262145996 8.986653327941895 7.9481048583984375
        6.775158882141113 7.6323699951171875 6.99370002746582 6.800144672393799 7.312971591949463 8.940914154052734
        10.211036682128906 12.101202964782715 12.282232284545898 12.73491096496582 13.340632438659668 14.449952125549316
        11.750334739685059 8.739081382751465 6.876734256744385 6.436589241027832 6.154544353485107 6.290143013000488
        7.061759948730469 8.731241226196289 8.349222183227539 8.72456169128418 8.704787254333496 9.616117477416992
        9.560160636901855 9.69018840789795 9.517951011657715 8.210294723510742 7.498622417449951 9.457658767700195
        10.536590576171875 11.42154312133789 10.895832061767578 10.820878028869629 10.596168518066406 11.796588897705078
        11.5020751953125 10.722663879394531 8.485588073730469 7.88018274307251 7.029975414276123 7.41198205947876
        7.634095668792725 8.431453704833984 9.727148056030273 10.094902992248535 10.081327438354492 10.139202117919922
        10.226430892944336 10.119721412658691 9.741125106811523 8.949951171875 8.476327896118164 8.525343894958496
        8.597880363464355 8.263665199279785 8.011675834655762 8.589424133300781 9.823671340942383 10.615118980407715
        10.068371772766113 8.679704666137695 6.626278877258301 4.022541522979736 4.031646728515625 6.946486473083496
        10.253995895385742 11.14081859588623 10.775205612182617 10.050006866455078 9.360062599182129 9.191850662231445
        8.592825889587402 7.996036529541016 8.137514114379883 8.365323066711426 8.469870567321777 8.148475646972656
        8.36115837097168 8.507094383239746 8.424599647521973 8.835553169250488 9.590791702270508 11.003495216369629
        12.570475578308105 14.015239715576172 12.692623138427734 6.858302593231201 5.355172157287598 4.806852340698242
        6.186990737915039 9.066485404968262 8.380746841430664 8.804834365844727 6.592110633850098 5.190853595733643
        5.5116868019104 5.779780864715576 5.214099407196045 3.9385921955108643 3.1085457801818848 3.8317482471466064
        3.697362184524536 4.246234893798828 4.479740142822266 4.1600494384765625 5.48823881149292 8.605001449584961
        10.32297420501709 8.531139373779297 9.753405570983887 11.693872451782227 11.848245620727539 8.216367721557617
        7.38184118270874 8.188009262084961 8.142273902893066 8.71645736694336 8.72783374786377 10.266688346862793
        11.71149730682373 11.953023910522461 13.051697731018066 13.187041282653809 11.085240364074707 7.9436163902282715
        8.88426399230957 8.771747589111328 7.213601112365723 6.117957592010498 7.240691661834717 6.776716232299805
        6.913132667541504 6.6874895095825195 7.290009498596191 7.140288829803467 6.976403713226318 7.301037311553955
        7.30946159362793 8.400866508483887 8.669536590576172 8.708224296569824 8.346213340759277 8.260259628295898
        7.575573444366455 6.281070709228516 5.080821990966797 5.017587184906006 5.682371139526367 7.141406536102295
        9.596879959106445 11.2210111618042 10.135400772094727 8.441194534301758 9.19336986541748 9.199077606201172
        8.60821533203125 8.230125427246094 8.410815238952637 8.422988891601562 7.122268199920654 7.281699180603027
        6.841797828674316 7.073477745056152 7.669063568115234 8.837708473205566 9.469868659973145 11.586429595947266
        12.348551750183105 14.417174339294434 14.13193130493164 14.572358131408691 13.274353981018066 10.857466697692871
        8.78393268585205 6.662383079528809 6.275336265563965 6.638952732086182 6.498488426208496 8.20361328125
        9.341983795166016 11.16169548034668 10.786460876464844 10.792448043823242 9.34372329711914 9.355624198913574
        9.36823844909668 8.250219345092773 6.901269912719727 8.32003116607666 9.690177917480469 10.287261962890625
        10.285172462463379 10.28503704071045 10.396478652954102 12.264180183410645 12.190972328186035 10.714276313781738
        7.628869533538818 7.350552082061768 7.653159141540527 8.044377326965332 7.354024887084961 7.109223365783691
        8.411673545837402 9.56584644317627 10.764227867126465 11.393404006958008 11.235213279724121 10.469250679016113
        10.014049530029297 9.419939994812012 8.861379623413086 8.781010627746582 8.844358444213867 8.517938613891602
        9.03244686126709 9.838314056396484 10.7800931930542 11.190719604492188 10.990647315979004 10.216413497924805
        7.563657760620117 4.161548137664795 2.5258736610412598 5.732204437255859 9.800125122070312 9.552593231201172
        9.162673950195312 9.465080261230469 9.922868728637695 9.251042366027832 8.910024642944336 7.742310523986816
        8.163125991821289 8.815736770629883 9.450631141662598 9.85434627532959 9.60926628112793 9.922289848327637
        9.12490463256836 8.59343433380127 12.195680618286133 12.887053489685059 14.682130813598633 15.01051139831543
        11.34305191040039 6.344989776611328 5.995332717895508 6.896265506744385 8.201040267944336 9.79926872253418
        9.284111976623535 9.159689903259277 6.331112384796143 5.655294895172119 7.274039268493652 7.446099758148193
        6.120591640472412 4.819581031799316 4.968371868133545 4.978842258453369 5.074767589569092 5.156403064727783
        6.3848090171813965 7.054769992828369 7.093789577484131 8.08168888092041 9.68070125579834 9.398201942443848
        10.983643531799316 12.276328086853027 11.902104377746582 8.652490615844727 7.462040901184082 7.7961859703063965
        7.275376319885254 7.827435493469238 8.786391258239746 11.090850830078125 12.191221237182617 12.73993968963623
        14.07349681854248 13.78660774230957 11.13305950164795 7.837764263153076 7.572310924530029 7.23919153213501
        7.040098667144775 6.553775787353516 7.253215312957764 6.831557750701904 7.1339287757873535 7.3521037101745605
        8.149924278259277 8.433052062988281 8.416000366210938 8.40852165222168 8.587546348571777 9.306421279907227
        9.54813003540039 9.418742179870605 9.121450424194336 8.90748405456543 7.53091287612915 6.160584449768066
        4.3420233726501465 3.950458526611328 4.905037879943848 8.550018310546875 10.318239212036133 11.739782333374023
        11.464411735534668 10.582337379455566 10.203621864318848 9.665149688720703 7.919646263122559 6.347476482391357
        6.629031658172607 7.8312907218933105 7.045760154724121 6.494651794433594 6.436096668243408 7.673321723937988
        8.584281921386719 8.766066551208496 9.053678512573242 10.674232482910156 10.378589630126953 11.181021690368652
        13.03725814819336 15.091429710388184 14.61421012878418 11.59312915802002 9.631584167480469 6.776675701141357
        6.1768798828125 6.4978790283203125 6.318238735198975 7.385419845581055 9.40819263458252 11.24504566192627
        11.613238334655762 10.942472457885742 8.804278373718262 7.617215156555176 8.707608222961426 7.8533501625061035
        6.5962958335876465 6.546797752380371 7.358035564422607 8.172842025756836 9.04922866821289 9.649369239807129
        9.753029823303223 11.027462005615234 11.161213874816895 9.511163711547852 7.8541460037231445 7.075868129730225
        7.904446125030518 7.631144046783447 7.424612045288086 7.423458576202393 8.295873641967773 9.626325607299805
        11.203108787536621 11.90041446685791 11.66943359375 11.137164115905762 11.242393493652344 10.464082717895508
        9.411141395568848 9.138267517089844 9.127487182617188 9.169877052307129 10.18184757232666 10.984042167663574
        11.505159378051758 11.92929458618164 12.226492881774902 11.019525527954102 7.618196964263916 4.675644874572754
        3.1394219398498535 4.65049934387207 7.109435081481934 6.83029842376709 6.921149253845215 8.060208320617676
        9.04491138458252 9.431849479675293 8.735158920288086 7.998847007751465 8.480368614196777 8.189371109008789
        8.878222465515137 9.780838966369629 10.510832786560059 10.58467960357666 9.736748695373535 8.9280424118042
        15.03875732421875 13.844033241271973 15.317022323608398 14.669001579284668 12.668768882751465 10.392651557922363
        10.590808868408203 11.023694038391113 12.620552062988281 12.171217918395996 9.838467597961426 7.65592622756958
        6.498957633972168 7.248664379119873 9.192655563354492 10.191031455993652 8.171311378479004 6.367907524108887
        6.5520405769348145 7.51343297958374 6.479273319244385 5.7107720375061035 7.376202583312988 8.107382774353027
        7.803217887878418 7.185135841369629 8.447437286376953 9.367070198059082 10.361584663391113 9.841085433959961
        8.619767189025879 7.583840847015381 7.036032676696777 5.012757778167725 3.5666921138763428 4.570634841918945
        5.5761847496032715 7.19516134262085 8.474778175354004 10.999051094055176 12.377915382385254 12.422139167785645
        11.605443000793457 9.2827730178833 8.07268238067627 7.10837459564209 6.473718166351318 5.471828460693359
        5.639607906341553 5.720912933349609 7.213000297546387 8.033780097961426 9.200159072875977 9.817695617675781
        9.942460060119629 10.171082496643066 9.892905235290527 9.907947540283203 9.658496856689453 9.978117942810059
        9.959315299987793 9.299253463745117 7.928041934967041 6.517333507537842 4.582243919372559 3.779406785964966
        5.231923580169678 9.588227272033691 11.698500633239746 12.245725631713867 12.758219718933105 11.801424980163574
        11.036449432373047 10.950228691101074 8.513019561767578 6.759646892547607 6.418601036071777 7.237954139709473
        6.557610511779785 5.6971917152404785 6.201348304748535 6.888038158416748 8.067036628723145 8.434263229370117
        8.008657455444336 7.668671607971191 6.84002685546875 6.755307197570801 11.022144317626953 12.56322193145752
        14.033326148986816 10.980449676513672 10.37910270690918 8.742259979248047 8.528730392456055 7.999050617218018
        7.257881164550781 8.0680570602417 10.694069862365723 11.959818840026855 12.466658592224121 11.213850975036621
        7.714444637298584 5.364777565002441 6.5777716636657715 6.4969282150268555 5.639348983764648 4.454629898071289
        4.619396686553955 6.139676570892334 8.370532989501953 9.581762313842773 9.436470031738281 9.04900074005127
        9.951992988586426 8.78467845916748 7.832191467285156 6.892877101898193 7.295268535614014 6.848019599914551
        6.8589606285095215 7.562555313110352 8.547648429870605 9.60948657989502 10.790575981140137 11.835283279418945
        12.497124671936035 13.179940223693848 12.592033386230469 10.926644325256348 9.797266006469727 9.59000301361084
        9.976309776306152 9.727989196777344 10.126089096069336 10.70776081085205 11.337641716003418 12.551800727844238
        11.612565994262695 10.618837356567383 7.040651798248291 5.010388374328613 2.6078383922576904 3.9168455600738525
        5.312492370605469 6.285299301147461 5.918025970458984 7.326498985290527 8.007400512695312 8.433557510375977
        8.253880500793457 8.50257396697998 8.964929580688477 8.477255821228027 8.77090072631836 9.855859756469727
        10.123224258422852 10.219537734985352 10.131349563598633 9.350707054138184 12.821685791015625 10.667309761047363
        9.803044319152832 10.851728439331055 12.581720352172852 12.588556289672852 12.850739479064941 14.384969711303711
        14.47487735748291 11.668621063232422 8.279243469238281 7.012032985687256 6.471728801727295 8.38248348236084
        10.805280685424805 11.333267211914062 10.66745376586914 8.955160140991211 8.873416900634766 9.084607124328613
        7.984357833862305 6.8751935958862305 7.584113597869873 7.713980674743652 6.508587837219238 5.324458599090576
        6.701544284820557 9.010241508483887 10.259193420410156 7.953843593597412 6.079343318939209 5.22622537612915
        5.084076881408691 2.2379238605499268 1.6237246990203857 2.0683977603912354 2.755829334259033 1.8385363817214966
        4.310390949249268 8.237847328186035 10.76481819152832 12.025466918945312 11.623193740844727 10.802214622497559
        8.581901550292969 7.114479064941406 6.092516899108887 5.21406888961792 4.666579723358154 5.227952003479004
        6.801003932952881 8.227511405944824 9.294840812683105 9.77467155456543 10.913671493530273 11.48979377746582
        12.08433723449707 10.959660530090332 10.572713851928711 10.506455421447754 10.185532569885254 8.90451431274414
        7.687093257904053 7.353702068328857 6.428807258605957 5.322397708892822 6.8977484703063965 9.367803573608398
        11.344449043273926 12.983230590820312 12.761286735534668 12.30569076538086 11.140864372253418 10.935216903686523
        9.413468360900879 8.533891677856445 7.653510570526123 7.583246231079102 6.5540337562561035 6.338747501373291
        6.354099273681641 7.0331621170043945 7.970559120178223 8.228466033935547 7.527073860168457 5.839761257171631
        4.645867347717285 3.4938864707946777 5.718636512756348 8.975458145141602 11.758976936340332 11.272992134094238
        10.415679931640625 10.186609268188477 10.139077186584473 9.339348793029785 8.101908683776855 8.202723503112793
        10.511877059936523 11.10452651977539 11.932750701904297 8.86065673828125 6.503752708435059 3.0096402168273926
        3.6405999660491943 2.877469778060913 2.757795572280884 3.6889524459838867 4.2449846267700195 6.0959367752075195
        7.404722690582275 8.797075271606445 8.139695167541504 7.49647855758667 8.061142921447754 7.831664562225342
        7.318770885467529 6.042517185211182 6.028878211975098 5.340311527252197 5.741091728210449 7.310218811035156
        8.524012565612793 8.553532600402832 9.108013153076172 10.458246231079102 12.272037506103516 13.887374877929688
        12.934182167053223 10.567741394042969 9.157692909240723 9.392618179321289 9.751516342163086 9.677206039428711
        9.495126724243164 10.14478874206543 11.105874061584473 12.002321243286133 10.780738830566406 9.505219459533691
        7.056270599365234 4.751513957977295 2.8567023277282715 3.4080607891082764 5.139579772949219 6.236318588256836
        5.915100574493408 6.377823829650879 7.079588890075684 8.229527473449707 7.938248157501221 8.649023056030273
        8.47713851928711 8.44672679901123 8.595185279846191 9.118764877319336 9.715753555297852 9.648311614990234
        9.830382347106934 10.169307708740234 9.465424537658691 8.795135498046875 8.147446632385254 11.264424324035645
        14.303033828735352 15.322311401367188 15.868911743164062 16.258249282836914 14.342545509338379 10.99063491821289
        8.130431175231934 6.873301982879639 7.004969120025635 7.895254135131836 9.99119758605957 10.36847972869873
        11.446913719177246 10.868632316589355 11.511302947998047 11.43499755859375 10.424492835998535 8.797109603881836
        7.963456630706787 7.7600321769714355 7.421413898468018 7.0648579597473145 7.688597202301025 9.738686561584473
        9.533891677856445 7.307319164276123 5.313632965087891 3.310231924057007 3.596395492553711 2.110050916671753
        2.3373866081237793 2.0021071434020996 0.9830655455589294 0.30792513489723206 2.558837652206421 7.149759292602539
        9.989384651184082 10.902884483337402 11.239301681518555 11.353791236877441 9.109574317932129 7.227040767669678
        6.473265647888184 6.414865970611572 6.670310974121094 7.542726039886475 7.89985466003418 7.969336032867432
        8.802270889282227 8.72592830657959 9.927934646606445 11.213306427001953 12.155356407165527 11.586138725280762
        11.202982902526855 10.794305801391602 10.725788116455078 9.327631950378418 8.849472999572754 7.494898319244385
        7.040553569793701 6.181609630584717 7.20612096786499 8.777739524841309 11.756233215332031 12.945521354675293
        12.34894847869873 11.914118766784668 10.894709587097168 9.863359451293945 9.244647979736328 9.709440231323242
        8.993326187133789 8.392582893371582 6.971267223358154 6.491934299468994 6.8895463943481445 7.2676191329956055
        8.171673774719238 7.932014465332031 7.322747707366943 5.111098766326904 3.724496364593506 2.7115318775177
        2.0813801288604736 2.6225576400756836 6.011039733886719 11.069991111755371 12.200526237487793 12.200091361999512
        11.401480674743652 9.82339859008789 7.760376453399658 7.714412689208984 9.059128761291504 9.324371337890625
        9.384546279907227 6.359661102294922 4.0267534255981445 1.6329262256622314 1.9780614376068115 2.2683799266815186
        2.8973464965820312 4.5350661277771 5.172513961791992 6.668013572692871 7.960783004760742 8.794283866882324
        8.688990592956543 8.171106338500977 8.071563720703125 7.613612651824951 6.506784915924072 6.4125776290893555
        6.666822910308838 6.7584638595581055 6.642267227172852 7.649781227111816 8.543277740478516 7.702121734619141
        7.617887020111084 8.669684410095215 10.7096529006958 12.05269718170166 11.233156204223633 9.755945205688477
        8.761236190795898 9.207853317260742 10.055299758911133 9.769153594970703 9.934199333190918 11.107672691345215
        12.3073091506958 11.39871597290039 10.074864387512207 9.102069854736328 8.065043449401855 5.644469261169434
        3.7040977478027344 3.336453676223755 5.1778130531311035 6.442251682281494 7.29736852645874 7.156232833862305
        7.077219009399414 7.502434730529785 7.382289409637451 8.234845161437988 8.520748138427734 8.881622314453125
        8.841377258300781 9.024447441101074 9.473569869995117 9.372787475585938 9.322308540344238 10.468283653259277
        7.214897632598877 6.838625431060791 6.756807804107666 9.937582969665527 13.023447036743164 15.126441955566406
        16.27387237548828 16.05066680908203 13.429275512695312 10.591078758239746 8.81764030456543 8.003063201904297
        8.633063316345215 9.04892349243164 10.737034797668457 12.191035270690918 12.824832916259766 12.648809432983398
        13.594916343688965 14.170166015625 13.997363090515137 12.105402946472168 10.929549217224121 9.300455093383789
        9.138748168945312 8.727983474731445 8.191027641296387 8.566516876220703 8.054402351379395 7.062931537628174
        5.531795024871826 3.7605085372924805 4.013195991516113 4.273977756500244 3.975048065185547 2.6301679611206055
        3.115985870361328 2.931746244430542 4.759847640991211 7.478092193603516 10.01809024810791 10.329325675964355
        10.269369125366211 9.882671356201172 8.484204292297363 7.286215782165527 6.524178981781006 7.1828742027282715
        8.513471603393555 9.288636207580566 8.719143867492676 7.3647541999816895 7.908980369567871 7.747992038726807
        8.393157005310059 9.611440658569336 10.557289123535156 10.4858980178833 9.399646759033203 9.307846069335938
        9.9092378616333 9.950886726379395 9.032854080200195 6.3102569580078125 4.277388095855713 4.003373146057129
        4.868400573730469 6.764325141906738 8.689023971557617 9.813213348388672 10.62230396270752 11.457915306091309
        10.797364234924316 9.108829498291016 8.661291122436523 9.713804244995117 9.09409236907959 8.012803077697754
        8.493485450744629 8.418402671813965 9.132399559020996 8.41755199432373 8.7801513671875 8.291430473327637
        7.61932373046875 6.184144020080566 3.7942872047424316 2.8758151531219482 0.9270964860916138 0.3409363925457001
        3.5249409675598145 10.985458374023438 13.85354232788086 13.552191734313965 12.674625396728516 11.338336944580078
        8.484936714172363 6.953395843505859 7.700511932373047 7.255535125732422 6.504518508911133 4.344780445098877
        2.3768904209136963 0.6785137057304382 1.8545578718185425 1.8528094291687012 2.8352930545806885 4.6525163650512695
        5.999972820281982 7.747409820556641 8.656082153320312 8.296862602233887 8.204384803771973 8.208332061767578
        7.799762725830078 7.0131025314331055 6.2663373947143555 6.860851287841797 7.4774932861328125 8.156243324279785
        8.1566801071167 8.956652641296387 8.935542106628418 7.890658855438232 6.671265125274658 7.150158405303955
        8.301605224609375 9.266721725463867 9.336817741394043 9.10443115234375 8.758907318115234 9.397233009338379
        9.938813209533691 9.631241798400879 10.456076622009277 10.86965560913086 11.290879249572754 10.05964469909668
        9.764752388000488 9.623687744140625 9.120323181152344 7.5274810791015625 5.371480464935303 3.7398581504821777
        4.884202480316162 6.328918933868408 7.6645073890686035 7.51204252243042 7.619657516479492 7.661703586578369
        7.611985206604004 8.030532836914062 8.571228981018066 8.784610748291016 8.466017723083496 8.647560119628906
        9.152587890625 9.107372283935547 8.616612434387207 9.56390380859375 6.652572154998779 6.967745304107666
        7.3031840324401855 9.48643970489502 11.438783645629883 13.687932968139648 16.587677001953125 16.433603286743164
        14.144721031188965 10.743218421936035 8.991429328918457 9.278173446655273 10.305706024169922 10.611457824707031
        10.403797149658203 10.865105628967285 11.055418968200684 11.387988090515137 13.957304954528809 15.342277526855469
        14.950122833251953 11.836812973022461 10.274955749511719 8.64760684967041 8.384288787841797 8.193134307861328
        7.224621295928955 6.384019374847412 6.075160503387451 5.984537124633789 5.956593990325928 5.533695697784424
        6.029672145843506 5.9492106437683105 5.37855339050293 4.900057792663574 5.620084285736084 6.815264701843262
        8.008837699890137 8.046853065490723 9.426704406738281 10.182114601135254 11.23654556274414 10.097554206848145
        8.639548301696777 7.264801502227783 7.562160968780518 8.701406478881836 9.950270652770996 9.897256851196289
        9.238183975219727 7.912079811096191 7.865281581878662 7.259169101715088 6.893321514129639 7.093793869018555
        7.6884589195251465 8.213797569274902 7.782837390899658 8.724959373474121 9.977173805236816 10.632589340209961
        9.064454078674316 5.9473371505737305 3.678652048110962 4.306887626647949 4.783397197723389 6.468278408050537
        7.404954433441162 9.222705841064453 11.346704483032227 11.720475196838379 11.283729553222656 9.444976806640625
        9.573951721191406 9.244658470153809 9.100934982299805 7.571484565734863 8.31822681427002 8.616955757141113
        9.874154090881348 9.702054023742676 10.376398086547852 10.314391136169434 8.794037818908691 7.212934970855713
        4.512014389038086 4.6954851150512695 2.9002387523651123 1.9064791202545166 4.19379997253418 9.507379531860352
        13.22628116607666 14.206910133361816 14.389225006103516 12.711180686950684 9.199576377868652 7.113941669464111
        7.179491996765137 6.018467903137207 2.6750881671905518 2.035874605178833 2.4325320720672607 2.2904491424560547
        3.663066864013672 2.940988540649414 2.5733232498168945 5.1436686515808105 7.292912006378174 9.348189353942871
        10.755863189697266 10.421805381774902 9.583763122558594 9.673774719238281 9.69755744934082 8.83326244354248
        7.735281944274902 7.858597755432129 8.923422813415527 9.57159423828125 9.558672904968262 9.677667617797852
        9.507885932922363 8.884791374206543 6.702761650085449 6.6565351486206055 7.435985565185547 8.242406845092773
        8.41765308380127 8.67952823638916 9.186031341552734 9.663641929626465 9.779845237731934 9.763628005981445
        10.374216079711914 10.788643836975098 10.528572082519531 9.724593162536621 9.629751205444336 10.514641761779785
        9.652255058288574 7.390018939971924 5.277467250823975 4.2877912521362305 4.5954694747924805 6.939772129058838
        9.334567070007324 9.509367942810059 9.468003273010254 8.264796257019043 7.085564613342285 7.346496105194092
        8.828482627868652 8.786300659179688 8.940194129943848 9.236680030822754 9.628623008728027 9.359219551086426
        8.283989906311035 8.376766204833984 4.648319721221924 5.3654937744140625 7.891566276550293 10.047412872314453
        11.802044868469238 14.000027656555176 17.402511596679688 18.8013858795166 17.198274612426758 13.697970390319824
        11.515923500061035 10.778373718261719 11.713507652282715 10.658832550048828 10.930744171142578 10.94942855834961
        10.503764152526855 10.311689376831055 12.189530372619629 12.576773643493652 11.690805435180664 8.946623802185059
        8.160614967346191 6.132485866546631 5.391334056854248 5.312679767608643 4.939267158508301 4.040249824523926
        4.571345806121826 6.001035690307617 7.547292232513428 7.113983631134033 6.847424030303955 6.549983024597168
        6.338589191436768 7.252574443817139 8.053080558776855 9.075501441955566 9.231199264526367 8.970760345458984
        9.581528663635254 11.024336814880371 11.890039443969727 10.213191986083984 8.816695213317871 7.694063663482666
        7.923816680908203 8.92969799041748 9.91143798828125 9.691147804260254 9.63122272491455 8.81899356842041
        8.053689956665039 7.218106269836426 6.919809818267822 6.487336158752441 6.14987850189209 6.780639171600342
        6.851396560668945 8.063035011291504 8.91979694366455 9.77829360961914 8.93702507019043 6.341336250305176
        3.864938497543335 4.604131698608398 5.775824069976807 6.858712196350098 7.454129695892334 8.172928810119629
        11.919511795043945 11.421650886535645 10.989734649658203 8.396553039550781 9.41572093963623 9.717061042785645
        10.369490623474121 8.72302532196045 9.099430084228516 8.918944358825684 10.926194190979004 10.511141777038574
        11.45194149017334 11.443048477172852 9.27608871459961 8.026671409606934 5.738877296447754 5.584942817687988
        4.894821643829346 5.226034641265869 6.516297817230225 8.311628341674805 10.885068893432617 12.768012046813965
        13.897439002990723 12.962016105651855 9.607870101928711 7.280405521392822 5.156142711639404 3.611159086227417
        1.8917169570922852 1.2864758968353271 1.6855829954147339 4.051904201507568 4.258525371551514 3.0760531425476074
        1.7124857902526855 4.388920307159424 6.6394476890563965 9.552408218383789 11.07139778137207 10.768216133117676
        9.523136138916016 9.462234497070312 10.146512985229492 9.604501724243164 9.42564582824707 9.507377624511719
        9.885775566101074 10.024709701538086 9.751836776733398 10.34707260131836 10.385551452636719 9.34621810913086
        7.5697832107543945 6.692450523376465 7.062293529510498 7.517776966094971 8.93091869354248 9.475045204162598
        9.786223411560059 9.361651420593262 9.380830764770508 9.872780799865723 9.962390899658203 10.245769500732422
        9.511375427246094 9.589773178100586 9.518640518188477 10.50059986114502 9.359882354736328 7.41276216506958
        5.5210700035095215 4.54079532623291 4.820276737213135 6.451955795288086 7.8141255378723145 8.673502922058105
        9.745930671691895 8.99035930633545 8.585653305053711 7.774839878082275 8.594747543334961 8.422290802001953
        9.309886932373047 10.027873992919922 9.746990203857422 8.642863273620605 7.389284610748291 7.321051597595215
        4.049626350402832 5.277708053588867 7.860924243927002 9.414481163024902 10.383444786071777 12.636290550231934
        16.458148956298828 17.857074737548828 17.081928253173828 14.87006950378418 13.006009101867676 12.0979642868042
        12.185213088989258 10.935911178588867 11.386833190917969 10.043050765991211 10.076762199401855 8.702458381652832
        10.321385383605957 9.104955673217773 7.1253581047058105 6.132288932800293 6.106104373931885 4.533973217010498
        3.2021195888519287 3.286174774169922 4.279755115509033 3.721661329269409 4.19223690032959 5.489242076873779
        7.666661262512207 8.037745475769043 7.795803546905518 6.781994342803955 6.3906660079956055 7.252255916595459
        9.212581634521484 10.169622421264648 10.474388122558594 9.818854331970215 9.537946701049805 10.651947021484375
        11.189196586608887 9.874275207519531 8.779727935791016 7.863614559173584 8.445541381835938 9.26648998260498
        10.52453899383545 10.766440391540527 10.105581283569336 9.482484817504883 8.688401222229004 8.1220121383667
        7.0564374923706055 6.364299774169922 4.745482921600342 4.610615253448486 5.6341447830200195 8.371474266052246
        9.034459114074707 9.78174877166748 9.143932342529297 6.347289562225342 4.17849588394165 5.577723979949951
        7.846266746520996 7.220809459686279 7.2105255126953125 7.972115993499756 11.08288860321045 10.784914016723633
        11.270418167114258 7.960423946380615 9.663190841674805 9.9468355178833 10.99544620513916 8.537359237670898
        7.289519309997559 7.104307174682617 8.687247276306152 10.660751342773438 11.311378479003906 11.365242004394531
        10.26011848449707 9.547450065612793 7.419629096984863 5.954570293426514 5.394496440887451 6.282106399536133
        6.9225616455078125 7.293109893798828 8.322826385498047 9.752143859863281 10.121184349060059 9.773717880249023
        7.287611484527588 5.89284086227417 3.3595669269561768 2.580942153930664 2.8462541103363037 2.3011772632598877
        2.5228726863861084 4.228878498077393 3.9015719890594482 3.3099679946899414 3.128195285797119 4.799543857574463
        5.980616569519043 8.463040351867676 9.631692886352539 10.027583122253418 9.355324745178223 10.406578063964844
        10.577691078186035 10.14284610748291 9.984038352966309 10.235313415527344 10.295032501220703 9.691566467285156
        9.325605392456055 9.997895240783691 10.530146598815918 9.609180450439453 7.965546131134033 6.642504692077637
        6.523390769958496 6.72590446472168 8.74490737915039 8.948819160461426 9.199285507202148 8.580358505249023
        8.92839241027832 9.211175918579102 9.367329597473145 9.751614570617676 9.799842834472656 10.191854476928711
        10.394586563110352 11.099989891052246 10.067570686340332 7.976373672485352 6.117711067199707 4.924159049987793
        4.734162330627441 6.067975044250488 7.337109565734863 7.514351844787598 7.930069923400879 8.070276260375977
        8.671134948730469 8.739859580993652 9.67245864868164 9.606289863586426 10.318406105041504 10.176765441894531
        9.95322322845459 8.496159553527832 7.707884311676025 7.652530670166016 5.792453765869141 5.518290042877197
        6.254788398742676 6.824014663696289 8.046381950378418 9.677188873291016 11.501049995422363 12.40291690826416
        13.178071022033691 15.305686950683594 14.740652084350586 14.411482810974121 14.15910816192627 12.80844497680664
        12.730161666870117 10.891888618469238 10.383444786071777 9.626020431518555 9.240571975708008 6.642035484313965
        5.097166061401367 5.825840473175049 5.405858993530273 3.7977077960968018 3.0224103927612305 3.6673026084899902
        4.714539527893066 4.457555770874023 4.744341850280762 5.825363636016846 8.164485931396484 8.061989784240723
        7.822606086730957 6.974583625793457 7.147576332092285 7.509067535400391 9.63483715057373 11.64895248413086
        12.409416198730469 11.361272811889648 10.77415657043457 11.287041664123535 11.406010627746582 9.39991283416748
        9.116314888000488 8.143081665039062 8.279480934143066 9.070456504821777 11.093518257141113 11.989733695983887
        11.299781799316406 10.339346885681152 9.68602466583252 8.645155906677246 7.439911365509033 6.775038719177246
        4.916930675506592 4.236754417419434 5.2140727043151855 8.115764617919922 9.915608406066895 11.117873191833496
        11.009689331054688 7.399089813232422 4.3448920249938965 4.599516868591309 7.310349941253662 7.108272552490234
        7.857669830322266 8.397760391235352 10.042791366577148 10.134206771850586 10.925687789916992 8.680828094482422
        9.594512939453125 9.683788299560547 9.469773292541504 7.128698348999023 5.501668453216553 5.728919982910156
        7.622786998748779 9.27182388305664 10.65646743774414 11.318798065185547 11.47450065612793 10.023665428161621
        8.214221000671387 6.211788177490234 6.767354965209961 7.321687698364258 7.075829982757568 6.720273494720459
        7.590521812438965 7.630621433258057 7.293003559112549 6.4615349769592285 4.556601047515869 3.522144317626953
        2.416611909866333 3.2277064323425293 3.1299686431884766 2.67764949798584 2.809276580810547 3.2013959884643555
        3.435771942138672 3.4974284172058105 3.971163749694824 5.478102684020996 6.184640407562256 7.746037006378174
        7.689136981964111 8.826257705688477 9.864990234375 11.415299415588379 11.167684555053711 10.322551727294922
        10.148130416870117 10.406698226928711 10.621793746948242 10.232071876525879 9.967145919799805 10.405008316040039
        9.906086921691895 9.049251556396484 7.839418888092041 6.917206287384033 6.584578037261963 6.63167142868042
        8.32520580291748 8.504046440124512 8.827276229858398 8.298324584960938 8.672606468200684 8.82148265838623
        9.263890266418457 9.57598876953125 10.045414924621582 10.911834716796875 11.360974311828613 11.87973403930664
        11.595932006835938 10.085148811340332 7.630821228027344 5.755090713500977 4.713192939758301 4.702233791351318
        6.172097206115723 6.301833629608154 7.099503993988037 7.748767375946045 8.674579620361328 8.946260452270508
        10.272761344909668 10.36547565460205 10.890511512756348 10.344100952148438 9.801125526428223 8.77646255493164
        8.378205299377441 8.186259269714355 7.215956211090088 6.9878716468811035 6.030633449554443 5.004456996917725
        4.2899956703186035 4.492346286773682 5.082919120788574 6.159199237823486 8.248640060424805 11.822270393371582
        14.07017707824707 15.546100616455078 15.322000503540039 14.858086585998535 15.355440139770508 14.60130786895752
        13.076546669006348 12.015219688415527 9.608939170837402 6.9892778396606445 5.585977554321289 6.240714073181152
        5.196523666381836 4.425422668457031 4.066894054412842 4.869537830352783 4.726396083831787 3.8156111240386963
        3.3434202671051025 4.595599174499512 7.953709125518799 7.87440824508667 7.779739856719971 7.307922840118408
        8.0130615234375 8.282354354858398 9.64704704284668 12.368157386779785 14.267974853515625 14.129375457763672
        13.258516311645508 12.540820121765137 11.818674087524414 9.67248249053955 8.836952209472656 7.4635491371154785
        7.579413414001465 8.852869987487793 11.010705947875977 11.936079978942871 11.486591339111328 10.250655174255371
        9.718137741088867 8.56973934173584 7.554886341094971 6.983853340148926 5.541018486022949 5.425708293914795
        5.726831436157227 7.88386344909668 10.421934127807617 11.238073348999023 10.27745246887207 7.1107096672058105
        4.968604564666748 4.8127970695495605 6.289713382720947 7.298619270324707 7.960216522216797 9.176012992858887
        10.0217866897583 9.96423625946045 10.278002738952637 10.281328201293945 10.848339080810547 10.241829872131348
        9.16934585571289 6.404228210449219 3.3193728923797607 2.6202619075775146 4.844064235687256 7.332085132598877
        9.300338745117188 10.911749839782715 12.266592025756836 10.900688171386719 8.761958122253418 6.718931674957275
        7.778850555419922 7.826151371002197 7.669971942901611 6.9387054443359375 6.994619369506836 7.2336530685424805
        6.677174091339111 5.71232795715332 3.635286331176758 2.889432191848755 3.1301207542419434 3.3015410900115967
        4.486568450927734 4.125168323516846 4.676365852355957 4.913668155670166 5.316373348236084 4.856705665588379
        4.752143383026123 6.08767557144165 6.420643329620361 6.563634395599365 5.934150695800781 7.020021915435791
        9.099564552307129 10.79186725616455 10.966554641723633 9.950178146362305 9.737654685974121 9.988856315612793
        10.75988483428955 10.852572441101074 10.529023170471191 10.502692222595215 9.634065628051758 9.175979614257812
        8.035594940185547 7.487547874450684 7.45236873626709 7.219243049621582 7.363825798034668 7.750714302062988
        8.016295433044434 7.902797698974609 8.103930473327637 8.351122856140137 8.782708168029785 8.995112419128418
        9.814661979675293 10.924457550048828 11.224953651428223 11.757234573364258 11.603224754333496 10.862305641174316
        8.963323593139648 7.096232891082764 5.215976238250732 4.526950359344482 5.219742774963379 6.251602649688721
        6.835992813110352 6.786784648895264 6.935266971588135 7.453638553619385 9.820638656616211 11.265901565551758
        12.31906795501709 11.65381908416748 10.10007381439209 9.2227783203125 8.799369812011719 8.043716430664062
        6.86923885345459 6.705276966094971 5.8025031089782715 5.107723712921143 4.150524616241455 3.314652919769287
        3.7837679386138916 4.724486827850342 5.5529866218566895 7.392545700073242 10.402870178222656 13.636533737182617
        15.179088592529297 15.458734512329102 16.158964157104492 16.418075561523438 15.365233421325684 13.98591136932373
        10.957927703857422 8.562423706054688 6.372742176055908 6.623708724975586 5.54604434967041 5.314907550811768
        5.222550868988037 5.0464959144592285 3.895292282104492 3.080070734024048 2.8752567768096924 4.183117389678955
        7.0908284187316895 7.373159885406494 7.7874345779418945 8.07797908782959 8.885293006896973 9.913469314575195
        10.927535057067871 13.422273635864258 14.433120727539062 15.141801834106445 14.35857105255127 13.100019454956055
        11.391036033630371 9.498717308044434 8.1927490234375 7.226545810699463 7.580506801605225 9.32831859588623
        11.053475379943848 12.000022888183594 11.246100425720215 10.025945663452148 9.095475196838379 8.188822746276855
        7.7686944007873535 7.335577487945557 7.3105244636535645 7.170281410217285 7.259710788726807 7.641801834106445
        9.774812698364258 9.921719551086426 9.413814544677734 7.551464557647705 5.2467875480651855 3.598670721054077
        5.870434761047363 9.162403106689453 9.306998252868652 10.26404094696045 11.037393569946289 11.006155967712402
        10.424656867980957 10.993412017822266 11.174620628356934 8.486590385437012 7.722534656524658 6.1617608070373535
        4.021115779876709 2.91379714012146 5.067172527313232 6.833376884460449 9.185518264770508 10.03054428100586
        11.47983455657959 10.143674850463867 8.61229133605957 6.812108516693115 6.586495876312256 7.540440082550049
        7.661018371582031 7.722204685211182 6.598602771759033 6.391034126281738 5.961589336395264 4.731213569641113
        2.821000099182129 1.896765112876892 1.8441424369812012 2.3620245456695557 4.664428234100342 5.273050308227539
        5.660888195037842 5.20490026473999 5.088009834289551 5.289675712585449 5.919958114624023 7.68955135345459
        7.5225725173950195 6.497730255126953 5.752334117889404 5.914958953857422 8.56302547454834 10.282304763793945
        10.683816909790039 9.154351234436035 9.24536418914795 9.980069160461426 10.457063674926758 10.953353881835938
        10.882854461669922 10.739449501037598 9.56847095489502 9.412920951843262 8.778390884399414 8.496672630310059
        8.296980857849121 8.01418399810791 7.933071136474609 8.279021263122559 8.221159934997559 7.676753044128418
        7.643372535705566 7.975046157836914 8.379908561706543 8.7110595703125 9.431269645690918 10.157113075256348
        10.33494758605957 10.255470275878906 10.065229415893555 10.062541961669922 9.22609806060791 7.956162929534912
        6.42175817489624 5.068024635314941 5.753405570983887 7.244341850280762 7.436206817626953 6.715400695800781
        6.871789455413818 7.0028252601623535 8.547930717468262 9.557645797729492 11.771310806274414 11.89220142364502
        10.673914909362793 9.762955665588379 8.495019912719727 7.88900899887085 7.994075775146484 7.664646625518799
        7.395379543304443 7.04833459854126 6.14771842956543 5.5293073654174805 5.318324565887451 4.373016357421875
        3.6400375366210938 3.8193118572235107 6.44484806060791 8.559517860412598 12.196928977966309 15.561271667480469
        16.780200958251953 16.638853073120117 14.545753479003906 14.398726463317871 12.808250427246094 10.693809509277344
        7.798352241516113 6.229201793670654 5.7495012283325195 5.7459306716918945 5.794785499572754 5.241486072540283
        3.0667340755462646 2.5960354804992676 2.7638466358184814 3.2163889408111572 4.76755952835083 6.031554222106934
        6.825443744659424 7.834665298461914 8.58591079711914 10.247450828552246 11.094017028808594 11.986969947814941
        13.809163093566895 15.05757999420166 14.762333869934082 12.677030563354492 10.755318641662598 8.937891006469727
        7.43718957901001 7.272272109985352 7.439288139343262 9.435688972473145 10.899506568908691 11.524051666259766
        10.537132263183594 9.60714054107666 8.847904205322266 8.245917320251465 8.183671951293945 8.221711158752441
        7.778698444366455 7.196734428405762 7.1804118156433105 7.976434707641602 9.25036334991455 9.316933631896973
        8.5616455078125 7.845958232879639 5.708342552185059 3.4923055171966553 5.349727630615234 9.4735107421875
        10.880264282226562 12.424854278564453 14.096116065979004 12.96650505065918 10.978299140930176 10.452238082885742
        10.127490997314453 7.3909382820129395 6.342222213745117 5.47240686416626 5.129154682159424 3.990291118621826
        5.126783847808838 6.037929058074951 8.315999984741211 9.629158973693848 9.904271125793457 9.652376174926758
        7.944149971008301 6.719590187072754 5.922522068023682 7.040135860443115 7.559355735778809 8.19516372680664
        6.551510810852051 6.267288684844971 6.049628257751465 5.79116153717041 3.951101541519165 2.3115248680114746
        2.6035208702087402 2.817819118499756 4.7570600509643555 5.361313819885254 6.469552993774414 5.6964921951293945
        5.379639148712158 5.051053524017334 6.058146953582764 6.732852458953857 7.07124662399292 6.459102153778076
        6.826073169708252 5.780129909515381 7.223414421081543 9.335421562194824 9.963796615600586 9.032896995544434
        8.670173645019531 9.10836124420166 8.990875244140625 9.472225189208984 10.452767372131348 11.016185760498047
        10.653545379638672 9.732291221618652 8.865609169006348 9.2343111038208 9.106537818908691 8.81413745880127
        8.246674537658691 8.37509822845459 7.704296112060547 7.021667003631592 7.092261791229248 7.185252666473389
        7.077352046966553 7.0891947746276855 8.039277076721191 8.639447212219238 9.001444816589355 9.0272216796875
        8.97342300415039 8.94008731842041 8.67470645904541 7.659733772277832 6.382572650909424 5.666775226593018
        5.7337727546691895 7.140048503875732 7.51817512512207 6.8404011726379395 7.389474868774414 6.715112686157227
        7.6797285079956055 8.007040023803711 9.811707496643066 10.883030891418457 10.417515754699707 9.455303192138672
        8.072432518005371 7.641999244689941 8.744860649108887 7.828096389770508 7.747037887573242 7.095289707183838
        7.067930221557617 6.459863662719727 7.064724445343018 5.582563400268555 3.4579968452453613 2.579273223876953
        4.252729415893555 5.163430690765381 8.730896949768066 12.851432800292969 14.554402351379395 14.343825340270996
        12.816059112548828 12.995221138000488 13.184417724609375 12.675969123840332 10.106535911560059 7.93674898147583
        6.205068588256836 5.937541961669922 5.810143947601318 5.426945686340332 4.5661773681640625 3.9222559928894043
        3.2608137130737305 3.0020689964294434 2.8551578521728516 4.535061836242676 5.769820213317871 7.2911248207092285
        8.644515037536621 10.071304321289062 11.581838607788086 12.300968170166016 12.995347023010254 13.931283950805664
        13.4661226272583 11.705713272094727 8.921466827392578 7.9878315925598145 7.195165157318115 6.857398509979248
        7.757485389709473 9.372278213500977 10.580612182617188 11.154088020324707 10.737454414367676 10.36585521697998
        9.424718856811523 8.899168014526367 8.350594520568848 8.09929084777832 7.683287143707275 7.22475528717041
        7.211178779602051 8.116314888000488 8.777682304382324 9.240363121032715 8.748074531555176 9.613444328308105
        8.129761695861816 5.118356227874756 6.810238361358643 9.67066478729248 10.645221710205078 13.574506759643555
        15.455704689025879 14.318299293518066 12.027070045471191 10.638204574584961 8.913976669311523 6.300196170806885
        4.959959983825684 5.323451995849609 6.055717468261719 5.009975433349609 5.832473278045654 7.073955535888672
        8.655335426330566 8.972915649414062 9.687117576599121 8.648822784423828 7.286064624786377 6.108733654022217
        5.655768394470215 6.6523118019104 7.119451522827148 7.7594780921936035 6.373889446258545 6.109588146209717
        6.190793991088867 6.003309726715088 5.027953147888184 3.414161443710327 2.918132781982422 3.1951489448547363
        4.832043647766113 5.552950382232666 6.351435661315918 4.925436019897461 4.822357654571533 4.715127944946289
        6.259582042694092 6.662106513977051 7.203492164611816 7.711363315582275 8.302306175231934 7.866199493408203
        8.666887283325195 9.608567237854004 8.902519226074219 7.657594680786133 7.463904857635498 7.396384239196777
        7.104486465454102 7.271275520324707 9.352792739868164 10.932873725891113 10.973983764648438 9.774032592773438
        9.05163860321045 9.467914581298828 9.260416030883789 8.92480754852295 8.57504653930664 8.397187232971191
        7.600217819213867 7.03975772857666 7.251504898071289 7.091521739959717 6.612635612487793 6.288467884063721
        7.382349491119385 8.111235618591309 8.439926147460938 8.421174049377441 8.625636100769043 8.885845184326172
        8.241325378417969 7.723410606384277 7.227650165557861 6.257674217224121 5.890907287597656 6.579091548919678
        7.714460372924805 7.596127510070801 8.267133712768555 7.122575759887695 6.5899176597595215 6.224761486053467
        8.343667984008789 9.927556991577148 10.928921699523926 9.677586555480957 7.989044189453125 7.4751877784729
        9.003339767456055 8.47107982635498 8.055822372436523 6.952184200286865 6.32574987411499 5.573873043060303
        5.872403621673584 4.800272464752197 3.1077022552490234 2.5175445079803467 3.791778564453125 3.8255741596221924
        4.657815456390381 7.491480827331543 12.421053886413574 14.13537311553955 12.425474166870117 11.790413856506348
        12.801427841186523 14.013551712036133 12.937832832336426 10.672659873962402 8.427993774414062 6.914457321166992
        6.289671421051025 5.4649152755737305 5.072389125823975 4.019768238067627 3.302858591079712 3.27327561378479
        2.929616689682007 4.19123649597168 5.667055130004883 7.234424114227295 8.950664520263672 9.866591453552246
        11.092297554016113 11.626192092895508 12.627695083618164 13.671293258666992 12.858445167541504 10.563194274902344
        8.43793773651123 8.045400619506836 8.044533729553223 7.78619909286499 9.079030990600586 10.280953407287598
        11.07210922241211 11.167733192443848 10.756436347961426 10.201796531677246 10.01117992401123 9.789050102233887
        9.252639770507812 8.185426712036133 7.750056266784668 7.713059425354004 7.947586536407471 8.964195251464844
        9.48192310333252 10.250845909118652 9.204431533813477 9.747699737548828 8.763619422912598 6.7170820236206055
        7.923159599304199 10.50278377532959 13.218582153320312 15.298576354980469 15.677936553955078 13.962343215942383
        12.309861183166504 11.181717872619629 8.236102104187012 6.205587863922119 4.956065654754639 5.724125385284424
        6.578641414642334 5.73727560043335 6.539738655090332 8.068603515625 10.029967308044434 10.005287170410156
        9.764556884765625 8.770915985107422 7.6624627113342285 6.709702968597412 7.243564128875732 6.600779056549072
        6.926944255828857 7.0303850173950195 7.054943561553955 7.2035813331604 6.764048099517822 5.977165222167969
        5.401747226715088 3.956386089324951 3.5566248893737793 3.547412395477295 5.120366096496582 6.477115631103516
        7.92321252822876 6.805127143859863 5.625538349151611 4.554752826690674 5.335138320922852 6.0263519287109375
        6.623243808746338 7.529178619384766 8.914814949035645 10.013784408569336 9.771005630493164 8.87823486328125
        7.742427349090576 6.469977855682373 6.024069786071777 5.54798698425293 5.43165397644043 5.0584235191345215
        6.303593158721924 7.866439342498779 9.683070182800293 8.836532592773438 9.339969635009766 9.801787376403809
        9.497346878051758 9.2671480178833 8.645137786865234 8.536120414733887 7.796673774719238 7.469881057739258
        7.781174659729004 7.329747676849365 6.77385139465332 6.547999382019043 7.587423801422119 8.413778305053711
        8.6294527053833 8.75621509552002 9.112369537353516 9.462006568908691 8.921821594238281 8.106011390686035
        7.123400688171387 6.479322910308838 5.811690330505371 5.793121337890625 7.111799240112305 7.701642036437988
        8.108882904052734 8.101612091064453 7.522921085357666 7.006078243255615 7.985475063323975 9.403554916381836
        10.414724349975586 9.891907691955566 8.313119888305664 7.489355564117432 9.236011505126953 8.870451927185059
        7.715437889099121 7.046619415283203 7.334357261657715 6.617149829864502 5.906447410583496 5.5651116371154785
        4.296421527862549 3.3848941326141357 4.052209377288818 4.861004829406738 3.8679728507995605 4.039668560028076
        9.350360870361328 9.676268577575684 7.697701930999756 5.9700541496276855 9.723775863647461 11.960949897766113
        13.94945240020752 12.454235076904297 11.002752304077148 8.733715057373047 7.36476993560791 6.6674580574035645
        6.341418743133545 4.785118579864502 4.680612564086914 6.276236534118652 5.7872467041015625 5.810951232910156
        6.403711795806885 7.357716083526611 8.892775535583496 9.985885620117188 10.837652206420898 10.939671516418457
        11.608829498291016 12.142593383789062 11.150609016418457 9.577609062194824 8.39250659942627 7.214646339416504
        7.217553615570068 7.7319231033325195 9.656303405761719 10.457691192626953 11.36176872253418 11.670552253723145
        11.481999397277832 10.525242805480957 10.049501419067383 9.754220008850098 9.474434852600098 8.355701446533203
        8.53669548034668 8.554746627807617 9.510039329528809 9.863168716430664 10.056532859802246 10.352917671203613
        9.61547565460205 9.324653625488281 7.301863193511963 5.525960922241211 7.342681884765625 10.175040245056152
        12.698606491088867 13.183036804199219 13.40998363494873 11.888249397277832 11.345343589782715 10.590478897094727
        8.705135345458984 6.174082279205322 5.131833076477051 6.239580154418945 7.3209052085876465 7.591604232788086
        9.452369689941406 10.157902717590332 11.23927116394043 10.12389087677002 9.198029518127441 8.835362434387207
        8.453968048095703 7.454554080963135 7.660524845123291 7.426318168640137 8.520792961120605 8.708353042602539
        8.830907821655273 8.240077018737793 7.556926250457764 6.5453009605407715 5.660401821136475 4.32790470123291
        3.8227109909057617 4.172852516174316 5.5896477699279785 6.902702808380127 7.562729358673096 6.552295684814453
        4.897854328155518 4.543676853179932 5.151449203491211 5.921214580535889 6.40770959854126 7.185873985290527
        9.144660949707031 10.263501167297363 10.866607666015625 9.366109848022461 7.319782733917236 5.156209468841553
        5.023908615112305 5.510037422180176 5.437934398651123 4.703145503997803 4.567464351654053 5.473875045776367
        6.910576820373535 7.174831867218018 8.661266326904297 9.975772857666016 9.680749893188477 9.196409225463867
        8.90875244140625 8.838481903076172 8.512335777282715 7.974511623382568 7.924137115478516 7.139530658721924
        7.377026081085205 7.544422149658203 8.302356719970703 8.576542854309082 8.454185485839844 8.794386863708496
        8.93202018737793 9.748700141906738 9.388826370239258 8.464523315429688 7.27175235748291 6.522716522216797
        5.74529504776001 6.156556606292725 6.859581470489502 7.398783206939697 8.241223335266113 8.603885650634766
        8.19577693939209 7.761727809906006 8.236166954040527 9.230895042419434 9.75843334197998 9.980189323425293
        8.324539184570312 6.861868858337402 7.3104047775268555 7.904698848724365 8.019773483276367 7.757345199584961
        7.794276237487793 7.178990840911865 6.1213202476501465 5.494063377380371 4.718907833099365 4.312197685241699
        4.250356197357178 5.702125549316406 4.96340274810791 4.096984386444092 6.4275665283203125 4.609304428100586
        3.1510748863220215 4.52899694442749 3.5990781784057617 5.761052131652832 13.044883728027344 14.014958381652832
        13.499052047729492 10.21414566040039 8.04405689239502 6.777299404144287 7.346712112426758 5.897160530090332
        7.188718795776367 9.865656852722168 10.054481506347656 8.81557846069336 8.670781135559082 9.095044136047363
        9.08838176727295 9.419203758239746 10.036877632141113 9.739333152770996 10.45842456817627 10.475287437438965
        9.931976318359375 9.392216682434082 9.520421028137207 8.19607162475586 7.78842830657959 7.756911754608154
        9.91093635559082 10.820602416992188 11.824378967285156 12.559779167175293 12.082422256469727 10.200019836425781
        9.424032211303711 8.964052200317383 9.315197944641113 8.60448932647705 9.691804885864258 9.798724174499512
        10.293044090270996 10.017045974731445 10.683318138122559 10.556321144104004 9.838376998901367 9.001630783081055
        6.5793538093566895 4.496729373931885 5.693039417266846 8.48803997039795 11.30257511138916 12.175924301147461
        12.840303421020508 11.081400871276855 10.035139083862305 8.788406372070312 8.235542297363281 6.187223434448242
        5.123654842376709 5.777616024017334 7.1684794425964355 8.589306831359863 9.940263748168945 11.363142967224121
        11.263876914978027 10.127671241760254 8.749918937683105 9.07957649230957 9.119749069213867 8.40811824798584
        7.948465824127197 8.27010440826416 9.14726734161377 9.517391204833984 9.821084976196289 8.529646873474121
        7.234475135803223 5.841679096221924 5.05586576461792 3.8241147994995117 3.7442684173583984 4.383714199066162
        4.849084854125977 5.220996379852295 5.747713088989258 5.615323543548584 4.243139743804932 4.07097864151001
        3.9429569244384766 4.583019256591797 6.318792343139648 7.836244583129883 9.620186805725098 9.555667877197266
        9.339016914367676 8.12601375579834 6.382673263549805 4.47488260269165 4.385948657989502 5.205221652984619
        5.676691055297852 5.211049556732178 5.191667556762695 4.978066444396973 5.161981582641602 5.602908134460449
        7.315250396728516 8.828665733337402 9.810958862304688 9.55262565612793 9.874253273010254 9.900980949401855
        10.01534366607666 9.067880630493164 8.351005554199219 7.761214256286621 7.998308181762695 8.576082229614258
        8.784276962280273 8.932198524475098 8.737581253051758 8.757040977478027 8.923806190490723 9.66999626159668
        9.144742012023926 8.421250343322754 7.852539539337158 7.034398555755615 6.753855228424072 7.681883335113525
        8.140298843383789 8.769861221313477 9.319905281066895 9.14373779296875 9.290243148803711 8.76483154296875
        8.72673511505127 8.514605522155762 8.977272033691406 9.43209457397461 7.561159610748291 6.499584674835205
        7.784478187561035 7.982090473175049 7.581265449523926 7.08914852142334 6.817536354064941 7.627574920654297
        7.1301045417785645 5.504217624664307 4.389578819274902 4.177915096282959 4.125594139099121 5.963195323944092
        6.1071624755859375 5.4672770500183105 4.4412760734558105 3.023545265197754 2.9975812435150146 7.988336563110352
        7.859133243560791 5.342429161071777 12.198873519897461 14.256043434143066 13.942607879638672 11.992924690246582
        11.118037223815918 9.318340301513672 8.347124099731445 7.516440391540527 9.284719467163086 12.814924240112305
        13.490727424621582 12.164990425109863 11.180891990661621 10.88229751586914 10.825836181640625 11.117012977600098
        11.114483833312988 10.433046340942383 10.346851348876953 10.360546112060547 10.741463661193848 9.991628646850586
        9.969088554382324 9.361100196838379 9.13542366027832 9.137713432312012 10.010064125061035 10.904484748840332
        11.986042976379395 13.005463600158691 13.294371604919434 11.4772367477417 10.309497833251953 9.31313419342041
        9.98635482788086 9.8615140914917 10.857390403747559 10.358397483825684 10.105908393859863 9.602916717529297
        9.971894264221191 9.683599472045898 9.438950538635254 8.362349510192871 6.377806186676025 5.1128435134887695
        5.495771884918213 7.226822853088379 9.517669677734375 10.771839141845703 11.928075790405273 9.853312492370605
        8.747928619384766 7.837865829467773 7.870887279510498 6.9160590171813965 5.979607105255127 6.7697625160217285
        7.885568618774414 9.525338172912598 10.302556991577148 11.001924514770508 10.779080390930176 9.90722370147705
        8.965353965759277 9.43647575378418 8.554675102233887 8.05460262298584 7.928508281707764 8.812406539916992
        9.505374908447266 8.447319030761719 7.879518508911133 6.931889057159424 6.228790760040283 5.337777137756348
        4.659487247467041 4.467815399169922 4.368298053741455 5.015387535095215 5.110314846038818 4.8758063316345215
        4.010458946228027 4.021035194396973 2.822814702987671 3.1095173358917236 3.084313154220581 3.891756296157837
        6.2670793533325195 7.851988315582275 8.905923843383789 8.319856643676758 7.680123329162598 6.750270843505859
        5.406904697418213 4.507169246673584 4.530867099761963 5.831923007965088 6.382925033569336 6.352489471435547
        5.742774963378906 5.286048412322998 5.029181480407715 4.781047344207764 5.3747477531433105 6.1582231521606445
        7.65933895111084 8.541244506835938 10.661107063293457 10.712675094604492 11.06180477142334 9.577611923217773
        8.650813102722168 8.311615943908691 9.048523902893066 9.438957214355469 9.28420352935791 9.524215698242188
        9.078683853149414 9.110295295715332 9.333596229553223 10.414493560791016 9.708057403564453 8.506488800048828
        8.268555641174316 7.530179977416992 6.805058002471924 7.064448356628418 8.651114463806152 10.088335990905762
        11.307938575744629 9.672212600708008 9.153037071228027 9.147767066955566 9.041449546813965 8.997756004333496
        8.87388801574707 8.503647804260254 6.856242656707764 5.805243015289307 8.728714942932129 8.747847557067871
        8.52597427368164 7.622395992279053 6.898656845092773 6.750120639801025 7.5144124031066895 6.369960308074951
        4.683848857879639 4.289141654968262 3.1779584884643555 5.053144454956055 6.21176290512085 6.001908779144287
        3.374387502670288 3.4721946716308594 4.499410152435303 4.4787421226501465 7.882126331329346 6.678041458129883
        10.791449546813965 16.178409576416016 15.690413475036621 15.606122016906738 14.77180004119873 12.857136726379395
        10.539705276489258 10.428187370300293 12.02902889251709 13.945749282836914 14.166439056396484 13.776875495910645
        13.03993034362793 12.982860565185547 11.959489822387695 11.455411911010742 11.264731407165527 11.07448673248291
        10.6447114944458 10.483512878417969 10.843371391296387 10.32599925994873 9.792052268981934 10.472648620605469
        10.482400894165039 9.939414978027344 10.234720230102539 11.03293228149414 12.86171817779541 13.340266227722168
        12.738036155700684 12.045424461364746 11.450872421264648 10.954345703125 11.022485733032227 11.372685432434082
        11.224982261657715 10.22791576385498 10.23405933380127 9.96072006225586 10.076261520385742 9.12526798248291
        8.374981880187988 7.410126686096191 6.4719929695129395 5.474717617034912 5.882681369781494 6.7444963455200195
        8.624025344848633 10.56472396850586 11.368837356567383 10.110586166381836 9.211238861083984 8.072818756103516
        7.7920732498168945 7.108022212982178 6.922590732574463 7.705753803253174 8.156181335449219 9.73393726348877
        10.124224662780762 11.306777000427246 11.146742820739746 10.318961143493652 9.382896423339844 9.8224458694458
        9.608241081237793 9.705000877380371 8.89592456817627 9.650503158569336 9.183631896972656 7.8578972816467285
        6.490527153015137 5.401470184326172 5.5047221183776855 5.090993404388428 5.375 5.499050140380859
        5.241858959197998 5.598331451416016 6.126293182373047 6.173375129699707 4.792895317077637 3.5899813175201416
        2.0160701274871826 1.8715572357177734 3.206035852432251 4.931830883026123 7.059683799743652 7.575864315032959
        9.269285202026367 9.097370147705078 8.176222801208496 6.242371559143066 5.055483818054199 4.676576137542725
        4.7156901359558105 5.442188739776611 5.838093280792236 5.269626617431641 5.175144672393799 5.146815776824951
        5.708669662475586 5.318621635437012 5.006901741027832 4.9513020515441895 6.166736125946045 7.7937726974487305
        9.929417610168457 10.982816696166992 11.390225410461426 10.858206748962402 10.099512100219727 10.528319358825684
        10.345759391784668 10.452991485595703 9.913244247436523 10.106683731079102 9.814295768737793 9.910296440124512
        9.57181453704834 10.22270393371582 9.493736267089844 9.036859512329102 9.155832290649414 8.071356773376465
        7.252781867980957 6.035912036895752 7.924386024475098 10.252853393554688 12.051559448242188 10.428893089294434
        9.373251914978027 9.21907901763916 9.584724426269531 9.990503311157227 10.256742477416992 8.801533699035645
        6.905604839324951 6.062027931213379 10.330080032348633 9.863698959350586 10.490382194519043 9.185816764831543
        8.029440879821777 6.558772087097168 6.772032737731934 6.822179794311523 5.907017230987549 5.820487022399902
        5.065396308898926 5.885138511657715 5.594857215881348 5.2818403244018555 3.759040117263794 4.586657524108887
        4.469719409942627 4.4408392906188965 4.91770601272583 6.463581562042236 10.179220199584961 15.402558326721191
        16.55677604675293 19.83608055114746 20.422916412353516 19.285327911376953 15.149785995483398 13.64877700805664
        13.371593475341797 13.59614372253418 13.015132904052734 13.477739334106445 14.244146347045898 14.579183578491211
        13.432483673095703 12.203290939331055 12.091897964477539 11.93727970123291 10.783003807067871 10.658504486083984
        10.497055053710938 10.274231910705566 9.783109664916992 10.541756629943848 11.584644317626953 11.236984252929688
        11.393562316894531 11.916193008422852 13.22546100616455 13.48120403289795 13.511225700378418 13.9642972946167
        14.146059036254883 13.530635833740234 12.781455993652344 12.627158164978027 11.768176078796387 11.309649467468262
        11.691569328308105 11.643685340881348 11.078035354614258 10.174968719482422 9.08487606048584 8.051308631896973
        7.6259989738464355 6.952477931976318 7.313618183135986 7.278748035430908 9.181168556213379 10.22215461730957
        10.780518531799316 11.42391586303711 11.519393920898438 10.425911903381348 8.802620887756348 8.061352729797363
        8.369686126708984 8.777358055114746 9.060416221618652 9.687837600708008 10.569520950317383 11.742087364196777
        11.649678230285645 10.08627986907959 8.895587921142578 9.124627113342285 9.616873741149902 10.136381149291992
        9.25142765045166 9.691055297851562 9.99008560180664 9.018468856811523 7.800029277801514 6.548391819000244
        6.199960708618164 5.873384475708008 6.1371049880981445 6.262707233428955 5.590994358062744 4.857010364532471
        5.188086032867432 4.911007404327393 5.294064521789551 4.267836570739746 4.482112884521484 3.7491796016693115
        5.978637218475342 8.161961555480957 9.133089065551758 7.9918670654296875 8.456539154052734 9.021831512451172
        9.175374984741211 6.840522766113281 5.736974239349365 5.143308162689209 6.271819114685059 6.818599700927734
        6.154173851013184 4.559135913848877 4.414314270019531 5.085575580596924 5.813225269317627 5.1539788246154785
        4.4582624435424805 4.847612380981445 6.264686584472656 7.465665817260742 8.452232360839844 9.214789390563965
        10.49480152130127 11.195302963256836 11.960312843322754 12.328312873840332 11.690803527832031 10.941957473754883
        10.167621612548828 10.229950904846191 9.601285934448242 9.941550254821777 10.739771842956543 11.602424621582031
        10.719555854797363 9.43735122680664 9.32857894897461 8.373845100402832 7.066516399383545 4.79664421081543
        7.105740547180176 8.982851028442383 10.912556648254395 10.213964462280273 10.592720985412598 9.863003730773926
        9.517899513244629 9.712234497070312 10.187044143676758 9.193635940551758 7.054892063140869 6.301055431365967
        10.375699996948242 9.599552154541016 10.417296409606934 9.999634742736816 9.058586120605469 8.011523246765137
        7.4390339851379395 8.249043464660645 7.3352274894714355 7.053727149963379 5.696934700012207 5.124148368835449
        3.4391348361968994 3.4915125370025635 4.908788681030273 5.889240741729736 5.046580791473389 5.338298797607422
        6.95322847366333 7.5642266273498535 8.67999267578125 13.429372787475586 15.637197494506836 18.944732666015625
        21.732059478759766 23.01460838317871 21.325769424438477 17.173551559448242 14.135127067565918 12.713836669921875
        13.548576354980469 13.6675443649292 14.185141563415527 13.78414535522461 12.860054016113281 12.366222381591797
        12.337292671203613 11.741866111755371 9.963569641113281 9.382652282714844 9.036094665527344 9.181840896606445
        8.819130897521973 9.86340045928955 10.215960502624512 11.928849220275879 12.397456169128418 13.736542701721191
        14.550708770751953 14.321440696716309 14.302145957946777 15.17018985748291 16.072998046875 15.73917293548584
        14.30659294128418 13.423806190490723 11.624123573303223 11.326071739196777 11.619940757751465 11.836295127868652
        10.937070846557617 10.37401294708252 9.298110961914062 8.7606201171875 8.532063484191895 8.291046142578125
        8.053815841674805 7.23423957824707 7.970076084136963 8.479118347167969 9.97839641571045 12.087271690368652
        12.883443832397461 11.140419960021973 8.93666934967041 8.37760066986084 9.332743644714355 9.057802200317383
        8.827359199523926 8.929920196533203 9.881678581237793 10.909566879272461 10.917075157165527 9.740012168884277
        8.812881469726562 9.348915100097656 9.456713676452637 10.052653312683105 9.686694145202637 9.978014945983887
        11.535204887390137 11.292216300964355 10.228130340576172 7.696566104888916 6.313961505889893 5.986907482147217
        6.884155750274658 6.9824066162109375 6.296099662780762 5.689673900604248 5.87189245223999 4.035270690917969
        4.801437854766846 6.354195594787598 8.846222877502441 7.5164713859558105 8.820210456848145 10.684324264526367
        10.95840072631836 10.136392593383789 10.254950523376465 10.543350219726562 9.285186767578125 7.363912582397461
        6.931078910827637 6.687000274658203 7.440977573394775 7.6388726234436035 7.8911919593811035 6.8558197021484375
        4.985828399658203 5.827144622802734 6.222927570343018 5.61831521987915 5.0199127197265625 5.316449165344238
        6.196990013122559 6.3997483253479 7.3100266456604 8.43641185760498 10.888446807861328 11.993631362915039
        12.822782516479492 12.384361267089844 12.052250862121582 12.07810115814209 11.191069602966309 10.103228569030762
        8.991193771362305 9.641742706298828 11.964066505432129 12.453943252563477 11.607320785522461 10.445359230041504
        10.12555980682373 8.84555721282959 6.885647296905518 4.284322738647461 6.279659748077393 7.541329860687256
        10.146799087524414 10.072774887084961 11.21036148071289 9.71362590789795 8.934723854064941 8.801133155822754
        9.180099487304688 8.644779205322266 7.02764892578125 6.275537490844727 9.2694730758667 8.996606826782227
        10.298055648803711 9.667532920837402 8.690431594848633 7.84910249710083 7.624544143676758 7.982088088989258
        6.158172607421875 5.42035436630249 4.531222820281982 4.710529804229736 3.78131365776062 4.853798866271973
        6.43620491027832 6.930495738983154 6.2991623878479 7.9803466796875 10.478837013244629 10.291616439819336
        9.682042121887207 10.940872192382812 11.834426879882812 14.440266609191895 18.42720603942871 20.171777725219727
        19.916828155517578 16.209854125976562 13.775064468383789 13.429221153259277 13.663820266723633 13.06608772277832
        11.996235847473145 11.385083198547363 12.452187538146973 12.779791831970215 12.886887550354004 11.234936714172363
        10.680476188659668 10.015830993652344 9.07398509979248 8.630043983459473 7.80183219909668 7.843003273010254
        7.98429536819458 10.635637283325195 11.501508712768555 12.421332359313965 12.029693603515625 13.156947135925293
        13.541864395141602 15.120473861694336 16.524703979492188 16.185590744018555 15.587360382080078 14.085183143615723
        13.16561222076416 12.04456615447998 11.65134334564209 11.102478981018066 10.185564041137695 9.967164039611816
        9.498065948486328 9.752320289611816 10.01476001739502 9.524273872375488 8.582347869873047 8.061734199523926
        8.246471405029297 8.661038398742676 10.13024616241455 11.850454330444336 13.135458946228027 11.948834419250488
        10.485206604003906 9.453097343444824 10.541112899780273 10.335347175598145 10.023763656616211 9.23560619354248
        8.927413940429688 9.019222259521484 9.952157974243164 9.890482902526855 9.352486610412598 9.491703987121582
        9.69585132598877 10.328441619873047 10.052277565002441 10.070828437805176 11.280158042907715 11.618261337280273
        10.88333511352539 7.849867343902588 5.660444259643555 4.5534892082214355 5.852721691131592 6.904809951782227
        6.993483543395996 7.505945205688477 6.212435245513916 3.920996904373169 3.43765926361084 6.477761745452881
        10.309457778930664 10.479991912841797 10.989665031433105 11.717924118041992 11.809040069580078 11.33434009552002
        11.0824556350708 11.098564147949219 9.072712898254395 7.776514053344727 8.081376075744629 8.228928565979004
        8.206661224365234 8.474691390991211 9.35982894897461 8.67363166809082 6.3094964027404785 6.423854351043701
        6.062923908233643 5.445695400238037 5.019402027130127 5.074138164520264 5.5560688972473145 5.889370441436768
        7.375454425811768 8.137863159179688 9.972339630126953 10.092381477355957 11.444467544555664 10.677109718322754
        12.412298202514648 11.923707962036133 11.572013854980469 10.569836616516113 10.335662841796875 11.036599159240723
        13.236194610595703 12.822359085083008 12.037166595458984 10.842028617858887 10.815957069396973 9.108477592468262
        7.07857084274292 4.687724590301514 5.411206245422363 7.128453731536865 9.570345878601074 10.572347640991211
        11.669622421264648 9.905608177185059 8.52580451965332 7.263417720794678 7.261425495147705 6.954838275909424
        6.11912202835083 6.156082630157471 8.766229629516602 9.32621955871582 10.633156776428223 11.620119094848633
        10.21434497833252 9.07487678527832 7.756617069244385 7.4615159034729 6.034941673278809 4.492468357086182
        3.4733662605285645 4.745457172393799 5.588309288024902 7.526605606079102 8.833110809326172 9.501129150390625
        9.484408378601074 10.599092483520508 11.951071739196777 11.974475860595703 10.028594970703125 9.252825736999512
        8.187422752380371 9.447635650634766 11.156278610229492 13.028213500976562 13.415282249450684 13.81312084197998
        15.221161842346191 15.72453498840332 15.852264404296875 12.677623748779297 10.662343978881836 10.021018981933594
        12.106921195983887 13.408673286437988 12.8008451461792 11.105744361877441 10.825667381286621 9.888134002685547
        8.564498901367188 7.225778102874756 6.38212251663208 6.514506816864014 5.9798784255981445 7.136811256408691
        7.250924587249756 8.037725448608398 9.879093170166016 12.503144264221191 14.360129356384277 13.609254837036133
        13.762648582458496 14.569178581237793 15.6051607131958 15.515366554260254 14.54089069366455 13.088861465454102
        12.270947456359863 11.351492881774902 10.931476593017578 10.016226768493652 9.538274765014648 9.63864517211914
        9.890429496765137 9.809259414672852 8.350662231445312 8.542149543762207 8.6948823928833 9.10815143585205
        9.6322021484375 9.988032341003418 10.990784645080566 11.526148796081543 11.462580680847168 11.230874061584473
        11.011818885803223 10.936620712280273 10.84404468536377 9.830728530883789 8.88638973236084 8.122329711914062
        8.808798789978027 9.907292366027832 9.428290367126465 9.523683547973633 9.147168159484863 10.310633659362793
        10.37402629852295 10.140393257141113 11.1476411819458 11.604818344116211 12.032594680786133 9.94466495513916
        8.308321952819824 7.558938980102539 8.265645980834961 8.692564010620117 8.588258743286133 10.260270118713379
        8.26309871673584 6.385821342468262 4.152857303619385 6.7578349113464355 9.45458698272705 12.248017311096191
        13.106365203857422 12.387622833251953 12.090415954589844 12.621542930603027 11.660663604736328 10.831422805786133
        9.711082458496094 9.431124687194824 9.982032775878906 10.899812698364258 10.195718765258789 10.034319877624512
        10.147801399230957 9.708243370056152 7.863592147827148 7.487104892730713 6.4382004737854 5.6857404708862305
        5.36700439453125 5.103236198425293 5.4822797775268555 6.067119121551514 7.189307689666748 7.5252203941345215
        8.000978469848633 6.896518707275391 6.960607528686523 8.34001350402832 10.708782196044922 11.715323448181152
        10.859563827514648 10.818231582641602 12.411327362060547 13.400871276855469 14.205307960510254 12.322513580322266
        12.022645950317383 10.907021522521973 11.020416259765625 8.913966178894043 6.453880310058594 3.9082748889923096
        6.075527191162109 8.557479858398438 11.684829711914062 11.564980506896973 12.937887191772461 13.061108589172363
        11.24640941619873 9.574575424194336 7.592531681060791 6.823208808898926 6.113836288452148 5.899661064147949
        9.168582916259766 10.053732872009277 11.722052574157715 12.6670560836792 11.995233535766602 9.936365127563477
        9.136141777038574 7.953296184539795 6.977504253387451 5.49980354309082 4.359297275543213 5.892297744750977
        7.510244369506836 9.676076889038086 10.353798866271973 11.533330917358398 11.983020782470703 12.79221248626709
        13.618485450744629 13.396729469299316 10.841781616210938 7.2525529861450195 3.6893603801727295 4.993568420410156
        6.4502177238464355 7.505867958068848 6.799932956695557 8.365856170654297 11.376914978027344 13.356825828552246
        13.123490333557129 11.9203462600708 10.777887344360352 9.6065092086792 11.122243881225586 12.488692283630371
        12.821040153503418 11.203641891479492 11.020960807800293 9.536109924316406 7.954110145568848 5.858184337615967
        5.019360542297363 4.580599308013916 4.862293720245361 4.135603904724121 3.868255615234375 3.5327532291412354
        6.678925037384033 9.619402885437012 11.921896934509277 11.243699073791504 10.60910701751709 12.76540470123291
        14.828300476074219 15.820748329162598 15.48945426940918 14.17357063293457 13.573344230651855 12.102761268615723
        11.576923370361328 10.706954002380371 10.22499942779541 10.01036262512207 9.969489097595215 9.741333961486816
        9.233970642089844 9.454395294189453 9.451251983642578 9.788150787353516 9.507569313049316 9.457054138183594
        10.36680793762207 11.335018157958984 11.75423812866211 11.22750186920166 10.897246360778809 10.90910816192627
        11.269622802734375 10.826027870178223 9.360882759094238 8.342301368713379 8.317486763000488 9.402545928955078
        9.16120433807373 8.62678337097168 8.30236530303955 9.114654541015625 9.350105285644531 8.764104843139648
        8.851994514465332 11.066328048706055 13.392895698547363 13.708146095275879 13.43571949005127 12.367029190063477
        11.573366165161133 9.817267417907715 11.361224174499512 11.157557487487793 7.399500846862793 5.20875883102417
        4.8308892250061035 5.529791355133057 7.011012077331543 11.31618881225586 13.614215850830078 12.734418869018555
        13.495781898498535 13.125216484069824 10.705493927001953 9.307844161987305 9.86850357055664 11.6578950881958
        12.146419525146484 12.977673530578613 12.531617164611816 11.174607276916504 10.654072761535645 10.096277236938477
        9.146039009094238 7.824254512786865 6.405144214630127 5.849977493286133 5.798614501953125 6.1202898025512695
        6.892593860626221 6.962279319763184 7.24014949798584 7.123894214630127 7.589155673980713 6.354929447174072
        5.026926040649414 5.317506313323975 7.6115193367004395 9.171814918518066 8.110223770141602 9.580265998840332
        12.321798324584961 14.436850547790527 14.500495910644531 13.026787757873535 11.56863784790039 10.611024856567383
        10.901430130004883 9.053327560424805 6.540196418762207 2.9873483180999756 6.339207172393799 9.571775436401367
        12.832744598388672 13.673099517822266 14.668912887573242 14.527099609375 12.269471168518066 10.078986167907715
        8.581805229187012 7.445677757263184 6.431440353393555 5.85093879699707 9.233766555786133 10.162202835083008
        11.918901443481445 13.283870697021484 14.221760749816895 12.958273887634277 10.61251449584961 9.483542442321777
        8.960151672363281 8.298066139221191 5.465489864349365 7.26439094543457 8.111417770385742 9.853495597839355
        10.657928466796875 12.00820255279541 12.710287094116211 13.838213920593262 13.475159645080566 12.29021167755127
        10.000035285949707 6.560535907745361 3.267171859741211 2.9359312057495117 4.565403461456299 4.915625095367432
        4.814098358154297 6.020885944366455 8.246562004089355 9.86882209777832 9.316152572631836 10.552306175231934
        11.081689834594727 9.486350059509277 9.910733222961426 11.115303993225098 12.28245735168457 11.445469856262207
        10.058478355407715 8.589920997619629 6.957888126373291 5.863369464874268 5.495367527008057 4.993916988372803
        4.587731838226318 3.0765154361724854 2.904468059539795 3.066746711730957 4.534907341003418 6.663200855255127
        8.273200035095215 8.381598472595215 7.895246505737305 10.208475112915039 12.672445297241211 14.482270240783691
        14.551815032958984 15.744087219238281 15.185992240905762 13.679374694824219 12.419167518615723 11.801946640014648
        11.650752067565918 10.540841102600098 10.046165466308594 9.56362533569336 9.737814903259277 10.17539119720459
        10.704465866088867 11.712477684020996 11.907760620117188 11.145442008972168 10.5752592086792 10.593153953552246
        11.032063484191895 10.821672439575195 10.8825044631958 11.543456077575684 11.346428871154785 10.601472854614258
        9.050760269165039 8.487421035766602 8.669178009033203 9.548187255859375 10.424768447875977 9.338603973388672
        8.29979419708252 8.821141242980957 9.382011413574219 8.728689193725586 7.938918113708496 11.363298416137695
        15.410670280456543 15.805730819702148 17.83557891845703 16.599550247192383 14.908811569213867 10.067178726196289
        9.777023315429688 7.437771320343018 4.906792640686035 4.840820789337158 6.402677536010742 6.338074207305908
        7.661512851715088 12.431200981140137 16.264320373535156 16.22173500061035 17.46967887878418 16.98335075378418
        13.923578262329102 11.290239334106445 11.3561372756958 12.347081184387207 12.431079864501953 12.947096824645996
        12.506059646606445 11.849591255187988 12.182564735412598 12.770211219787598 12.257582664489746 10.116067886352539
        8.135281562805176 7.270343780517578 6.7560014724731445 6.647739410400391 7.006260871887207 7.412628650665283
        7.393559455871582 7.286429405212402 8.6187744140625 7.666841506958008 6.15671968460083 4.256258010864258
        4.025856018066406 5.9140777587890625 4.839094638824463 6.571518421173096 9.223386764526367 12.742461204528809
        13.714380264282227 13.970064163208008 13.046745300292969 11.551527976989746 11.178756713867188 9.409513473510742
        6.412233352661133 2.7737507820129395 5.893161773681641 9.291707038879395 12.496143341064453 13.498024940490723
        14.676071166992188 15.342387199401855 12.601654052734375 10.959356307983398 9.511957168579102 9.537471771240234
        7.98514461517334 6.918920040130615 8.641949653625488 8.868148803710938 11.48733139038086 13.361296653747559
        14.77782917022705 14.54926872253418 11.345918655395508 8.605620384216309 8.361339569091797 9.732064247131348
        7.562524318695068 8.179250717163086 8.79346752166748 10.076469421386719 11.004435539245605 11.630391120910645
        12.910028457641602 12.917303085327148 13.276113510131836 11.18386173248291 10.787397384643555 8.293008804321289
        5.002302169799805 4.032483100891113 6.0248942375183105 5.467382431030273 5.8882646560668945 5.227478981018066
        5.950879096984863 7.1143412590026855 7.4789652824401855 8.480916976928711 9.172377586364746 8.538042068481445
        8.825254440307617 9.589737892150879 10.426825523376465 10.244219779968262 9.57206916809082 9.29745864868164
        8.343910217285156 8.365072250366211 7.847438812255859 6.189794063568115 4.559664726257324 2.5068092346191406
        2.262246608734131 2.0177385807037354 2.160435438156128 2.7151684761047363 3.779667615890503 5.36080265045166
        5.642611980438232 7.370401382446289 8.671246528625488 11.758362770080566 13.352880477905273 16.146242141723633
        15.067243576049805 12.807835578918457 11.225322723388672 11.408827781677246 11.70954704284668 10.834846496582031
        10.098054885864258 9.284337043762207 10.046603202819824 9.785700798034668 10.999080657958984 11.985668182373047
        14.415963172912598 13.943791389465332 13.409377098083496 10.763618469238281 10.241663932800293 9.915268898010254
        10.655765533447266 11.279783248901367 11.064366340637207 10.272518157958984 9.014705657958984 9.09488296508789
        9.782149314880371 10.13564395904541 10.426941871643066 10.401039123535156 9.700643539428711 10.098285675048828
        10.695850372314453 9.076163291931152 6.867395401000977 10.017760276794434 13.373882293701172 14.51218318939209
        17.4348201751709 17.52715492248535 13.123847007751465 6.243556022644043 4.791407585144043 2.574695110321045
        0.10833412408828735 0.6938346028327942 3.85416579246521 6.293552875518799 8.18769645690918 13.089083671569824
        16.041345596313477 17.316553115844727 18.594514846801758 17.371116638183594 16.193819046020508 15.22546672821045
        13.933690071105957 12.385089874267578 11.41407585144043 11.912158966064453 12.12634563446045 11.625535011291504
        12.224868774414062 12.695999145507812 13.032782554626465 12.096232414245605 9.89028263092041 8.716875076293945
        8.07042121887207 7.836500644683838 8.28029727935791 8.313084602355957 8.00862979888916 8.00719165802002
        7.819461822509766 7.560479164123535 6.300673961639404 5.044277191162109 3.4491488933563232 3.1469218730926514
        3.2696521282196045 5.451504230499268 8.702613830566406 11.772369384765625 13.403939247131348 13.601778030395508
        13.41309642791748 12.160036087036133 11.249844551086426 9.199178695678711 6.131322383880615 2.2664551734924316
        3.9963185787200928 6.577056407928467 9.41207504272461 11.4444580078125 13.252448081970215 14.476127624511719
        13.353259086608887 11.751266479492188 10.406801223754883 9.902029991149902 8.434704780578613 7.323908805847168
        7.390496253967285 7.600860118865967 11.398065567016602 13.687106132507324 14.77578067779541 13.717039108276367
        11.10326862335205 9.08039665222168 9.793002128601074 12.432281494140625 9.984498023986816 8.693343162536621
        9.22999095916748 10.229841232299805 11.103678703308105 11.281577110290527 12.234158515930176 10.22461223602295
        10.311103820800781 8.938879013061523 9.170941352844238 8.886275291442871 7.764185905456543 6.1922430992126465
        6.864602088928223 7.263542175292969 8.83254337310791 8.541014671325684 7.1803107261657715 6.6355695724487305
        6.432703495025635 7.6424641609191895 8.125530242919922 7.9471049308776855 7.194570064544678 7.679192543029785
        7.7980055809021 8.490593910217285 8.267565727233887 9.181272506713867 8.654454231262207 9.922222137451172
        9.742201805114746 8.700587272644043 5.9356513023376465 3.2057762145996094 2.1635515689849854 2.1926305294036865
        3.25677227973938 3.546647071838379 3.638688802719116 4.4274444580078125 3.9734323024749756 5.08011531829834
        6.401301383972168 8.823216438293457 12.008306503295898 15.110482215881348 13.988042831420898 12.886906623840332
        11.188228607177734 11.905112266540527 10.793622016906738 10.01414966583252 9.365985870361328 8.976235389709473
        8.991925239562988 8.824141502380371 9.882584571838379 12.310752868652344 15.36081600189209 16.008806228637695
        15.997047424316406 13.303196907043457 11.008871078491211 9.13367748260498 9.43712043762207 9.804596900939941
        9.070998191833496 8.273185729980469 7.511775970458984 7.916780948638916 9.098424911499023 9.404688835144043
        9.022844314575195 9.2523832321167 9.84957504272461 11.115278244018555 11.139165878295898 8.949492454528809
        5.530345916748047 7.045903205871582 8.072312355041504 9.477238655090332 12.594161033630371 11.783907890319824
        6.874881267547607 1.3046954870224 1.8849387168884277 1.6671018600463867 3.5733284950256348 4.511695861816406
        6.210866451263428 6.2835373878479 7.352662563323975 13.872464179992676 15.902107238769531 17.292173385620117
        17.447784423828125 15.653046607971191 13.255541801452637 13.758174896240234 13.195281028747559 10.905560493469238
        10.43718147277832 11.283692359924316 11.897103309631348 10.60981559753418 11.499231338500977 11.972611427307129
        13.330658912658691 13.529781341552734 11.143965721130371 10.936573028564453 10.055046081542969 10.271644592285156
        9.052955627441406 8.613719940185547 8.225638389587402 7.816357135772705 7.501668453216553 7.4643354415893555
        6.666609764099121 6.630388259887695 4.665693759918213 3.8591175079345703 3.5439038276672363 4.937529563903809
        7.658436298370361 10.527217864990234 13.393597602844238 14.174962997436523 14.56904411315918 12.844319343566895
        10.714031219482422 8.860538482666016 6.101786136627197 3.5866074562072754 3.8410398960113525 5.1401214599609375
        7.006482124328613 8.280608177185059 11.280411720275879 12.119391441345215 15.453473091125488 13.883150100708008
        12.679702758789062 10.014286041259766 8.437932968139648 7.417675495147705 9.636552810668945 8.52199649810791
        10.579201698303223 12.91555118560791 15.304996490478516 14.642576217651367 12.634384155273438 12.746174812316895
        13.991146087646484 15.578103065490723 13.29018783569336 9.796222686767578 9.205687522888184 10.005291938781738
        11.868751525878906 10.90721321105957 10.627500534057617 8.783557891845703 9.803146362304688 9.862067222595215
        10.023731231689453 9.05856990814209 10.242632865905762 11.398808479309082 11.970754623413086 12.376312255859375
        11.205198287963867 11.793965339660645 9.89763069152832 8.668961524963379 7.95838737487793 7.842217445373535
        6.66351318359375 6.652344703674316 6.162996292114258 6.497687816619873 5.818432807922363 6.654526233673096
        7.543034076690674 8.957502365112305 9.335643768310547 9.861181259155273 9.648748397827148 8.967240333557129
        6.859595775604248 5.266782760620117 4.52106237411499 3.7427687644958496 3.6281096935272217 3.7937097549438477
        3.4710471630096436 3.9987573623657227 3.964909553527832 4.875960826873779 5.826044082641602 7.873958587646484
        9.28571605682373 11.893505096435547 12.032917976379395 12.500484466552734 12.161614418029785 11.48659610748291
        8.931978225708008 7.889188289642334 7.23223876953125 7.542181968688965 6.860063076019287 7.074160575866699
        8.572052955627441 11.176072120666504 15.49618148803711 16.15199851989746 17.134450912475586 15.061800003051758
        12.038951873779297 9.482832908630371 8.88501262664795 8.31446647644043 7.8036346435546875 7.196011543273926
        6.58251428604126 5.557708263397217 6.397776126861572 6.413196086883545 7.450336456298828 8.329495429992676
        8.893486022949219 10.301432609558105 11.289433479309082 9.196432113647461 5.643479347229004 4.158455848693848
        3.4019505977630615 4.0006585121154785 5.308416366577148 4.519468307495117 1.0614651441574097 3.856462240219116
        2.536167860031128 1.0139881372451782 2.2815287113189697 4.496326446533203 5.437465667724609 4.407690525054932
        7.555124282836914 12.20945930480957 12.85260009765625 15.136999130249023 16.735198974609375 14.284292221069336
        10.885310173034668 10.496027946472168 10.660999298095703 11.750399589538574 12.630809783935547 12.538681983947754
        11.436943054199219 9.840595245361328 9.83742904663086 10.246034622192383 12.518951416015625 12.902634620666504
        11.585451126098633 11.96841812133789 12.589101791381836 12.924641609191895 10.904767990112305 10.153199195861816
        9.433987617492676 9.157990455627441 8.131690979003906 7.466894626617432 6.901206970214844 7.456403732299805
        6.1839375495910645 5.854891300201416 4.851570129394531 5.217504978179932 6.648436069488525 9.202178001403809
        12.753701210021973 13.4536714553833 14.868770599365234 13.285086631774902 11.06204891204834 7.555335521697998
        4.81956672668457 3.3012495040893555 2.851365566253662 3.724064826965332 4.343648433685303 4.822357654571533
        8.149256706237793 10.660782814025879 14.187021255493164 13.956494331359863 12.184797286987305 9.325706481933594
        8.010476112365723 7.360514163970947 10.022582054138184 9.736186981201172 9.466649055480957 11.821115493774414
        14.965030670166016 15.594770431518555 15.824234008789062 17.11302375793457 18.3277530670166 17.684707641601562
        14.179758071899414 10.86779499053955 9.208910942077637 10.299100875854492 11.586512565612793 10.96269416809082
        10.488395690917969 9.24174976348877 9.754961013793945 9.462386131286621 10.158073425292969 12.766037940979004
        13.556639671325684 14.485342979431152 15.547595024108887 15.760522842407227 13.988556861877441 14.281792640686035
        12.764214515686035 11.698782920837402 9.355637550354004 8.742125511169434 7.142682075500488 6.803061485290527
        6.368839263916016 5.671949863433838 5.851374626159668 6.350318908691406 7.022150039672852 7.724009037017822
        7.678691387176514 8.110761642456055 7.464003562927246 8.120421409606934 8.194828987121582 8.1043701171875
        7.355630397796631 5.5004682540893555 4.2425971031188965 3.6000781059265137 4.284788608551025 4.409902572631836
        4.542082786560059 5.179088115692139 6.087778568267822 7.3909735679626465 8.209314346313477 9.860304832458496
        11.217331886291504 13.441404342651367 13.941516876220703 12.351064682006836 7.929388523101807 7.132355213165283
        6.7148566246032715 6.438966751098633 5.206031799316406 5.056498050689697 6.542297840118408 9.364340782165527
        13.180243492126465 16.115673065185547 16.88127899169922 15.78950309753418 13.40512752532959 11.050182342529297
        10.714893341064453 9.492498397827148 8.846990585327148 7.105064868927002 5.249344825744629 4.217565059661865
        3.7814536094665527 3.4970502853393555 5.378457069396973 7.935629844665527 9.42378044128418 9.898865699768066
        10.338284492492676 8.731328010559082 5.832005023956299 2.9561331272125244 2.419590473175049 2.01162052154541
        3.2912216186523438 2.33150053024292 3.015775203704834 4.255488872528076 2.08463454246521 1.3871378898620605
        1.9875119924545288 3.0655157566070557 4.2120537757873535 5.185978412628174 8.41892147064209 11.580244064331055
        12.765668869018555 13.992086410522461 14.553475379943848 12.191967964172363 9.610169410705566 8.096417427062988
        7.837172508239746 11.668341636657715 13.450052261352539 12.511148452758789 11.16906452178955 9.30977725982666
        9.599669456481934 10.432023048400879 12.048585891723633 11.945170402526855 10.890362739562988 12.427877426147461
        12.997309684753418 13.283974647521973 12.148319244384766 11.963703155517578 11.279406547546387 10.557875633239746
        10.146324157714844 9.623738288879395 8.422226905822754 8.064959526062012 6.8232035636901855 6.6378021240234375
        5.477103233337402 5.027360916137695 4.189791202545166 7.137416839599609 10.715011596679688 12.675411224365234
        13.780963897705078 12.796014785766602 10.989949226379395 7.4320831298828125 4.923079490661621 3.788557529449463
        1.2027467489242554 1.554946780204773 1.5087529420852661 2.663217782974243 4.515568733215332 8.421051025390625
        11.26379680633545 11.802716255187988 11.322632789611816 10.255248069763184 9.44638442993164 8.493294715881348
        11.49957275390625 11.780961036682129 10.310364723205566 11.421920776367188 13.714029312133789 15.255824089050293
        16.084482192993164 18.498729705810547 19.31351089477539 19.282346725463867 15.420523643493652 12.735095024108887
        11.12372875213623 11.252492904663086 11.869028091430664 10.570890426635742 9.965516090393066 9.78402328491211
        10.233258247375488 10.718422889709473 12.849686622619629 15.446467399597168 16.409996032714844 17.305946350097656
        18.11556625366211 18.646709442138672 16.421630859375 15.240276336669922 13.45755672454834 13.428997993469238
        11.325520515441895 10.086631774902344 8.237382888793945 7.399346828460693 7.318102836608887 6.189640522003174
        6.435961723327637 6.576192855834961 6.91353178024292 7.251701354980469 7.161042213439941 8.47336483001709
        9.448379516601562 10.76598834991455 11.962165832519531 11.290304183959961 10.492525100708008 8.180886268615723
        6.429532527923584 5.184022903442383 4.771031379699707 4.968290328979492 5.528656482696533 6.098799705505371
        6.280673503875732 6.913259029388428 7.651129722595215 9.51213264465332 11.384824752807617 13.767390251159668
        14.911345481872559 12.825234413146973 9.572139739990234 7.975803852081299 7.728437423706055 5.873221397399902
        4.884757995605469 4.316315650939941 4.984332084655762 6.879147529602051 10.261271476745605 15.699705123901367
        17.87724494934082 17.29627227783203 14.54889965057373 12.693215370178223 11.682343482971191 10.422113418579102
        9.423138618469238 7.586855411529541 5.564828395843506 4.510893821716309 3.4288222789764404 3.466360569000244
        4.4684038162231445 6.767084121704102 8.41855239868164 8.588619232177734 9.060115814208984 7.831376552581787
        5.450588703155518 2.91894268989563 0.9320899844169617 2.3568661212921143 2.618643045425415 2.7883410453796387
        2.915876626968384 1.5361205339431763 0.8136903643608093 0.8913458585739136 1.6922136545181274 2.514519214630127
        4.953130722045898 9.015332221984863 12.338473320007324 10.780874252319336 10.476112365722656 11.715972900390625
        12.02623462677002 10.917057037353516 9.67190933227539 8.308465957641602 6.989695072174072 9.624642372131348
        12.80384349822998 13.716615676879883 13.223705291748047 11.473865509033203 10.868343353271484 11.441718101501465
        12.052902221679688 12.036893844604492 11.436027526855469 12.592302322387695 13.639765739440918 15.295391082763672
        14.743278503417969 13.764257431030273 11.039895057678223 10.112576484680176 10.352316856384277 11.220940589904785
        10.649937629699707 9.63093090057373 8.280144691467285 7.240100860595703 6.227123260498047 6.056431293487549
        5.252135276794434 6.898536682128906 9.171388626098633 11.449874877929688 13.24781608581543 13.066572189331055
        10.269560813903809 6.834564685821533 4.5821146965026855 3.4746413230895996 1.5088088512420654 1.2619907855987549
        0.5416163802146912 2.4226760864257812 4.364561080932617 6.977316379547119 7.971582889556885 8.905452728271484
        10.412137031555176 12.057998657226562 12.186797142028809 10.521899223327637 13.25084114074707 12.776789665222168
        9.773077964782715 8.938992500305176 9.733710289001465 12.474072456359863 14.50525188446045 14.942183494567871
        15.596758842468262 17.341632843017578 16.410282135009766 13.582755088806152 12.217977523803711 11.309070587158203
        11.395864486694336 9.894644737243652 9.860808372497559 10.145378112792969 10.023951530456543 10.919020652770996
        13.184028625488281 16.685487747192383 18.10091209411621 18.183618545532227 18.910917282104492 20.606185913085938
        19.554296493530273 16.53183364868164 13.629435539245605 13.29190444946289 12.78962230682373 11.168564796447754
        10.224106788635254 8.851033210754395 8.528633117675781 7.99241304397583 8.06372356414795 6.982758522033691
        6.471493244171143 7.6569504737854 8.423450469970703 9.80988883972168 10.833051681518555 13.144964218139648
        14.494400024414062 14.07828426361084 13.492818832397461 11.873379707336426 10.213398933410645 8.471343994140625
        6.8750176429748535 5.9328532218933105 5.668622970581055 5.847684860229492 6.351539134979248 5.836665153503418
        7.398805618286133 8.672733306884766 10.898040771484375 12.198105812072754 15.077799797058105 13.85879898071289
        11.642706871032715 8.798907279968262 8.692654609680176 6.721153736114502 5.966591835021973 4.13474702835083
        3.5556812286376953 4.365586757659912 6.29701042175293 12.978418350219727 16.088747024536133 17.943254470825195
        14.83991813659668 12.904485702514648 10.740850448608398 9.206770896911621 8.102108001708984 6.671270370483398
        5.552833080291748 6.116365432739258 5.095559120178223 4.644739151000977 3.5576694011688232 3.6032066345214844
        4.85615873336792 5.180154323577881 6.245476245880127 5.6764397621154785 5.26753044128418 3.2201390266418457
        2.727247953414917 4.2083282470703125 5.297231674194336 4.262423038482666 2.8588664531707764 1.1358981132507324
        1.6623603105545044 2.3932979106903076 3.3230390548706055 3.5429091453552246 5.41159725189209 8.304744720458984
        10.990131378173828 9.31937026977539 7.484435081481934 8.547566413879395 8.663470268249512 7.360639572143555
        7.5939555168151855 6.510225772857666 4.817838191986084 5.875432014465332 11.058979988098145 13.860625267028809
        14.71739673614502 12.409102439880371 11.354066848754883 11.584731101989746 13.086319923400879 13.670433044433594
        12.79067325592041 12.928277015686035 13.682809829711914 16.300830841064453 15.890697479248047 14.47979736328125
        11.872876167297363 10.323904037475586 10.898245811462402 12.286787033081055 12.004225730895996 9.62592887878418
        7.799748420715332 7.327188968658447 6.942037105560303 6.968533992767334 5.821858882904053 6.618793487548828
        8.443511009216309 11.131608963012695 12.740730285644531 12.766377449035645 10.781928062438965 8.489357948303223
        7.063121795654297 5.817916393280029 4.827486038208008 2.965263605117798 0.904257595539093 1.9290509223937988
        3.9541215896606445 3.688706874847412 3.3680419921875 5.969597339630127 9.983023643493652 12.977944374084473
        13.32253646850586 11.64046859741211 14.719038009643555 13.762784957885742 10.32558822631836 8.353776931762695
        9.956842422485352 10.79372787475586 10.835485458374023 9.370539665222168 9.608223915100098 13.518239974975586
        14.733810424804688 13.779997825622559 12.201834678649902 10.722620010375977 11.21097469329834 9.835354804992676
        9.088078498840332 7.851953983306885 8.52033519744873 10.59725284576416 12.010971069335938 15.727151870727539
        18.447410583496094 18.284683227539062 19.982715606689453 21.55459976196289 21.06556510925293 17.696136474609375
        14.24561595916748 13.951212882995605 13.697900772094727 13.145951271057129 12.667423248291016 11.47889518737793
        10.396781921386719 10.018487930297852 9.342445373535156 8.390379905700684 7.690297603607178 8.61160945892334
        9.925622940063477 11.361836433410645 12.444169044494629 13.997661590576172 14.727145195007324 14.698051452636719
        15.393874168395996 15.251401901245117 12.8203125 9.819290161132812 7.661482334136963 7.3379693031311035
        6.468675136566162 6.581315517425537 6.285430431365967 5.896462917327881 6.911585807800293 8.175446510314941
        10.023213386535645 11.857391357421875 14.111668586730957 14.303629875183105 13.382495880126953 10.514769554138184
        9.981356620788574 7.8367815017700195 6.997738838195801 4.98578405380249 4.798666000366211 4.64906644821167
        4.9671244621276855 9.076687812805176 12.332013130187988 13.949917793273926 13.212779998779297 11.074520111083984
        8.107710838317871 6.443216323852539 6.559919834136963 6.777132511138916 6.8809733390808105 8.029850959777832
        8.089033126831055 7.83510684967041 6.152252197265625 3.873507022857666 4.373432636260986 3.6291754245758057
        4.1864399909973145 4.358087539672852 4.786417007446289 4.357252597808838 3.949090003967285 4.470580577850342
        4.079925060272217 3.0234158039093018 2.34662127494812 2.291405439376831 2.470747470855713 4.9827775955200195
        7.309249401092529 7.591986656188965 7.6838226318359375 8.7839994430542 8.33038330078125 5.845114707946777
        4.332126140594482 5.720029354095459 6.170923233032227 5.4031548500061035 4.632964611053467 3.579944372177124
        3.030125617980957 4.224926471710205 9.878340721130371 13.365760803222656 14.759917259216309 13.4288330078125
        12.816497802734375 12.41997241973877 12.929502487182617 13.429910659790039 12.33997631072998 11.459504127502441
        12.352874755859375 14.86277961730957 14.60190200805664 12.934822082519531 12.362753868103027 12.322808265686035
        12.263067245483398 12.438009262084961 12.113709449768066 9.790353775024414 8.102509498596191 7.7584052085876465
        8.22257137298584 7.588364601135254 6.256901264190674 5.947540283203125 8.782334327697754 10.795866966247559
        12.415249824523926 12.37183952331543 11.210285186767578 8.940074920654297 7.485403060913086 6.4519782066345215
        5.811304092407227 3.999445676803589 2.6999919414520264 2.512244701385498 3.315324068069458 2.034397840499878
        1.4472267627716064 4.386804580688477 9.202601432800293 12.562987327575684 12.471892356872559 11.938382148742676
        11.437148094177246 12.465204238891602 9.791791915893555 9.791171073913574 10.07287311553955 9.690454483032227
        7.734927177429199 5.267586708068848 5.507302761077881 8.593975067138672 10.906416893005371 11.422598838806152
        10.817205429077148 11.400514602661133 11.597526550292969 12.026793479919434 10.005353927612305 8.081775665283203
        8.097718238830566 10.211913108825684 9.815818786621094 10.89646053314209 14.203436851501465 15.744051933288574
        17.803556442260742 21.762767791748047 21.635677337646484 20.75046730041504 18.892690658569336 18.849327087402344
        17.09844970703125 15.620742797851562 15.214743614196777 14.541274070739746 13.462614059448242 13.074671745300293
        11.19216537475586 9.795303344726562 8.246194839477539 9.526436805725098 10.438777923583984 11.503145217895508
        11.33060359954834 13.031725883483887 14.34716510772705 15.847991943359375 15.942289352416992 16.0032901763916
        13.883821487426758 11.73233413696289 9.8314847946167 9.512591361999512 8.423357963562012 7.336915969848633
        6.959897518157959 6.568594455718994 7.5090556144714355 7.79948616027832 8.982329368591309 11.679885864257812
        14.017155647277832 14.817623138427734 14.68621826171875 14.153277397155762 12.019979476928711 9.90807056427002
        8.280860900878906 7.168166160583496 7.196747303009033 7.020797252655029 5.8317742347717285 6.3975396156311035
        8.518498420715332 9.037238121032715 9.607990264892578 9.006695747375488 7.155054569244385 5.142829895019531
        5.2210564613342285 6.323662281036377 8.376458168029785 10.032062530517578 10.020915985107422 9.639511108398438
        7.364037036895752 5.073788642883301 3.756028890609741 3.1976912021636963 3.686997890472412 3.1272079944610596
        3.8392527103424072 5.328636169433594 6.708049774169922 7.124623775482178 5.8925580978393555 4.909780979156494
        3.350022315979004 4.124678611755371 3.8094122409820557 6.664622783660889 9.195432662963867 10.507610321044922
        10.107797622680664 10.488825798034668 9.13494873046875 6.167590141296387 4.4723005294799805 5.2627668380737305
        5.187227725982666 4.152309417724609 2.295041561126709 2.624865770339966 2.9142682552337646 4.358473777770996
        7.316294193267822 10.880096435546875 12.874146461486816 14.415849685668945 15.290685653686523 13.158476829528809
        12.596035957336426 12.297381401062012 10.595931053161621 9.237192153930664 9.894904136657715 11.37646198272705
        11.50763988494873 11.279349327087402 12.258959770202637 12.338123321533203 14.996703147888184 14.675987243652344
        14.28152847290039 10.695402145385742 9.016136169433594 8.159622192382812 8.275716781616211 7.479659080505371
        6.158593654632568 6.988097190856934 9.44420051574707 10.687129020690918 12.032073020935059 12.201458930969238
        11.901885032653809 10.431386947631836 9.290423393249512 7.61848258972168 5.488760471343994 3.572871685028076
        2.367309093475342 1.9169682264328003 2.4921658039093018 3.007216691970825 3.155749797821045 5.520540237426758
        7.90810489654541 9.964126586914062 9.695128440856934 9.888715744018555 9.538141250610352 11.48744010925293
        9.831192016601562 11.305721282958984 10.639348030090332 8.84519100189209 6.26606559753418 4.440454483032227
        5.64711856842041 7.868743896484375 9.044869422912598 10.129980087280273 9.481850624084473 11.777580261230469
        13.600313186645508 15.031231880187988 13.10264778137207 9.632681846618652 8.971972465515137 10.639734268188477
        9.036291122436523 6.599869728088379 7.739147663116455 11.909521102905273 16.235607147216797 20.10478401184082
        21.382692337036133 21.570764541625977 20.802085876464844 21.48744773864746 19.309587478637695 18.215770721435547
        17.12278938293457 16.5296688079834 15.294963836669922 14.283418655395508 12.290300369262695 10.798322677612305
        10.349623680114746 9.966428756713867 9.661415100097656 10.795429229736328 10.986395835876465 13.026921272277832
        14.577234268188477 16.520631790161133 17.365503311157227 16.516176223754883 14.995485305786133 13.926187515258789
        12.36408519744873 11.029439926147461 9.81625747680664 8.78098201751709 7.608232021331787 7.304530143737793
        7.871627330780029 8.51526165008545 9.169751167297363 11.51145076751709 13.132498741149902 14.692495346069336
        14.973645210266113 15.9824857711792 13.871747970581055 11.273908615112305 9.448795318603516 9.469931602478027
        9.748233795166016 8.57766342163086 7.088454723358154 6.853611946105957 7.176360607147217 7.014629364013672
        8.117469787597656 7.366596698760986 6.386021614074707 5.216915607452393 5.746050834655762 7.229430198669434
        10.723402976989746 12.065133094787598 11.774693489074707 10.612613677978516 9.002323150634766 6.758859634399414
        4.931706428527832 4.223917484283447 4.3578643798828125 4.307591915130615 4.9331769943237305 6.452681541442871
        7.678931713104248 7.097230434417725 5.906544208526611 5.448031425476074 4.702184200286865 5.573983192443848
        5.4861674308776855 7.685376167297363 9.0438814163208 12.16429615020752 12.40712833404541 13.346672058105469
        12.120997428894043 8.796570777893066 6.084583282470703 6.485265731811523 6.176377773284912 4.707562446594238
        2.6478512287139893 2.4391274452209473 2.3827085494995117 2.769554853439331 3.948460102081299 5.613603591918945
        8.989936828613281 11.84142017364502 13.78965950012207 12.596885681152344 11.58155632019043 11.384056091308594
        8.85452938079834 7.2815704345703125 6.180907249450684 7.156414031982422 8.409289360046387 8.810612678527832
        9.910974502563477 11.801087379455566 15.716904640197754 16.76024055480957 15.992539405822754 13.787418365478516
        11.869836807250977 10.45960807800293 8.1477689743042 7.5090012550354 6.3713812828063965 7.288420677185059
        9.312657356262207 11.299442291259766 12.209057807922363 11.582686424255371 10.916361808776855 10.414575576782227
        9.72392463684082 8.112286567687988 5.673302173614502 4.418107032775879 3.400437116622925 3.072695732116699
        3.504763126373291 3.7797861099243164 4.079444408416748 5.565306186676025 7.647751331329346 7.968599796295166
        7.69882869720459 8.118542671203613 10.11235523223877 10.8436861038208 10.116077423095703 10.377263069152832
        9.080397605895996 7.905320644378662 6.042428970336914 6.271655082702637 7.525861740112305 9.556267738342285
        9.28228759765625 9.944729804992676 11.191690444946289 12.774951934814453 15.34436321258545 15.4764404296875
        13.87269115447998 11.079620361328125 9.7431058883667 10.213415145874023 8.984829902648926 7.7148942947387695
        6.484198093414307 10.044276237487793 14.394021987915039 17.495332717895508 18.373329162597656 19.874126434326172
        20.636625289916992 22.268945693969727 21.4599552154541 20.00713539123535 18.767719268798828 18.13880157470703
        17.668502807617188 16.5997257232666 14.44932746887207 12.712235450744629 12.008293151855469 11.33818531036377
        10.617019653320312 10.77652359008789 10.633859634399414 11.112415313720703 13.449817657470703 15.609354972839355
        16.66819190979004 16.150432586669922 16.298940658569336 16.917877197265625 15.049023628234863 12.448674201965332
        10.891389846801758 9.696946144104004 8.240017890930176 7.988844394683838 8.968294143676758 9.184356689453125
        9.178625106811523 10.134841918945312 11.624246597290039 12.999458312988281 14.42902660369873 15.046683311462402
        14.167779922485352 12.285233497619629 11.067862510681152 10.644025802612305 9.745439529418945 8.35811710357666
        7.593108654022217 8.320030212402344 8.653939247131348 8.859881401062012 8.747102737426758 8.712250709533691
        8.214387893676758 7.557219505310059 6.171436309814453 7.40696907043457 10.845815658569336 11.57649040222168
        11.654829978942871 10.046966552734375 8.050238609313965 4.783034324645996 3.1589715480804443 2.6506412029266357
        3.567443609237671 4.335775852203369 6.590327739715576 8.87180233001709 10.427545547485352 9.278759002685547
        7.544950008392334 6.629734039306641 6.282322406768799 6.311230182647705 7.5658111572265625 9.13794994354248
        10.61837100982666 12.636272430419922 14.97889518737793 15.328667640686035 13.760265350341797 10.432110786437988
        9.082098007202148 9.134445190429688 8.181561470031738 6.3363447189331055 4.168218612670898 3.2985148429870605
        3.1001956462860107 2.999084711074829 3.2145445346832275 3.701035499572754 6.801009654998779 9.72416877746582
        11.09225082397461 10.610268592834473 11.037708282470703 11.254010200500488 8.686216354370117 7.05426549911499
        5.690313816070557 5.77764892578125 7.291446685791016 8.460610389709473 9.130416870117188 10.851930618286133
        14.588001251220703 16.488876342773438 16.76579475402832 14.870308876037598 13.32436752319336 12.222352027893066
        9.84992504119873 8.795538902282715 7.460244655609131 8.307085037231445 9.123957633972168 10.52230453491211
        13.140360832214355 13.109966278076172 12.45044231414795 11.241742134094238 10.783544540405273 9.013385772705078
        6.753355503082275 5.942986488342285 4.106386184692383 3.6019175052642822 3.986844062805176 4.844234943389893
        4.802379131317139 5.306678771972656 6.664910793304443 6.1971821784973145 5.000654220581055 5.810035705566406
        11.23609733581543 10.29110050201416 10.908448219299316 9.639894485473633 10.139772415161133 9.92396068572998
        7.785171031951904 7.976622581481934 9.460047721862793 11.189532279968262 10.29953670501709 10.529309272766113
        12.059126853942871 12.571638107299805 15.30961799621582 16.02911949157715 13.66546630859375 10.413161277770996
        8.71690559387207 9.833622932434082 10.271513938903809 10.415066719055176 8.311042785644531 8.850407600402832
        11.624533653259277 13.502549171447754 14.382692337036133 14.632452964782715 16.115093231201172 17.77625846862793
        20.130752563476562 20.73739242553711 19.415987014770508 17.947458267211914 17.182880401611328 18.110986709594727
        17.364578247070312 14.91666316986084 12.54886245727539 11.401678085327148 11.484228134155273 10.40601634979248
        8.759242057800293 8.281576156616211 10.31437873840332 12.0406494140625 12.709619522094727 13.459583282470703
        14.89316463470459 16.22041130065918 15.261409759521484 13.45888614654541 11.751605033874512 10.725120544433594
        9.826427459716797 10.144454002380371 10.497523307800293 10.137383460998535 9.42108154296875 8.455018997192383
        8.929696083068848 9.705864906311035 11.078075408935547 11.348224639892578 12.397385597229004 12.27930736541748
        11.245272636413574 10.192562103271484 8.726898193359375 7.247938632965088 7.001315116882324 7.949131488800049
        8.842203140258789 9.58608341217041 9.192570686340332 9.260354995727539 8.029348373413086 8.227404594421387
        7.008403778076172 8.487197875976562 11.026195526123047 10.341593742370605 10.690934181213379 8.568960189819336
        7.339554786682129 4.101648807525635 3.045902729034424 2.8471925258636475 3.84188175201416 5.430602073669434
        7.438993453979492 9.208100318908691 10.813035011291504 10.312681198120117 9.71593952178955 8.851391792297363
        8.228989601135254 8.144257545471191 9.6425199508667 11.175100326538086 13.039929389953613 13.52520751953125
        15.129714012145996 15.289474487304688 13.555413246154785 11.290599822998047 10.516265869140625 9.836766242980957
        8.548107147216797 7.468820571899414 6.465937614440918 5.700981140136719 4.660581588745117 3.5607504844665527
        4.302699089050293 5.71644401550293 7.825476169586182 8.304584503173828 8.916400909423828 9.917680740356445
        11.237335205078125 10.659876823425293 8.374133110046387 7.291623115539551 6.536092281341553 5.53004264831543
        5.461513042449951 7.000725746154785 8.440716743469238 10.721921920776367 12.779358863830566 15.71604061126709
        17.385759353637695 17.181289672851562 14.648374557495117 12.815778732299805 11.069103240966797 9.124693870544434
        8.09531307220459 7.90714168548584 8.705535888671875 9.63301944732666 12.270771980285645 13.23052978515625
        13.448003768920898 12.588091850280762 11.615372657775879 9.671601295471191 7.411995887756348 6.181768894195557
        4.396945953369141 3.3399150371551514 3.598409652709961 4.1605119705200195 4.747061729431152 5.539873123168945
        6.5108466148376465 6.095176696777344 4.748424530029297 4.747983932495117 9.396138191223145 9.319787979125977
        11.282147407531738 10.138525009155273 10.930514335632324 11.218317985534668 10.968506813049316 11.032207489013672
        11.258892059326172 11.50475025177002 9.986351013183594 10.292723655700684 12.289628028869629 12.14036750793457
        13.23752212524414 13.657600402832031 12.586346626281738 9.905641555786133 8.217885971069336 8.651298522949219
        8.4447660446167 10.548458099365234 10.097360610961914 8.829809188842773 7.367921352386475 5.856873035430908
        7.2468976974487305 8.212871551513672 11.41537857055664 14.693567276000977 16.78384780883789 18.192232131958008
        18.67573356628418 16.532777786254883 16.590900421142578 17.93507194519043 18.725278854370117 15.570176124572754
        12.806559562683105 12.207428932189941 11.734102249145508 9.735800743103027 6.769190788269043 5.928418159484863
        7.421876430511475 8.848408699035645 8.355719566345215 9.51468563079834 11.872005462646484 14.916205406188965
        14.994600296020508 15.065921783447266 13.568523406982422 12.770707130432129 12.160332679748535 12.295159339904785
        11.760676383972168 10.834368705749512 10.231708526611328 8.748269081115723 8.434828758239746 8.21843433380127
        8.767939567565918 8.3521089553833 9.605422019958496 10.60319709777832 10.77268123626709 10.15199089050293
        9.727625846862793 8.591046333312988 7.594415664672852 7.547691822052002 8.640071868896484 9.478317260742188
        9.10371208190918 9.332073211669922 8.943174362182617 9.068379402160645 7.034103870391846 7.474955081939697
        8.827788352966309 8.425312995910645 8.528325080871582 7.845015048980713 7.36940336227417 4.264040470123291
        3.642367124557495 3.8953328132629395 4.301135063171387 4.752915859222412 6.514248847961426 8.181818008422852
        10.938568115234375 10.823436737060547 10.28370475769043 9.143379211425781 9.078324317932129 9.99547290802002
        10.955799102783203 12.361613273620605 13.69820499420166 14.004923820495605 14.984536170959473 14.152957916259766
        13.420573234558105 10.853981971740723 10.903696060180664 10.260871887207031 9.668304443359375 9.155111312866211
        8.535602569580078 8.35898208618164 7.386813163757324 7.4940924644470215 7.198702335357666 9.316174507141113
        9.582528114318848 9.367387771606445 9.189704895019531 9.93748664855957 10.759149551391602 11.006203651428223
        9.555852890014648 8.146048545837402 7.36091947555542 6.027513027191162 4.536111831665039 5.8314924240112305
        7.270319938659668 8.83687973022461 9.625401496887207 11.983628273010254 14.954587936401367 15.836953163146973
        15.587372779846191 13.47670841217041 12.843154907226562 10.65327262878418 9.215160369873047 8.315507888793945
        8.267512321472168 8.648364067077637 10.973721504211426 13.092803001403809 13.4725923538208 12.424073219299316
        10.725653648376465 9.752585411071777 7.8807692527771 6.781445503234863 4.6580986976623535 3.710341453552246
        4.006309509277344 4.952879428863525 5.539237976074219 6.645997047424316 7.025206089019775 6.905903339385986
        5.637540817260742 4.7114644050598145 8.514776229858398 8.682613372802734 9.918452262878418 10.13302993774414
        11.304106712341309 13.26380443572998 15.262459754943848 15.500245094299316 14.837891578674316 12.587932586669922
        11.56553840637207 10.852654457092285 11.066038131713867 10.253820419311523 11.202085494995117 12.7022066116333
        12.538755416870117 11.42553424835205 10.63666820526123 10.048672676086426 8.685410499572754 8.743826866149902
        8.540221214294434 8.305033683776855 4.080327987670898 1.089677095413208 0.854512095451355 2.8903517723083496
        7.155867576599121 10.292141914367676 12.8762845993042 12.416949272155762 15.042551040649414 15.950897216796875
        15.958934783935547 16.342533111572266 16.152498245239258 14.376754760742188 12.784443855285645 12.6497163772583
        11.23077392578125 8.871133804321289 6.129347324371338 5.33785343170166 5.54715633392334 6.627609729766846
        5.377394199371338 6.524399280548096 9.718788146972656 12.686997413635254 15.099710464477539 15.503342628479004
        15.627144813537598 14.967426300048828 14.792476654052734 14.154643058776855 12.230953216552734 11.427907943725586
        11.195862770080566 10.63952922821045 8.900018692016602 7.202812194824219 6.025275230407715 5.379807472229004
        6.525221824645996 7.927928924560547 8.148883819580078 8.377161979675293 9.601862907409668 8.764290809631348
        8.230480194091797 7.15590238571167 7.648585319519043 8.089747428894043 8.597505569458008 8.643458366394043
        7.728753089904785 8.053512573242188 7.782593250274658 7.175580978393555 7.628767967224121 7.199169635772705
        7.619492530822754 7.655588626861572 8.257116317749023 6.15228796005249 5.152120590209961 5.097735404968262
        5.3923516273498535 5.48032808303833 6.421370506286621 7.646915912628174 10.2199068069458 11.001904487609863
        10.102479934692383 8.414694786071777 8.19107437133789 9.515411376953125 10.978629112243652 12.319299697875977
        13.7799072265625 13.660265922546387 14.588875770568848 14.019150733947754 13.87607192993164 12.31207275390625
        11.166272163391113 9.978818893432617 9.911871910095215 10.649434089660645 10.846414566040039 10.52363109588623
        9.784433364868164 10.272076606750488 10.023653030395508 10.853986740112305 9.560291290283203 9.408498764038086
        9.334999084472656 10.085432052612305 11.601807594299316 11.904029846191406 10.839447021484375 9.322871208190918
        7.6834397315979 5.889254093170166 4.072476387023926 4.963738918304443 6.144622802734375 7.531188488006592
        7.268756866455078 7.475147724151611 10.07009506225586 13.189615249633789 15.03456974029541 15.11138916015625
        13.861205101013184 12.375869750976562 10.025821685791016 8.871236801147461 8.65644645690918 8.559062957763672
        8.630176544189453 10.458545684814453 11.313488006591797 11.513214111328125 10.377397537231445 10.075384140014648
        8.534476280212402 7.184458255767822 5.846831321716309 4.874761581420898 5.523656845092773 6.374330520629883
        6.978834629058838 7.313798427581787 7.101016998291016 7.162447452545166 6.7260918617248535 5.916417598724365
        9.58519172668457 9.574239730834961 9.576383590698242 9.617547988891602 10.793027877807617 12.831460952758789
        16.301633834838867 17.733325958251953 17.89786720275879 16.28472328186035 14.528467178344727 12.562331199645996
        11.694072723388672 10.249772071838379 11.020515441894531 11.510408401489258 13.586128234863281 12.955733299255371
        12.663430213928223 11.210797309875488 9.85787582397461 9.070808410644531 7.864389419555664 6.736593723297119
        3.7551262378692627 0.9082704186439514 0.9852501749992371 0.9771995544433594 3.762861490249634 7.880468845367432
        8.752366065979004 8.807316780090332 9.80513858795166 13.475485801696777 14.923294067382812 13.873788833618164
        13.752737998962402 12.244913101196289 11.666707038879395 10.256489753723145 9.406679153442383 9.090457916259766
        7.448431015014648 5.398373126983643 3.649606227874756 4.169169902801514 3.5378026962280273 4.169670581817627
        6.77838134765625 9.934258460998535 12.791471481323242 15.365100860595703 16.22833824157715 16.181163787841797
        16.12687873840332 15.639531135559082 13.9028902053833 12.50610065460205 12.571496963500977 11.365923881530762
        8.64916706085205 5.4915337562561035 3.0428006649017334 2.5441460609436035 3.7025139331817627 5.1934895515441895
        6.518803596496582 7.01804780960083 8.497697830200195 7.984984874725342 8.006991386413574 7.693367958068848
        8.037198066711426 7.5883402824401855 8.307345390319824 7.799221038818359 7.672590255737305 8.088894844055176
        8.303296089172363 7.57977294921875 7.084320068359375 7.624282360076904 7.739614486694336 7.422025203704834
        7.792070388793945 6.225585460662842 5.269006729125977 4.734930038452148 5.721871376037598 6.097738265991211
        7.281492710113525 7.968021869659424 9.400836944580078 9.606266021728516 10.603560447692871 9.027397155761719
        9.07062816619873 8.914414405822754 10.086569786071777 11.59531307220459 12.856450080871582 14.262643814086914
        14.390456199645996 13.985029220581055 14.14942741394043 13.018774032592773 12.882349014282227 10.98090934753418
        10.939492225646973 10.9413423538208 11.256787300109863 11.945064544677734 11.865365028381348 11.523961067199707
        10.434592247009277 10.056262969970703 9.78991413116455 9.85564136505127 9.960271835327148 10.470218658447266
        11.68311595916748 12.576577186584473 11.501338958740234 10.228438377380371 7.567559242248535 5.562878131866455
        4.461073875427246 5.63327693939209 6.111997127532959 5.088568687438965 4.079034805297852 4.706353187561035
        7.2816314697265625 10.452980041503906 12.907629013061523 14.816556930541992 14.756820678710938 13.543335914611816
        10.572916030883789 8.9251070022583 8.349329948425293 8.60368537902832 8.7643461227417 9.408863067626953
        9.69300651550293 9.757946014404297 9.775537490844727 9.616995811462402 9.029899597167969 8.091999053955078
        6.968285083770752 6.219230651855469 6.740838050842285 7.101170063018799 7.682148456573486 7.54767370223999
        7.56657600402832 7.3933892250061035 6.932862281799316 5.96039342880249 11.352583885192871 10.5137357711792
        9.897951126098633 9.199151039123535 10.496797561645508 12.730059623718262 15.827709197998047 18.274398803710938
        18.895612716674805 17.983652114868164 15.306387901306152 12.180499076843262 10.9141845703125 9.972538948059082
        11.096285820007324 12.31885814666748 15.469853401184082 16.09161376953125 14.58107852935791 13.107172966003418
        11.760286331176758 9.692136764526367 7.731801509857178 6.288810729980469 4.950002193450928 3.138260841369629
        2.3059942722320557 2.5251615047454834 4.88969087600708 7.392122268676758 6.884548664093018 6.398137092590332
        7.886806964874268 10.818095207214355 12.234627723693848 12.044075012207031 12.902643203735352 13.061483383178711
        11.210232734680176 8.341314315795898 6.715651512145996 8.5038423538208 7.9695048332214355 5.973783016204834
        2.8632113933563232 3.136561393737793 3.0029075145721436 3.5334537029266357 3.617123603820801 6.277885913848877
        8.48643684387207 12.64387035369873 14.733766555786133 15.397451400756836 16.77735137939453 17.52110481262207
        16.271223068237305 14.13003158569336 12.895009994506836 11.283736228942871 8.023550987243652 4.200831890106201
        2.2688183784484863 1.8720054626464844 3.8718442916870117 4.761829853057861 5.899710655212402 6.489282131195068
        7.4683308601379395 7.341344833374023 7.531678676605225 8.0386381149292 8.59779167175293 7.87020206451416
        7.541538238525391 6.330920219421387 6.308120250701904 7.3552141189575195 8.512139320373535 8.454837799072266
        8.148821830749512 8.072955131530762 7.546376705169678 6.162631034851074 6.146740913391113 5.584550857543945
        6.2235565185546875 6.207464694976807 7.452346324920654 8.006032943725586 8.084587097167969 8.32076644897461
        9.455480575561523 9.731978416442871 10.74604606628418 9.648110389709473 9.329302787780762 8.628687858581543
        8.917952537536621 10.400626182556152 11.025833129882812 11.762907981872559 11.9077730178833 13.034655570983887
        15.085734367370605 14.931297302246094 14.438384056091309 12.709783554077148 11.610557556152344 11.30062484741211
        11.286947250366211 12.489739418029785 13.364023208618164 12.852493286132812 12.055612564086914 11.48970890045166
        10.873380661010742 10.259709358215332 10.49511432647705 11.770259857177734 13.097566604614258 13.599303245544434
        13.54237174987793 12.189460754394531 9.971077919006348 6.876215934753418 5.672000885009766 6.7837324142456055
        7.276255130767822 5.452538967132568 4.050442218780518 5.195883750915527 8.951728820800781 11.487785339355469
        11.255033493041992 12.46580696105957 13.57246208190918 13.875975608825684 10.925260543823242 9.563403129577637
        9.456588745117188 9.725849151611328 9.407773971557617 8.70873737335205 9.174701690673828 9.788277626037598
        10.18262767791748 9.450384140014648 8.949058532714844 8.843155860900879 8.530538558959961 8.499499320983887
        8.612439155578613 8.739278793334961 8.931426048278809 8.834592819213867 8.518255233764648 7.597490310668945
        6.8877692222595215 6.572393417358398 12.285981178283691 10.7151517868042 9.929816246032715 9.270508766174316
        10.576942443847656 12.079617500305176 14.080610275268555 16.00670051574707 17.325178146362305 17.376300811767578
        14.155320167541504 10.746688842773438 9.964542388916016 9.747791290283203 10.84424877166748 12.688650131225586
        15.834333419799805 17.27481460571289 15.279397010803223 13.17017936706543 11.740961074829102 9.276196479797363
        7.427083969116211 6.230000019073486 6.609005928039551 6.27180814743042 5.417574405670166 6.4111714363098145
        6.567287445068359 8.446191787719727 7.014472484588623 7.037922382354736 8.03780746459961 9.082545280456543
        9.679966926574707 10.046504974365234 11.864700317382812 12.946125030517578 12.50367546081543 9.562430381774902
        7.519608020782471 7.797094345092773 7.089050769805908 5.336363792419434 3.421718120574951 4.2867021560668945
        3.490656614303589 3.0288450717926025 2.218658924102783 3.115658760070801 4.536619186401367 8.329434394836426
        8.21021556854248 9.43276596069336 12.73853874206543 16.961750030517578 16.447324752807617 14.149370193481445
        12.375760078430176 10.328843116760254 8.167032241821289 4.280179977416992 2.5274267196655273 3.0788066387176514
        5.9669952392578125 6.6305084228515625 6.7823357582092285 7.098903179168701 7.392205715179443 7.806766986846924
        7.556144714355469 7.184159755706787 7.699930191040039 8.112802505493164 7.6750311851501465 5.809115409851074
        5.36658239364624 6.221234321594238 7.6776251792907715 8.34652328491211 8.745022773742676 8.470718383789062
        7.027652740478516 4.5946855545043945 4.5993194580078125 5.760589599609375 7.222707748413086 7.775411605834961
        8.540871620178223 8.938197135925293 9.018754959106445 8.510218620300293 8.810871124267578 8.504673957824707
        9.859428405761719 10.153599739074707 9.739893913269043 9.230859756469727 8.526742935180664 9.073025703430176
        8.492914199829102 8.698936462402344 8.099723815917969 9.954204559326172 12.217887878417969 13.809965133666992
        14.09170913696289 13.059182167053223 11.044589042663574 10.198348999023438 9.91981315612793 11.470937728881836
        12.533624649047852 12.523706436157227 12.019645690917969 11.749676704406738 10.972249984741211 10.302093505859375
        10.780492782592773 12.257535934448242 12.864775657653809 13.187932968139648 14.187295913696289 12.821089744567871
        10.52840805053711 7.858205318450928 7.208906650543213 7.21604061126709 6.860705852508545 5.468745708465576
        4.178877353668213 5.040013790130615 7.664761066436768 9.524669647216797 9.420493125915527 10.484012603759766
        13.879805564880371 14.932296752929688 12.081788063049316 9.83968448638916 9.707056045532227 10.126836776733398
        9.810189247131348 8.648107528686523 8.276432037353516 8.323709487915039 8.933876037597656 8.686427116394043
        8.582571983337402 8.822762489318848 8.883721351623535 8.884255409240723 9.044548034667969 9.397838592529297
        9.635252952575684 9.615832328796387 9.165002822875977 8.12805461883545 7.369438648223877 7.2863945960998535
        11.356313705444336 10.364008903503418 10.118590354919434 9.812577247619629 11.178634643554688 12.631022453308105
        14.175325393676758 15.515772819519043 15.309715270996094 15.079350471496582 12.043612480163574 10.029576301574707
        10.075826644897461 9.934194564819336 11.610249519348145 12.641336441040039 14.522557258605957 15.435481071472168
        13.722742080688477 12.715713500976562 10.749939918518066 8.699148178100586 7.223720550537109 6.899847030639648
        8.679524421691895 8.546640396118164 8.309141159057617 8.96489143371582 10.232155799865723 10.989627838134766
        9.565194129943848 8.010009765625 7.954955577850342 8.068238258361816 8.433369636535645 8.762934684753418
        9.760589599609375 11.591461181640625 12.628686904907227 11.795145988464355 9.878334045410156 9.956940650939941
        9.358750343322754 7.653613090515137 6.199427127838135 6.544306755065918 5.296258449554443 3.9845635890960693
        2.903921127319336 3.6559300422668457 5.288517951965332 7.0835676193237305 6.306746959686279 6.547163486480713
        9.648176193237305 14.391433715820312 16.280305862426758 14.8123779296875 13.25813102722168 11.840383529663086
        10.105015754699707 6.906843662261963 5.0183515548706055 6.348684787750244 9.113870620727539 9.83174991607666
        8.46306037902832 8.651032447814941 8.686182022094727 9.028471946716309 8.078437805175781 7.3704094886779785
        7.876266002655029 9.28524112701416 8.493063926696777 6.4741010665893555 5.863780975341797 5.965952396392822
        6.544868469238281 6.644674777984619 7.388201713562012 6.552728176116943 5.595248222351074 3.329929828643799
        4.2960686683654785 6.314210414886475 9.162972450256348 10.052976608276367 9.680676460266113 8.76661491394043
        8.950404167175293 9.418217658996582 10.210186958312988 9.08938217163086 8.62277889251709 8.354079246520996
        7.899802207946777 7.80137825012207 6.958982944488525 6.595128536224365 5.042505741119385 5.034132480621338
        5.292932510375977 6.051827430725098 8.164054870605469 11.253778457641602 12.669343948364258 12.54106330871582
        10.413928031921387 10.09840202331543 9.03908634185791 9.046401977539062 9.119902610778809 9.151510238647461
        10.313634872436523 10.49926471710205 9.715091705322266 9.801176071166992 10.505109786987305 12.251165390014648
        11.472517967224121 11.621417999267578 12.977165222167969 11.615270614624023 10.870383262634277 9.109210968017578
        9.608945846557617 8.237358093261719 7.821681499481201 6.555850505828857 6.215365886688232 6.372468948364258
        6.458556652069092 6.5948638916015625 7.815333366394043 9.4758882522583 13.261067390441895 15.26566219329834
        13.2139253616333 11.654891967773438 10.71757984161377 10.026278495788574 9.195030212402344 8.127401351928711
        7.618373870849609 7.5419487953186035 8.040414810180664 8.132319450378418 8.117731094360352 8.121487617492676
        8.361629486083984 8.909001350402832 9.538662910461426 9.546621322631836 10.487595558166504 10.475984573364258
        10.264076232910156 8.81578254699707 7.832270622253418 7.566479682922363 9.9593505859375 10.120370864868164
        10.054125785827637 10.83306884765625 11.974906921386719 13.622040748596191 14.159714698791504 13.958864212036133
        14.298970222473145 13.33985424041748 12.671347618103027 10.576395034790039 10.46240234375 8.98160171508789
        10.224054336547852 11.997993469238281 13.34237003326416 13.208634376525879 13.529581069946289 13.098471641540527
        12.086265563964844 9.815007209777832 8.486014366149902 8.909500122070312 10.637654304504395 11.073990821838379
        10.226990699768066 10.349824905395508 12.230012893676758 13.084247589111328 12.655521392822266 10.141227722167969
        8.254914283752441 7.313049793243408 7.2329020500183105 8.821426391601562 9.180046081542969 11.831629753112793
        14.788612365722656 16.326065063476562 14.941571235656738 13.313100814819336 12.02193832397461 10.708348274230957
        10.399999618530273 10.145868301391602 7.654195785522461 4.805790901184082 3.371809720993042 4.790134429931641
        6.455319881439209 6.611177921295166 5.884904384613037 5.9908528327941895 8.591734886169434 11.302999496459961
        14.325760841369629 14.861233711242676 15.225980758666992 13.241917610168457 12.44995403289795 8.823352813720703
        7.415621280670166 8.101140022277832 10.175102233886719 11.667638778686523 10.187468528747559 9.131694793701172
        8.376543045043945 9.496031761169434 9.700936317443848 8.91000747680664 8.646761894226074 9.283306121826172
        8.24141788482666 7.178586959838867 6.723285675048828 6.6522674560546875 6.40422248840332 6.117021083831787
        6.742658615112305 6.2168145179748535 5.669820785522461 4.519848823547363 6.064321517944336 8.79329776763916
        10.99387264251709 11.31894588470459 10.591828346252441 9.407957077026367 10.029807090759277 10.525864601135254
        10.30600643157959 9.081673622131348 8.957550048828125 8.956912994384766 7.749019622802734 6.2564215660095215
        5.998155117034912 4.956338405609131 3.1578149795532227 2.467588424682617 3.6120598316192627 4.807843208312988
        5.380291938781738 9.96705150604248 10.882980346679688 10.846563339233398 9.77993106842041 9.888775825500488
        9.758806228637695 7.903085708618164 6.751608848571777 6.252954483032227 8.061490058898926 8.545105934143066
        7.696749210357666 9.793560028076172 11.631114959716797 12.911802291870117 12.24741268157959 11.662519454956055
        11.617951393127441 10.274497985839844 9.352154731750488 10.25581169128418 10.9202880859375 10.094779968261719
        8.976633071899414 8.118133544921875 7.366201877593994 6.8657636642456055 5.725555419921875 4.325164318084717
        4.3122968673706055 6.733364582061768 10.765055656433105 14.067344665527344 15.425573348999023 14.195357322692871
        12.90338134765625 11.202824592590332 10.181632995605469 8.59792709350586 7.720232009887695 7.318667888641357
        7.512288570404053 7.42843770980835 7.455794334411621 7.150334358215332 7.586023330688477 7.655299663543701
        8.739391326904297 9.223235130310059 10.27330493927002 10.5457124710083 10.317843437194824 9.189718246459961
        8.278207778930664 7.786528587341309 9.26823902130127 10.40832233428955 10.516151428222656 11.796069145202637
        12.45979118347168 14.42845630645752 15.847951889038086 15.132468223571777 14.015582084655762 12.73845386505127
        12.361695289611816 11.405714988708496 11.162290573120117 9.285426139831543 9.54769515991211 10.383736610412598
        11.916648864746094 11.283621788024902 12.3065185546875 13.301393508911133 13.034066200256348 12.098230361938477
        11.120210647583008 9.816205024719238 10.137374877929688 10.408156394958496 10.961825370788574 10.690533638000488
        11.822797775268555 12.677844047546387 12.38338851928711 11.000748634338379 9.60505485534668 7.8242506980896
        6.673517227172852 8.280353546142578 10.938103675842285 13.893816947937012 15.374261856079102 17.053457260131836
        16.235376358032227 16.308732986450195 14.293747901916504 13.099872589111328 12.178228378295898 11.948945999145508
        9.357095718383789 6.729640960693359 5.784595489501953 6.253540515899658 6.905341148376465 6.763301372528076
        7.091014862060547 6.91613245010376 8.464972496032715 9.427216529846191 13.767617225646973 14.731741905212402
        15.304804801940918 12.496758460998535 11.868805885314941 10.165700912475586 9.675726890563965 9.910063743591309
        10.821052551269531 10.637030601501465 10.249308586120605 9.191495895385742 8.894262313842773 9.961931228637695
        10.534085273742676 10.043600082397461 8.778755187988281 8.440235137939453 7.560086727142334 6.917574405670166
        6.904044151306152 6.784140586853027 6.568869590759277 6.292937755584717 5.87843656539917 5.614634037017822
        5.368380069732666 6.357111930847168 8.498455047607422 10.824649810791016 12.460309982299805 12.769808769226074
        11.707844734191895 11.858288764953613 11.550369262695312 12.188920021057129 11.28828239440918 10.379549980163574
        9.892383575439453 8.576383590698242 7.425760746002197 5.259326457977295 5.667572021484375 4.9431233406066895
        3.6825332641601562 3.0046279430389404 4.021032333374023 5.399387359619141 6.128503322601318 9.043315887451172
        10.479934692382812 10.607545852661133 10.102180480957031 10.16779613494873 9.994525909423828 8.563539505004883
        7.120903968811035 6.523190021514893 7.068513870239258 6.779008865356445 6.657196998596191 8.047772407531738
        9.823281288146973 11.68445873260498 13.441532135009766 14.88037395477295 13.072622299194336 10.725554466247559
        9.643208503723145 11.253057479858398 11.184558868408203 10.97258186340332 10.154248237609863 9.684918403625488
        8.859705924987793 7.641090393066406 5.331441402435303 3.8057281970977783 3.083775520324707 4.689537048339844
        7.775646209716797 10.883934020996094 13.98258113861084 14.712122917175293 13.819693565368652 12.189315795898438
        10.82833194732666 9.755280494689941 8.182929992675781 7.409661293029785 7.1674885749816895 7.353596210479736
        7.332408905029297 6.891981601715088 6.918411731719971 7.365890026092529 8.211848258972168 8.499226570129395
        9.635608673095703 9.620064735412598 10.395565032958984 9.240689277648926 8.95156192779541 8.78909683227539
        8.227643966674805 9.535636901855469 10.458324432373047 11.942475318908691 13.382244110107422 15.448080062866211
        16.690874099731445 15.943648338317871 14.473697662353516 12.437131881713867 10.906317710876465 10.679384231567383
        11.506897926330566 10.338530540466309 10.279265403747559 10.247252464294434 10.571955680847168 10.769939422607422
        13.334349632263184 16.27620506286621 16.029348373413086 14.651883125305176 13.861616134643555 11.250469207763672
        10.752262115478516 11.237495422363281 12.560785293579102 12.175044059753418 12.521072387695312 12.49278450012207
        11.79765796661377 10.94461441040039 10.800329208374023 9.515835762023926 9.075648307800293 9.579784393310547
        11.11661148071289 13.565035820007324 15.4338960647583 18.19331169128418 18.201372146606445 17.687992095947266
        15.681427955627441 13.49562931060791 13.826563835144043 13.451820373535156 11.738804817199707 10.132559776306152
        8.74682331085205 7.913846492767334 5.84502649307251 5.919026851654053 5.998630523681641 6.190158367156982
        7.022552013397217 7.672237873077393 11.233113288879395 12.839017868041992 13.27421760559082 11.633180618286133
        10.473862648010254 10.018414497375488 10.627372741699219 12.569533348083496 13.07613754272461 11.911870002746582
        10.206302642822266 9.115325927734375 8.73566722869873 9.495404243469238 10.311063766479492 9.076205253601074
        6.923096179962158 5.890108108520508 6.604045391082764 7.389455795288086 7.300434112548828 7.426940441131592
        7.242900371551514 7.399795055389404 6.486464023590088 6.427858829498291 6.249887466430664 7.27719259262085
        8.8175687789917 10.496408462524414 12.025979042053223 12.608712196350098 12.109952926635742 13.226805686950684
        12.59560775756836 12.392294883728027 11.060473442077637 10.74949836730957 10.58847713470459 9.567910194396973
        8.677444458007812 7.402382850646973 7.197392463684082 6.723865509033203 5.635476589202881 5.009436130523682
        5.279985427856445 6.415460109710693 7.242008686065674 8.209187507629395 9.628676414489746 10.572807312011719
        10.457773208618164 10.623830795288086 10.655319213867188 10.049540519714355 9.283748626708984 8.696715354919434
        8.56389331817627 6.68859338760376 6.981686115264893 7.452871322631836 9.07828426361084 11.215630531311035
        13.968079566955566 16.2757568359375 14.231912612915039 12.140597343444824 10.504590034484863 12.717595100402832
        11.676909446716309 11.863767623901367 10.61641788482666 10.753425598144531 9.309100151062012 7.600370407104492
        4.892443656921387 3.0164852142333984 2.3802597522735596 3.1272521018981934 3.6985421180725098 7.394863605499268
        12.058448791503906 14.665343284606934 14.86672592163086 13.678586959838867 12.970468521118164 11.66533088684082
        9.648187637329102 8.216520309448242 7.979055404663086 8.403151512145996 8.101997375488281 6.801201820373535
        6.241356372833252 6.73628044128418 7.772154331207275 8.055157661437988 8.705564498901367 8.586806297302246
        9.235488891601562 9.004773139953613 9.595174789428711 10.091694831848145 8.819740295410156 9.225595474243164
        10.128957748413086 11.253907203674316 13.302790641784668 15.749625205993652 16.549665451049805 15.974364280700684
        14.258281707763672 12.304130554199219 9.997627258300781 9.473756790161133 10.474928855895996 10.359441757202148
        11.035904884338379 10.389043807983398 11.236761093139648 11.819212913513184 15.361855506896973 18.474594116210938
        19.194429397583008 17.481182098388672 16.91431427001953 13.180778503417969 11.417001724243164 11.886879920959473
        13.849288940429688 13.289091110229492 12.315523147583008 11.752518653869629 11.268977165222168 9.952341079711914
        10.151571273803711 9.483392715454102 9.76292896270752 10.082085609436035 10.88305377960205 11.739590644836426
        13.000626564025879 14.648982048034668 17.280641555786133 17.630796432495117 17.723562240600586 14.27293872833252
        13.793176651000977 12.999263763427734 12.999165534973145 12.822359085083008 11.993484497070312 10.13354206085205
        8.385146141052246 7.368686199188232 6.96004581451416 5.595608234405518 6.134321212768555 6.881716251373291
        9.262734413146973 10.501669883728027 10.744561195373535 10.43271255493164 9.391056060791016 9.849198341369629
        10.962259292602539 13.629806518554688 13.540375709533691 12.976155281066895 11.483532905578613 10.518588066101074
        9.80650806427002 9.544777870178223 9.575713157653809 7.235825538635254 6.090270519256592 5.685982704162598
        6.532107353210449 7.403728008270264 6.94540548324585 7.214119911193848 6.782237529754639 7.16500186920166
        6.2865824699401855 6.180258274078369 6.113369464874268 6.771022796630859 7.7254719734191895 9.409883499145508
        10.547063827514648 11.496439933776855 11.935773849487305 13.326384544372559 13.082735061645508 11.979434967041016
        10.596739768981934 10.511200904846191 10.798246383666992 9.760551452636719 9.750410079956055 9.631674766540527
        9.529483795166016 8.103553771972656 7.104523181915283 7.084932327270508 7.245277404785156 6.6864914894104
        6.822477340698242 7.254074573516846 9.126969337463379 10.125396728515625 10.768320083618164 10.961150169372559
        11.013079643249512 10.33431339263916 9.91250228881836 9.422384262084961 8.628216743469238 7.031368732452393
        7.254175662994385 6.657944202423096 6.174134731292725 8.302103042602539 11.244355201721191 14.322308540344238
        12.834716796875 12.523962020874023 10.999126434326172 12.57738208770752 11.458587646484375 10.824362754821777
        9.131787300109863 9.231170654296875 8.447823524475098 7.159331321716309 4.361898422241211 2.8008310794830322
        1.6640199422836304 3.0018646717071533 2.3040735721588135 3.1051385402679443 8.20640754699707 10.762969017028809
        14.415955543518066 14.276979446411133 15.31355094909668 13.5353422164917 11.747902870178223 9.3787202835083
        8.05875301361084 7.3990325927734375 7.462775707244873 6.582918643951416 6.245339870452881 6.348949432373047
        7.162242412567139 7.4045796394348145 8.231496810913086 8.468985557556152 8.551743507385254 8.39123249053955
        8.999967575073242 10.048211097717285 11.36478328704834 10.98051643371582 10.557744026184082 10.301989555358887
        11.844773292541504 13.213508605957031 15.400073051452637 15.188454627990723 13.949338912963867 11.948689460754395
        10.244604110717773 10.001105308532715 10.31857967376709 9.804635047912598 9.358226776123047 8.382416725158691
        9.724886894226074 11.506610870361328 15.953953742980957 21.9051513671875 23.821443557739258 21.60865592956543
        19.172170639038086 15.10828685760498 12.919636726379395 12.960650444030762 14.87236213684082 15.06290054321289
        13.217147827148438 12.896020889282227 11.929407119750977 10.600666999816895 10.653228759765625 9.944167137145996
        10.459807395935059 9.53554916381836 9.500393867492676 9.745519638061523 11.606813430786133 13.251845359802246
        16.253087997436523 16.503416061401367 17.65648078918457 14.470479011535645 14.479484558105469 13.23134994506836
        13.226642608642578 13.582147598266602 13.06585693359375 12.931296348571777 11.252339363098145 9.772254943847656
        8.650369644165039 6.781049728393555 5.738924026489258 5.864771366119385 7.8704094886779785 8.686212539672852
        9.020822525024414 9.459136962890625 9.532958030700684 10.725287437438965 11.848276138305664 12.473023414611816
        13.114800453186035 13.09367847442627 12.142037391662598 10.993219375610352 9.583653450012207 9.552248001098633
        9.333012580871582 7.460273265838623 6.920082092285156 6.118675708770752 7.105220794677734 7.609370231628418
        7.588873863220215 7.721696853637695 7.521363258361816 7.491357326507568 6.340525150299072 6.138425827026367
        6.915495872497559 7.320001602172852 7.928009510040283 9.880183219909668 10.579829216003418 11.559880256652832
        11.526931762695312 12.119383811950684 11.07734489440918 10.538829803466797 10.833788871765137 10.176334381103516
        10.522587776184082 9.297136306762695 9.88383960723877 10.651717185974121 10.255033493041992 9.141127586364746
        7.990182876586914 7.827218055725098 8.05753231048584 8.529153823852539 8.914395332336426 8.584432601928711
        8.944920539855957 9.47763442993164 9.799507141113281 10.540825843811035 10.68546199798584 10.232623100280762
        9.87992000579834 9.626029968261719 8.956266403198242 7.37346887588501 7.550490379333496 7.381069660186768
        6.7819952964782715 7.58095645904541 9.589171409606934 11.902311325073242 11.128504753112793 11.301287651062012
        10.786088943481445 11.847756385803223 10.501363754272461 10.03555965423584 8.381876945495605 8.407251358032227
        7.207581043243408 6.040543079376221 3.759324550628662 2.4549450874328613 1.4820759296417236 2.3836669921875
        2.9000723361968994 3.9442219734191895 5.435338497161865 7.9139204025268555 12.024508476257324 15.390313148498535
        17.779062271118164 15.193181991577148 12.984007835388184 10.511547088623047 8.820093154907227 7.285193920135498
        7.060345649719238 6.828634262084961 6.890653610229492 6.925726890563965 7.371310710906982 8.160073280334473
        8.216808319091797 8.070314407348633 8.070981979370117 8.595085144042969 8.772285461425781 10.108393669128418
        13.588916778564453 12.712301254272461 10.826902389526367 10.48184585571289 10.606919288635254 12.111882209777832
        13.246319770812988 13.737874984741211 12.660170555114746 11.632601737976074 12.025309562683105 11.616909980773926
        10.46514892578125 9.754249572753906 8.18127727508545 7.4295759201049805 7.076743125915527 8.64138412475586
        12.741460800170898 18.819332122802734 24.764379501342773 23.027563095092773 21.95227813720703 19.592761993408203
        17.918073654174805 16.392654418945312 15.96572208404541 16.957483291625977 16.163583755493164 15.766362190246582
        14.1771879196167 12.300675392150879 11.346976280212402 10.129326820373535 10.173929214477539 8.990155220031738
        8.89370346069336 8.196268081665039 8.44384479522705 8.393179893493652 11.425049781799316 13.92215633392334
        17.135366439819336 16.476484298706055 14.749687194824219 13.735218048095703 12.929413795471191 13.869297981262207
        14.123522758483887 15.329832077026367 15.078463554382324 12.936105728149414 10.499227523803711 8.296674728393555
        7.5977301597595215 7.6987738609313965 9.688356399536133 10.110053062438965 9.22896671295166 8.701208114624023
        8.272558212280273 8.26040267944336 9.29803466796875 11.40792179107666 12.672520637512207 14.307145118713379
        11.995389938354492 10.757098197937012 9.367410659790039 9.76526165008545 9.485163688659668 8.627508163452148
        8.615216255187988 7.954033851623535 7.775069236755371 8.051642417907715 8.293898582458496 8.268625259399414
        7.903019428253174 7.398019313812256 6.349687099456787 5.790464878082275 7.0528669357299805 8.562335014343262
        9.544804573059082 11.138233184814453 10.588631629943848 11.007304191589355 10.814003944396973 10.908174514770508
        9.796194076538086 9.803214073181152 10.779895782470703 11.1151762008667 10.905235290527344 10.050020217895508
        9.820085525512695 10.434216499328613 10.554895401000977 9.662904739379883 9.717909812927246 9.195741653442383
        9.33019733428955 9.995762825012207 10.272978782653809 9.905753135681152 9.63657283782959 9.402610778808594
        9.2437162399292 9.540987014770508 9.89424991607666 9.834254264831543 9.491426467895508 9.54646110534668
        9.621477127075195 9.363144874572754 8.544515609741211 8.094110488891602 7.713288307189941 7.657814025878906
        8.559951782226562 9.85633373260498 10.31216049194336 10.235529899597168 10.422450065612793 9.968255996704102
        8.870536804199219 8.519824981689453 7.401297569274902 6.9759602546691895 5.851012229919434 5.3055949211120605
        3.7629873752593994 2.7957069873809814 1.8898690938949585 2.276305913925171 2.576007843017578 4.047684669494629
        4.6630072593688965 4.572947025299072 5.3424553871154785 9.512691497802734 14.952922821044922 16.261198043823242
        14.799084663391113 12.814881324768066 10.424217224121094 8.182085037231445 7.532327175140381 8.893301963806152
        9.281436920166016 7.790336608886719 7.526450157165527 7.689372539520264 7.536492347717285 7.478150844573975
        8.146966934204102 10.106480598449707 10.627461433410645 11.536283493041992 13.627856254577637 13.821857452392578
        11.931468963623047 11.672748565673828 11.640569686889648 12.827762603759766 14.017606735229492 13.460896492004395
        12.036287307739258 11.293024063110352 11.947052001953125 11.831513404846191 10.280641555786133 9.216134071350098
        7.983256816864014 6.461117267608643 4.42341947555542 5.011219024658203 9.15925121307373 16.124961853027344
        22.75204086303711 26.120901107788086 25.216672897338867 24.040367126464844 21.79859733581543 19.678810119628906
        17.89691925048828 17.996984481811523 18.140241622924805 17.894916534423828 15.235626220703125 13.01788330078125
        11.261750221252441 11.07414722442627 10.729144096374512 9.826841354370117 7.966062068939209 6.059146404266357
        5.521449565887451 5.682967662811279 6.630133628845215 10.305959701538086 13.122547149658203 15.924605369567871
        15.306595802307129 14.597789764404297 13.581127166748047 13.893052101135254 13.995782852172852 14.96402645111084
        15.496076583862305 14.800294876098633 12.433710098266602 11.128270149230957 9.954682350158691 10.01382064819336
        11.063767433166504 10.797471046447754 9.414932250976562 7.349349498748779 6.92322301864624 5.62412166595459
        4.821620464324951 7.56571102142334 10.862029075622559 14.021978378295898 11.662897109985352 10.12115478515625
        9.044882774353027 9.816309928894043 9.185776710510254 8.665061950683594 7.468884468078613 6.847087860107422
        7.085156440734863 8.010744094848633 9.43327522277832 9.476375579833984 8.642924308776855 7.548348903656006
        6.394475936889648 6.770521640777588 7.9901628494262695 9.36866569519043 10.329257011413574 10.891660690307617
        10.33155632019043 10.319870948791504 10.24532699584961 9.744053840637207 8.077483177185059 9.03991413116455
        10.06346321105957 10.819981575012207 10.372391700744629 9.608877182006836 9.583915710449219 9.821747779846191
        11.0455961227417 11.65170955657959 11.682628631591797 10.956888198852539 10.430030822753906 10.546016693115234
        10.396895408630371 9.716917991638184 9.557961463928223 9.059964179992676 8.697386741638184 8.529519081115723
        9.082232475280762 10.319672584533691 10.322522163391113 10.11523723602295 10.700103759765625 10.506514549255371
        9.793169975280762 8.797089576721191 9.372074127197266 7.458030700683594 7.146596908569336 7.496461868286133
        9.438126564025879 8.717714309692383 9.339436531066895 9.033260345458984 8.975899696350098 8.754097938537598
        7.6155924797058105 6.855417728424072 6.2620649337768555 5.671988010406494 4.317550182342529 2.9965648651123047
        1.9721084833145142 2.134408950805664 2.3191370964050293 3.5334956645965576 4.722823143005371 5.121241569519043
        3.339272975921631 5.665759563446045 11.198322296142578 14.078529357910156 14.821531295776367 14.31059455871582
        13.22787857055664 11.049295425415039 10.736160278320312 11.187533378601074 10.109074592590332 8.036890029907227
        7.716897964477539 7.917242527008057 6.857884883880615 6.739304065704346 8.115610122680664 10.06218433380127
        10.803186416625977 11.208148002624512 12.332837104797363 12.807364463806152 12.892753601074219 12.762092590332031
        12.483343124389648 12.584741592407227 12.98993968963623 12.505131721496582 10.99468994140625 10.610535621643066
        11.294585227966309 11.420309066772461 10.702024459838867 9.839526176452637 9.071951866149902 6.678356170654297
        5.391974449157715 5.872846603393555 8.996549606323242 12.749024391174316 18.174560546875 22.168861389160156
        22.812963485717773 22.648298263549805 24.06258201599121 23.83148193359375 20.575584411621094 18.43329620361328
        18.020626068115234 17.965490341186523 16.44895362854004 14.339165687561035 12.686327934265137 12.67293643951416
        11.981855392456055 10.28376579284668 7.659357070922852 6.403853893280029 5.337761878967285 5.86848783493042
        6.317783832550049 8.064209938049316 10.85063362121582 14.232417106628418 15.699010848999023 14.238275527954102
        12.832385063171387 12.417860984802246 13.387556076049805 14.5535888671875 15.963896751403809 15.354598045349121
        13.655302047729492 11.971312522888184 11.547914505004883 11.507369041442871 12.197325706481934 11.5700101852417
        9.84547233581543 6.500308036804199 5.9636664390563965 4.90841007232666 3.270435333251953 2.600677728652954
        7.208268165588379 12.460160255432129 11.851058006286621 11.298651695251465 10.093091011047363 9.964707374572754
        9.165270805358887 8.74336051940918 7.964557647705078 7.6920247077941895 7.833510875701904 8.211959838867188
        9.14254379272461 9.671319961547852 8.861760139465332 7.139621257781982 5.9291768074035645 7.622166633605957
        8.614625930786133 10.538366317749023 11.34401798248291 11.64894962310791 10.809320449829102 10.283671379089355
        10.156967163085938 9.465429306030273 8.539578437805176 9.06474781036377 9.905646324157715 10.396410942077637
        10.51197338104248 11.60049057006836 11.634782791137695 11.20705509185791 11.7899808883667 13.248218536376953
        13.184986114501953 11.942438125610352 10.95167064666748 10.277471542358398 9.703605651855469 9.49252700805664
        9.314532279968262 8.93553352355957 8.376203536987305 8.258460998535156 9.285941123962402 10.919891357421875
        11.50529670715332 10.689189910888672 11.391159057617188 10.790188789367676 10.236327171325684 9.336514472961426
        9.827077865600586 7.995334625244141 6.960185527801514 7.271757125854492 8.970054626464844 8.723526954650879
        9.379963874816895 9.517476081848145 9.216065406799316 9.332828521728516 8.242030143737793 7.560793876647949
        7.046573162078857 6.877079963684082 5.4323859214782715 3.955456256866455 3.543999433517456 3.700469493865967
        3.015206813812256 2.623380184173584 1.9108405113220215 3.496809959411621 3.460954427719116 4.092198848724365
        7.6165008544921875 10.787928581237793 14.134651184082031 14.930269241333008 14.355744361877441 12.802824974060059
        12.308553695678711 11.540803909301758 9.878717422485352 8.509292602539062 8.634296417236328 8.320465087890625
        7.117539405822754 6.45936393737793 6.895779132843018 7.5587077140808105 9.509270668029785 10.870365142822266
        12.529022216796875 12.010153770446777 12.737422943115234 13.148747444152832 12.973151206970215 12.444689750671387
        12.389725685119629 12.818360328674316 11.62060546875 11.077964782714844 11.468046188354492 11.434063911437988
        11.256792068481445 11.324593544006348 10.72730541229248 7.802854061126709 5.680368423461914 6.816751956939697
        7.589582443237305 9.394181251525879 12.565424919128418 16.914094924926758 16.998600006103516 17.40094757080078
        19.83460807800293 24.51691436767578 24.506877899169922 20.61296272277832 17.916519165039062 18.11931037902832
        17.884422302246094 16.306921005249023 14.404552459716797 14.544466018676758 12.734594345092773 11.140250205993652
        8.938902854919434 7.781985759735107 6.205033779144287 7.039037704467773 8.768415451049805 9.138737678527832
        9.562309265136719 11.110760688781738 12.667301177978516 11.94905948638916 10.521332740783691 10.117684364318848
        10.8130464553833 12.027520179748535 13.307689666748047 14.425614356994629 14.077072143554688 13.012798309326172
        12.223588943481445 12.022184371948242 12.451071739196777 10.980733871459961 9.066600799560547 6.851802349090576
        6.9063239097595215 5.785129547119141 3.436027765274048 1.0691423416137695 4.437804698944092 9.748160362243652
        10.345088005065918 11.730294227600098 11.183195114135742 10.568665504455566 8.856669425964355 8.588241577148438
        7.5537896156311035 7.436018466949463 7.747953414916992 8.16213607788086 7.98314905166626 8.037353515625
        8.039918899536133 7.858442783355713 6.922255039215088 7.846243381500244 8.367137908935547 9.652992248535156
        10.554492950439453 11.836302757263184 11.916266441345215 11.499659538269043 10.784544944763184 9.887843132019043
        8.93667984008789 8.666777610778809 8.923480033874512 9.169888496398926 9.444742202758789 10.860685348510742
        11.220807075500488 11.394735336303711 11.454906463623047 12.693766593933105 12.963598251342773 11.865118026733398
        11.767820358276367 10.61174488067627 9.777863502502441 8.908966064453125 9.111186981201172 8.446285247802734
        7.905747413635254 7.7215962409973145 8.871851921081543 10.097914695739746 11.368873596191406 12.368995666503906
        12.032937049865723 10.887407302856445 10.349136352539062 10.384272575378418 10.312631607055664 8.640434265136719
        8.807872772216797 9.420465469360352 10.366592407226562 9.872882843017578 9.708627700805664 9.45854377746582
        8.854606628417969 9.025219917297363 9.866043090820312 9.952123641967773 9.436590194702148 8.295661926269531
        6.974709510803223 5.192865371704102 4.3426594734191895 3.8122050762176514 3.3009719848632812 2.6838064193725586
        0.5558558106422424 1.217812180519104 2.731292963027954 3.945668935775757 5.504605770111084 7.511843681335449
        10.725381851196289 13.61721420288086 14.343113899230957 13.800591468811035 11.623510360717773 9.619715690612793
        7.984221935272217 8.467901229858398 8.711467742919922 8.83334732055664 7.323791980743408 5.816353797912598
        5.252625465393066 4.549403190612793 7.258942604064941 9.104059219360352 11.598856925964355 11.126163482666016
        12.009049415588379 12.280590057373047 13.235352516174316 12.049310684204102 11.614334106445312 11.869302749633789
        11.849954605102539 11.810868263244629 11.60216236114502 11.979377746582031 12.05595874786377 12.589163780212402
        11.870067596435547 9.355696678161621 7.206038951873779 7.3978681564331055 5.291267395019531 4.383974075317383
        6.401119232177734 8.332169532775879 8.312110900878906 9.044649124145508 16.179718017578125 21.974313735961914
        24.578508377075195 22.191091537475586 18.325679779052734 19.53738784790039 18.47766876220703 17.372217178344727
        14.70569133758545 14.003922462463379 12.721475601196289 11.397223472595215 10.02414608001709 9.048728942871094
        8.4587984085083 9.285726547241211 11.045703887939453 10.98486042022705 11.61361026763916 10.445934295654297
        10.310070037841797 8.439230918884277 8.601902961730957 9.18631649017334 9.423060417175293 10.424509048461914
        11.979747772216797 14.231790542602539 14.450663566589355 12.964166641235352 12.511317253112793 12.53419017791748
        12.03333568572998 10.040926933288574 8.843225479125977 9.208852767944336 9.683517456054688 7.77665901184082
        3.3539652824401855 1.9769281148910522 4.274497032165527 9.34514045715332 10.371257781982422 12.232440948486328
        11.619671821594238 10.721046447753906 8.326451301574707 8.252119064331055 7.817440986633301 7.6166887283325195
        6.966716289520264 7.425663471221924 7.371047019958496 7.850951194763184 7.42696475982666 7.4873046875
        6.6028733253479 6.5705976486206055 7.122385501861572 8.458984375 10.394298553466797 11.75206184387207
        12.399343490600586 12.212861061096191 11.161293983459473 10.206795692443848 9.03786849975586 8.9009428024292
        8.413745880126953 8.111174583435059 8.4348726272583 9.994046211242676 10.490943908691406 10.686415672302246
        9.609102249145508 10.468770027160645 11.36624526977539 11.928178787231445 13.477943420410156 12.364025115966797
        11.6128511428833 9.04699993133545 8.597784042358398 7.925818920135498 7.635258674621582 7.885873317718506
        8.590231895446777 9.20851993560791 10.790013313293457 12.782382011413574 12.617712020874023 11.07626724243164
        10.847970962524414 11.737302780151367 11.782142639160156 11.150266647338867 10.564986228942871 10.374398231506348
        10.681037902832031 10.841901779174805 10.711777687072754 9.8817720413208 9.146750450134277 8.957470893859863
        9.830639839172363 10.291643142700195 9.945243835449219 9.14266586303711 8.027804374694824 7.10969877243042
        6.02874755859375 5.186909198760986 4.490054130554199 3.5108540058135986 1.218418836593628 1.1129207611083984
        2.1089224815368652 2.9075469970703125 4.272068977355957 6.449655055999756 9.179845809936523 11.520691871643066
        13.034004211425781 13.24051570892334 10.866643905639648 9.159751892089844 7.5760722160339355 8.378825187683105
        8.195186614990234 7.765687942504883 6.445211887359619 5.16582727432251 4.0045552253723145 3.776153326034546
        5.938175201416016 7.83331823348999 12.086199760437012 11.70272445678711 11.494925498962402 11.909729957580566
        12.604782104492188 12.985980033874512 12.717095375061035 12.457669258117676 12.826379776000977 13.02419662475586
        13.353900909423828 12.810990333557129 12.535927772521973 12.166131973266602 11.244172096252441 10.253196716308594
        8.606941223144531 7.437438011169434 5.370168209075928 3.0655343532562256 3.515270948410034 4.833691596984863
        5.450070858001709 6.70499324798584 9.714734077453613 14.273112297058105 16.191465377807617 20.385744094848633
        21.357288360595703 22.154951095581055 19.134288787841797 15.98375415802002 12.88142204284668 12.396269798278809
        11.753487586975098 12.174463272094727 10.728507995605469 10.077946662902832 9.789776802062988 10.354994773864746
        11.403523445129395 10.76052474975586 11.39330005645752 11.160685539245605 9.77448558807373 8.289430618286133
        7.891049385070801 8.36984920501709 8.101272583007812 8.726860046386719 11.632972717285156 13.938230514526367
        14.394052505493164 13.634344100952148 12.714837074279785 12.913384437561035 11.456398963928223 10.101629257202148
        9.054201126098633 11.014081954956055 12.143559455871582 8.572847366333008 3.0657780170440674 1.7999542951583862
        5.151552677154541 9.629095077514648 10.575295448303223 12.183966636657715 12.118917465209961 11.373932838439941
        9.46578598022461 8.33080005645752 7.179955959320068 6.949315547943115 6.912692070007324 7.581188678741455
        7.566107749938965 7.90945291519165 7.4444475173950195 6.948358058929443 6.028536319732666 6.088840007781982
        6.915882110595703 8.735798835754395 10.396626472473145 11.789115905761719 11.428421020507812 11.387816429138184
        11.383981704711914 10.86875057220459 9.891908645629883 8.646743774414062 7.610188961029053 7.5926833152771
        7.731123447418213 8.426645278930664 7.479999542236328 8.454931259155273 8.584073066711426 9.82348918914795
        11.236233711242676 12.377497673034668 13.961806297302246 13.467694282531738 12.027252197265625 9.284806251525879
        7.867784023284912 7.320232391357422 7.289740085601807 7.779046535491943 8.36377239227295 8.467578887939453
        9.951751708984375 12.250076293945312 12.190229415893555 11.812604904174805 10.970882415771484 12.01641845703125
        11.984668731689453 11.33366584777832 11.541349411010742 10.260065078735352 10.380349159240723 11.094542503356934
        12.198142051696777 11.202106475830078 9.75636100769043 9.60597038269043 10.296195983886719 10.831711769104004
        10.865833282470703 9.707921028137207 9.021180152893066 8.242509841918945 7.541203022003174 6.900023460388184
        6.129873275756836 5.558414459228516 3.7355494499206543 3.499281883239746 2.849452495574951 3.428572654724121
        4.465389251708984 5.234251976013184 6.336398601531982 9.634369850158691 11.44415283203125 11.821321487426758
        10.656906127929688 9.864529609680176 8.540421485900879 7.860140800476074 6.910831451416016 6.375235080718994
        5.642251968383789 5.072728157043457 3.2425193786621094 2.5648136138916016 3.4122774600982666 5.35149621963501
        12.507547378540039 12.533744812011719 11.65410327911377 11.214221000671387 11.045486450195312 11.514307022094727
        11.827653884887695 11.256163597106934 12.265411376953125 13.56541633605957 14.265445709228516 13.924874305725098
        13.31975269317627 12.579338073730469 11.963274002075195 11.123614311218262 10.254804611206055 8.662860870361328
        6.0874834060668945 3.3898050785064697 2.4508209228515625 2.8752121925354004 2.1510777473449707 2.01998233795166
        4.4372687339782715 7.446360111236572 10.173012733459473 15.164055824279785 19.196426391601562 20.870460510253906
        18.2722110748291 15.952129364013672 13.464279174804688 12.317670822143555 11.378411293029785 11.442428588867188
        10.356431007385254 9.73432445526123 9.720086097717285 10.246286392211914 11.412203788757324 11.413262367248535
        11.381178855895996 11.019579887390137 10.948704719543457 9.627646446228027 9.41539192199707 9.267200469970703
        8.636754989624023 8.479897499084473 11.03391170501709 13.677279472351074 13.393542289733887 12.873620986938477
        12.445222854614258 12.807670593261719 10.50376033782959 8.283339500427246 8.387621879577637 11.791006088256836
        12.226411819458008 7.799961090087891 3.0261964797973633 1.4710865020751953 5.2989182472229 8.574603080749512
        11.619952201843262 12.150826454162598 11.754226684570312 10.646485328674316 10.034278869628906 8.255362510681152
        7.591980457305908 7.680230140686035 7.972445964813232 7.474150657653809 7.928736686706543 8.32897663116455
        8.239774703979492 7.696569442749023 6.32431697845459 6.020443916320801 6.915809154510498 8.818939208984375
        10.503241539001465 11.299195289611816 11.284405708312988 11.006730079650879 11.232047080993652 11.437410354614258
        10.586406707763672 9.23680591583252 7.558477401733398 7.241494178771973 7.274118423461914 6.971012592315674
        6.108817100524902 6.5964860916137695 6.994220733642578 9.183868408203125 10.658611297607422 12.954148292541504
        13.775200843811035 13.527061462402344 12.633002281188965 9.980755805969238 7.974737644195557 6.794377326965332
        7.589733123779297 8.096022605895996 8.14893627166748 8.206467628479004 9.304637908935547 10.14123821258545
        11.126194953918457 11.254833221435547 10.87418270111084 11.373883247375488 11.439979553222656 10.916047096252441
        10.278315544128418 9.522704124450684 9.34562873840332 9.75175666809082 11.133027076721191 10.811263084411621
        10.478752136230469 10.248733520507812 10.669997215270996 11.411864280700684 11.467350006103516 11.783204078674316
        10.801939010620117 9.996030807495117 9.30056095123291 8.913978576660156 7.215742588043213 7.0291900634765625
        5.685871124267578 4.90476131439209 3.552616596221924 4.033483028411865 4.380234718322754 3.9130823612213135
        4.35847806930542 6.978157043457031 9.442913055419922 10.756163597106934 10.283225059509277 10.23674201965332
        9.169174194335938 8.3548583984375 6.729288101196289 6.035034656524658 5.399484157562256 4.6363630294799805
        3.1697864532470703 2.9191179275512695 3.0986075401306152 4.468992710113525 13.115148544311523 12.204127311706543
        11.350646018981934 11.181063652038574 11.7832670211792 11.914599418640137 11.294015884399414 11.011574745178223
        12.148493766784668 13.784765243530273 15.231501579284668 14.674407958984375 14.329455375671387 14.25430965423584
        14.77657699584961 13.612581253051758 11.980399131774902 10.16338062286377 8.301717758178711 5.985846519470215
        3.938450574874878 3.1025819778442383 3.1302406787872314 2.6665844917297363 3.0937740802764893 3.9999730587005615
        6.574378490447998 11.05330753326416 15.58519172668457 18.17279624938965 17.544172286987305 15.729501724243164
        14.620824813842773 12.790630340576172 11.006473541259766 10.32946491241455 10.02101993560791 9.367707252502441
        10.00893783569336 10.273615837097168 11.63133716583252 11.677349090576172 11.991399765014648 11.660079956054688
        12.409772872924805 11.43820571899414 11.192489624023438 10.845355987548828 9.574652671813965 9.132831573486328
        9.79799747467041 12.158130645751953 12.446468353271484 12.7098970413208 13.134723663330078 13.769806861877441
        12.066438674926758 10.234376907348633 10.101962089538574 11.734143257141113 10.902671813964844 7.872637748718262
        4.940415382385254 4.106900691986084 5.166171073913574 6.830398082733154 10.48865795135498 12.15379810333252
        11.693425178527832 10.746620178222656 10.904891967773438 9.448843002319336 8.745704650878906 8.9361572265625
        9.226961135864258 8.91242790222168 8.233095169067383 8.371336936950684 8.503236770629883 9.131585121154785
        8.004661560058594 7.359023094177246 7.433807849884033 8.58871078491211 9.936036109924316 10.1776762008667
        10.745287895202637 11.424714088439941 12.226663589477539 12.087874412536621 11.555809020996094 10.308804512023926
        8.82601547241211 7.733645915985107 7.234144687652588 5.382883548736572 4.39732551574707 4.776048183441162
        6.096504211425781 9.873769760131836 11.433358192443848 13.324541091918945 13.42724323272705 13.193559646606445
        12.341569900512695 10.04903793334961 8.568861961364746 7.223694324493408 7.830087661743164 8.126039505004883
        7.737220287322998 8.328174591064453 9.057697296142578 9.96502685546875 11.507978439331055 11.516945838928223
        10.315485954284668 10.591996192932129 10.600398063659668 9.580842018127441 8.158041954040527 7.117709159851074
        7.506797790527344 7.523526191711426 8.937627792358398 8.919687271118164 9.224177360534668 9.966965675354004
        11.32682991027832 12.93271541595459 12.822729110717773 13.2112398147583 12.398329734802246 11.383000373840332
        10.540799140930176 10.464323043823242 9.028969764709473 9.12822151184082 7.8099751472473145 6.6047682762146
        5.10332727432251 5.6318230628967285 5.373629570007324 4.866349697113037 4.790250778198242 6.30789852142334
        8.366501808166504 10.42156982421875 10.301302909851074 10.591719627380371 9.820955276489258 9.269991874694824
        8.030075073242188 7.161411285400391 6.102581024169922 4.6111674308776855 3.9142234325408936 3.6010777950286865
        3.9402365684509277 4.8768486976623535 12.39268684387207 11.407352447509766 10.928067207336426 11.136197090148926
        11.98079776763916 11.662339210510254 10.39760684967041 10.245433807373047 11.350871086120605 12.651895523071289
        14.297813415527344 14.420485496520996 15.101850509643555 15.680669784545898 15.978797912597656 15.323798179626465
        13.37244987487793 12.08375072479248 10.56013011932373 8.383337020874023 6.396724224090576 4.690004825592041
        4.989238739013672 3.9001502990722656 4.418209075927734 4.671512126922607 5.380057334899902 7.6965012550354
        10.121922492980957 12.45911979675293 15.295722007751465 16.801847457885742 16.265682220458984 13.064247131347656
        11.38223648071289 10.074666976928711 9.802202224731445 8.55426025390625 9.5829439163208 9.635078430175781
        11.553064346313477 11.620086669921875 11.900482177734375 11.206151962280273 12.034741401672363 12.289324760437012
        11.87179183959961 11.059188842773438 8.74955940246582 7.895656108856201 8.266153335571289 10.774888038635254
        11.303367614746094 12.131377220153809 13.012992858886719 13.571067810058594 12.612722396850586 10.93529987335205
        10.57390308380127 11.238603591918945 10.655770301818848 9.407663345336914 7.21163272857666 6.425839424133301
        4.989080905914307 6.217529296875 9.193910598754883 10.951221466064453 10.182177543640137 9.87502384185791
        10.58881664276123 10.40195369720459 9.067585945129395 8.839545249938965 9.34247875213623 10.217637062072754
        8.953493118286133 8.835848808288574 9.027891159057617 11.026634216308594 10.539765357971191 9.084539413452148
        8.063223838806152 8.029227256774902 9.334031105041504 10.059680938720703 11.75302505493164 11.90827751159668
        12.66673755645752 11.969585418701172 11.76976203918457 10.896056175231934 9.902809143066406 8.399564743041992
        7.056735038757324 4.997674465179443 4.022296905517578 3.361781120300293 4.3031134605407715 7.326943874359131
        10.562223434448242 11.932236671447754 12.50710678100586 12.441726684570312 12.999449729919434 10.960695266723633
        9.190462112426758 7.246894359588623 7.377523899078369 7.586287498474121 7.298183917999268 8.883658409118652
        9.138419151306152 10.412260055541992 11.103065490722656 10.795406341552734 8.927534103393555 8.371162414550781
        9.05331039428711 9.181046485900879 7.543768405914307 5.863231658935547 6.101993560791016 6.31404447555542
        6.2923479080200195 6.552378177642822 7.3362932205200195 7.190834045410156 8.422881126403809 10.847698211669922
        11.909002304077148 12.644119262695312 11.883697509765625 11.706978797912598 12.010883331298828 11.922184944152832
        10.438432693481445 9.880392074584961 8.756495475769043 8.030767440795898 7.319092273712158 7.579876899719238
        7.189785003662109 6.22125768661499 5.926973342895508 6.65254545211792 8.332988739013672 9.978514671325684
        10.549294471740723 10.542648315429688 9.73283863067627 9.477920532226562 9.070086479187012 8.186766624450684
        6.879813194274902 5.327563285827637 5.109244346618652 4.743555545806885 4.587954998016357 4.528420448303223
        11.625752449035645 11.108857154846191 10.979962348937988 10.81411075592041 11.777555465698242 11.413270950317383
        10.742350578308105 10.80994701385498 11.643999099731445 12.317169189453125 13.496358871459961 13.814042091369629
        14.99302864074707 15.040216445922852 15.996293067932129 15.072114944458008 13.91840934753418 13.134370803833008
        12.490370750427246 11.495917320251465 9.685492515563965 9.049886703491211 8.128803253173828 7.067779064178467
        6.292706489562988 6.096463203430176 5.313737392425537 5.717006206512451 8.67782974243164 10.817527770996094
        13.099206924438477 14.861008644104004 16.675212860107422 14.42438793182373 12.873154640197754 11.037303924560547
        11.467464447021484 10.16945743560791 9.874290466308594 9.131171226501465 10.285524368286133 9.777420997619629
        10.371378898620605 10.830121040344238 12.114579200744629 12.341447830200195 11.262307167053223 10.653325080871582
        7.666460990905762 7.853302001953125 7.976609230041504 10.67175006866455 11.105494499206543 12.251832008361816
        12.44698715209961 13.119025230407715 13.316618919372559 13.081193923950195 11.787116050720215 11.314701080322266
        10.365352630615234 9.693222045898438 7.5505170822143555 6.967696666717529 5.700362205505371 7.1273627281188965
        8.670705795288086 9.906362533569336 8.465208053588867 9.649606704711914 9.841955184936523 11.102364540100098
        9.999267578125 9.373946189880371 9.262490272521973 10.362748146057129 8.863353729248047 8.883035659790039
        9.554159164428711 11.432324409484863 11.040445327758789 10.245882034301758 9.832430839538574 9.013108253479004
        9.949078559875488 10.431841850280762 11.796478271484375 11.8336820602417 12.138788223266602 12.805115699768066
        12.536258697509766 11.748457908630371 10.449278831481934 8.888748168945312 7.8298115730285645 5.8070526123046875
        4.812276840209961 4.2050299644470215 4.087993144989014 6.522301197052002 9.827286720275879 11.899419784545898
        11.397302627563477 10.587165832519531 11.256096839904785 10.763558387756348 9.698288917541504 7.813811779022217
        6.47484827041626 6.482273578643799 6.55898904800415 8.536992073059082 9.310220718383789 9.891284942626953
        9.561421394348145 9.478996276855469 8.261148452758789 7.598982810974121 8.212181091308594 8.248435020446777
        7.380192756652832 7.147828578948975 7.0482611656188965 6.843198776245117 5.670951843261719 5.777628421783447
        5.9814581871032715 5.4891180992126465 5.763710021972656 7.731245517730713 9.583168029785156 11.544706344604492
        12.210447311401367 11.303570747375488 12.250998497009277 12.190469741821289 12.283451080322266 11.55935287475586
        10.121213912963867 9.32693862915039 8.63046646118164 8.577255249023438 7.82526969909668 7.317877292633057
        7.2136359214782715 8.213448524475098 9.362504959106445 10.562065124511719 10.526612281799316 10.591185569763184
        9.659523010253906 9.33340835571289 8.975831985473633 9.171964645385742 8.529440879821777 7.424161434173584
        6.492137908935547 5.996884822845459 5.851441383361816 5.52908182144165 11.670619010925293 11.496369361877441
        10.932782173156738 10.57927131652832 10.133149147033691 10.61487865447998 10.763370513916016 11.090195655822754
        11.837968826293945 12.389342308044434 12.98374080657959 13.071533203125 14.456945419311523 15.200289726257324
        15.074756622314453 14.06909465789795 13.743330955505371 13.868471145629883 13.636882781982422 12.660833358764648
        11.619011878967285 11.494592666625977 10.486298561096191 10.038683891296387 8.673346519470215 8.82932186126709
        6.566561222076416 6.968423366546631 8.849579811096191 8.391472816467285 9.269330024719238 11.116707801818848
        14.859597206115723 15.625764846801758 14.399717330932617 13.161238670349121 12.375701904296875 11.089348793029785
        9.588604927062988 8.398122787475586 9.356457710266113 7.862715244293213 8.744366645812988 10.797725677490234
        13.0233793258667 13.63251781463623 12.692508697509766 12.149148941040039 9.29835319519043 9.168597221374512
        9.653861999511719 10.86658763885498 10.173425674438477 10.469616889953613 11.935677528381348 13.405115127563477
        13.688920021057129 13.38131332397461 12.104211807250977 11.527078628540039 10.511679649353027 9.736302375793457
        7.702630043029785 6.554426670074463 6.239217281341553 7.543792247772217 8.034452438354492 8.816299438476562
        8.045491218566895 8.998778343200684 9.079302787780762 10.606106758117676 10.397782325744629 9.586078643798828
        8.885945320129395 9.154559135437012 8.479729652404785 8.035758972167969 9.553400993347168 11.581604957580566
        12.310623168945312 11.195467948913574 11.056865692138672 10.661859512329102 10.507858276367188 10.327702522277832
        11.172348976135254 11.693938255310059 11.673629760742188 12.022686004638672 12.9695405960083 12.363492012023926
        11.2396240234375 9.829263687133789 8.173871040344238 6.734716415405273 5.311955451965332 5.135306358337402
        4.899923324584961 6.565338134765625 9.120047569274902 10.143342971801758 10.838695526123047 10.994088172912598
        10.86570930480957 11.230193138122559 9.818836212158203 8.222539901733398 6.710690975189209 6.772412300109863
        6.9871134757995605 7.8218817710876465 9.051907539367676 9.797816276550293 9.076882362365723 9.669718742370605
        8.810729026794434 9.13143253326416 8.979902267456055 9.347174644470215 8.535882949829102 8.29188060760498
        7.628716945648193 6.981457233428955 5.424753189086914 5.571281909942627 5.431551933288574 4.557399272918701
        4.415793418884277 4.882192611694336 8.005346298217773 9.08477783203125 10.244322776794434 9.784215927124023
        11.55903434753418 11.693318367004395 12.367146492004395 11.933947563171387 11.135822296142578 10.45133113861084
        10.35110092163086 9.341867446899414 8.340814590454102 7.672409534454346 8.213311195373535 9.126531600952148
        10.03565502166748 11.131895065307617 10.95908260345459 11.09135913848877 9.98369026184082 9.771745681762695
        9.341575622558594 9.989516258239746 9.73855972290039 9.576931953430176 8.686718940734863 8.28959846496582
        7.592034339904785 7.023403167724609 11.864643096923828 11.79603385925293 11.235231399536133 10.752163887023926
        10.519099235534668 10.222577095031738 10.410698890686035 10.576932907104492 11.532560348510742 11.839669227600098
        12.155709266662598 12.727630615234375 14.111077308654785 14.644176483154297 15.072310447692871 14.156023979187012
        14.481412887573242 14.111937522888184 13.766684532165527 12.9452543258667 12.630938529968262 12.821664810180664
        11.860581398010254 11.151519775390625 9.724903106689453 9.14409351348877 7.786221504211426 8.077035903930664
        8.370423316955566 7.932140350341797 7.274948596954346 8.198134422302246 11.799151420593262 14.146113395690918
        14.492231369018555 13.717594146728516 12.921525955200195 11.888738632202148 9.108545303344727 7.0852837562561035
        6.790280342102051 6.135727882385254 8.12346076965332 10.64598560333252 13.328629493713379 13.526041030883789
        14.041203498840332 13.650744438171387 11.94876766204834 11.6655912399292 11.884934425354004 11.06714916229248
        9.65974235534668 9.621849060058594 10.761639595031738 12.87673282623291 13.742133140563965 13.678716659545898
        12.757208824157715 11.71174430847168 10.387343406677246 9.002118110656738 8.041817665100098 7.089154243469238
        6.664621353149414 6.6752095222473145 7.667555809020996 8.67994213104248 7.885124206542969 8.606468200683594
        8.610231399536133 10.772141456604004 10.43004035949707 9.714048385620117 7.537184238433838 7.027717590332031
        7.2654805183410645 7.404285907745361 8.854942321777344 10.273330688476562 12.305489540100098 12.543975830078125
        13.147738456726074 12.748209953308105 12.378610610961914 10.787177085876465 10.89776611328125 11.232088088989258
        11.422948837280273 11.75706958770752 12.735221862792969 13.38477897644043 12.824339866638184 11.794341087341309
        10.275627136230469 8.159640312194824 6.603053569793701 6.438838958740234 6.2829413414001465 8.337934494018555
        10.36345386505127 11.673295021057129 11.812214851379395 12.431106567382812 12.22935676574707 11.537618637084961
        10.081591606140137 8.743319511413574 7.506252288818359 7.538296699523926 7.531837463378906 7.685141086578369
        7.869589328765869 7.784623146057129 7.789768695831299 9.060159683227539 9.64676570892334 10.433134078979492
        9.4070405960083 9.244921684265137 8.627108573913574 8.842723846435547 7.516005516052246 6.1280059814453125
        4.437275409698486 4.312225341796875 4.720828056335449 4.5269060134887695 3.8427631855010986 3.5255610942840576
        5.538302421569824 7.296641826629639 8.539633750915527 8.61577033996582 10.230670928955078 10.969058990478516
        12.891205787658691 12.986820220947266 12.344091415405273 11.377419471740723 10.973557472229004 10.679512023925781
        9.794121742248535 9.186320304870605 9.501179695129395 9.773344993591309 10.30079174041748 10.508313179016113
        10.793341636657715 10.821218490600586 10.114198684692383 10.687670707702637 10.118800163269043 10.994823455810547
        10.04381275177002 9.883284568786621 9.05233383178711 9.227327346801758 8.638628959655762 8.01603889465332
        12.412555694580078 12.057793617248535 11.69960880279541 11.312785148620605 11.431316375732422 10.290178298950195
        9.871875762939453 10.100320816040039 11.099225044250488 11.274166107177734 11.347532272338867 12.237004280090332
        13.623504638671875 14.380179405212402 15.613739013671875 15.160717964172363 15.206180572509766 14.564882278442383
        14.070143699645996 13.108860969543457 12.924079895019531 12.473316192626953 12.335180282592773 11.87285327911377
        11.735699653625488 9.437874794006348 8.304341316223145 8.675971984863281 10.041263580322266 10.187993049621582
        8.488678932189941 8.399367332458496 10.495951652526855 12.822504043579102 13.946260452270508 14.883087158203125
        13.051033973693848 11.903584480285645 8.934886932373047 7.874978065490723 6.709373950958252 7.744822978973389
        9.331788063049316 11.353099822998047 13.10594654083252 13.943453788757324 15.336039543151855 15.944306373596191
        14.065009117126465 13.806300163269043 13.24620246887207 11.763274192810059 10.392059326171875 9.739822387695312
        10.90196704864502 12.271153450012207 13.176626205444336 12.855354309082031 12.295133590698242 12.282118797302246
        11.524571418762207 10.159130096435547 8.948996543884277 7.746461868286133 7.0442962646484375 6.575815677642822
        7.186448574066162 8.502655029296875 8.179433822631836 7.97650671005249 7.510254383087158 9.738494873046875
        10.02099323272705 9.79705810546875 7.654760360717773 7.156907081604004 7.249373435974121 7.465294361114502
        7.990728855133057 9.135076522827148 11.594407081604004 12.629935264587402 13.66598892211914 13.187512397766113
        12.685612678527832 11.750178337097168 11.168458938598633 10.732574462890625 9.949620246887207 9.796692848205566
        10.912219047546387 12.607224464416504 13.605320930480957 12.943574905395508 11.614876747131348 9.984672546386719
        8.79126262664795 8.431293487548828 8.204586029052734 8.987866401672363 9.479911804199219 10.827527046203613
        11.813185691833496 12.99893856048584 12.848666191101074 11.962556838989258 10.718804359436035 9.828582763671875
        9.15677261352539 9.505866050720215 8.781301498413086 8.066751480102539 8.085432052612305 8.22446346282959
        8.120837211608887 9.369280815124512 9.670158386230469 10.088677406311035 8.811591148376465 8.613061904907227
        8.139832496643066 9.001507759094238 7.970142841339111 6.266349792480469 4.325584888458252 4.457650661468506
        4.814018249511719 5.039721488952637 4.482204437255859 4.647069454193115 4.455474376678467 4.304223537445068
        4.7796101570129395 6.0401225090026855 8.374454498291016 9.679508209228516 10.530098915100098 10.965240478515625
        11.61918830871582 11.917521476745605 12.306584358215332 12.471956253051758 11.433090209960938 9.792658805847168
        10.05532455444336 10.263961791992188 10.255138397216797 10.591165542602539 11.288945198059082 11.801338195800781
        11.169422149658203 11.911559104919434 12.315434455871582 12.111106872558594 10.561101913452148 9.86141586303711
        9.404501914978027 9.728753089904785 8.959612846374512 8.375784873962402 11.894828796386719 11.399048805236816
        11.517547607421875 11.93233871459961 12.180624961853027 10.785933494567871 9.881036758422852 9.70254898071289
        11.003060340881348 11.144994735717773 11.714001655578613 11.570364952087402 12.051802635192871 13.222810745239258
        15.350459098815918 16.42374038696289 16.484355926513672 16.15276336669922 15.578327178955078 14.12685775756836
        13.279939651489258 12.38330078125 12.156635284423828 12.065999031066895 12.430339813232422 12.558215141296387
        11.08349609375 9.821084022521973 9.718530654907227 9.850545883178711 9.740769386291504 8.674944877624512
        9.434014320373535 10.922045707702637 12.533849716186523 13.936171531677246 14.16176700592041 13.383553504943848
        10.180541038513184 8.627985000610352 7.422412395477295 8.580582618713379 9.33130168914795 10.411948204040527
        10.647234916687012 11.976601600646973 14.357640266418457 16.19422149658203 15.198735237121582 13.724900245666504
        12.551047325134277 11.599560737609863 11.078932762145996 11.132795333862305 10.989890098571777 10.918594360351562
        11.726975440979004 12.093766212463379 12.197657585144043 12.23359203338623 11.620003700256348 10.110511779785156
        8.42911148071289 7.713285446166992 7.208453178405762 6.365966796875 6.42165994644165 7.766825199127197
        7.982872486114502 7.680139064788818 7.422014236450195 8.845495223999023 8.99444580078125 9.449068069458008
        8.190293312072754 7.841867923736572 7.49100923538208 7.501847743988037 7.325639724731445 7.538916110992432
        9.191667556762695 11.304593086242676 12.308197975158691 11.716814994812012 10.839009284973145 10.74174690246582
        9.953508377075195 9.035632133483887 8.10606861114502 8.320599555969238 9.767158508300781 10.809078216552734
        10.989856719970703 11.436551094055176 12.417512893676758 12.321004867553711 11.563152313232422 10.746221542358398
        9.546981811523438 8.466862678527832 8.670905113220215 9.964695930480957 10.602106094360352 11.02462387084961
        11.498854637145996 12.27053451538086 11.579044342041016 11.057123184204102 10.183138847351074 9.947088241577148
        9.216819763183594 8.046387672424316 7.468260765075684 7.349221706390381 7.3608927726745605 9.173238754272461
        9.413483619689941 9.105584144592285 8.646183967590332 8.672794342041016 7.682291030883789 8.06925106048584
        8.211185455322266 7.463716506958008 5.653905868530273 6.386909008026123 5.99823522567749 6.305615425109863
        5.330007076263428 5.690889835357666 4.527498245239258 4.358373165130615 4.510494232177734 5.706189155578613
        7.170506954193115 7.230703353881836 7.342769622802734 8.374726295471191 10.788626670837402 11.899582862854004
        12.919251441955566 12.804610252380371 11.81484603881836 10.078556060791016 9.458200454711914 10.137998580932617
        9.713053703308105 10.3690185546875 10.963776588439941 11.897272109985352 11.499189376831055 11.49458122253418
        11.846231460571289 11.938790321350098 11.06057071685791 10.041720390319824 9.678206443786621 9.848434448242188
        9.284772872924805 8.368130683898926 11.877203941345215 11.938590049743652 12.68211555480957 12.640804290771484
        12.6678466796875 11.82374095916748 11.155625343322754 11.034666061401367 11.294363975524902 11.437010765075684
        11.772275924682617 11.624258995056152 12.4113187789917 13.164739608764648 14.724451065063477 15.923019409179688
        16.146312713623047 17.272302627563477 16.27241325378418 15.186877250671387 13.037089347839355 12.8306245803833
        13.004552841186523 12.830116271972656 13.532622337341309 14.027199745178223 12.916836738586426 10.649876594543457
        10.728052139282227 9.553693771362305 9.170696258544922 7.4276204109191895 9.254566192626953 10.121187210083008
        11.58694076538086 12.687634468078613 13.978292465209961 14.412667274475098 12.127683639526367 11.092680931091309
        9.847373008728027 9.751758575439453 9.818456649780273 10.26327133178711 9.646903038024902 10.435639381408691
        12.973043441772461 15.285110473632812 14.636116027832031 13.825788497924805 12.711706161499023 12.645922660827637
        12.09818172454834 12.209857940673828 12.03591537475586 11.114559173583984 11.094780921936035 11.424338340759277
        11.769956588745117 11.756975173950195 11.274930953979492 10.246474266052246 8.592174530029297 7.965381622314453
        7.171149253845215 5.701273441314697 5.238641738891602 6.572126388549805 7.922329425811768 7.9696736335754395
        7.687236309051514 8.16854190826416 8.821002006530762 8.884514808654785 8.720246315002441 8.104106903076172
        8.310919761657715 7.397231578826904 6.2903852462768555 5.424193859100342 6.8327836990356445 8.8086519241333
        10.444615364074707 10.121814727783203 8.83791446685791 7.617837905883789 8.088111877441406 8.036617279052734
        6.604438304901123 6.007542133331299 7.236056804656982 8.313419342041016 8.049455642700195 8.249127388000488
        10.433883666992188 12.16440200805664 12.508749961853027 12.329692840576172 10.67185115814209 9.775592803955078
        8.664706230163574 8.943246841430664 8.803487777709961 8.997807502746582 10.060725212097168 11.673487663269043
        12.251821517944336 11.828747749328613 10.661321640014648 9.810057640075684 9.209632873535156 8.014717102050781
        8.016059875488281 7.9852094650268555 8.64612102508545 9.610400199890137 10.249716758728027 9.943942070007324
        9.779175758361816 9.981882095336914 8.822700500488281 8.500635147094727 8.297386169433594 7.9504075050354
        7.4964447021484375 8.396303176879883 7.698151588439941 7.438675880432129 7.536894798278809 8.226361274719238
        6.412393569946289 5.138184547424316 4.73120641708374 5.2789835929870605 5.755034923553467 4.58716344833374
        3.593026876449585 4.667644500732422 7.494542121887207 10.761173248291016 12.957893371582031 13.849884986877441
        12.821677207946777 10.772051811218262 10.273943901062012 10.490981101989746 9.353742599487305 9.553455352783203
        10.024920463562012 12.548102378845215 11.78693675994873 11.24682331085205 10.154095649719238 10.358132362365723
        11.1432466506958 10.773416519165039 10.45509147644043 9.855216979980469 9.619572639465332 9.151629447937012
        11.997095108032227 12.16987133026123 13.011104583740234 13.2184419631958 12.987593650817871 12.966665267944336
        11.837301254272461 11.379907608032227 11.309950828552246 11.59213638305664 12.59814167022705 11.972607612609863
        12.358526229858398 12.747271537780762 13.704899787902832 15.246240615844727 16.21308135986328 18.26101303100586
        18.369007110595703 17.149755477905273 14.911554336547852 13.540002822875977 13.262126922607422 13.35820198059082
        13.774787902832031 15.609118461608887 14.737466812133789 13.133781433105469 11.757842063903809 9.832720756530762
        9.44209098815918 6.9197773933410645 8.015318870544434 8.505959510803223 10.37642765045166 12.363897323608398
        13.292169570922852 15.362691879272461 15.600456237792969 13.714157104492188 12.053518295288086 9.865655899047852
        10.227254867553711 9.706092834472656 9.386198043823242 9.182223320007324 10.10934066772461 11.627851486206055
        12.616642951965332 13.03887939453125 12.948339462280273 12.089790344238281 12.318381309509277 12.496606826782227
        12.974590301513672 12.237360954284668 11.323671340942383 10.71718692779541 11.135562896728516 11.33240032196045
        10.698546409606934 9.500581741333008 8.49074935913086 7.862961769104004 7.000087738037109 6.1879658699035645
        5.971403121948242 6.884972095489502 8.004449844360352 8.885257720947266 9.319374084472656 8.714517593383789
        8.701911926269531 8.438891410827637 8.284669876098633 7.213568210601807 6.966659069061279 6.220886707305908
        5.3670759201049805 4.937333106994629 7.0973711013793945 8.142061233520508 8.951913833618164 9.073323249816895
        8.904437065124512 7.672765731811523 7.164019584655762 6.663342475891113 6.268239498138428 5.972964286804199
        6.371671676635742 6.0953450202941895 5.090428829193115 6.1279473304748535 9.102096557617188 12.606706619262695
        13.669207572937012 13.83884334564209 12.150017738342285 10.463607788085938 9.878686904907227 8.797690391540527
        7.882208347320557 7.39450216293335 9.069648742675781 10.543075561523438 11.734249114990234 11.62722396850586
        10.509430885314941 9.78638744354248 10.283143997192383 9.163488388061523 7.988232135772705 7.347690582275391
        8.47534465789795 10.179399490356445 10.968317031860352 11.230657577514648 11.166060447692871 10.938288688659668
        10.248757362365723 9.904694557189941 9.920124053955078 9.238792419433594 8.922371864318848 9.337457656860352
        8.741806030273438 8.251611709594727 8.78283405303955 8.906697273254395 8.172403335571289 6.846002101898193
        5.9090142250061035 5.263864517211914 4.393005847930908 3.095466136932373 1.6130121946334839 3.2071495056152344
        5.673907279968262 9.96728229522705 12.4424409866333 13.9415864944458 12.60973072052002 12.399789810180664
        11.736176490783691 12.027304649353027 10.531336784362793 9.778223037719727 9.692123413085938 12.006439208984375
        12.007536888122559 11.207612037658691 9.794293403625488 10.059577941894531 11.165657043457031 11.706692695617676
        11.082198143005371 10.088338851928711 9.611574172973633 9.472044944763184 11.867683410644531 12.430147171020508
        12.829793930053711 12.652539253234863 12.39951229095459 12.515904426574707 12.145428657531738 11.5136079788208
        11.255141258239746 11.275181770324707 11.84144115447998 12.130531311035156 12.239091873168945 11.60529613494873
        11.643309593200684 12.62585163116455 15.147107124328613 15.921623229980469 15.903558731079102 15.347225189208984
        14.393555641174316 13.951168060302734 13.747993469238281 13.505603790283203 13.737981796264648 14.397955894470215
        15.038836479187012 14.034712791442871 12.638459205627441 10.999105453491211 8.93612289428711 7.178889751434326
        7.724707126617432 9.098028182983398 10.344674110412598 12.586211204528809 14.852886199951172 17.554784774780273
        19.986217498779297 19.827495574951172 16.331079483032227 11.802223205566406 10.540492057800293 9.166815757751465
        8.492471694946289 8.472658157348633 9.222654342651367 9.618401527404785 10.492951393127441 10.704833984375
        10.819003105163574 11.000860214233398 11.501239776611328 12.37039852142334 13.008726119995117 12.282245635986328
        11.091361999511719 10.086721420288086 10.266683578491211 10.590567588806152 10.860511779785156 10.644545555114746
        10.437744140625 8.856809616088867 8.238848686218262 7.219277858734131 7.20768404006958 7.608635425567627
        7.738719940185547 8.032115936279297 7.879673004150391 8.059103965759277 8.434904098510742 8.053251266479492
        7.536695957183838 6.1254353523254395 6.232247352600098 5.774219512939453 4.303264617919922 3.5236828327178955
        5.419097900390625 7.048727512359619 7.585486888885498 7.648825168609619 9.116462707519531 8.45539665222168
        7.3624138832092285 5.890241622924805 5.2775678634643555 5.105780124664307 4.327952861785889 3.9398488998413086
        3.3447365760803223 3.2305033206939697 6.040274143218994 9.852309226989746 12.724445343017578 12.98215389251709
        12.264657974243164 11.142945289611816 9.62796688079834 8.744845390319824 8.21489143371582 8.133877754211426
        9.53505802154541 10.404457092285156 11.233448028564453 10.763827323913574 10.133637428283691 10.700151443481445
        10.469328880310059 9.724018096923828 8.361806869506836 8.353111267089844 8.954713821411133 9.666831970214844
        10.784650802612305 11.096278190612793 11.39893627166748 10.999124526977539 10.61474323272705 11.29109001159668
        11.456249237060547 10.508075714111328 9.770408630371094 9.779497146606445 9.3043794631958 8.484392166137695
        9.300029754638672 9.450068473815918 9.085526466369629 7.060018539428711 6.037075519561768 4.571538925170898
        3.536539077758789 2.526639461517334 2.0922582149505615 3.427074432373047 3.866607666015625 8.012527465820312
        10.473603248596191 13.796306610107422 12.391485214233398 12.932507514953613 12.471526145935059 12.470047950744629
        11.580952644348145 10.953274726867676 11.68143081665039 12.528156280517578 11.46931266784668 11.284608840942383
        10.279047012329102 11.373844146728516 11.444809913635254 11.479935646057129 10.98120403289795 10.587549209594727
        10.4063138961792 10.021985054016113 12.330699920654297 12.14772891998291 11.956287384033203 11.620080947875977
        11.8667631149292 12.157188415527344 12.289097785949707 11.944785118103027 11.607056617736816 11.701699256896973
        11.877680778503418 12.069103240966797 12.127095222473145 11.367770195007324 11.22838020324707 11.782520294189453
        13.999719619750977 15.10710334777832 15.75123119354248 15.98374080657959 15.757384300231934 14.897442817687988
        14.625572204589844 13.92924690246582 14.076265335083008 15.010708808898926 16.467395782470703 15.858728408813477
        13.273463249206543 11.644649505615234 9.54931926727295 8.803678512573242 7.625040054321289 8.509637832641602
        9.419755935668945 11.684213638305664 14.115396499633789 18.494909286499023 22.133522033691406 23.858110427856445
        19.896684646606445 14.795555114746094 11.749730110168457 9.634708404541016 8.4802885055542 8.354814529418945
        8.766021728515625 9.210893630981445 9.178454399108887 8.257649421691895 8.023263931274414 8.94118595123291
        11.120375633239746 12.210439682006836 12.962206840515137 12.409438133239746 11.37139892578125 10.799739837646484
        10.342751502990723 10.634432792663574 11.560991287231445 12.108105659484863 11.780597686767578 9.778158187866211
        9.415986061096191 8.677661895751953 8.790908813476562 8.47064208984375 7.893643379211426 7.208191871643066
        7.36364221572876 7.6038737297058105 7.986285209655762 7.670685768127441 7.446826934814453 6.393198490142822
        6.066956043243408 5.694817543029785 5.132927894592285 5.070025444030762 5.7911295890808105 7.017496109008789
        7.826597213745117 8.469930648803711 9.64955997467041 10.053323745727539 8.597029685974121 6.945560932159424
        5.758975982666016 5.617136001586914 4.284818649291992 3.407050848007202 2.7052533626556396 1.8874082565307617
        4.012859344482422 7.2208170890808105 10.59395694732666 11.712027549743652 12.085697174072266 11.169608116149902
        8.859042167663574 7.601356029510498 7.737509250640869 9.230077743530273 11.116849899291992 12.370331764221191
        12.454987525939941 12.753562927246094 11.8369779586792 12.884316444396973 11.410552024841309 11.1315279006958
        9.605709075927734 9.187918663024902 8.601473808288574 8.755409240722656 10.163409233093262 11.130546569824219
        11.83622932434082 11.753006935119629 11.08382511138916 10.99494743347168 10.9346923828125 10.846935272216797
        10.590950012207031 9.88349437713623 9.161651611328125 9.338142395019531 9.680011749267578 10.045854568481445
        9.843693733215332 8.44904899597168 7.51725959777832 5.808343410491943 4.58471155166626 3.3657615184783936
        4.008389472961426 5.013053894042969 5.4884233474731445 7.904317378997803 9.093567848205566 11.674427032470703
        11.11933708190918 11.820470809936523 11.861891746520996 11.896570205688477 12.035496711730957 11.934804916381836
        13.352095603942871 14.117644309997559 12.803561210632324 11.667672157287598 9.836166381835938 10.973831176757812
        11.195212364196777 11.310604095458984 10.65499496459961 11.082623481750488 10.883112907409668 10.438092231750488
        12.742491722106934 11.951946258544922 11.342018127441406 10.887711524963379 11.103941917419434 11.939919471740723
        12.012821197509766 12.06100082397461 12.191683769226074 11.884537696838379 11.547261238098145 11.437609672546387
        11.745434761047363 11.424211502075195 10.55383586883545 10.835314750671387 11.694973945617676 13.192668914794922
        14.47558879852295 16.00628089904785 16.549121856689453 15.804567337036133 16.518314361572266 15.435547828674316
        15.217879295349121 15.605729103088379 16.57460594177246 15.487957000732422 13.480266571044922 12.26280689239502
        10.794342041015625 9.977775573730469 8.368840217590332 8.4749116897583 7.10053825378418 8.270012855529785
        10.701823234558105 15.331762313842773 18.93634605407715 20.912094116210938 20.097000122070312 16.439767837524414
        13.781450271606445 11.166894912719727 9.505146026611328 8.916175842285156 8.94289493560791 8.274852752685547
        6.8076171875 6.737213134765625 7.3506293296813965 9.761390686035156 11.144387245178223 12.155804634094238
        12.273616790771484 12.043031692504883 11.115917205810547 10.844388008117676 10.235578536987305 9.420621871948242
        10.77676773071289 11.596631050109863 10.798626899719238 9.231903076171875 9.504707336425781 8.403586387634277
        8.506221771240234 8.012837409973145 7.782968521118164 6.645280838012695 6.916682720184326 7.085938453674316
        7.269655227661133 6.90987491607666 7.040023326873779 7.231985092163086 6.9505510330200195 5.738975524902344
        4.820699214935303 5.319034576416016 6.306385517120361 6.9822845458984375 8.147100448608398 9.997333526611328
        11.160541534423828 11.193937301635742 9.477594375610352 8.492536544799805 7.037489891052246 6.341153144836426
        5.552429676055908 4.214437484741211 4.006653785705566 3.2801156044006348 4.199484825134277 5.178342819213867
        7.439550399780273 8.904875755310059 8.954737663269043 9.803353309631348 8.322912216186523 6.563331127166748
        6.897645950317383 9.640301704406738 11.839661598205566 14.04876708984375 13.467205047607422 13.011087417602539
        11.719690322875977 12.48068618774414 11.430618286132812 11.246198654174805 10.194090843200684 9.533027648925781
        8.705982208251953 8.82486629486084 9.902725219726562 10.21527099609375 10.988482475280762 10.928046226501465
        11.685327529907227 11.290199279785156 10.729403495788574 11.233038902282715 11.417320251464844 10.677074432373047
        8.975006103515625 9.5028657913208 10.311960220336914 11.196173667907715 10.81625747680664 9.087445259094238
        8.407609939575195 6.937957286834717 5.841426849365234 5.171914100646973 5.320393085479736 5.07538366317749
        4.570663928985596 6.03795862197876 7.174317836761475 9.040042877197266 9.290404319763184 9.942618370056152
        10.53774642944336 10.65644359588623 10.697883605957031 11.155200004577637 12.437278747558594 13.23270034790039
        12.408663749694824 12.014376640319824 9.330461502075195 10.394737243652344 10.685663223266602 11.673783302307129
        10.550188064575195 10.801122665405273 10.548757553100586 10.155708312988281 12.930807113647461 11.662822723388672
        11.308456420898438 10.387031555175781 11.53710651397705 11.98188591003418 11.727960586547852 11.866555213928223
        11.91685962677002 11.931654930114746 11.550764083862305 11.495213508605957 11.81503963470459 11.195297241210938
        10.017215728759766 9.564751625061035 9.389222145080566 11.59882926940918 13.60283374786377 17.181833267211914
        17.714508056640625 16.502309799194336 17.242515563964844 15.65729808807373 15.8619966506958 15.504926681518555
        16.15506362915039 15.383403778076172 13.984650611877441 13.280220031738281 11.589349746704102 11.069573402404785
        9.482255935668945 8.002693176269531 6.085913181304932 6.054111957550049 6.438223361968994 8.306804656982422
        9.416271209716797 13.653874397277832 16.39493751525879 16.721506118774414 15.433157920837402 13.448541641235352
        12.316872596740723 10.051004409790039 9.057493209838867 8.373176574707031 7.367079257965088 8.358966827392578
        8.87842845916748 10.747000694274902 11.498448371887207 12.224396705627441 11.863210678100586 11.327165603637695
        10.799574851989746 10.745322227478027 10.389627456665039 9.326440811157227 8.986443519592285 9.46927547454834
        8.868987083435059 7.633225917816162 8.400237083435059 8.56444263458252 9.09485149383545 8.123568534851074
        8.460943222045898 8.250310897827148 8.625227928161621 8.324504852294922 7.945371627807617 7.514553546905518
        8.129364013671875 8.32973575592041 7.3332109451293945 6.348539352416992 5.3825201988220215 5.8890886306762695
        8.263172149658203 9.191746711730957 9.557243347167969 10.805914878845215 11.812906265258789 11.33327579498291
        9.574518203735352 9.800272941589355 9.146146774291992 8.58885669708252 6.972535133361816 5.336081027984619
        4.982872009277344 4.898484706878662 4.817192077636719 4.611794471740723 5.900462627410889 7.298931121826172
        7.062651634216309 7.283794403076172 6.334928512573242 5.945372581481934 6.862411975860596 9.262184143066406
        10.711469650268555 12.111176490783691 11.895986557006836 12.332707405090332 10.939249992370605 11.678879737854004
        12.09465503692627 13.13534927368164 12.247567176818848 10.256199836730957 8.890710830688477 8.292402267456055
        8.600196838378906 8.617393493652344 8.934102058410645 9.333282470703125 10.327531814575195 10.312965393066406
        10.680200576782227 11.318714141845703 11.741230010986328 10.930282592773438 9.713163375854492 10.556829452514648
        10.5579252243042 11.012176513671875 10.495821952819824 9.628372192382812 9.234811782836914 8.418869018554688
        8.311195373535156 6.953029632568359 6.40308141708374 6.1388421058654785 6.3147101402282715 7.237219333648682
        7.439192771911621 7.544692039489746 7.878808975219727 8.012335777282715 8.284844398498535 8.312840461730957
        9.631814956665039 9.978035926818848 10.48244857788086 11.055968284606934 11.028044700622559 12.274406433105469
        10.787742614746094 10.089447975158691 10.431757926940918 11.509946823120117 11.486760139465332 10.891510963439941
        10.299966812133789 10.650680541992188 11.743952751159668 11.051642417907715 11.331791877746582 11.034184455871582
        11.87488079071045 12.325211524963379 11.833595275878906 12.06425666809082 12.288921356201172 11.70981216430664
        11.757652282714844 11.491806030273438 11.653055191040039 11.075029373168945 9.358495712280273 8.627420425415039
        7.684979438781738 9.272954940795898 11.511618614196777 15.792624473571777 17.7418270111084 16.441843032836914
        17.086923599243164 17.041933059692383 17.15412712097168 15.969433784484863 15.205927848815918 14.148923873901367
        13.437376022338867 12.770744323730469 12.131474494934082 10.80742073059082 9.279354095458984 7.647421836853027
        5.341298580169678 3.819316864013672 3.034447431564331 2.5816357135772705 3.002798557281494 6.5721755027771
        13.701828956604004 15.446731567382812 17.434280395507812 16.418439865112305 15.142745018005371 12.035289764404297
        10.42354679107666 9.756057739257812 8.994583129882812 10.333212852478027 10.168054580688477 10.7031888961792
        11.041526794433594 11.90817928314209 10.882325172424316 10.869182586669922 10.44089412689209 10.632054328918457
        9.519450187683105 8.06929874420166 7.724786281585693 7.605813980102539 7.615211009979248 7.137714862823486
        7.293911457061768 8.321959495544434 9.117429733276367 8.557313919067383 8.464658737182617 9.073758125305176
        9.716233253479004 9.286301612854004 8.883760452270508 8.656758308410645 8.999434471130371 9.837464332580566
        9.004203796386719 8.552425384521484 7.84762716293335 8.083455085754395 9.835187911987305 9.927179336547852
        9.579099655151367 10.278573036193848 11.511886596679688 11.394425392150879 9.852141380310059 10.173322677612305
        10.32352352142334 9.727544784545898 8.454532623291016 6.677917957305908 6.09006404876709 5.925144672393799
        4.835348129272461 4.068698406219482 3.626585006713867 3.8887243270874023 4.094542503356934 4.400211334228516
        5.487002372741699 5.969303131103516 7.100073337554932 9.144651412963867 10.152299880981445 11.003134727478027
        10.099790573120117 10.102577209472656 9.820100784301758 11.142807960510254 12.477837562561035 12.842548370361328
        12.450350761413574 11.228967666625977 10.242392539978027 9.079845428466797 7.671831130981445 6.9499969482421875
        6.623237609863281 7.716220378875732 9.78380298614502 10.415538787841797 10.604707717895508 10.698400497436523
        10.96235179901123 10.093600273132324 8.973999977111816 9.578754425048828 9.88180923461914 9.961602210998535
        9.273731231689453 8.9112548828125 9.417322158813477 10.299203872680664 10.863269805908203 10.093731880187988
        8.575875282287598 8.370906829833984 8.965768814086914 9.361506462097168 9.096037864685059 8.442464828491211
        8.538942337036133 8.190790176391602 7.566914081573486 6.917585372924805 8.104998588562012 9.124682426452637
        9.345974922180176 8.201258659362793 8.994502067565918 10.197673797607422 11.444677352905273 11.106931686401367
        10.937838554382324 11.440825462341309 10.791585922241211 9.629157066345215 9.227103233337402 10.149150848388672
        10.65979290008545 10.915533065795898 11.149737358093262 11.296792030334473 12.531989097595215 12.799747467041016
        13.02444839477539 12.464357376098633 12.00366497039795 11.609012603759766 11.848623275756836 12.220947265625
        11.465201377868652 10.544858932495117 9.459428787231445 8.839147567749023 8.633289337158203 8.803910255432129
        10.358752250671387 13.667150497436523 16.449125289916992 16.839149475097656 16.282447814941406 15.783008575439453
        16.27610206604004 14.41873550415039 14.244746208190918 13.848098754882812 13.994129180908203 13.16662311553955
        12.048645973205566 11.451130867004395 9.302237510681152 6.961904048919678 4.876637935638428 3.1851561069488525
        1.8402948379516602 2.018091917037964 1.4420422315597534 5.389675140380859 11.332575798034668 14.625558853149414
        17.013662338256836 17.319473266601562 16.514034271240234 14.118361473083496 12.822659492492676 11.717040061950684
        11.423392295837402 11.06905460357666 9.969892501831055 10.012345314025879 10.285774230957031 11.132160186767578
        10.772562980651855 10.468504905700684 9.811405181884766 9.575126647949219 8.492968559265137 7.7903008460998535
        7.319402694702148 7.712784290313721 7.853445529937744 7.510590076446533 6.760519027709961 7.461272239685059
        8.941266059875488 8.966070175170898 8.33127498626709 8.581137657165527 9.281864166259766 9.800787925720215
        9.618642807006836 9.504491806030273 9.52219295501709 10.692514419555664 10.892232894897461 11.00940227508545
        10.101889610290527 9.647561073303223 10.080015182495117 10.288692474365234 10.6383695602417 10.240190505981445
        11.008673667907715 10.500506401062012 10.474124908447266 10.674138069152832 10.333708763122559 9.667069435119629
        8.873537063598633 8.076000213623047 7.392787933349609 6.490677356719971 4.315229892730713 3.214822292327881
        2.5520617961883545 2.9287686347961426 3.1157948970794678 4.013770580291748 4.584441184997559 5.672654628753662
        7.291254043579102 8.717870712280273 9.360797882080078 9.694243431091309 9.059666633605957 9.105204582214355
        8.833863258361816 10.301100730895996 10.863022804260254 11.775564193725586 12.21107292175293 11.309648513793945
        10.148798942565918 7.843630313873291 6.695680141448975 6.431517124176025 5.870833396911621 7.09766960144043
        8.107542037963867 9.872791290283203 9.705781936645508 9.24637508392334 9.299517631530762 8.122032165527344
        8.563227653503418 9.56930160522461 10.224945068359375 9.770465850830078 8.59540843963623 8.640064239501953
        8.945977210998535 10.336369514465332 11.463865280151367 11.275045394897461 10.14351749420166 9.174386024475098
        10.030126571655273 10.360292434692383 10.531510353088379 9.724526405334473 9.886176109313965 8.517152786254883
        7.14251184463501 5.119472980499268 5.9097394943237305 7.195984363555908 7.41344690322876 6.131462097167969
        6.562869548797607 8.116192817687988 9.189175605773926 9.964414596557617 11.076937675476074 11.183781623840332
        10.202676773071289 8.111197471618652 8.714666366577148 9.690780639648438 9.99241828918457 10.579615592956543
        11.165573120117188 11.647541046142578 12.472831726074219 13.933980941772461 14.646685600280762 13.85684871673584
        12.289338111877441 12.053352355957031 12.476442337036133 12.454751968383789 12.052316665649414 11.02236270904541
        11.239400863647461 10.846817970275879 11.028456687927246 9.558265686035156 10.012184143066406 11.695062637329102
        14.48949146270752 14.705756187438965 15.279598236083984 16.65285301208496 18.29597282409668 16.877315521240234
        15.295171737670898 14.392560005187988 13.735672950744629 12.903152465820312 12.187325477600098 12.074719429016113
        10.61042308807373 7.9870805740356445 5.261504650115967 3.175307273864746 2.209462881088257 2.259550094604492
        4.904909610748291 7.4085588455200195 9.411563873291016 11.826295852661133 16.305835723876953 17.282119750976562
        17.364858627319336 15.864920616149902 15.407955169677734 13.769729614257812 12.424858093261719 11.540215492248535
        9.936849594116211 10.021300315856934 10.761466026306152 11.33415699005127 11.345148086547852 10.557474136352539
        9.41238021850586 9.113948822021484 7.909066200256348 7.893179416656494 7.589868068695068 7.9551215171813965
        7.997518539428711 8.144163131713867 7.491265296936035 7.395052433013916 8.957950592041016 9.140685081481934
        8.044709205627441 7.584081172943115 8.750105857849121 9.509675979614258 9.999221801757812 9.79348087310791
        9.804076194763184 11.184150695800781 11.836332321166992 11.591405868530273 10.080265045166016 10.059183120727539
        10.388762474060059 10.368218421936035 9.943796157836914 10.114609718322754 10.743212699890137 10.63179874420166
        10.768769264221191 10.550355911254883 10.249115943908691 10.463517189025879 10.179083824157715 9.123619079589844
        8.393589973449707 7.695573806762695 5.885616779327393 4.146191120147705 3.422027349472046 3.415189743041992
        3.4250056743621826 4.7159624099731445 5.584821701049805 6.674030780792236 8.445335388183594 9.944794654846191
        10.312152862548828 9.257882118225098 8.378490447998047 8.311068534851074 8.682700157165527 9.74622631072998
        9.438698768615723 10.062661170959473 10.792023658752441 10.995482444763184 10.467641830444336 8.421452522277832
        7.707791328430176 7.493740558624268 7.453064918518066 8.150347709655762 8.309206008911133 9.665432929992676
        9.56358814239502 9.522029876708984 9.879608154296875 8.883710861206055 9.00777816772461 9.431539535522461
        10.314709663391113 10.044954299926758 8.384420394897461 8.08166790008545 8.285613059997559 9.9238920211792
        11.50198745727539 11.920845031738281 10.811565399169922 10.172377586364746 10.34549617767334 10.091166496276855
        10.505939483642578 10.844043731689453 11.040143966674805 8.980114936828613 8.021285057067871 5.5681843757629395
        5.860528945922852 6.3716912269592285 5.881991386413574 4.718245506286621 5.031181335449219 6.067911624908447
        7.129318714141846 9.52659797668457 11.345863342285156 10.768850326538086 8.961048126220703 8.25316333770752
        9.208102226257324 9.916906356811523 10.156003952026367 10.20048713684082 9.958028793334961 10.75260066986084
        11.981321334838867 13.997682571411133 14.535502433776855 13.770998001098633 12.735796928405762 12.285446166992188
        12.460259437561035 11.659445762634277 10.93765640258789 9.954471588134766 11.246512413024902 11.448312759399414
        11.183706283569336 9.470501899719238 8.477402687072754 9.336065292358398 12.16899299621582 13.6441068649292
        14.210061073303223 16.436525344848633 18.4735050201416 18.21704864501953 16.05137825012207 15.46349048614502
        14.558952331542969 12.99599838256836 11.81200122833252 11.851984977722168 11.515640258789062 9.40023422241211
        6.476181983947754 5.011141777038574 4.461545467376709 4.949986934661865 5.604201316833496 7.1270270347595215
        8.185262680053711 11.19729995727539 14.05217456817627 14.388089179992676 15.371665000915527 15.582554817199707
        15.23768424987793 13.391875267028809 11.913712501525879 10.627483367919922 9.49314022064209 9.462043762207031
        10.121434211730957 10.803461074829102 11.070944786071777 10.310389518737793 8.305874824523926 7.931257724761963
        7.751802444458008 8.283923149108887 8.110154151916504 7.948186874389648 7.452970027923584 7.124969482421875
        7.367959976196289 7.3775482177734375 8.530084609985352 8.305033683776855 8.003335952758789 7.821397304534912
        8.945943832397461 9.810952186584473 10.103474617004395 9.795782089233398 9.388668060302734 10.59588623046875
        11.422577857971191 10.483430862426758 8.640976905822754 9.211874961853027 9.701668739318848 9.462587356567383
        8.149552345275879 8.668628692626953 8.944127082824707 9.713544845581055 9.747745513916016 9.902881622314453
        10.525487899780273 11.437838554382324 11.475625038146973 9.968384742736816 9.1558837890625 8.891050338745117
        7.788998603820801 6.136607646942139 4.938934803009033 4.988805294036865 4.069708824157715 4.612647533416748
        5.4158172607421875 7.209482192993164 8.803378105163574 10.251821517944336 10.372645378112793 9.247909545898438
        7.628814220428467 7.3858442306518555 7.533868312835693 7.951653003692627 8.522732734680176 9.895729064941406
        10.150911331176758 10.062555313110352 9.773651123046875 8.974400520324707 7.649389266967773 7.868039131164551
        8.356629371643066 9.243921279907227 9.189081192016602 9.276548385620117 8.947649955749512 9.674858093261719
        10.070569038391113 9.937009811401367 9.55716323852539 9.599081039428711 10.481119155883789 10.850132942199707
        9.766870498657227 8.46566390991211 8.219088554382324 8.666210174560547 10.753274917602539 10.984146118164062
        11.571412086486816 11.575467109680176 11.775863647460938 10.245530128479004 10.624626159667969 11.379072189331055
        11.734532356262207 10.215177536010742 9.665215492248535 8.251052856445312 7.425001621246338 7.292962074279785
        5.5656819343566895 4.412635326385498 4.3626604080200195 5.330014228820801 5.589244365692139 7.122739315032959
        9.035966873168945 10.6151704788208 9.51240062713623 9.448832511901855 10.239789009094238 11.769840240478516
        9.327184677124023 9.63894271850586 9.750960350036621 9.991541862487793 11.003949165344238 13.006717681884766
        13.974472999572754 14.088645935058594 12.896001815795898 12.390936851501465 11.757299423217773 11.445780754089355
        11.149250984191895 9.95833683013916 11.219571113586426 11.382258415222168 11.002114295959473 9.614935874938965
        8.233147621154785 8.543014526367188 10.639918327331543 12.550031661987305 13.225884437561035 15.57758903503418
        19.373003005981445 19.47140884399414 17.69425392150879 17.002117156982422 14.862954139709473 11.943016052246094
        9.655389785766602 9.65038013458252 10.30955696105957 9.718897819519043 8.48475456237793 6.197802543640137
        5.1770501136779785 5.438504695892334 6.448328971862793 7.656291484832764 9.400317192077637 10.970301628112793
        13.419867515563965 12.475905418395996 13.604126930236816 13.159072875976562 13.952261924743652 12.56910514831543
        10.960715293884277 9.598971366882324 9.078722953796387 9.551273345947266 10.219839096069336 10.146537780761719
        9.82597827911377 9.539188385009766 9.153653144836426 8.914072036743164 8.633715629577637 8.266602516174316
        7.8680315017700195 7.648200988769531 7.067568302154541 7.100447177886963 7.035787582397461 6.8143415451049805
        7.12515115737915 7.381197452545166 7.82071590423584 7.535477161407471 8.08011531829834 8.405071258544922
        8.46555233001709 8.689128875732422 9.22936725616455 9.712324142456055 10.388385772705078 10.257984161376953
        9.322531700134277 9.549686431884766 9.30773639678955 8.415998458862305 7.105352878570557 7.6865763664245605
        8.156635284423828 9.952251434326172 10.77902603149414 11.467567443847656 10.896242141723633 11.669276237487793
        11.69215202331543 10.812820434570312 10.285496711730957 10.177399635314941 9.890472412109375 8.55418586730957
        7.299154281616211 6.784384250640869 5.656192302703857 5.145153522491455 5.883263111114502 7.562160015106201
        9.170243263244629 10.807877540588379 11.31416130065918 10.602476119995117 8.678654670715332 8.400858879089355
        8.117976188659668 8.494766235351562 9.222977638244629 9.800620079040527 9.726236343383789 9.376547813415527
        10.026224136352539 10.083492279052734 9.345134735107422 9.564151763916016 9.467385292053223 9.80737590789795
        9.772150039672852 9.662787437438965 9.506598472595215 10.244095802307129 10.694253921508789 10.599884033203125
        9.921319007873535 10.008296966552734 10.942748069763184 11.795665740966797 11.178139686584473 10.005864143371582
        10.065258026123047 10.060005187988281 10.946601867675781 11.036043167114258 12.726740837097168 13.305749893188477
        12.442760467529297 11.337684631347656 10.991661071777344 12.039361953735352 12.25714111328125 12.47734260559082
        12.242208480834961 10.849689483642578 8.482183456420898 7.484383583068848 5.57853364944458 4.80159330368042
        5.465871334075928 5.905762195587158 5.479409694671631 5.598312854766846 7.121885299682617 10.002163887023926
        10.716413497924805 11.3001070022583 9.635851860046387 9.201539039611816 9.05041790008545 9.189729690551758
        9.161941528320312 10.411377906799316 11.1035737991333 12.999187469482422 12.937887191772461 13.494134902954102
        13.293706893920898 13.179960250854492 12.20914077758789 11.696430206298828 11.284965515136719 11.254899024963379
        11.138200759887695 11.536181449890137 10.126770973205566 9.272817611694336 8.576516151428223 8.181181907653809
        9.218911170959473 11.015349388122559 12.046785354614258 15.02076244354248 16.876771926879883 19.037410736083984
        17.091360092163086 19.196063995361328 18.029640197753906 15.06108283996582 11.6096773147583 9.546161651611328
        8.847367286682129 8.927048683166504 9.38451862335205 8.057225227355957 6.717560291290283 6.730490207672119
        7.681890964508057 7.619637966156006 9.072562217712402 9.101396560668945 10.995512962341309 10.787513732910156
        11.16526985168457 9.70751953125 9.96048641204834 9.585051536560059 9.928879737854004 8.749341011047363
        9.179120063781738 9.37958812713623 9.974111557006836 9.853203773498535 9.35908031463623 10.135934829711914
        10.487842559814453 10.810138702392578 9.776241302490234 8.628552436828613 8.035128593444824 7.884074687957764
        7.373940944671631 6.76928186416626 5.732000350952148 5.195927143096924 5.181816577911377 6.824996471405029
        8.131479263305664 9.042112350463867 8.930668830871582 8.07460880279541 7.044292449951172 7.973388195037842
        9.063633918762207 10.034188270568848 10.09522533416748 10.487846374511719 10.21733570098877 9.585930824279785
        9.17044448852539 7.857814788818359 7.41108512878418 7.360418796539307 7.800642967224121 9.73363208770752
        11.065520286560059 12.219541549682617 11.180497169494629 10.905793190002441 10.341346740722656 10.092090606689453
        10.19442081451416 10.484136581420898 10.411667823791504 10.360138893127441 9.403213500976562 8.55909252166748
        7.278712749481201 6.606582164764404 6.876593589782715 7.41940975189209 8.578813552856445 11.057251930236816
        12.055815696716309 12.00793743133545 9.963142395019531 9.422204971313477 7.989906311035156 8.254961967468262
        9.016858100891113 9.403186798095703 9.046208381652832 9.08423900604248 9.288985252380371 9.986761093139648
        9.932250022888184 10.672542572021484 10.335086822509766 9.416230201721191 9.887899398803711 9.538721084594727
        9.504372596740723 10.5425386428833 11.032792091369629 10.965888977050781 10.444968223571777 10.658835411071777
        11.509172439575195 11.36942195892334 11.80362319946289 10.805408477783203 10.674209594726562 10.394673347473145
        11.381811141967773 11.902116775512695 13.52186393737793 14.195252418518066 14.187735557556152 13.118001937866211
        13.11137866973877 12.524663925170898 12.040423393249512 12.814737319946289 13.200089454650879 12.208366394042969
        9.251256942749023 7.966576099395752 6.451601982116699 5.8711652755737305 5.804973602294922 5.657620906829834
        5.072638988494873 5.131113052368164 5.8791117668151855 9.661523818969727 10.96022891998291 12.145133972167969
        9.137215614318848 6.397585868835449 8.56356143951416 8.412303924560547 8.520803451538086 10.076652526855469
        11.713322639465332 12.556106567382812 12.986318588256836 12.638754844665527 12.005925178527832 12.276379585266113
        12.170345306396484 12.726198196411133 12.441057205200195 12.530014991760254 12.888849258422852 12.111599922180176
        10.523493766784668 9.07043170928955 8.41723918914795 8.11346435546875 8.059172630310059 8.25166130065918
        8.519182205200195 10.773759841918945 13.144674301147461 17.94626808166504 20.716758728027344 22.505802154541016
        21.376461029052734 19.51443862915039 15.49228286743164 12.484495162963867 9.503984451293945 8.740250587463379
        8.032099723815918 8.76315689086914 8.306222915649414 8.170373916625977 8.337935447692871 8.77868366241455
        9.438535690307617 9.742645263671875 10.45225715637207 9.69471263885498 9.716676712036133 7.788427352905273
        8.66205883026123 8.408333778381348 9.2876558303833 8.431971549987793 8.684856414794922 9.624151229858398
        10.122817993164062 9.750113487243652 9.40333080291748 10.667332649230957 12.51003646850586 12.400540351867676
        10.828747749328613 9.37550163269043 8.152996063232422 7.432587146759033 7.039854526519775 6.734486103057861
        5.633141040802002 4.705349922180176 4.941468715667725 5.923494815826416 6.801417350769043 7.50439977645874
        7.4579291343688965 6.989596366882324 6.126767158508301 7.578192234039307 8.876815795898438 9.607962608337402
        9.817554473876953 10.10176944732666 10.207558631896973 10.142083168029785 9.880430221557617 8.91673755645752
        8.505166053771973 7.675769805908203 7.36208438873291 8.106842041015625 10.262877464294434 11.311306953430176
        10.02371883392334 9.719929695129395 9.184197425842285 9.82381534576416 9.707751274108887 9.970632553100586
        9.61313247680664 10.071182250976562 10.183423042297363 9.207304000854492 8.306689262390137 7.438512802124023
        7.309506416320801 7.4639763832092285 8.547046661376953 11.09998893737793 12.887399673461914 13.48632526397705
        11.699297904968262 10.833760261535645 8.63372802734375 8.673210144042969 8.308867454528809 8.526799201965332
        7.863003730773926 8.169292449951172 8.794994354248047 9.919508934020996 11.27548599243164 11.387735366821289
        10.63415813446045 10.709434509277344 10.479427337646484 10.122810363769531 9.741081237792969 10.350881576538086
        10.578835487365723 10.1273193359375 10.259761810302734 10.376243591308594 10.360054016113281 10.161091804504395
        9.843606948852539 9.959461212158203 9.87622356414795 10.35922622680664 10.471593856811523 12.177736282348633
        13.952698707580566 14.188311576843262 13.648616790771484 13.64854907989502 14.013205528259277 14.061513900756836
        13.146830558776855 12.455126762390137 10.843457221984863 10.333566665649414 9.08657455444336 7.964604377746582
        6.752826690673828 6.267159461975098 5.615150451660156 4.929275989532471 4.644822120666504 5.331614971160889
        6.622660160064697 9.045950889587402 9.912854194641113 10.275986671447754 7.722654342651367 4.821957111358643
        8.22077465057373 7.781302452087402 8.485169410705566 9.972234725952148 12.291926383972168 13.361001014709473
        13.716243743896484 13.237344741821289 12.291935920715332 12.407600402832031 12.726032257080078 14.117469787597656
        15.091811180114746 15.170737266540527 15.049288749694824 13.902681350708008 11.728110313415527 9.627613067626953
        8.515824317932129 8.172255516052246 7.089514255523682 6.863739967346191 6.561796188354492 7.255629539489746
        8.97047233581543 13.377520561218262 17.618515014648438 21.58971405029297 23.821880340576172 24.36686897277832
        20.645580291748047 16.138689041137695 12.922064781188965 10.376401901245117 8.940413475036621 8.923295021057129
        9.113798141479492 9.934270858764648 10.763381004333496 10.940814971923828 9.794878959655762 9.932781219482422
        10.075180053710938 9.370052337646484 9.119964599609375 8.967368125915527 9.66411018371582 9.439309120178223
        9.212875366210938 8.59032154083252 8.095376968383789 9.06811809539795 10.468064308166504 10.982375144958496
        11.038949012756348 11.878249168395996 12.935254096984863 12.590757369995117 10.861084938049316 10.114166259765625
        8.745487213134766 7.723578453063965 7.283773422241211 7.274032115936279 6.5196967124938965 6.138836860656738
        6.633616924285889 7.219809055328369 7.392162322998047 8.336579322814941 8.414531707763672 8.119505882263184
        6.871261119842529 7.432214260101318 7.651724815368652 8.834735870361328 9.443357467651367 10.207931518554688
        10.168264389038086 11.30474853515625 11.835955619812012 11.136462211608887 10.566832542419434 9.254034042358398
        7.888167858123779 7.071346759796143 8.037590026855469 8.934520721435547 8.891446113586426 9.563053131103516
        9.735527992248535 9.754321098327637 8.93615436553955 8.867497444152832 9.201887130737305 10.214564323425293
        10.132041931152344 9.314599990844727 8.355937004089355 7.801928520202637 7.528964519500732 7.6496500968933105
        8.944608688354492 10.420548439025879 11.765544891357422 12.53154182434082 11.801382064819336 11.808112144470215
        9.671684265136719 9.503318786621094 8.281858444213867 8.533491134643555 8.028152465820312 8.548007011413574
        9.513069152832031 11.074505805969238 11.479233741760254 11.196236610412598 11.217437744140625 12.322196960449219
        11.950628280639648 10.64517593383789 9.567869186401367 9.874375343322754 10.467666625976562 10.142406463623047
        10.230911254882812 10.886553764343262 10.982715606689453 11.013345718383789 9.644403457641602 9.429283142089844
        9.808784484863281 10.18319320678711 10.54928970336914 12.128997802734375 13.48249626159668 12.950589179992676
        12.971210479736328 14.00551986694336 15.222317695617676 15.607192039489746 15.191269874572754 13.220254898071289
        10.880913734436035 10.082426071166992 9.065868377685547 8.673871040344238 7.931647777557373 8.140676498413086
        7.3202314376831055 6.67449426651001 6.283012866973877 6.1501665115356445 6.327639579772949 7.813846111297607
        8.355144500732422 8.053732872009277 5.789915084838867 4.548304080963135 8.229107856750488 7.466035842895508
        7.508572578430176 8.1878662109375 10.06085205078125 12.31100845336914 13.77708625793457 13.98531436920166
        13.094779968261719 13.086692810058594 12.79449462890625 14.630014419555664 16.016080856323242 16.97370147705078
        16.734027862548828 16.82669448852539 14.067852973937988 10.746668815612793 8.424989700317383 8.033496856689453
        7.793003559112549 6.825927734375 5.585704326629639 3.3130533695220947 4.924931526184082 6.510622978210449
        12.981715202331543 16.029815673828125 21.516088485717773 22.439664840698242 24.1094970703125 19.734813690185547
        17.018386840820312 14.747297286987305 13.488822937011719 12.01480484008789 11.510648727416992 11.765020370483398
        13.418514251708984 13.086211204528809 12.816516876220703 11.160261154174805 10.2139892578125 8.719637870788574
        8.72603702545166 9.735686302185059 11.005643844604492 9.81485366821289 8.498164176940918 8.110787391662598
        8.45225715637207 9.543925285339355 11.138785362243652 11.664019584655762 11.19225788116455 10.990485191345215
        11.331042289733887 10.729169845581055 10.363716125488281 10.136831283569336 8.957179069519043 7.900299072265625
        7.448960304260254 8.424031257629395 8.367441177368164 8.326930046081543 7.997170925140381 8.051473617553711
        5.697795391082764 6.086389541625977 6.629164218902588 6.797029495239258 5.529799938201904 5.981799602508545
        6.120529651641846 7.231696128845215 8.411852836608887 10.18159294128418 10.96485710144043 12.169695854187012
        12.61552619934082 12.316386222839355 11.995590209960938 10.820749282836914 9.029123306274414 8.072919845581055
        8.021377563476562 7.7238450050354 7.690609455108643 8.514961242675781 10.010736465454102 10.091584205627441
        8.947946548461914 8.096622467041016 8.666215896606445 9.849005699157715 9.556055068969727 9.395312309265137
        8.626219749450684 7.813791751861572 7.213732719421387 7.409926414489746 8.664396286010742 9.49789810180664
        9.843440055847168 10.300592422485352 10.73885726928711 12.519545555114746 12.41949462890625 12.169471740722656
        10.337281227111816 9.3932466506958 8.82327651977539 9.394158363342285 10.11149787902832 11.499405860900879
        10.584299087524414 9.437390327453613 9.582489013671875 12.074862480163574 13.217041015625 11.985390663146973
        9.987177848815918 8.977121353149414 9.1646146774292 9.810805320739746 10.211237907409668 11.036702156066895
        11.488897323608398 11.862748146057129 10.729582786560059 10.232943534851074 10.245957374572754 10.232056617736816
        9.760919570922852 10.813892364501953 10.723592758178711 9.055334091186523 9.142877578735352 11.900355339050293
        14.860074043273926 16.21397590637207 16.171010971069336 14.578180313110352 12.612163543701172 10.651087760925293
        9.079843521118164 7.996138572692871 8.4458589553833 9.090421676635742 9.853570938110352 8.828008651733398
        7.7553229331970215 6.384255409240723 5.496443748474121 5.919698715209961 6.149439811706543 5.884758472442627
        4.041276454925537 3.3267321586608887 7.964404582977295 7.585226058959961 7.511042594909668 7.823146343231201
        9.477694511413574 11.92910385131836 13.84949779510498 15.312616348266602 14.147512435913086 15.3104829788208
        13.617814064025879 14.304821014404297 16.362995147705078 17.46417999267578 18.091259002685547 17.859399795532227
        15.378138542175293 12.247444152832031 9.259856224060059 9.713366508483887 8.371805191040039 7.43910551071167
        6.1712965965271 4.459354400634766 4.779294013977051 3.645961046218872 5.645054817199707 7.614920616149902
        11.854806900024414 15.732832908630371 20.599803924560547 21.30888557434082 20.148412704467773 18.317304611206055
        17.89738655090332 15.32474136352539 13.875443458557129 14.082612991333008 14.441996574401855 14.359087944030762
        13.692264556884766 11.971766471862793 10.714927673339844 9.393646240234375 9.650412559509277 10.200013160705566
        10.759225845336914 9.514063835144043 8.106788635253906 8.847018241882324 9.637266159057617 9.883187294006348
        11.203369140625 12.137243270874023 11.464507102966309 10.387596130371094 10.20729923248291 10.288061141967773
        10.049992561340332 10.390971183776855 9.843462944030762 9.142633438110352 8.636685371398926 9.329801559448242
        9.029351234436035 9.252876281738281 9.197522163391113 8.872466087341309 6.787637233734131 6.863456726074219
        6.5157318115234375 5.555027484893799 4.036689281463623 3.5179922580718994 2.991767406463623 4.361098289489746
        6.681103229522705 9.384406089782715 10.421165466308594 12.124436378479004 12.94926929473877 12.934493064880371
        13.233837127685547 12.170708656311035 11.810586929321289 10.47928524017334 8.797053337097168 6.727566719055176
        6.901564121246338 8.5535306930542 10.095270156860352 10.124676704406738 9.252310752868652 8.01466178894043
        8.05580997467041 8.592144012451172 8.898938179016113 8.911375999450684 8.260367393493652 7.621277332305908
        7.173046588897705 7.363421440124512 8.27437973022461 8.407244682312012 8.214147567749023 8.04766845703125
        8.565449714660645 11.106857299804688 12.789008140563965 13.904026985168457 11.92060375213623 11.27683162689209
        11.143070220947266 11.051830291748047 11.260940551757812 11.149173736572266 10.363737106323242 9.813740730285645
        9.79050350189209 11.8941068649292 13.000739097595215 12.387293815612793 10.909292221069336 9.07271957397461
        8.997384071350098 9.060935974121094 9.717633247375488 10.915133476257324 11.8452730178833 11.84108829498291
        11.315433502197266 10.407039642333984 10.396002769470215 9.904485702514648 10.505658149719238 9.315389633178711
        7.816679000854492 6.276120662689209 7.301807403564453 10.936927795410156 14.273893356323242 16.142108917236328
        16.07730484008789 14.940942764282227 13.818181037902832 11.477543830871582 10.359362602233887 9.14377498626709
        9.938570022583008 10.101917266845703 10.633866310119629 9.774375915527344 8.662238121032715 7.32782506942749
        4.924762725830078 3.6641902923583984 3.7839972972869873 4.178359031677246 2.6280508041381836 2.2621254920959473
        7.598444938659668 7.076242923736572 6.269504547119141 6.863394260406494 8.216378211975098 11.546427726745605
        12.727267265319824 13.692172050476074 13.051065444946289 13.769050598144531 13.434876441955566 12.612071990966797
        13.785823822021484 15.789337158203125 17.668296813964844 18.015867233276367 15.319253921508789 11.785801887512207
        9.859086036682129 10.3087797164917 10.821460723876953 9.44418716430664 7.6047468185424805 5.723313808441162
        3.750748872756958 2.981764793395996 3.1975483894348145 4.446183204650879 7.374545097351074 8.84638786315918
        14.326699256896973 17.200733184814453 18.4007511138916 17.9306640625 17.609760284423828 19.013458251953125
        18.104228973388672 17.522432327270508 16.61012077331543 16.558076858520508 17.862438201904297 15.50103759765625
        14.001933097839355 11.758745193481445 12.734637260437012 12.319544792175293 11.326501846313477 9.767049789428711
        9.399373054504395 10.484261512756348 11.458746910095215 10.642736434936523 10.60377311706543 11.591238975524902
        11.549304008483887 11.951292037963867 11.16264820098877 10.679389953613281 10.410773277282715 11.088305473327637
        11.133437156677246 9.520569801330566 9.1295804977417 9.000676155090332 9.187784194946289 8.733964920043945
        8.827858924865723 8.581260681152344 8.153486251831055 7.150930404663086 6.285322189331055 5.368691921234131
        4.408252239227295 2.7392139434814453 2.529582977294922 2.550044059753418 3.5394275188446045 5.189204692840576
        6.941059589385986 9.489087104797363 11.840426445007324 12.33665943145752 12.490931510925293 14.089618682861328
        14.119370460510254 13.28742504119873 9.747079849243164 6.6600117683410645 6.512479305267334 8.39006519317627
        10.327796936035156 9.917911529541016 9.914032936096191 8.895219802856445 8.424017906188965 8.100967407226562
        8.051910400390625 8.157065391540527 8.198784828186035 7.713554382324219 7.367687225341797 7.0241780281066895
        6.918910026550293 6.702890396118164 6.568782806396484 6.528426170349121 6.704469203948975 8.936537742614746
        12.139615058898926 14.456521987915039 13.753826141357422 12.783169746398926 12.466543197631836 12.048885345458984
        12.485061645507812 12.723383903503418 11.669903755187988 11.386778831481934 11.290892601013184 12.311531066894531
        13.256454467773438 13.420186042785645 12.33292293548584 10.175201416015625 8.847517013549805 8.740448951721191
        8.473762512207031 9.733479499816895 10.925864219665527 11.103560447692871 11.263492584228516 10.980870246887207
        11.330754280090332 10.303942680358887 9.230727195739746 7.717375755310059 5.657318115234375 4.412961959838867
        6.148952484130859 9.833104133605957 13.784493446350098 14.905877113342285 14.670467376708984 14.263684272766113
        13.587250709533691 12.48648452758789 11.906375885009766 10.845939636230469 10.846831321716309 9.9037446975708
        10.424895286560059 9.146077156066895 8.576860427856445 7.413702964782715 5.78859806060791 3.964088201522827
        2.2580268383026123 2.5204663276672363 1.7915092706680298 1.616922378540039 5.578941822052002 5.572308540344238
        4.787994384765625 5.614242076873779 7.473294734954834 9.898856163024902 12.370827674865723 11.999714851379395
        11.181856155395508 11.328847885131836 11.089924812316895 10.908263206481934 10.481478691101074 12.065776824951172
        14.945859909057617 17.112863540649414 17.253971099853516 12.543217658996582 9.968420028686523 10.91713809967041
        12.45414924621582 10.639988899230957 8.473297119140625 6.9241228103637695 5.480590343475342 3.8440215587615967
        4.473042011260986 4.451286792755127 4.612582206726074 5.483340740203857 6.8147125244140625 11.034658432006836
        13.351354598999023 14.2511568069458 14.480104446411133 17.122272491455078 18.49822235107422 17.284439086914062
        18.037572860717773 19.086145401000977 20.25221824645996 19.29426383972168 16.715120315551758 14.525390625
        13.613569259643555 13.549309730529785 13.064115524291992 12.322404861450195 11.871881484985352 11.723005294799805
        11.48072624206543 10.968674659729004 10.969642639160156 11.743071556091309 11.519890785217285 12.04971981048584
        11.240917205810547 10.863747596740723 11.407959938049316 12.825040817260742 12.321542739868164 9.66273307800293
        9.040555000305176 8.848860740661621 8.913069725036621 7.414156436920166 7.526302814483643 8.0884428024292
        9.589428901672363 8.651193618774414 7.171154975891113 5.090391159057617 4.432505130767822 3.202871322631836
        2.53159236907959 2.055569887161255 2.3414037227630615 2.622798204421997 3.3529105186462402 6.824207305908203
        9.965542793273926 11.917973518371582 11.588354110717773 13.181434631347656 13.530744552612305 13.548079490661621
        11.884377479553223 9.079331398010254 8.49349594116211 9.572866439819336 10.453462600708008 9.926716804504395
        9.748711585998535 9.355217933654785 8.904716491699219 8.107207298278809 8.067981719970703 8.227747917175293
        8.328598022460938 8.247350692749023 7.398761749267578 6.646003246307373 6.006075859069824 5.572297096252441
        5.023616313934326 5.01023006439209 5.645857334136963 7.3422465324401855 10.07794189453125 12.202530860900879
        12.914080619812012 14.187551498413086 14.235298156738281 13.602049827575684 13.879098892211914 13.697458267211914
        14.303472518920898 13.319134712219238 13.37124252319336 13.152414321899414 13.74592113494873 14.567709922790527
        14.150762557983398 12.664886474609375 10.993611335754395 9.171454429626465 8.668176651000977 9.019993782043457
        10.52934741973877 10.598367691040039 9.889690399169922 10.33296012878418 10.663351058959961 10.066568374633789
        8.312253952026367 5.8570380210876465 4.129005432128906 3.2056612968444824 4.910659313201904 8.378315925598145
        11.395058631896973 13.909097671508789 13.630729675292969 13.406957626342773 12.856019020080566 13.084057807922363
        12.742870330810547 11.464947700500488 10.316937446594238 9.269600868225098 9.475601196289062 8.98896312713623
        7.854068279266357 6.404905319213867 5.209702014923096 4.229462146759033 3.7454206943511963 3.616971731185913
        2.8956520557403564 3.023385763168335 6.4598188400268555 5.495914936065674 4.620229244232178 3.9074442386627197
        5.349625587463379 6.405659198760986 8.722929954528809 10.184148788452148 9.882522583007812 9.974961280822754
        9.977531433105469 9.3223237991333 8.268901824951172 9.342060089111328 12.504721641540527 15.798858642578125
        16.51456069946289 15.106499671936035 13.178330421447754 13.249019622802734 13.630224227905273 11.566370964050293
        10.061588287353516 9.114747047424316 7.8511857986450195 5.348901271820068 5.280544281005859 5.986832618713379
        6.921890735626221 6.6528401374816895 5.44684362411499 6.4688568115234375 8.303905487060547 8.280023574829102
        8.613142967224121 11.574660301208496 13.793306350708008 15.729317665100098 16.242891311645508 19.722740173339844
        23.114343643188477 23.711191177368164 20.747068405151367 17.394569396972656 15.371336936950684 14.617353439331055
        14.20002269744873 14.685527801513672 13.779138565063477 13.242256164550781 12.139866828918457 12.100089073181152
        12.018753051757812 11.158806800842285 10.381441116333008 10.816146850585938 10.457651138305664 10.528983116149902
        11.84239673614502 14.102422714233398 13.320595741271973 11.006769180297852 9.723645210266113 9.701650619506836
        9.907563209533691 9.278081893920898 9.156927108764648 9.604342460632324 9.87857723236084 8.776759147644043
        7.223357200622559 6.176013946533203 5.549468994140625 5.315770626068115 4.777639865875244 3.501091957092285
        2.7161107063293457 1.9627628326416016 1.740463137626648 3.2415637969970703 4.851448059082031 7.735355377197266
        8.512391090393066 9.956857681274414 11.634688377380371 14.103039741516113 13.135957717895508 11.487110137939453
        10.690228462219238 11.266265869140625 11.001696586608887 9.969206809997559 9.986815452575684 9.903751373291016
        9.768654823303223 8.830060958862305 8.46540355682373 9.342032432556152 9.464125633239746 9.1591796875
        7.39239501953125 6.749725341796875 5.9249348640441895 5.401166915893555 4.600502967834473 4.204900741577148
        4.628956317901611 6.3397111892700195 8.37673282623291 9.554604530334473 12.024551391601562 13.872832298278809
        14.49248218536377 14.460156440734863 14.567521095275879 13.990800857543945 13.737361907958984 13.964215278625488
        13.575342178344727 13.998258590698242 15.36528205871582 16.892467498779297 16.502408981323242 14.557909965515137
        12.894227027893066 11.117218017578125 10.523093223571777 10.507469177246094 10.795978546142578 10.758061408996582
        10.30346393585205 9.561871528625488 8.916620254516602 8.088004112243652 7.273617267608643 5.455350875854492
        3.701368570327759 3.04242205619812 4.355569362640381 7.97489070892334 10.787368774414062 12.403936386108398
        12.653644561767578 12.914795875549316 12.7152099609375 13.253931999206543 12.128247261047363 10.877508163452148
        9.755475044250488 9.005999565124512 9.42491340637207 8.16798210144043 6.46657133102417 5.466394901275635
        4.611714839935303 4.080186367034912 3.770045518875122 3.1276328563690186 2.8088576793670654 2.8745386600494385
        8.835864067077637 6.148523330688477 5.2685322761535645 3.662517786026001 4.2707719802856445 2.9660236835479736
        5.3275861740112305 7.560787200927734 7.86346435546875 7.3856892585754395 8.63658332824707 9.005779266357422
        9.086170196533203 8.690160751342773 10.854806900024414 13.52593994140625 15.763089179992676 16.65913200378418
        15.141118049621582 15.332853317260742 13.729410171508789 11.861249923706055 10.905372619628906 10.665454864501953
        9.147334098815918 7.329082012176514 7.103828430175781 8.276918411254883 7.557626247406006 8.127751350402832
        6.356262683868408 5.805594444274902 5.2177557945251465 4.801172733306885 4.566370487213135 4.558752536773682
        4.627371788024902 6.83158540725708 8.54652214050293 13.853042602539062 19.62981605529785 24.527433395385742
        22.208492279052734 18.57799530029297 16.15370750427246 16.372417449951172 16.103933334350586 15.1613130569458
        14.588635444641113 14.558184623718262 13.946869850158691 13.737998962402344 12.52898120880127 11.31136703491211
        10.464356422424316 10.354838371276855 10.249881744384766 10.206159591674805 11.389291763305664 12.263054847717285
        11.621481895446777 10.894765853881836 9.190624237060547 9.62192153930664 9.981849670410156 10.326902389526367
        10.570565223693848 10.322671890258789 10.238482475280762 9.10258960723877 8.353535652160645 7.377969741821289
        6.780023097991943 6.474477767944336 6.268471717834473 4.791592597961426 3.5462605953216553 2.958155870437622
        1.7205690145492554 1.4034264087677002 2.874802350997925 4.961705684661865 5.880473613739014 5.989647388458252
        8.356584548950195 11.561111450195312 13.673355102539062 13.835354804992676 12.37391185760498 11.05327320098877
        10.183341026306152 10.114835739135742 10.372920036315918 10.558449745178223 10.311701774597168 9.050456047058105
        8.159258842468262 8.870205879211426 9.290946006774902 9.457805633544922 7.856551170349121 7.062234401702881
        6.273436069488525 5.935669422149658 5.4182000160217285 4.656335353851318 4.899043560028076 5.411111831665039
        6.034848213195801 6.2960381507873535 9.37553596496582 12.3427152633667 12.637497901916504 12.671189308166504
        12.125136375427246 11.877176284790039 11.621326446533203 11.826910972595215 11.763175964355469 12.216381072998047
        14.495437622070312 16.602697372436523 16.84091567993164 15.276656150817871 13.95280647277832 12.3165922164917
        11.197157859802246 10.862992286682129 10.932698249816895 10.267782211303711 9.521777153015137 7.765563488006592
        5.913705348968506 5.613777160644531 6.485246658325195 5.967080116271973 3.3492953777313232 2.7528679370880127
        4.905974388122559 9.07172966003418 11.84415054321289 13.191720008850098 13.63064193725586 13.158305168151855
        12.319418907165527 12.002046585083008 11.052717208862305 10.224713325500488 9.338526725769043 9.032730102539062
        8.17583179473877 6.422271251678467 3.886972665786743 2.407601833343506 2.720798969268799 3.4425714015960693
        3.4401330947875977 2.552227735519409 3.2890636920928955 4.517900466918945 9.973953247070312 7.552988052368164
        7.267313480377197 5.298988342285156 3.6477527618408203 1.3407245874404907 2.8780550956726074 5.6066436767578125
        5.067396640777588 5.382156848907471 8.24666690826416 9.707615852355957 10.853487014770508 9.67576789855957
        11.65478229522705 11.922398567199707 13.233597755432129 14.132330894470215 13.683610916137695 14.812483787536621
        13.358630180358887 12.474609375 11.336823463439941 9.734197616577148 9.344342231750488 8.148324966430664
        8.745720863342285 9.575067520141602 9.247781753540039 7.992860317230225 5.2582173347473145 5.413100242614746
        5.351187229156494 4.085035800933838 4.381380081176758 3.8249831199645996 2.103170871734619 2.9951012134552
        3.3953518867492676 7.545312404632568 14.4479341506958 21.80541229248047 22.032329559326172 18.085176467895508
        17.309986114501953 16.397132873535156 15.827170372009277 14.045429229736328 14.360335350036621 15.092844009399414
        14.547504425048828 14.411813735961914 12.947857856750488 11.858183860778809 11.3915376663208 11.545931816101074
        12.151069641113281 11.12071704864502 10.242803573608398 10.135420799255371 10.453164100646973 10.583223342895508
        9.741779327392578 10.276325225830078 10.525805473327637 11.203851699829102 11.28188705444336 11.067427635192871
        10.76034164428711 10.694171905517578 10.511646270751953 10.528590202331543 9.889291763305664 8.629639625549316
        8.138285636901855 6.9869842529296875 6.018007278442383 4.2569451332092285 2.9944045543670654 1.7025926113128662
        2.944378614425659 3.9316229820251465 4.50538969039917 5.002691268920898 6.7582221031188965 8.789238929748535
        11.43482494354248 13.676682472229004 12.948305130004883 12.464167594909668 10.289322853088379 9.739771842956543
        9.364831924438477 10.178587913513184 10.777115821838379 9.783928871154785 8.504448890686035 7.771904945373535
        8.340110778808594 8.719037055969238 8.038503646850586 7.282159328460693 6.472545623779297 6.324822425842285
        6.465133190155029 6.0986151695251465 6.036894798278809 6.223737716674805 6.956471920013428 6.857661247253418
        8.246058464050293 10.928406715393066 11.428373336791992 11.63623332977295 11.713411331176758 11.112994194030762
        9.762404441833496 8.394989013671875 7.123305320739746 9.485612869262695 12.87342643737793 15.345602035522461
        16.082595825195312 14.127058029174805 13.322638511657715 11.56476879119873 10.133026123046875 10.232484817504883
        10.177888870239258 10.064947128295898 8.746304512023926 7.295926094055176 5.387115001678467 4.978677272796631
        5.220383644104004 5.434665203094482 4.000603199005127 4.364478588104248 7.143124580383301 10.726478576660156
        12.756171226501465 12.7626371383667 14.146087646484375 12.861639022827148 10.977578163146973 9.369364738464355
        9.239519119262695 8.48741340637207 7.405459403991699 7.351937294006348 5.111205101013184 3.7665750980377197
        2.427077531814575 0.8993681073188782 1.9374099969863892 2.386593818664551 2.8223636150360107 2.1988604068756104
        3.792647361755371 4.534250736236572 10.17102336883545 8.9066162109375 8.644674301147461 6.66614294052124
        3.513025999069214 1.862241506576538 2.765245199203491 5.187838077545166 4.41812801361084 3.9515833854675293
        7.667369365692139 8.779975891113281 10.370197296142578 10.180096626281738 10.351765632629395 11.375524520874023
        10.952811241149902 10.365859031677246 9.396796226501465 11.876042366027832 11.833282470703125 10.312882423400879
        10.221518516540527 11.186193466186523 11.14889144897461 10.4613037109375 10.733596801757812 11.575394630432129
        10.187118530273438 8.012653350830078 7.4566473960876465 6.886535167694092 5.820431709289551 5.054590702056885
        4.061410427093506 2.498537302017212 1.268123745918274 1.0094701051712036 1.240483045578003 1.8400726318359375
        7.372442722320557 12.907258033752441 17.12533187866211 17.02688980102539 15.86641788482666 15.916055679321289
        14.11629867553711 12.993951797485352 13.084077835083008 14.65744686126709 14.835562705993652 13.817553520202637
        13.196691513061523 12.631171226501465 13.168943405151367 13.842023849487305 13.810357093811035 12.58518123626709
        11.968524932861328 11.656546592712402 11.239592552185059 9.983759880065918 9.688800811767578 10.0885009765625
        10.775561332702637 11.167478561401367 11.053888320922852 11.058283805847168 11.508432388305664 12.2033052444458
        12.10007381439209 11.753594398498535 11.315530776977539 10.168724060058594 10.095733642578125 9.66436767578125
        8.450161933898926 6.058743476867676 5.349905967712402 4.092891216278076 4.703323841094971 4.595391750335693
        4.91684627532959 4.408243179321289 5.036242485046387 4.910897731781006 6.818008899688721 10.095491409301758
        13.132120132446289 13.53083610534668 12.249950408935547 9.581299781799316 8.041694641113281 8.541511535644531
        9.76278018951416 9.970772743225098 8.578228950500488 7.902299404144287 8.288961410522461 8.66335391998291
        8.724906921386719 7.4993791580200195 6.865746021270752 6.712661266326904 7.371769905090332 6.92897891998291
        7.4430670738220215 7.933051109313965 8.648786544799805 7.7235493659973145 6.916065692901611 8.019847869873047
        9.131447792053223 10.511011123657227 9.741308212280273 9.175152778625488 8.116811752319336 5.766936302185059
        4.36247444152832 6.337532043457031 10.69778060913086 11.729293823242188 14.394658088684082 15.426223754882812
        14.552440643310547 12.401043891906738 10.296180725097656 9.94097900390625 9.188783645629883 9.855942726135254
        8.696125984191895 7.483725070953369 6.090061187744141 5.489423751831055 4.53656005859375 5.1532111167907715
        5.015613079071045 6.746669292449951 8.636846542358398 10.628680229187012 12.239995002746582 11.58049201965332
        14.060415267944336 14.409181594848633 11.92161750793457 9.273016929626465 8.2169189453125 6.590401649475098
        4.971984386444092 4.762853622436523 3.0558853149414062 2.77447772026062 3.29801344871521 1.7924566268920898
        1.3088043928146362 1.457014799118042 2.586731195449829 2.73606538772583 3.9353222846984863 4.357921123504639
        12.059893608093262 11.596434593200684 10.098882675170898 6.701147556304932 3.0821967124938965 1.8036818504333496
        1.5877430438995361 3.4030873775482178 3.8562231063842773 5.230966567993164 8.434155464172363 8.794046401977539
        8.692323684692383 9.336556434631348 10.618037223815918 11.7384614944458 10.327713012695312 8.800453186035156
        8.477357864379883 10.770291328430176 11.274428367614746 10.90350341796875 10.750398635864258 10.929574012756348
        11.79592514038086 12.71469497680664 14.213353157043457 13.497102737426758 11.074959754943848 9.028767585754395
        8.307445526123047 8.518192291259766 6.610650062561035 5.352540016174316 4.37507963180542 3.3227860927581787
        3.446958541870117 4.391429424285889 3.199873924255371 2.0450448989868164 2.4592912197113037 6.965160369873047
        11.004165649414062 14.067008972167969 13.236984252929688 12.787576675415039 10.281621932983398 9.766731262207031
        10.196962356567383 13.342531204223633 13.774310111999512 13.50173282623291 12.676836013793945 12.050718307495117
        12.858067512512207 13.481483459472656 13.92557430267334 12.924006462097168 13.690353393554688 13.998534202575684
        13.5400972366333 12.242403984069824 11.702190399169922 10.867353439331055 10.745121002197266 10.831511497497559
        11.218975067138672 11.03642749786377 11.119115829467773 12.173542022705078 12.064430236816406 12.588491439819336
        11.983830451965332 11.527172088623047 11.451923370361328 11.007987976074219 9.77760124206543 7.898136138916016
        7.172929763793945 5.407705783843994 5.024469375610352 4.442434310913086 4.949342727661133 4.395724296569824
        4.728780746459961 3.951122522354126 3.7479777336120605 5.131973743438721 9.810171127319336 12.39192008972168
        12.296655654907227 8.998150825500488 7.288764476776123 7.4999799728393555 9.13904857635498 9.428009033203125
        9.243268013000488 8.711134910583496 8.54870891571045 8.40955924987793 9.267850875854492 8.926990509033203
        8.914287567138672 8.143628120422363 8.167510032653809 7.160109043121338 8.042099952697754 8.800312042236328
        9.105649948120117 7.4573798179626465 6.1654815673828125 6.190343856811523 6.593338489532471 7.383419990539551
        8.182135581970215 8.028547286987305 6.890354633331299 4.580082893371582 4.586822986602783 6.263829708099365
        9.205846786499023 10.065584182739258 11.598827362060547 13.258153915405273 13.32794189453125 12.65834903717041
        12.223787307739258 11.570196151733398 9.510393142700195 9.312294960021973 8.444043159484863 7.8119659423828125
        7.376654624938965 6.369887828826904 5.525092124938965 5.677661418914795 6.633288860321045 8.31341552734375
        9.004536628723145 9.69604206085205 10.06058406829834 9.81518268585205 12.002622604370117 13.323857307434082
        12.300483703613281 9.477174758911133 7.751104831695557 5.327400207519531 2.437436103820801 1.7842072248458862
        1.7219514846801758 3.9698314666748047 4.011689186096191 3.1458914279937744 2.450446605682373 2.917800188064575
        3.759845495223999 3.339991331100464 4.239650726318359 4.85540246963501 16.82744026184082 14.281420707702637
        12.9148530960083 8.76822280883789 5.9357500076293945 3.4309511184692383 2.4392361640930176 2.2612712383270264
        3.459122896194458 5.794677734375 8.803800582885742 9.534504890441895 9.720880508422852 11.451186180114746
        13.659512519836426 14.381150245666504 10.455188751220703 8.753012657165527 9.049702644348145 12.282967567443848
        11.634211540222168 10.32121753692627 9.887925148010254 11.498616218566895 11.613852500915527 12.737895965576172
        14.742354393005371 15.528694152832031 13.328207015991211 11.254281044006348 9.395401000976562 9.306528091430664
        7.659055233001709 6.743555545806885 6.226662635803223 4.88801908493042 4.304171085357666 5.134049892425537
        5.024291515350342 4.113317489624023 1.6841033697128296 3.1466972827911377 6.5791521072387695 10.433452606201172
        10.909621238708496 10.736393928527832 8.872952461242676 8.46778392791748 9.015192031860352 13.053230285644531
        13.270112991333008 13.978271484375 14.061956405639648 13.556474685668945 14.137823104858398 15.396781921386719
        15.944761276245117 13.745965003967285 13.841253280639648 14.83576774597168 15.540752410888672 13.856050491333008
        12.912511825561523 10.96131706237793 10.783706665039062 10.937189102172852 11.926243782043457 11.401233673095703
        11.510358810424805 12.689383506774902 13.438728332519531 13.540816307067871 12.703459739685059 12.03160572052002
        11.700164794921875 11.549899101257324 10.645556449890137 8.953727722167969 8.03937816619873 6.344533920288086
        5.6942219734191895 4.635623455047607 4.6731977462768555 4.193668365478516 4.878213882446289 4.941776275634766
        3.8709678649902344 3.8123831748962402 6.374649524688721 9.33730411529541 10.784567832946777 9.073269844055176
        8.73515510559082 8.037407875061035 9.222450256347656 8.519966125488281 8.958142280578613 9.274481773376465
        9.294751167297363 9.243496894836426 10.257519721984863 10.420019149780273 10.667644500732422 9.013054847717285
        8.352426528930664 7.018232345581055 8.357624053955078 8.794693946838379 9.635355949401855 7.544957637786865
        7.471804618835449 5.876572608947754 4.879374027252197 4.475978851318359 7.078790664672852 8.66911792755127
        7.543814659118652 6.51011848449707 6.767162322998047 7.749448776245117 7.605194568634033 8.600021362304688
        10.624595642089844 12.355131149291992 12.73690414428711 13.489542961120605 14.542852401733398 14.505685806274414
        11.932236671447754 9.834911346435547 8.587967872619629 8.71496295928955 9.312385559082031 8.148397445678711
        8.010231971740723 8.394793510437012 9.16718864440918 9.785889625549316 9.73974895477295 9.56808090209961
        9.424469947814941 8.308634757995605 9.617757797241211 10.026383399963379 10.74193000793457 8.860223770141602
        6.472774028778076 3.4309732913970947 1.3598066568374634 1.1859359741210938 1.232064127922058 2.571213722229004
        2.8876442909240723 3.3188860416412354 3.163898468017578 3.5562307834625244 3.9508674144744873 3.6320013999938965
        4.947704315185547 5.514719486236572 18.203617095947266 15.755218505859375 14.827179908752441 10.440896034240723
        7.586325645446777 4.52639102935791 3.2951910495758057 3.760331392288208 4.448148250579834 6.18772029876709
        8.428403854370117 10.907694816589355 11.735163688659668 12.70887279510498 13.234711647033691 14.071149826049805
        10.314019203186035 10.340218544006348 10.521456718444824 13.751873970031738 14.035950660705566 12.661389350891113
        13.314680099487305 11.890371322631836 11.822863578796387 12.63432788848877 15.612404823303223 16.618186950683594
        16.441883087158203 14.421211242675781 11.876508712768555 9.872302055358887 8.782109260559082 8.416860580444336
        8.972729682922363 8.408241271972656 7.729501247406006 6.688406467437744 5.703183650970459 4.935856342315674
        3.528791666030884 4.030703067779541 5.939066410064697 8.05447769165039 8.947821617126465 9.779553413391113
        8.803077697753906 7.984359264373779 7.48006534576416 10.820027351379395 11.19271469116211 12.70914077758789
        13.156840324401855 13.355709075927734 13.879192352294922 15.579181671142578 17.05868148803711 13.430089950561523
        12.925980567932129 13.145634651184082 15.453532218933105 14.908942222595215 13.701857566833496 11.697676658630371
        11.307929992675781 12.126357078552246 12.289100646972656 11.95736312866211 11.373248100280762 12.489460945129395
        13.461830139160156 13.727313995361328 11.262086868286133 9.819278717041016 9.390754699707031 10.223289489746094
        10.533245086669922 10.155050277709961 9.185812950134277 7.220403671264648 6.028027057647705 5.101997375488281
        4.833729267120361 4.075510025024414 4.489692211151123 5.116183757781982 4.597970008850098 3.4414713382720947
        3.6165595054626465 6.191771507263184 9.042474746704102 9.966720581054688 10.346565246582031 8.855242729187012
        9.154372215270996 9.04770278930664 10.472251892089844 10.388131141662598 10.245376586914062 10.533641815185547
        11.872011184692383 11.96622371673584 12.010908126831055 10.038209915161133 9.616227149963379 8.18136215209961
        8.952637672424316 7.984411716461182 8.22329330444336 7.505884647369385 8.120076179504395 6.851953029632568
        4.867615699768066 4.326012134552002 6.277658462524414 8.553067207336426 7.507463455200195 7.527428150177002
        6.884873867034912 7.961097717285156 6.234239101409912 7.069597244262695 8.939901351928711 10.087137222290039
        11.360716819763184 13.687079429626465 16.061120986938477 14.912565231323242 13.456482887268066 11.462162017822266
        10.445286750793457 9.719525337219238 10.576616287231445 9.779804229736328 9.16515064239502 9.881721496582031
        10.708969116210938 10.374715805053711 10.381070137023926 9.712571144104004 9.176080703735352 7.419078826904297
        6.805871963500977 5.396092891693115 6.146158218383789 5.3237433433532715 3.8167779445648193 0.6987708806991577
        1.2618076801300049 2.169250965118408 1.474258542060852 2.2697269916534424 2.67977237701416 2.7268502712249756
        3.823390483856201 3.9159493446350098 3.7666022777557373 3.89910888671875 5.378756999969482 6.038592338562012
        17.497394561767578 15.253235816955566 16.201780319213867 11.461126327514648 9.680869102478027 6.728663444519043
        5.060695648193359 4.110631942749023 4.091182708740234 5.455472469329834 7.702266693115234 9.79773998260498
        11.348844528198242 11.799656867980957 11.990012168884277 12.599934577941895 10.334403991699219 11.697503089904785
        11.695377349853516 15.967242240905762 15.770686149597168 15.114542007446289 15.047248840332031 12.596843719482422
        12.921350479125977 14.079950332641602 17.61209487915039 19.361236572265625 17.251306533813477 15.480422973632812
        12.125102996826172 11.195425033569336 10.246037483215332 10.078752517700195 11.505607604980469 10.863593101501465
        8.939433097839355 7.126576900482178 5.949243068695068 5.429123878479004 4.642212867736816 5.062158584594727
        6.529585361480713 7.497398376464844 8.923035621643066 10.468206405639648 11.073179244995117 10.293262481689453
        8.192265510559082 8.812962532043457 9.608832359313965 10.171426773071289 10.367351531982422 10.291963577270508
        11.83606243133545 12.740510940551758 14.463027954101562 13.060298919677734 11.644651412963867 11.8246431350708
        13.948637962341309 14.2062349319458 13.898664474487305 12.45116901397705 11.742615699768066 11.10295581817627
        11.538613319396973 12.191518783569336 11.765962600708008 12.110433578491211 12.060395240783691 12.568876266479492
        11.259872436523438 9.808919906616211 9.568411827087402 9.371636390686035 9.80347728729248 10.245553970336914
        10.455754280090332 8.93933391571045 6.442119121551514 5.3507399559021 4.850244998931885 4.51226282119751
        4.361178874969482 5.534377574920654 5.272611141204834 4.022707939147949 4.039154052734375 5.773615837097168
        8.884847640991211 11.043463706970215 11.833953857421875 10.093689918518066 9.856449127197266 10.454129219055176
        12.098041534423828 12.417622566223145 12.651392936706543 12.89531421661377 12.838128089904785 12.637228012084961
        12.576040267944336 11.932690620422363 11.426828384399414 9.971979141235352 9.944336891174316 8.465352058410645
        8.185981750488281 8.538444519042969 9.338083267211914 8.460833549499512 6.742897987365723 6.213475227355957
        5.959702491760254 7.689848899841309 8.850595474243164 10.100963592529297 8.376871109008789 6.80872106552124
        4.323151588439941 5.136943817138672 7.000290870666504 7.932913303375244 9.054435729980469 11.34000301361084
        14.205504417419434 13.874275207519531 13.537720680236816 13.144076347351074 12.670794486999512 10.972668647766113
        11.029472351074219 10.597609519958496 10.367953300476074 10.648719787597656 11.012129783630371 10.228347778320312
        10.185114860534668 9.136608123779297 7.754820823669434 6.4495649337768555 5.458328723907471 3.1410105228424072
        2.426478862762451 1.3089148998260498 1.5016909837722778 1.9419679641723633 1.66373610496521 1.5738435983657837
        2.1410605907440186 2.2709407806396484 2.6262340545654297 2.901223659515381 4.126965522766113 3.834289312362671
        3.446197509765625 4.022414684295654 5.173914909362793 5.547996997833252 13.588678359985352 13.556967735290527
        14.72873306274414 12.800191879272461 9.714897155761719 7.9517502784729 5.24122428894043 4.115897178649902
        3.447561740875244 4.800267696380615 5.615246295928955 7.102325916290283 8.1148042678833 10.213150024414062
        9.62125301361084 10.714700698852539 10.032892227172852 11.618825912475586 12.417054176330566 14.408612251281738
        15.858721733093262 15.42643928527832 14.701574325561523 12.72828197479248 13.070701599121094 16.20232582092285
        18.0837345123291 20.01761245727539 18.682331085205078 16.28385353088379 14.033342361450195 13.245865821838379
        12.417510032653809 12.599259376525879 13.577068328857422 13.134387016296387 10.477920532226562 7.86647891998291
        6.734561920166016 5.23733377456665 4.436127662658691 5.029967784881592 7.264226913452148 8.137104988098145
        10.668364524841309 12.540984153747559 13.340624809265137 12.17939567565918 10.878369331359863 9.685687065124512
        9.709362983703613 8.023704528808594 6.3660993576049805 6.8857550621032715 9.386272430419922 8.056465148925781
        8.610339164733887 9.491706848144531 10.610151290893555 10.914375305175781 14.160847663879395 14.464437484741211
        15.201374053955078 13.76368236541748 12.141960144042969 10.679289817810059 9.922593116760254 9.672027587890625
        9.352474212646484 10.626994132995605 11.153496742248535 11.566421508789062 11.626106262207031 11.588464736938477
        10.384843826293945 10.230390548706055 9.973624229431152 10.357355117797852 10.367769241333008 9.374113082885742
        7.3732733726501465 6.430708408355713 6.054999828338623 5.684197425842285 5.150963306427002 5.461244106292725
        5.298860549926758 4.880478858947754 4.770092487335205 5.3463053703308105 7.2721381187438965 9.751672744750977
        11.470978736877441 11.856719970703125 11.834052085876465 12.796318054199219 13.307347297668457 14.231995582580566
        14.307001113891602 13.98288345336914 13.389471054077148 13.311504364013672 14.272507667541504 14.066243171691895
        14.279488563537598 12.754920959472656 11.612279891967773 10.181938171386719 9.449755668640137 10.263025283813477
        10.45855712890625 11.547062873840332 9.728181838989258 8.040066719055176 6.217788219451904 6.701087474822998
        8.83596134185791 11.300588607788086 11.86156940460205 8.11358642578125 5.486281871795654 3.9444403648376465
        4.585425853729248 4.986810684204102 7.014819622039795 9.779474258422852 11.1157865524292 12.034481048583984
        13.538299560546875 13.238694190979004 13.294057846069336 11.279727935791016 10.80565357208252 9.964360237121582
        10.29769515991211 10.585783958435059 10.013289451599121 8.361237525939941 7.973945617675781 6.969523906707764
        6.178929328918457 5.344536781311035 4.609111785888672 2.792609691619873 1.7312134504318237 3.624054431915283
        4.112807273864746 3.1602706909179688 2.277207136154175 2.3308353424072266 3.0307962894439697 3.2423577308654785
        3.205470085144043 3.7939035892486572 4.312912940979004 4.442307949066162 4.3182291984558105 4.685733795166016
        5.931085586547852 5.937533855438232 12.746792793273926 12.827329635620117 12.699844360351562 11.580677032470703
        10.028480529785156 8.167059898376465 6.155862808227539 3.4683754444122314 1.9391117095947266 3.103706121444702
        3.7052793502807617 4.886172771453857 4.121819496154785 6.471482753753662 7.520394325256348 9.782068252563477
        10.71639347076416 10.65213680267334 11.201345443725586 12.074751853942871 13.563246726989746 14.232080459594727
        12.246759414672852 12.642210006713867 13.163851737976074 16.21295166015625 17.12974739074707 17.769180297851562
        16.08684730529785 14.43874454498291 12.879597663879395 13.949234962463379 13.916645050048828 13.203819274902344
        13.326606750488281 13.569236755371094 12.750679016113281 10.55687141418457 8.643177032470703 5.606626033782959
        3.949660301208496 3.8771872520446777 5.974052906036377 7.071849822998047 10.907894134521484 12.720834732055664
        13.31230640411377 12.32148265838623 11.993999481201172 11.015496253967285 9.582412719726562 7.078439235687256
        5.261431694030762 5.661141395568848 6.939949989318848 5.098365306854248 4.251251220703125 4.311546325683594
        6.318682670593262 9.621975898742676 13.72273063659668 15.792328834533691 15.979242324829102 14.155498504638672
        12.49098014831543 10.07207202911377 9.607010841369629 8.373339653015137 8.312190055847168 9.276440620422363
        9.787095069885254 10.708107948303223 11.453079223632812 10.655028343200684 9.644994735717773 9.183674812316895
        10.2538480758667 9.959144592285156 10.32896900177002 9.768072128295898 8.490438461303711 7.408651828765869
        7.23330020904541 6.99318790435791 5.937451362609863 5.303390979766846 5.300787925720215 5.174583911895752
        5.277272701263428 5.364804744720459 7.175073623657227 9.67802619934082 11.728041648864746 12.320649147033691
        12.82633113861084 13.148505210876465 12.393628120422363 13.1143798828125 13.406465530395508 13.065138816833496
        11.895377159118652 12.85246467590332 14.40493106842041 14.545975685119629 14.388590812683105 12.642565727233887
        11.929154396057129 11.77554702758789 11.871788024902344 11.264434814453125 10.575265884399414 11.146288871765137
        10.113903045654297 9.616012573242188 8.003975868225098 8.724105834960938 11.0428466796875 12.18212604522705
        13.122416496276855 10.656105995178223 8.118406295776367 5.623198509216309 4.3893022537231445 3.718571662902832
        3.9943716526031494 6.066954612731934 7.231183052062988 9.606122970581055 11.881831169128418 12.697455406188965
        11.867727279663086 11.176392555236816 10.3035306930542 9.500761985778809 10.032310485839844 10.082315444946289
        9.644953727722168 7.680751800537109 6.218036651611328 5.536511421203613 4.451444149017334 3.986267566680908
        4.114180564880371 3.605921506881714 3.919016122817993 5.224621772766113 6.04133415222168 5.551220417022705
        4.6508989334106445 5.352725505828857 5.481178283691406 5.046063423156738 3.8795690536499023 3.786907911300659
        4.3445963859558105 4.933160781860352 5.611411094665527 5.509734153747559 5.573928356170654 5.3014912605285645
        10.966622352600098 10.564188957214355 10.934036254882812 11.010037422180176 10.74514389038086 8.999218940734863
        7.439924240112305 4.457857608795166 2.072922468185425 2.2644362449645996 2.0884406566619873 2.3925464153289795
        1.8786367177963257 3.568216323852539 4.231754302978516 6.76608943939209 9.54277515411377 11.088427543640137
        12.825841903686523 12.591285705566406 14.75876235961914 13.367857933044434 12.253718376159668 12.019498825073242
        13.351338386535645 13.983692169189453 13.543532371520996 14.160561561584473 14.568947792053223 14.107731819152832
        14.112104415893555 14.619385719299316 14.844986915588379 14.38129997253418 14.040634155273438 14.21037769317627
        13.757145881652832 13.752817153930664 11.229453086853027 7.653682231903076 4.807855129241943 5.064261436462402
        6.629177093505859 8.00232219696045 12.077855110168457 12.6920804977417 12.525334358215332 12.021061897277832
        12.704634666442871 13.508564949035645 11.062097549438477 9.852737426757812 7.32924222946167 7.013770580291748
        5.638324737548828 4.203479290008545 3.961232900619507 2.5598185062408447 3.074141502380371 6.328371524810791
        11.48401927947998 14.518486022949219 15.921624183654785 14.125091552734375 13.55508041381836 12.109103202819824
        11.231820106506348 9.284916877746582 8.78536605834961 9.46241569519043 9.753894805908203 10.461130142211914
        9.376959800720215 8.378351211547852 8.90980339050293 10.035843849182129 11.294166564941406 11.05514144897461
        10.840049743652344 10.39198112487793 10.060090065002441 9.193392753601074 8.779180526733398 8.135497093200684
        7.844554424285889 6.493180274963379 6.197779178619385 5.911149024963379 5.830087184906006 5.817719459533691
        6.905609130859375 8.938651084899902 11.811673164367676 12.595953941345215 12.148246765136719 11.663952827453613
        10.479643821716309 10.857934951782227 11.397480964660645 11.600122451782227 10.785530090332031 11.656978607177734
        14.331547737121582 14.8043794631958 14.967920303344727 13.780691146850586 14.121912956237793 13.317431449890137
        11.988107681274414 11.371103286743164 10.722929000854492 11.715004920959473 11.076658248901367 10.661460876464844
        8.984919548034668 9.327021598815918 11.394311904907227 12.70478343963623 15.217989921569824 14.92453384399414
        11.246638298034668 7.0458855628967285 5.84989070892334 3.9920997619628906 3.86303448677063 3.9440712928771973
        5.712399482727051 8.333695411682129 10.54446792602539 12.599909782409668 12.8668794631958 12.675127029418945
        11.750946998596191 10.169052124023438 10.118215560913086 9.043360710144043 8.93513298034668 8.16606330871582
        6.843842029571533 5.935788631439209 4.336892127990723 4.186954021453857 5.168462753295898 6.049765586853027
        5.130654335021973 4.661046981811523 4.925417423248291 6.362489223480225 5.89830207824707 6.3045525550842285
        6.368072509765625 5.8473076820373535 4.636303901672363 3.712958812713623 4.280800819396973 5.287689208984375
        5.859768390655518 5.636474132537842 4.787424564361572 4.057308197021484 7.161242961883545 7.863650798797607
        10.298532485961914 9.894057273864746 11.305398941040039 11.120523452758789 9.3894624710083 5.619410991668701
        2.712437152862549 1.6364169120788574 2.2336721420288086 2.422130823135376 2.341021776199341 3.360999822616577
        2.4606001377105713 4.421205520629883 6.4014573097229 9.185041427612305 11.454911231994629 11.753318786621094
        12.3749418258667 11.438319206237793 11.111678123474121 9.720486640930176 10.486222267150879 12.002376556396484
        10.446812629699707 11.099249839782715 10.920365333557129 12.576190948486328 12.716383934020996 13.20992660522461
        13.858659744262695 14.084639549255371 14.646904945373535 15.12709903717041 15.24716567993164 14.946208953857422
        12.913212776184082 10.171676635742188 8.49560832977295 7.202120780944824 7.782800197601318 8.041984558105469
        10.916790008544922 11.843629837036133 13.143548011779785 12.679183006286621 13.11859130859375 13.65786361694336
        12.580680847167969 11.375428199768066 8.464727401733398 6.7625226974487305 4.788312911987305 3.893019437789917
        4.543540000915527 2.05134916305542 1.4534837007522583 3.0902819633483887 8.252849578857422 11.870832443237305
        14.362686157226562 14.249736785888672 14.134783744812012 13.78304672241211 12.968560218811035 11.421740531921387
        9.900582313537598 9.532855987548828 10.258440971374512 10.601304054260254 8.871017456054688 7.197573184967041
        8.275861740112305 11.51443099975586 13.159056663513184 12.63058853149414 11.492366790771484 11.447427749633789
        10.85912036895752 10.070667266845703 8.699884414672852 7.5533342361450195 7.658377170562744 7.2566914558410645
        6.646172523498535 6.405364036560059 6.411370277404785 6.738502025604248 6.553025245666504 7.406939506530762
        7.741192817687988 8.278829574584961 8.730621337890625 9.9468994140625 9.793265342712402 9.815173149108887
        9.897202491760254 9.480476379394531 8.714892387390137 8.604939460754395 10.362250328063965 10.938189506530762
        10.673786163330078 12.338912963867188 13.923032760620117 13.531377792358398 11.228705406188965 11.191054344177246
        10.567448616027832 11.429551124572754 11.354825019836426 11.838287353515625 10.453075408935547 9.134535789489746
        10.202970504760742 12.690834045410156 16.52864646911621 17.2293643951416 14.77863883972168 9.515508651733398
        7.3793559074401855 3.8049402236938477 4.08502721786499 4.154655456542969 6.359739780426025 7.572079658508301
        8.794918060302734 11.10966968536377 13.397818565368652 13.382938385009766 12.563644409179688 10.799284934997559
        9.76272964477539 8.00148868560791 8.558536529541016 8.70465087890625 8.603553771972656 7.495994567871094
        5.592002868652344 4.936890602111816 5.794100284576416 6.11793851852417 6.018080711364746 5.797400951385498
        6.110495090484619 6.526214122772217 5.553744792938232 6.28871488571167 6.290131568908691 6.106013774871826
        5.2277703285217285 3.5322515964508057 3.69732666015625 5.14120626449585 6.184547424316406 5.2772698402404785
        3.8963470458984375 3.0628936290740967 4.2421088218688965 5.320877552032471 9.900327682495117 10.200056076049805
        12.887495994567871 14.169201850891113 12.26815414428711 8.022034645080566 4.667148113250732 3.151369094848633
        3.2054271697998047 2.8169524669647217 2.3757243156433105 2.897157669067383 3.1064019203186035 4.707600116729736
        5.347538948059082 6.875007629394531 7.981770038604736 7.9628705978393555 7.487991809844971 7.373046398162842
        8.30405044555664 7.063538074493408 8.596989631652832 8.754622459411621 7.253961563110352 8.510843276977539
        7.960344314575195 10.679675102233887 10.434752464294434 12.07814884185791 12.853718757629395 13.293194770812988
        14.796415328979492 14.701364517211914 14.624869346618652 14.3289213180542 12.523407936096191 12.322308540344238
        11.3551607131958 9.991825103759766 9.839733123779297 9.304590225219727 11.14612102508545 12.104663848876953
        13.920799255371094 13.397723197937012 13.023771286010742 13.41275691986084 12.922449111938477 11.353650093078613
        9.060397148132324 8.109538078308105 7.101966381072998 6.3789777755737305 5.888323783874512 3.529761552810669
        2.821856737136841 2.0728659629821777 6.719213485717773 9.934757232666016 13.18299388885498 13.50206184387207
        13.515530586242676 13.555825233459473 14.36827278137207 13.86668586730957 10.83095932006836 9.5646390914917
        10.340629577636719 12.059002876281738 11.016618728637695 10.033690452575684 10.233752250671387 13.879950523376465
        14.66655158996582 13.68708610534668 11.190926551818848 11.629976272583008 11.001092910766602 9.828215599060059
        8.104534149169922 7.724521160125732 8.224689483642578 8.073436737060547 7.132537364959717 7.0319743156433105
        6.975576400756836 7.5094499588012695 6.419040203094482 6.628871917724609 6.3420090675354 7.439046859741211
        7.638967037200928 8.90112590789795 8.964845657348633 9.217903137207031 9.057826042175293 8.660416603088379
        7.183234214782715 6.402432441711426 6.782352924346924 6.285186290740967 6.407288551330566 8.998734474182129
        11.533267974853516 12.44019603729248 11.172456741333008 11.548077583312988 12.08674144744873 13.422799110412598
        13.439827919006348 11.811141967773438 9.60867977142334 7.496744155883789 9.414271354675293 13.955611228942871
        17.970428466796875 20.143760681152344 18.5910701751709 14.748978614807129 11.88637638092041 8.530861854553223
        7.075497627258301 6.699282646179199 8.200496673583984 8.798458099365234 9.202698707580566 10.449491500854492
        13.144489288330078 13.55146598815918 13.153661727905273 11.622671127319336 10.299284934997559 8.270566940307617
        8.06789493560791 8.608492851257324 8.479660034179688 7.940804481506348 6.490633964538574 6.883366584777832
        7.33563756942749 6.649694919586182 5.648946762084961 5.131984710693359 5.289665699005127 5.489809513092041
        5.634812355041504 5.821760654449463 5.036354064941406 4.685947418212891 4.680355072021484 4.2221574783325195
        3.981024980545044 4.596735954284668 5.333967685699463 4.978935718536377 3.345201015472412 2.204880952835083
        3.3603193759918213 4.360873699188232 7.916687965393066 12.222479820251465 15.385727882385254 16.149547576904297
        13.193450927734375 9.313274383544922 6.227197647094727 3.3057339191436768 3.1268699169158936 3.7798080444335938
        3.426884412765503 3.3533620834350586 3.3251545429229736 4.499072551727295 4.519330978393555 4.810056209564209
        5.4955267906188965 3.8193304538726807 2.2762253284454346 1.5343118906021118 3.9555883407592773 7.728905200958252
        8.952500343322754 10.053243637084961 7.533531188964844 7.372157573699951 5.282247066497803 7.195645332336426
        8.656437873840332 9.311349868774414 9.951774597167969 10.948124885559082 12.456250190734863 13.773381233215332
        13.703457832336426 13.172764778137207 12.498647689819336 12.604026794433594 13.011041641235352 11.637027740478516
        11.232891082763672 10.508742332458496 11.934172630310059 12.871659278869629 13.611279487609863 14.290287971496582
        14.529988288879395 14.522844314575195 13.83794116973877 11.210977554321289 9.391502380371094 8.298188209533691
        8.80285358428955 8.598278999328613 7.304765224456787 5.813697338104248 4.957454204559326 4.907070636749268
        7.5535712242126465 8.884657859802246 13.15910530090332 15.108564376831055 15.735456466674805 15.167313575744629
        14.99012279510498 14.335833549499512 11.38786792755127 11.09349250793457 12.240372657775879 13.295151710510254
        11.724346160888672 10.573806762695312 11.80941104888916 14.737048149108887 15.770282745361328 15.931609153747559
        14.103120803833008 13.361709594726562 11.40343952178955 9.919471740722656 7.370594501495361 7.7379255294799805
        8.71981430053711 9.536665916442871 8.187150001525879 7.479866981506348 6.673830032348633 7.511621952056885
        6.8003621101379395 6.8877458572387695 7.052289009094238 7.739434719085693 7.925220012664795 9.210670471191406
        8.974451065063477 9.272574424743652 8.6857328414917 7.902623176574707 5.301709175109863 3.4012949466705322
        2.7324717044830322 2.0319161415100098 2.2560875415802 4.868768692016602 6.72150182723999 8.01217269897461
        9.521119117736816 9.998303413391113 11.139801025390625 12.569265365600586 13.865480422973633 11.160320281982422
        8.861533164978027 7.2801032066345215 8.246496200561523 10.304256439208984 14.752528190612793 19.404544830322266
        20.811304092407227 18.288259506225586 16.641273498535156 15.022697448730469 13.429677963256836 12.119124412536621
        11.62534236907959 10.085867881774902 9.70263385772705 10.957307815551758 13.002535820007324 13.299822807312012
        13.610764503479004 13.040733337402344 11.259725570678711 9.878754615783691 8.580574035644531 8.361552238464355
        8.060914039611816 7.7665228843688965 7.180509567260742 7.826744079589844 8.213663101196289 7.008209228515625
        5.5814948081970215 5.835954666137695 5.279819488525391 4.336216449737549 4.588942527770996 4.636751651763916
        4.156544208526611 3.64884614944458 3.8799045085906982 3.971784830093384 3.3192384243011475 4.005410671234131
        4.716170787811279 4.190364360809326 2.766552686691284 1.5651843547821045 2.500638723373413 3.257429361343384
        4.505765438079834 10.698274612426758 17.422847747802734 18.01458740234375 15.642424583435059 12.835213661193848
        8.283224105834961 3.264859437942505 2.780851125717163 2.8719677925109863 3.166301727294922 3.20760178565979
        4.487208366394043 4.9211931228637695 6.2314324378967285 7.882664203643799 8.147581100463867 4.39066219329834
        2.8485045433044434 2.5066144466400146 3.4084339141845703 7.367945671081543 9.537760734558105 8.479874610900879
        8.08968448638916 6.816532611846924 4.581045627593994 5.961901664733887 8.163175582885742 9.09610652923584
        8.517278671264648 9.270674705505371 11.049972534179688 12.642309188842773 14.384415626525879 13.582330703735352
        13.231649398803711 13.374692916870117 12.690126419067383 11.978529930114746 11.09686279296875 11.43440055847168
        11.977655410766602 12.482762336730957 13.699430465698242 14.36084270477295 16.394969940185547 16.589902877807617
        15.957901000976562 14.00044059753418 12.097068786621094 10.233040809631348 8.83574104309082 8.621651649475098
        7.040655136108398 6.1222333908081055 5.29854154586792 5.416423797607422 6.2647294998168945 7.861786365509033
        12.970818519592285 15.2059907913208 17.16798973083496 16.466106414794922 15.959562301635742 14.03299617767334
        12.664994239807129 12.748666763305664 12.877402305603027 13.240206718444824 11.697600364685059 11.688230514526367
        13.347067832946777 14.718402862548828 16.356090545654297 16.821828842163086 17.157379150390625 16.03893280029297
        13.082890510559082 11.32780933380127 9.247782707214355 9.920555114746094 8.522761344909668 9.608323097229004
        7.965643405914307 7.216596603393555 6.122966766357422 7.093264579772949 6.9730963706970215 8.304021835327148
        9.493095397949219 9.906888961791992 9.801729202270508 9.862776756286621 9.171192169189453 9.137771606445312
        9.57518482208252 9.759366035461426 6.566394805908203 4.495963096618652 2.8618991374969482 1.8553706407546997
        1.6171656847000122 3.4618048667907715 6.04777193069458 6.629684925079346 7.519736289978027 8.406051635742188
        10.244702339172363 12.426864624023438 12.774561882019043 10.52346420288086 8.318708419799805 6.694222450256348
        7.2360920906066895 7.8673858642578125 10.094841957092285 14.093474388122559 19.078474044799805 21.736574172973633
        21.11185646057129 20.672849655151367 18.899003982543945 16.143388748168945 13.42175579071045 11.715818405151367
        11.203190803527832 11.318114280700684 11.730382919311523 13.757290840148926 14.012375831604004 14.29074764251709
        12.870938301086426 11.154836654663086 9.548293113708496 8.87564468383789 7.958114147186279 7.385127067565918
        7.642916679382324 9.883190155029297 9.939723014831543 8.045514106750488 5.548244476318359 4.976661682128906
        4.4931182861328125 4.246009349822998 4.455349922180176 5.003433704376221 3.9269254207611084 2.92508864402771
        4.161294460296631 4.748676300048828 5.225533962249756 4.919053554534912 5.069005966186523 4.813901424407959
        3.498291254043579 2.591801166534424 2.9714231491088867 4.2451348304748535 3.5023961067199707 8.007739067077637
        15.378801345825195 18.483537673950195 17.467138290405273 15.410511016845703 9.928983688354492 4.454607009887695
        3.118701934814453 3.4900801181793213 3.643322706222534 4.159562110900879 6.204000473022461 6.901970863342285
        7.066222190856934 7.751375675201416 7.983990669250488 5.941704273223877 4.221837520599365 4.5992841720581055
        4.006237983703613 6.951115131378174 8.368195533752441 8.482446670532227 8.69771957397461 7.731419086456299
        6.542706489562988 8.521234512329102 10.709598541259766 10.1635160446167 9.390026092529297 8.917290687561035
        10.474791526794434 10.90224838256836 13.489457130432129 12.801630973815918 12.325414657592773 11.28217887878418
        10.955880165100098 9.65681266784668 8.780695915222168 8.70219898223877 9.589808464050293 10.179259300231934
        11.908082962036133 13.806694984436035 16.95802879333496 18.14801788330078 18.63374900817871 16.292558670043945
        14.781538963317871 11.934215545654297 10.360808372497559 9.602935791015625 8.561427116394043 7.811120986938477
        6.632791996002197 7.156367301940918 6.7960004806518555 7.602675437927246 11.665074348449707 14.209917068481445
        16.58897590637207 16.280513763427734 16.090864181518555 14.645819664001465 14.151494026184082 14.228418350219727
        15.109920501708984 14.581533432006836 13.503663063049316 12.480093002319336 14.511531829833984 15.10605239868164
        16.567522048950195 16.777130126953125 18.365942001342773 18.199207305908203 15.792770385742188 14.378863334655762
        12.102907180786133 11.897052764892578 9.171150207519531 9.512739181518555 8.327276229858398 8.25196647644043
        7.545553684234619 8.747352600097656 8.399612426757812 8.355635643005371 9.644744873046875 9.994157791137695
        11.16014575958252 10.193851470947266 9.943609237670898 11.04152774810791 11.475231170654297 11.438304901123047
        8.16907024383545 5.85921049118042 2.7966537475585938 1.900577187538147 2.5399153232574463 4.1647491455078125
        6.198056697845459 6.215339183807373 5.628958225250244 6.9764533042907715 7.810429573059082 10.337357521057129
        11.385014533996582 11.75842571258545 9.626917839050293 9.25468635559082 8.644818305969238 8.427870750427246
        6.21630334854126 7.803534030914307 14.557083129882812 20.372636795043945 22.714967727661133 23.84145736694336
        22.96501350402832 19.784618377685547 15.178600311279297 13.517338752746582 12.619828224182129 12.703320503234863
        11.267251014709473 12.61306381225586 14.037954330444336 15.31421184539795 14.69607925415039 12.578068733215332
        10.39813232421875 9.54878044128418 8.130181312561035 7.668648719787598 8.382853507995605 10.889615058898926
        10.86431884765625 8.496888160705566 5.409112930297852 4.935727119445801 4.968021392822266 5.022831439971924
        4.7357964515686035 4.851450443267822 4.539405822753906 3.388317346572876 4.495567798614502 4.849672794342041
        5.190592288970947 5.344552993774414 5.625082492828369 6.694201946258545 4.926933288574219 4.1812896728515625
        2.9579479694366455 3.35784649848938 2.012083053588867 3.8598086833953857 8.1213960647583 14.798991203308105
        17.702823638916016 17.962848663330078 11.209413528442383 6.643317699432373 4.135010719299316 4.647526741027832
        3.406619071960449 5.175197124481201 6.704431056976318 9.31708812713623 9.13327407836914 9.277498245239258
        7.6380510330200195 6.854243278503418 5.5144944190979 5.5880327224731445 5.533304214477539 6.440131187438965
        7.647866249084473 7.598260879516602 8.055514335632324 8.720868110656738 8.777137756347656 10.335493087768555
        12.569353103637695 12.573493003845215 12.390290260314941 10.763218879699707 10.917799949645996 9.53001594543457
        10.151408195495605 9.556675910949707 8.931655883789062 8.448177337646484 7.8902177810668945 7.10190486907959
        4.377901554107666 4.652728080749512 4.0502543449401855 4.990365505218506 7.343990325927734 9.239622116088867
        12.065305709838867 14.676105499267578 17.79352569580078 16.44561004638672 15.033562660217285 12.226987838745117
        10.620681762695312 9.812740325927734 9.061245918273926 8.067459106445312 7.4983930587768555 7.6258392333984375
        8.089364051818848 8.628963470458984 9.856566429138184 9.926430702209473 11.928461074829102 13.077507019042969
        13.865961074829102 13.765865325927734 14.158784866333008 13.491739273071289 15.473514556884766 15.647448539733887
        16.07613182067871 13.977336883544922 12.258593559265137 11.106569290161133 13.163722038269043 14.062472343444824
        17.573619842529297 18.22021484375 18.36553192138672 15.025278091430664 13.35947322845459 12.548649787902832
        10.548069953918457 9.989404678344727 9.699041366577148 9.865654945373535 9.89370346069336 10.015474319458008
        9.841070175170898 9.144375801086426 10.153081893920898 10.716409683227539 11.693988800048828 9.580552101135254
        8.854630470275879 10.845309257507324 11.2048921585083 11.276443481445312 9.867972373962402 8.835407257080078
        5.618764400482178 3.509028434753418 3.590028762817383 3.3394713401794434 4.567881107330322 5.436215877532959
        4.6545729637146 5.708113193511963 6.281005382537842 8.548683166503906 9.56930160522461 11.337484359741211
        11.23073673248291 10.25970458984375 9.625786781311035 8.798348426818848 5.0494890213012695 3.1663036346435547
        7.239927768707275 13.597613334655762 17.06720733642578 20.080833435058594 20.040693283081055 19.17410659790039
        16.023235321044922 14.717159271240234 13.494587898254395 12.573070526123047 11.516483306884766 11.562873840332031
        12.234503746032715 13.851905822753906 14.020546913146973 12.770785331726074 10.581571578979492 9.89948844909668
        8.950986862182617 8.968490600585938 9.640031814575195 11.162763595581055 10.734267234802246 8.781210899353027
        6.637241363525391 6.291492938995361 6.361412525177002 6.2469024658203125 5.159099578857422 5.015008449554443
        5.007865905761719 4.452672958374023 5.224873065948486 5.423183917999268 5.897823333740234 5.974080562591553
        5.3683671951293945 6.48084020614624 5.144811153411865 4.086477756500244 2.55304217338562 2.1922125816345215
        1.640419602394104 2.4716525077819824 5.679651260375977 12.642265319824219 16.890987396240234 19.886436462402344
        14.495208740234375 12.157978057861328 7.97951078414917 6.902894973754883 4.821054458618164 6.244146823883057
        8.287445068359375 10.636214256286621 11.264301300048828 10.748247146606445 8.642187118530273 7.511312961578369
        6.314194679260254 6.803157806396484 7.103019714355469 6.508670806884766 6.489591121673584 7.512054443359375
        6.9446282386779785 7.70928955078125 9.057473182678223 13.199509620666504 15.00367546081543 14.203557014465332
        13.211299896240234 11.009986877441406 9.810455322265625 7.136685371398926 6.532435894012451 5.682541370391846
        4.596419334411621 4.686844825744629 4.473496913909912 4.981168746948242 3.2216153144836426 2.994194984436035
        1.7295126914978027 2.1975979804992676 3.3045766353607178 5.803460597991943 7.558861255645752 12.340310096740723
        14.974381446838379 14.714619636535645 13.517104148864746 11.19890308380127 10.292384147644043 8.985371589660645
        8.901498794555664 8.036520957946777 8.842022895812988 9.343703269958496 9.958178520202637 9.239131927490234
        9.219682693481445 8.178252220153809 8.76099681854248 9.697188377380371 10.387529373168945 12.24067497253418
        13.163503646850586 12.76573657989502 13.704111099243164 15.021383285522461 15.529541969299316 12.747299194335938
        9.598971366882324 6.9233245849609375 8.36577320098877 10.886198043823242 13.615249633789062 17.198219299316406
        18.59403419494629 16.587379455566406 15.046202659606934 13.413931846618652 11.532505989074707 10.591203689575195
        10.929435729980469 10.657876968383789 10.764018058776855 10.587653160095215 10.585984230041504 9.85430908203125
        10.746025085449219 11.353267669677734 10.923781394958496 9.57431411743164 9.10523796081543 10.657126426696777
        9.751419067382812 9.650594711303711 8.33497142791748 7.999049186706543 6.156972885131836 5.568265914916992
        5.985403537750244 6.044305324554443 5.688370704650879 5.62469482421875 4.869586944580078 5.197840213775635
        6.488153457641602 8.279234886169434 10.038762092590332 11.11594295501709 11.279505729675293 10.756498336791992
        10.543357849121094 8.656911849975586 5.986488342285156 3.7072207927703857 2.4186880588531494 4.501095294952393
        7.549376010894775 12.145218849182129 15.936516761779785 16.949087142944336 18.176042556762695 16.425125122070312
        14.109675407409668 13.657048225402832 12.483473777770996 11.420758247375488 11.892437934875488 12.418707847595215
        13.067070007324219 12.620929718017578 11.583856582641602 10.62321949005127 9.895772933959961 9.927669525146484
        9.644660949707031 9.897083282470703 10.107000350952148 8.518269538879395 7.987334728240967 7.397467613220215
        7.51474142074585 6.311075687408447 4.348604679107666 3.8454363346099854 4.072906494140625 4.291337490081787
        4.596145153045654 5.209423065185547 5.751928329467773 5.4004225730896 3.712904691696167 4.679662704467773
        4.24266242980957 3.3258819580078125 2.110095977783203 1.936312198638916 1.881171703338623 0.9413700699806213
        4.379463195800781 8.985668182373047 12.551640510559082 17.95846939086914 18.388097763061523 15.206724166870117
        11.528691291809082 7.8255615234375 6.171459674835205 7.022730350494385 9.196374893188477 11.215503692626953
        11.664721488952637 12.459870338439941 11.041872024536133 8.239554405212402 7.074136257171631 6.177567481994629
        7.180702209472656 7.801828861236572 7.239628791809082 6.817313194274902 4.750311374664307 6.808075904846191
        11.397367477416992 16.239431381225586 17.688873291015625 15.896982192993164 15.319507598876953 13.192874908447266
        9.562402725219727 6.9896464347839355 5.599031448364258 4.392327785491943 2.9661591053009033 2.7274391651153564
        2.7824783325195312 3.6293954849243164 3.4449872970581055 4.749727249145508 2.1866767406463623 1.8039435148239136
        1.95197594165802 4.279651641845703 6.854531288146973 10.52160358428955 12.29269027709961 10.89574909210205
        10.665987968444824 10.217765808105469 9.414605140686035 8.630353927612305 8.375909805297852 7.940058708190918
        9.170120239257812 9.69885540008545 10.487154960632324 8.867290496826172 8.403517723083496 6.990692615509033
        7.374600887298584 7.714613914489746 7.722728729248047 9.865569114685059 11.822746276855469 12.274941444396973
        11.328362464904785 11.327872276306152 11.969249725341797 10.274675369262695 7.761681079864502 5.3877058029174805
        5.183280944824219 6.720973491668701 11.293135643005371 16.025188446044922 18.670766830444336 16.86709976196289
        16.57239532470703 15.182004928588867 13.479873657226562 11.847012519836426 12.056360244750977 11.125406265258789
        10.405112266540527 9.585989952087402 10.36168384552002 10.27580451965332 10.764312744140625 10.398152351379395
        9.755009651184082 9.420937538146973 9.096394538879395 10.128180503845215 8.5701322555542 8.051483154296875
        7.8917107582092285 8.160764694213867 8.273884773254395 8.577603340148926 9.480276107788086 9.5324125289917
        8.918234825134277 8.440732955932617 7.234557151794434 7.65543270111084 8.383849143981934 8.518031120300293
        9.399795532226562 9.456777572631836 10.821398735046387 10.6776762008667 10.550233840942383 8.62827205657959
        7.055786609649658 5.445427894592285 4.894187927246094 3.2899227142333984 0.7560915350914001 5.69849157333374
        9.945890426635742 15.084668159484863 18.007829666137695 18.13663673400879 15.203352928161621 13.432587623596191
        12.830941200256348 11.60493278503418 11.086517333984375 11.427346229553223 12.191933631896973 13.813664436340332
        12.837738990783691 12.413171768188477 11.89875316619873 11.749690055847168 11.334986686706543 9.86064624786377
        9.800016403198242 8.569262504577637 7.922323703765869 7.602434158325195 6.822646141052246 5.402661323547363
        3.541292667388916 3.220093250274658 3.2645740509033203 4.042212009429932 3.9152796268463135 5.807888031005859
        5.978120803833008 5.915637016296387 3.77447772026062 4.1357421875 3.8138134479522705 2.022799491882324
        1.0400395393371582 0.9798359870910645 0.914646565914154 1.368766188621521 5.709124565124512 8.541461944580078
        13.125304222106934 14.100577354431152 16.57607650756836 15.969141006469727 14.318761825561523 11.170696258544922
        9.684964179992676 8.919697761535645 9.666034698486328 11.377843856811523 14.206576347351074 13.580300331115723
        11.8468599319458 10.168379783630371 8.503297805786133 7.351376056671143 8.29281234741211 8.726434707641602
        8.423290252685547 8.146757125854492 6.2505950927734375 4.503340244293213 8.682755470275879 15.197366714477539
        18.85926055908203 18.13921546936035 17.120487213134766 14.958178520202637 10.66702938079834 7.187140464782715
        5.99552059173584 4.443170547485352 3.2422211170196533 2.644193410873413 2.89512038230896 4.24390172958374
        5.875499725341797 6.316612243652344 4.283345699310303 2.4358654022216797 2.4375998973846436 5.199721336364746
        7.834576606750488 9.608175277709961 10.154996871948242 10.699002265930176 10.289915084838867 9.475577354431152
        9.956928253173828 10.131303787231445 10.091683387756348 8.744892120361328 9.168294906616211 9.1760892868042
        9.578664779663086 7.934079170227051 7.136599063873291 6.028036594390869 6.506250381469727 6.611977577209473
        6.9005513191223145 8.318363189697266 8.554004669189453 8.846137046813965 8.27645492553711 8.272107124328613
        8.772541046142578 7.845732688903809 6.439523696899414 4.6980299949646 4.052008628845215 4.171743869781494
        9.133294105529785 15.188520431518555 17.918312072753906 18.366735458374023 17.491281509399414 17.249061584472656
        14.894171714782715 12.7456693649292 11.418304443359375 10.343213081359863 10.03085708618164 9.33667278289795
        9.866632461547852 9.30765438079834 10.230769157409668 10.024954795837402 9.950156211853027 9.10488224029541
        10.034468650817871 10.473051071166992 9.1931791305542 7.8031415939331055 7.3333306312561035 6.659852981567383
        7.6991047859191895 9.541669845581055 11.74730396270752 12.745390892028809 12.297840118408203 11.663414001464844
        10.302136421203613 9.633928298950195 9.292008399963379 8.948991775512695 8.805705070495605 9.089763641357422
        10.752037048339844 11.091536521911621 10.968330383300781 9.907944679260254 9.097586631774902 7.526352882385254
        6.960052013397217 4.12273645401001 1.311698079109192 2.5390586853027344 6.372579574584961 12.19688606262207
        15.65110969543457 15.87701416015625 13.304642677307129 11.821773529052734 10.828863143920898 11.884517669677734
        10.775156021118164 11.252601623535156 12.022883415222168 13.35269832611084 12.989017486572266 12.17454719543457
        13.087665557861328 14.124378204345703 14.056962966918945 13.563390731811523 12.271415710449219 9.782853126525879
        8.38791561126709 7.961963653564453 7.131166934967041 4.697078704833984 2.8794660568237305 2.683255195617676
        3.030792713165283 4.305400848388672 4.1156158447265625 5.4276509284973145 6.031720161437988 6.20761775970459
        4.797275066375732 4.691957950592041 4.062592506408691 3.6053009033203125 2.497034788131714 2.4195237159729004
        1.1985081434249878 1.7459510564804077 5.583930969238281 6.660099983215332 9.563217163085938 10.38217830657959
        13.343340873718262 14.195019721984863 15.821639060974121 13.38068962097168 11.600980758666992 10.049240112304688
        9.563720703125 11.28815746307373 14.065320014953613 15.295766830444336 12.882172584533691 11.328117370605469
        9.920085906982422 8.690715789794922 9.68842887878418 10.440299987792969 12.212320327758789 10.837686538696289
        10.288549423217773 7.212156295776367 8.973933219909668 11.866142272949219 16.14488983154297 17.687685012817383
        19.788450241088867 18.35271453857422 14.42851734161377 10.558627128601074 8.36136245727539 6.642237663269043
        5.320710182189941 4.965205669403076 4.594811916351318 4.846258163452148 6.04231595993042 6.8518595695495605
        6.924983024597168 4.00813627243042 3.511430025100708 4.986936092376709 6.712548732757568 7.323344707489014
        8.693565368652344 10.80673885345459 10.822037696838379 9.763148307800293 11.097123146057129 12.41292667388916
        12.417734146118164 10.986808776855469 10.482335090637207 10.498259544372559 9.400542259216309 8.116866111755371
        7.4991254806518555 6.668781280517578 7.296424388885498 7.154594421386719 7.5316901206970215 7.8919291496276855
        7.039703369140625 7.244904041290283 7.331174850463867 7.692124366760254 7.645209789276123 6.707969665527344
        5.7011847496032715 4.321188449859619 3.8236069679260254 3.982703447341919 9.726032257080078 14.50035285949707
        17.389488220214844 17.363964080810547 17.443981170654297 17.82652473449707 15.845916748046875 13.599183082580566
        12.07937240600586 11.165742874145508 10.890372276306152 9.941021919250488 9.715535163879395 8.985966682434082
        10.936752319335938 11.538468360900879 11.312384605407715 9.273271560668945 9.896320343017578 10.570685386657715
        10.51081371307373 7.7814435958862305 6.705617904663086 6.081019401550293 8.76266860961914 10.873723030090332
        12.660983085632324 12.76980209350586 12.388740539550781 13.465710639953613 13.355278968811035 13.14194393157959
        10.764263153076172 9.512033462524414 9.196996688842773 10.596099853515625 11.689817428588867 12.013022422790527
        11.97652530670166 11.077351570129395 10.041910171508789 7.867366790771484 7.831234455108643 4.668864727020264
        3.5241310596466064 2.8550286293029785 4.1753249168396 8.702163696289062 12.49354076385498 14.037237167358398
        11.98256778717041 10.891998291015625 9.859724044799805 11.606512069702148 11.219858169555664 11.381616592407227
        11.543234825134277 11.962520599365234 12.051119804382324 11.831729888916016 13.634326934814453 16.1081485748291
        16.335363388061523 15.41728401184082 13.794218063354492 11.839893341064453 10.307430267333984 9.335277557373047
        7.57147741317749 4.895100116729736 2.9134016036987305 2.6319117546081543 2.604011297225952 2.9587390422821045
        2.9567246437072754 3.4417192935943604 4.6950273513793945 5.951529502868652 6.3377299308776855 5.843783378601074
        4.79254150390625 3.1401519775390625 6.102293014526367 3.423365831375122 2.250293731689453 2.968200922012329
        3.49698805809021 3.9787237644195557 6.780580043792725 8.240132331848145 8.907482147216797 11.716705322265625
        17.46672248840332 15.906466484069824 12.249034881591797 8.06136703491211 8.247982025146484 9.651006698608398
        12.75911808013916 13.88208293914795 12.481073379516602 12.157644271850586 12.213177680969238 10.545077323913574
        10.899338722229004 11.360499382019043 14.203384399414062 14.8716402053833 14.566285133361816 9.911408424377441
        6.541782379150391 6.5324273109436035 11.250548362731934 15.644241333007812 19.05110740661621 18.973159790039062
        17.476581573486328 16.606185913085938 13.437868118286133 10.051562309265137 7.728846549987793 7.014557838439941
        7.469792366027832 7.431147575378418 7.861085891723633 8.207430839538574 9.014840126037598 7.508489608764648
        5.247067451477051 5.163404941558838 5.138717174530029 6.186695098876953 7.4758076667785645 10.949000358581543
        11.36347484588623 11.346360206604004 12.060903549194336 13.477142333984375 13.12197494506836 11.905515670776367
        11.07339859008789 11.224480628967285 9.610685348510742 8.451602935791016 7.755695343017578 8.400280952453613
        8.904935836791992 8.68242073059082 8.80884075164795 8.767485618591309 7.692054748535156 6.7970194816589355
        5.943724155426025 6.238491058349609 6.419970512390137 5.453067302703857 3.3606839179992676 2.6634974479675293
        2.766771078109741 3.9405324459075928 6.889888286590576 10.362313270568848 13.881844520568848 15.319255828857422
        16.17121696472168 16.129962921142578 14.810395240783691 13.692289352416992 11.724207878112793 10.41982364654541
        10.83491325378418 10.43795394897461 9.279789924621582 8.462159156799316 9.844498634338379 11.350805282592773
        12.227890014648438 11.475894927978516 11.288719177246094 11.464289665222168 12.343143463134766 10.199810981750488
        8.279275894165039 6.745718479156494 8.806180000305176 8.98469352722168 8.426238059997559 8.995316505432129
        11.31082534790039 13.935210227966309 14.374415397644043 12.890592575073242 9.904057502746582 9.364371299743652
        10.375513076782227 11.864422798156738 11.440269470214844 11.04263687133789 12.260903358459473 11.971280097961426
        11.547904014587402 9.950932502746582 8.876489639282227 6.725210666656494 5.375631332397461 3.4453885555267334
        1.500130534172058 4.449376583099365 8.872943878173828 11.102010726928711 11.644427299499512 10.726366996765137
        10.062438011169434 11.04958724975586 11.19467830657959 10.257149696350098 10.163698196411133 10.020792007446289
        10.485369682312012 10.041630744934082 11.629844665527344 15.779630661010742 16.76775360107422 16.206193923950195
        13.694535255432129 13.70087718963623 13.61237907409668 12.96576976776123 10.435563087463379 7.728047847747803
        5.179823398590088 4.123780727386475 3.682898759841919 4.114861488342285 3.7784597873687744 2.3692405223846436
        3.561661958694458 5.126484394073486 6.463214874267578 5.721505641937256 4.649078369140625 3.6125950813293457
        7.721957206726074 5.684632778167725 4.165659427642822 4.135738372802734 1.4435513019561768 0.36020663380622864
        2.820884943008423 5.642490386962891 5.797250270843506 8.259990692138672 12.337231636047363 12.768570899963379
        10.490135192871094 6.735816478729248 7.56995964050293 6.812955856323242 8.578498840332031 10.101974487304688
        9.163069725036621 10.842717170715332 13.05553913116455 12.219842910766602 11.510225296020508 12.233028411865234
        15.920707702636719 16.18861961364746 14.518182754516602 12.827730178833008 9.973062515258789 8.434212684631348
        10.264939308166504 14.417051315307617 18.688222885131836 18.244916915893555 19.33197593688965 18.48787498474121
        15.76094913482666 11.4736909866333 8.476237297058105 9.695714950561523 10.862422943115234 11.328676223754883
        10.445842742919922 10.579022407531738 10.503584861755371 9.835975646972656 6.870363712310791 6.707877159118652
        7.028266429901123 8.680485725402832 8.031749725341797 8.963391304016113 9.883322715759277 11.173465728759766
        13.221684455871582 14.593669891357422 14.040406227111816 12.96220874786377 11.064905166625977 10.491440773010254
        9.05076789855957 8.529067039489746 8.148837089538574 9.626194953918457 10.498342514038086 9.934128761291504
        8.672968864440918 8.319761276245117 8.6005859375 8.298856735229492 6.564488410949707 5.591580390930176
        5.361331462860107 5.0681891441345215 3.667311191558838 3.51459002494812 3.2533180713653564 4.501466274261475
        5.728050231933594 8.373369216918945 10.822213172912598 11.951973915100098 13.603866577148438 13.36949348449707
        14.273666381835938 12.966683387756348 12.73772144317627 11.574753761291504 11.114279747009277 9.342594146728516
        8.202247619628906 8.700339317321777 9.989697456359863 10.900062561035156 11.318697929382324 11.575468063354492
        11.25382137298584 10.89663028717041 12.214899063110352 12.338054656982422 10.860862731933594 9.588674545288086
        10.315418243408203 7.723365783691406 5.25722599029541 4.4395670890808105 7.531704425811768 11.65698528289795
        14.143118858337402 14.898185729980469 12.573177337646484 12.358043670654297 12.77413558959961 12.374286651611328
        10.855429649353027 10.155889511108398 11.838300704956055 11.484647750854492 10.9345064163208 10.989615440368652
        10.112481117248535 8.799927711486816 5.918609142303467 4.277914047241211 1.6562987565994263 4.811008930206299
        7.822566986083984 11.245304107666016 13.294943809509277 12.720365524291992 11.013838768005371 10.99760627746582
        11.980405807495117 10.968817710876465 10.586585998535156 9.343015670776367 9.594547271728516 9.222442626953125
        8.77434253692627 11.922855377197266 12.552164077758789 12.47407341003418 10.74471664428711 11.835604667663574
        15.020082473754883 14.469700813293457 12.949505805969238 10.4535493850708 8.10862922668457 6.384871482849121
        4.74031925201416 4.103278160095215 3.2412915229797363 2.5484228134155273 3.235050916671753 3.947251558303833
        5.073410511016846 4.896040439605713 4.324828147888184 3.7395551204681396 7.676669597625732 7.385617256164551
        5.394562721252441 4.868481159210205 1.543725609779358 2.8702499866485596 3.92610239982605 2.868342399597168
        2.8804242610931396 4.524324893951416 9.16363525390625 9.313262939453125 8.824645042419434 7.920116901397705
        5.849734306335449 3.260427236557007 2.5549960136413574 4.234188079833984 4.512898921966553 6.408920764923096
        10.101980209350586 11.25067138671875 11.612491607666016 12.958178520202637 14.629986763000488 16.239665985107422
        14.091655731201172 13.594533920288086 10.912163734436035 11.403465270996094 11.591679573059082 12.257923126220703
        14.502767562866211 15.00754451751709 16.607736587524414 15.757017135620117 14.10111141204834 12.323275566101074
        11.213278770446777 11.69125747680664 13.111546516418457 13.999192237854004 13.686173439025879 13.222868919372559
        12.274343490600586 12.300310134887695 9.682270050048828 9.31595230102539 9.278614044189453 10.46186351776123
        8.852575302124023 7.694170951843262 8.231058120727539 10.339722633361816 13.191299438476562 14.811180114746094
        14.018583297729492 12.79234790802002 11.353354454040527 10.31744384765625 9.63176441192627 9.844484329223633
        9.057075500488281 10.402616500854492 11.550545692443848 12.007424354553223 9.642800331115723 9.068246841430664
        9.15138053894043 8.482163429260254 7.014645099639893 5.437753677368164 5.524716854095459 5.016537666320801
        4.148857116699219 3.8028881549835205 3.5077836513519287 4.51107120513916 6.385124683380127 8.921649932861328
        10.248048782348633 9.002323150634766 10.725932121276855 11.464835166931152 12.679604530334473 12.005033493041992
        12.158332824707031 11.671826362609863 10.488175392150879 8.495285034179688 8.032327651977539 8.573382377624512
        9.810811996459961 10.019062042236328 10.385523796081543 10.875219345092773 10.1007661819458 8.803686141967773
        10.02660083770752 12.098068237304688 11.330028533935547 10.021209716796875 9.336857795715332 6.396598815917969
        4.093470573425293 1.8883033990859985 2.9554121494293213 5.848762035369873 10.72223949432373 13.771125793457031
        14.290900230407715 13.63151741027832 14.248024940490723 13.58285903930664 12.972052574157715 10.312437057495117
        10.272810935974121 10.578493118286133 10.288904190063477 10.540223121643066 9.745467185974121 8.725016593933105
        5.779459476470947 4.387589454650879 3.5586025714874268 4.9761176109313965 6.7554216384887695 10.187760353088379
        12.789931297302246 12.729469299316406 12.03490924835205 11.988096237182617 12.451948165893555 10.630732536315918
        9.403103828430176 8.124332427978516 7.920980930328369 7.287006378173828 5.32534122467041 5.653305530548096
        6.7070183753967285 7.441457748413086 7.420180797576904 9.366793632507324 13.620565414428711 16.32665252685547
        16.025346755981445 13.508021354675293 10.44760799407959 9.208991050720215 8.037108421325684 5.912071704864502
        4.382994174957275 4.193755149841309 4.731656551361084 4.113270282745361 3.635554313659668 4.163465976715088
        4.270845890045166 4.477114200592041 8.011256217956543 8.36864948272705 7.371382236480713 3.7094833850860596
        1.7373217344284058 3.7688586711883545 2.1358728408813477 1.5679343938827515 1.4606209993362427 3.8758225440979004
        7.512197971343994 6.829238414764404 7.623096466064453 7.5701680183410645 7.579226016998291 4.838216304779053
        3.9937009811401367 2.504412889480591 1.826050043106079 3.6321914196014404 5.986238479614258 9.162066459655762
        9.791404724121094 11.329313278198242 13.555608749389648 14.753369331359863 14.244894981384277 12.465246200561523
        11.15540885925293 12.86031723022461 11.552586555480957 11.866767883300781 10.1005859375 11.950886726379395
        11.723715782165527 12.205541610717773 12.840696334838867 12.779328346252441 13.03671932220459 13.201807975769043
        13.005728721618652 13.89272403717041 13.1128568649292 14.016341209411621 13.26609992980957 13.068881034851074
        11.548111915588379 11.694900512695312 11.674081802368164 11.20298957824707 9.147677421569824 7.658099174499512
        7.588759422302246 9.039976119995117 11.538870811462402 13.909778594970703 14.56888198852539 13.708420753479004
        13.16899585723877 12.072006225585938 10.618208885192871 10.476269721984863 9.543617248535156 10.862896919250488
        11.801772117614746 12.420662879943848 10.84139347076416 9.662435531616211 9.376579284667969 8.156354904174805
        7.37358283996582 6.000473499298096 6.013131618499756 5.213080406188965 4.691503524780273 3.7902677059173584
        3.169536828994751 3.464479923248291 5.588657855987549 8.10830307006836 8.628227233886719 7.98834753036499
        9.372615814208984 9.249612808227539 10.362875938415527 10.909891128540039 12.145544052124023 12.013368606567383
        10.601760864257812 8.115549087524414 7.344455718994141 8.397927284240723 9.896204948425293 9.073149681091309
        8.682727813720703 8.760724067687988 8.296982765197754 7.613654136657715 8.4590482711792 10.14317798614502
        10.19550895690918 9.787110328674316 8.35873794555664 6.213065147399902 4.210122585296631 1.9886246919631958
        1.3184607028961182 1.9667776823043823 6.417992115020752 11.23139762878418 14.38713550567627 15.947612762451172
        16.818172454833984 16.163732528686523 15.216014862060547 12.031861305236816 10.354757308959961 9.805152893066406
        9.125312805175781 9.259238243103027 9.110272407531738 7.976262092590332 6.401710510253906 5.662772178649902
        5.708144664764404 5.965670108795166 7.301650524139404 9.776928901672363 11.17628288269043 12.411389350891113
        11.974842071533203 12.398919105529785 12.394438743591309 10.721391677856445 8.594077110290527 7.195794582366943
        6.0280327796936035 4.207583904266357 2.7244482040405273 1.7767877578735352 1.5197633504867554 2.82623553276062
        4.5205278396606445 7.2294135093688965 11.563066482543945 15.428837776184082 16.990966796875 14.674229621887207
        12.911221504211426 12.5838623046875 11.492044448852539 9.369297981262207 7.109058380126953 5.805207252502441
        5.392639636993408 4.1417460441589355 4.040390491485596 3.4116859436035156 3.4239418506622314 3.1907527446746826
        11.444137573242188 10.418863296508789 10.714580535888672 6.194622039794922 2.0850167274475098 4.276978969573975
        2.8326845169067383 1.549312949180603 0.2125355750322342 2.425323724746704 6.2472686767578125 6.429636001586914
        8.234073638916016 7.642945289611816 8.905476570129395 5.802547454833984 4.642552852630615 3.825676918029785
        4.223080635070801 4.4875640869140625 2.7546184062957764 4.775177955627441 7.005376815795898 9.56954288482666
        11.66460132598877 12.821304321289062 11.984862327575684 11.468952178955078 10.397089004516602 11.130009651184082
        9.985301971435547 11.134710311889648 9.854867935180664 10.039255142211914 8.206392288208008 9.529709815979004
        12.208964347839355 14.314546585083008 15.004629135131836 13.51436996459961 12.9048433303833 12.331816673278809
        12.646629333496094 12.786887168884277 13.177940368652344 13.80301284790039 13.067473411560059 12.721220970153809
        11.790072441101074 10.928669929504395 9.126709938049316 7.452946662902832 7.365004062652588 8.60003662109375
        10.779400825500488 11.992907524108887 13.567413330078125 14.406742095947266 14.961104393005371 14.177811622619629
        12.310315132141113 10.965043067932129 9.944555282592773 11.148118019104004 12.090270042419434 12.703146934509277
        11.90037727355957 10.796982765197754 10.099905014038086 9.240479469299316 8.956329345703125 8.125663757324219
        7.7071099281311035 6.963435649871826 6.129096508026123 4.881604194641113 3.5081918239593506 3.7452309131622314
        5.630040645599365 7.154259204864502 7.590224742889404 7.400266170501709 8.846962928771973 8.81273078918457
        10.284241676330566 11.169075012207031 11.988886833190918 12.269817352294922 11.11078929901123 8.510428428649902
        6.143703460693359 5.620981216430664 7.170595169067383 7.5492377281188965 7.609671592712402 6.535920143127441
        6.343618392944336 6.551759719848633 7.291380405426025 8.144159317016602 8.410411834716797 7.933207035064697
        7.425268173217773 6.9764723777771 5.691521644592285 3.1312851905822754 3.4492270946502686 5.663689136505127
        7.719119548797607 10.226797103881836 12.950291633605957 15.869431495666504 17.193222045898438 16.820743560791016
        15.30669116973877 11.686200141906738 9.272695541381836 8.877520561218262 9.639176368713379 9.391057968139648
        8.835601806640625 8.07412052154541 7.55955171585083 7.004654407501221 6.50567102432251 6.760283946990967
        7.283199787139893 9.547794342041016 10.495489120483398 11.841423034667969 11.947890281677246 13.35985279083252
        12.843401908874512 11.140443801879883 8.30051326751709 7.041866302490234 4.543672561645508 2.78920841217041
        4.049986362457275 2.5522167682647705 1.6028082370758057 1.462656855583191 3.5957648754119873 5.467667579650879
        8.101665496826172 13.364649772644043 15.731904029846191 14.977130889892578 13.872096061706543 14.933202743530273
        14.289371490478516 12.123608589172363 9.484950065612793 7.430113315582275 6.068628787994385 4.44905948638916
        4.3376593589782715 2.926358461380005 2.4680721759796143 2.2626349925994873 13.839577674865723 12.520164489746094
        12.534895896911621 7.52268648147583 3.393162965774536 2.3325724601745605 1.3777730464935303 0.9403146505355835
        0.6582475900650024 0.7537180781364441 2.7792234420776367 4.258761405944824 6.596438407897949 6.953112602233887
        9.024988174438477 7.153557777404785 6.6445393562316895 6.094518184661865 5.282434940338135 4.7189412117004395
        2.8113062381744385 3.4385392665863037 3.972879409790039 5.700216293334961 8.45893383026123 9.275548934936523
        9.613877296447754 8.812199592590332 8.867742538452148 8.135767936706543 8.482105255126953 10.13222599029541
        10.63959789276123 9.337181091308594 7.379609107971191 7.565465927124023 10.666927337646484 13.566961288452148
        13.939425468444824 13.218053817749023 13.060582160949707 12.85533618927002 11.899930953979492 11.977649688720703
        12.312555313110352 13.580904960632324 13.048369407653809 12.891510009765625 12.611664772033691 12.046438217163086
        9.825360298156738 7.144190788269043 5.945587158203125 7.008985996246338 9.047749519348145 10.819801330566406
        12.16169261932373 13.374345779418945 13.481228828430176 12.721989631652832 11.797696113586426 10.42716121673584
        10.027356147766113 10.095563888549805 10.868768692016602 11.344864845275879 12.360518455505371 10.789588928222656
        10.770261764526367 10.437505722045898 11.33033275604248 10.61634349822998 10.033628463745117 9.10110092163086
        8.332948684692383 7.249268531799316 6.062901020050049 6.162728309631348 6.341662883758545 6.475109100341797
        5.830702304840088 6.126248836517334 7.378210544586182 8.303885459899902 9.795534133911133 10.484435081481934
        11.110125541687012 11.183594703674316 11.098335266113281 9.238945960998535 6.9274115562438965 5.27182149887085
        5.772798538208008 6.490744113922119 5.975836277008057 4.5732903480529785 4.723305702209473 4.908588409423828
        5.534926891326904 6.3001909255981445 6.5571699142456055 6.224462985992432 6.562885761260986 7.871081352233887
        6.4521098136901855 4.97683572769165 4.975087642669678 7.775233268737793 7.424949645996094 8.341666221618652
        11.49123764038086 15.23769474029541 15.539506912231445 15.246477127075195 13.691956520080566 12.011567115783691
        9.588418960571289 9.440300941467285 10.499296188354492 10.632859230041504 9.570683479309082 9.347451210021973
        8.780072212219238 8.821928977966309 7.825624942779541 7.551392555236816 7.533163070678711 9.205069541931152
        10.240570068359375 11.25040340423584 11.675768852233887 12.49876880645752 11.6121826171875 10.457392692565918
        8.06227970123291 6.5043416023254395 4.020993709564209 3.947167158126831 3.5176429748535156 1.932634949684143
        1.411434531211853 1.8536150455474854 2.4911632537841797 3.642362594604492 4.284296989440918 8.117029190063477
        10.175492286682129 11.187604904174805 12.337889671325684 14.75175666809082 15.139223098754883 14.325837135314941
        12.33024787902832 9.910581588745117 7.576484680175781 6.094852924346924 5.539142608642578 3.73905873298645
        3.11518931388855 2.6097171306610107 14.726963996887207 13.713500022888184 14.184617042541504 10.209985733032227
        6.775489807128906 1.9814462661743164 1.0499907732009888 1.4457948207855225 0.4487748444080353 0.4742194414138794
        2.8659908771514893 4.730938911437988 6.945664882659912 8.283843994140625 9.454024314880371 8.25622272491455
        7.679551601409912 9.13201904296875 7.773045539855957 5.78228759765625 2.513674020767212 2.9652457237243652
        2.6675570011138916 1.9742745161056519 3.853778600692749 6.203550815582275 7.163458824157715 7.198131561279297
        7.976748943328857 7.910526275634766 8.105902671813965 7.995956897735596 9.383285522460938 8.139381408691406
        7.141809940338135 5.450499057769775 7.524609565734863 10.28609848022461 11.034097671508789 11.139897346496582
        11.375116348266602 12.22783088684082 11.673704147338867 10.208139419555664 9.86567497253418 11.460147857666016
        12.338109970092773 12.260675430297852 11.13801383972168 11.210563659667969 8.81656265258789 6.368433475494385
        4.846525192260742 5.560102939605713 7.390254020690918 9.967817306518555 10.401593208312988 12.763374328613281
        13.032004356384277 12.232876777648926 10.025334358215332 9.941834449768066 9.88692569732666 9.61758804321289
        9.8999662399292 10.391003608703613 11.571446418762207 10.641528129577637 10.87589168548584 11.371711730957031
        12.594073295593262 12.4887056350708 12.024843215942383 12.250812530517578 11.033785820007324 8.815957069396973
        7.600904941558838 7.944070816040039 8.113338470458984 6.928780555725098 5.975904941558838 6.129244327545166
        7.302008152008057 9.009726524353027 9.874029159545898 10.436324119567871 10.660794258117676 10.46716022491455
        10.052006721496582 9.485925674438477 7.527626037597656 5.633455276489258 5.735723495483398 6.769486904144287
        5.865811824798584 4.096939563751221 3.2379324436187744 2.9870035648345947 3.604480504989624 4.464659214019775
        4.823660850524902 5.9449687004089355 7.255678176879883 8.481955528259277 6.388417720794678 5.11820125579834
        3.629833459854126 5.510993003845215 6.233726501464844 7.564631938934326 9.938278198242188 13.00055980682373
        14.649240493774414 14.710983276367188 14.041760444641113 12.262272834777832 10.801739692687988 11.032768249511719
        12.120235443115234 11.950589179992676 10.217733383178711 10.1264009475708 9.854476928710938 10.487987518310547
        9.479634284973145 8.806148529052734 7.955104827880859 8.422516822814941 9.345515251159668 10.594026565551758
        11.174829483032227 11.407508850097656 10.435126304626465 9.52517032623291 8.59001350402832 6.062950134277344
        4.861494064331055 5.8517165184021 4.600873947143555 3.012302875518799 2.3386216163635254 4.213026523590088
        4.0037922859191895 3.385983467102051 3.6734979152679443 5.102492809295654 5.486436367034912 6.580977916717529
        9.097447395324707 12.850632667541504 13.77433967590332 14.686186790466309 13.312435150146484 11.695351600646973
        9.831014633178711 7.9501471519470215 6.168304920196533 4.604045867919922 4.1620869636535645 3.9504683017730713
        12.327676773071289 13.062602996826172 14.05759048461914 12.708172798156738 8.245787620544434 4.655148029327393
        1.6087923049926758 2.0069618225097656 2.005516290664673 2.5627238750457764 2.8994739055633545 3.861067771911621
        5.550823211669922 8.451491355895996 8.753507614135742 9.342939376831055 9.393379211425781 11.292195320129395
        9.861287117004395 7.21380090713501 5.068338394165039 4.5098958015441895 3.5167152881622314 2.020120620727539
        1.5558276176452637 2.2418289184570312 3.7504372596740723 4.131107330322266 7.433226585388184 6.953073501586914
        8.251532554626465 6.764163970947266 8.075423240661621 8.203096389770508 7.157805442810059 5.589601993560791
        4.881973743438721 5.970393657684326 7.165777206420898 7.94104528427124 8.396657943725586 8.750555038452148
        8.804577827453613 8.113449096679688 6.470457553863525 7.651437282562256 8.571279525756836 9.010554313659668
        8.75551986694336 7.866816997528076 6.578657150268555 4.839011192321777 4.484389781951904 6.36568546295166
        7.248022079467773 9.28446102142334 8.769383430480957 11.247779846191406 12.76904296875 11.711724281311035
        9.534138679504395 8.727278709411621 8.905952453613281 8.443617820739746 8.165922164916992 9.149577140808105
        9.502967834472656 9.907339096069336 10.67811393737793 10.964280128479004 12.163230895996094 12.013642311096191
        12.34887981414795 12.935831069946289 12.647377967834473 10.41586971282959 9.02530574798584 9.384635925292969
        9.06666374206543 8.054852485656738 7.321901321411133 7.888948917388916 8.853006362915039 9.773691177368164
        9.652837753295898 10.277948379516602 10.900253295898438 11.04326343536377 10.149747848510742 9.726005554199219
        8.037338256835938 6.826997756958008 6.619601249694824 7.0006890296936035 6.197861671447754 5.07736873626709
        4.127829551696777 3.916321039199829 4.664003849029541 5.201401710510254 5.726762771606445 7.09646463394165
        6.990017890930176 6.370750904083252 4.29140567779541 3.5506608486175537 1.115124225616455 1.3319330215454102
        3.0365757942199707 5.810969352722168 8.093201637268066 10.688125610351562 14.80333137512207 16.271446228027344
        15.011216163635254 12.544257164001465 11.172829627990723 11.481844902038574 11.3400297164917 11.53574275970459
        10.959760665893555 10.33835220336914 10.360705375671387 10.624245643615723 10.66800308227539 10.097613334655762
        9.38494873046875 8.558453559875488 7.724771976470947 9.380680084228516 10.398746490478516 10.396904945373535
        10.305505752563477 9.480891227722168 8.765276908874512 6.539856910705566 5.314779758453369 6.6506147384643555
        5.474348545074463 4.470768928527832 4.638289451599121 6.370804786682129 5.767873764038086 5.395188331604004
        4.4337873458862305 3.8129215240478516 2.6923210620880127 3.05340838432312 6.172395706176758 9.40971851348877
        11.877311706542969 13.69360065460205 13.84469985961914 12.894991874694824 11.236775398254395 10.416988372802734
        7.223562240600586 4.952078342437744 4.276061058044434 4.429351329803467 12.060201644897461 13.168408393859863
        14.120515823364258 12.714995384216309 9.698080062866211 6.9184980392456055 3.916727066040039 2.846911907196045
        2.4315178394317627 3.358795166015625 2.891789197921753 4.783919811248779 5.861095905303955 8.533437728881836
        9.561090469360352 10.885276794433594 12.987150192260742 15.420547485351562 13.724594116210938 9.710090637207031
        6.411515235900879 6.322007656097412 5.098049163818359 3.65624737739563 3.292841672897339 3.4033396244049072
        3.754253625869751 4.3244853019714355 6.189276695251465 7.041310787200928 7.949049949645996 7.747961521148682
        8.62954044342041 9.467558860778809 8.532745361328125 6.0055251121521 4.2496724128723145 3.6351187229156494
        4.764622211456299 6.1859002113342285 6.3483147621154785 6.307784080505371 6.983786582946777 6.710446834564209
        5.5517659187316895 5.083909511566162 7.264586448669434 7.114004611968994 6.434311389923096 5.08082389831543
        4.447240352630615 4.937867641448975 4.981739044189453 6.252315998077393 7.226809978485107 8.34537124633789
        9.405768394470215 10.689567565917969 11.319300651550293 10.110661506652832 8.928956985473633 8.316821098327637
        8.359420776367188 7.552183151245117 6.236419677734375 6.565326690673828 7.169990539550781 7.257811546325684
        7.955541133880615 8.688507080078125 10.115803718566895 11.41102123260498 12.006060600280762 13.363970756530762
        13.018976211547852 11.274243354797363 9.706587791442871 9.580412864685059 9.123422622680664 8.069206237792969
        9.306503295898438 11.32190990447998 11.61693000793457 10.766210556030273 9.222559928894043 9.86046028137207
        10.370101928710938 11.033843040466309 10.09697151184082 9.060090065002441 7.696593761444092 6.488849639892578
        6.169253349304199 5.45355749130249 5.931365489959717 5.297858715057373 5.227001667022705 4.752798080444336
        4.8280744552612305 5.729798793792725 6.420135974884033 6.996867656707764 5.79009485244751 4.6435065269470215
        3.704397439956665 3.240327835083008 2.4017105102539062 2.3032138347625732 3.5348832607269287 5.791624069213867
        7.869382858276367 11.214956283569336 14.522503852844238 15.14051628112793 13.037943840026855 12.389244079589844
        11.628189086914062 11.428689002990723 10.938702583312988 10.936870574951172 10.949840545654297 10.2158784866333
        10.418902397155762 10.635918617248535 11.080759048461914 10.539024353027344 9.775443077087402 8.896767616271973
        7.4190354347229 8.32691764831543 9.305055618286133 10.50995922088623 10.264713287353516 9.931658744812012
        8.928922653198242 7.97279167175293 7.127120018005371 7.255252361297607 6.059619903564453 7.152533531188965
        7.470900535583496 8.009367942810059 7.458139419555664 6.465671062469482 5.692489147186279 5.098065376281738
        4.996692180633545 3.901015520095825 4.533677577972412 7.335618495941162 10.464374542236328 12.229036331176758
        12.472824096679688 11.901870727539062 11.790393829345703 11.14205265045166 9.5227689743042 7.220439434051514
        5.914520263671875 4.995290279388428 11.725191116333008 12.275174140930176 13.62807559967041 12.049901008605957
        9.846701622009277 7.170400619506836 4.979674816131592 4.2613396644592285 3.734588384628296 4.675063610076904
        1.8963788747787476 2.8614208698272705 3.6916301250457764 6.727571964263916 8.225543975830078 10.822344779968262
        13.763019561767578 16.263553619384766 15.043996810913086 12.107806205749512 9.021608352661133 7.881860733032227
        5.946517467498779 5.871173858642578 6.3892502784729 4.377631187438965 3.5450668334960938 3.6221888065338135
        4.337629795074463 5.944108963012695 6.925973892211914 8.274230003356934 9.612688064575195 10.92281436920166
        9.840171813964844 7.491482734680176 5.495328426361084 4.91379976272583 6.001168251037598 7.1351423263549805
        6.541786193847656 5.564054489135742 5.946427345275879 6.339470863342285 6.042348384857178 5.1241135597229
        6.216906547546387 6.241613388061523 6.011488914489746 5.025124549865723 3.735530138015747 4.881283760070801
        5.901158332824707 7.554182052612305 9.033781051635742 9.301892280578613 9.86947250366211 10.349116325378418
        9.942294120788574 8.637286186218262 8.610345840454102 9.329669952392578 9.024847030639648 7.283972263336182
        6.13995361328125 5.497368812561035 6.236355304718018 5.558385848999023 5.8322672843933105 6.821343421936035
        8.625471115112305 10.085070610046387 11.015883445739746 12.140313148498535 11.134315490722656 9.405646324157715
        8.590991973876953 9.76597785949707 10.071219444274902 9.043766021728516 9.645597457885742 11.953129768371582
        13.060760498046875 11.882864952087402 10.05925464630127 10.70884895324707 10.723081588745117 11.773347854614258
        10.713927268981934 10.524866104125977 10.01508903503418 8.207815170288086 6.61658239364624 4.817748546600342
        5.826029300689697 5.653475761413574 6.004400730133057 5.599758625030518 4.53031587600708 5.217437744140625
        5.996399402618408 6.5152668952941895 4.964184761047363 4.217008113861084 4.416004180908203 4.849710941314697
        5.571054458618164 5.013833522796631 4.918184757232666 5.775390148162842 7.546349048614502 10.385775566101074
        12.76701831817627 14.108153343200684 13.538742065429688 13.38317584991455 12.5065336227417 12.236278533935547
        11.261822700500488 10.27060604095459 10.67464542388916 10.49211597442627 10.970542907714844 11.090020179748535
        11.151626586914062 10.966887474060059 9.832104682922363 9.31702709197998 7.648341178894043 7.651366233825684
        9.285981178283691 10.8574857711792 11.103839874267578 10.783564567565918 9.138419151306152 7.442264556884766
        6.105260848999023 6.0750203132629395 5.188516139984131 6.54323148727417 8.757657051086426 9.824450492858887
        9.977714538574219 9.156648635864258 7.504054069519043 6.167535305023193 5.560218334197998 5.279593467712402
        4.139336109161377 5.495694160461426 8.75063419342041 11.58768081665039 12.031767845153809 11.899174690246582
        12.380989074707031 11.970037460327148 11.534695625305176 10.12546443939209 8.036023139953613 5.915562629699707
        8.983442306518555 9.585643768310547 12.178267478942871 11.063860893249512 12.359806060791016 11.480504035949707
        9.419268608093262 6.86474084854126 5.207212924957275 4.370901107788086 2.2322640419006348 2.3944954872131348
        3.105745792388916 4.546058177947998 5.255491733551025 6.416409015655518 9.356524467468262 13.15831184387207
        16.117565155029297 16.29166030883789 13.529755592346191 10.291451454162598 7.263057708740234 5.959040641784668
        6.650777816772461 5.748003005981445 5.231721878051758 4.650249481201172 3.5213160514831543 4.8909149169921875
        6.369356155395508 9.115617752075195 10.879562377929688 13.158166885375977 11.466381072998047 9.761441230773926
        8.5304536819458 8.63122844696045 8.419858932495117 7.8289361000061035 6.940519332885742 5.8769354820251465
        6.477603912353516 7.52502965927124 7.985237121582031 7.063777446746826 6.584587097167969 6.392953872680664
        6.085923194885254 5.64841365814209 4.648080348968506 5.720808506011963 6.2956223487854 6.80659818649292
        8.313467025756836 10.06981372833252 11.08866024017334 10.424967765808105 9.778501510620117 9.217991828918457
        9.080629348754883 9.774090766906738 9.269508361816406 8.244721412658691 7.909556865692139 6.690202713012695
        5.898779392242432 4.02417516708374 3.7590346336364746 4.598550319671631 5.876689434051514 7.322102069854736
        7.921767711639404 9.502994537353516 8.508988380432129 7.873690605163574 7.745954513549805 9.162886619567871
        9.202654838562012 9.23654842376709 9.286577224731445 10.945088386535645 11.542128562927246 11.95480728149414
        11.6948823928833 12.387027740478516 12.2129487991333 12.065119743347168 11.673585891723633 11.313254356384277
        11.269780158996582 9.646427154541016 7.5093770027160645 5.66965389251709 5.821433067321777 5.179186820983887
        5.549662113189697 5.195602893829346 4.079007148742676 4.2255964279174805 5.379660606384277 6.247859001159668
        5.306416988372803 4.719458103179932 5.312819480895996 6.74763822555542 7.464836120605469 7.507675647735596
        6.090882778167725 6.179636478424072 6.709193706512451 9.409087181091309 10.228699684143066 12.112874984741211
        12.91622257232666 15.006657600402832 14.24626636505127 14.164806365966797 13.285030364990234 11.689751625061035
        10.884499549865723 11.16714096069336 11.713799476623535 11.810431480407715 11.519243240356445 11.09160041809082
        10.757831573486328 10.090982437133789 8.615169525146484 7.357887268066406 9.314186096191406 10.728358268737793
        10.781270980834961 10.539956092834473 9.060754776000977 6.822208404541016 4.750970840454102 7.305149078369141
        8.413716316223145 9.530851364135742 10.622015953063965 11.251103401184082 11.114908218383789 9.716458320617676
        8.694082260131836 7.995950698852539 7.215964317321777 7.267318248748779 5.1147074699401855 5.060525417327881
        7.633548259735107 10.244608879089355 10.947162628173828 11.053635597229004 13.075115203857422 12.594145774841309
        12.458622932434082 11.654108047485352 10.11482048034668 7.520732879638672 7.569543361663818 8.014086723327637
        11.48340892791748 11.153121948242188 14.069478988647461 14.362318992614746 12.514187812805176 9.920762062072754
        7.703342437744141 5.218821048736572 1.959459662437439 1.8963422775268555 3.6157419681549072 4.559171676635742
        5.1576666831970215 4.933069229125977 7.270934104919434 11.112615585327148 15.754162788391113 20.056528091430664
        18.88089942932129 14.61870002746582 11.028068542480469 8.632357597351074 8.378918647766113 5.915313243865967
        5.056118965148926 4.094839572906494 2.9284377098083496 3.266493082046509 5.7337164878845215 9.355189323425293
        11.690088272094727 13.385560989379883 13.136385917663574 12.214376449584961 11.71980094909668 11.829544067382812
        10.27804946899414 8.740584373474121 7.570616245269775 6.930986404418945 7.85628080368042 9.641809463500977
        9.644389152526855 8.394674301147461 6.99530029296875 7.28006649017334 7.356531143188477 7.381760120391846
        6.150119781494141 5.957530498504639 6.332808494567871 7.080040454864502 8.214106559753418 10.223661422729492
        10.23379135131836 10.53650188446045 9.67790699005127 10.918856620788574 10.331149101257324 10.454468727111816
        9.447426795959473 8.68682861328125 8.79231071472168 7.518100738525391 6.097058296203613 4.780772686004639
        4.800386428833008 5.0049943923950195 4.874908447265625 5.035534381866455 5.557547569274902 6.395202159881592
        6.358680725097656 6.442837715148926 7.864233493804932 8.481428146362305 7.5035271644592285 7.919266223907471
        7.912610054016113 9.217127799987793 9.456596374511719 12.010461807250977 13.3364896774292 13.581722259521484
        12.626893997192383 11.26465892791748 11.143129348754883 11.19997787475586 10.954404830932617 10.474056243896484
        9.006739616394043 8.083732604980469 7.075087547302246 6.230395793914795 6.426260948181152 6.047011852264404
        5.036752223968506 4.631581783294678 5.845403671264648 6.7621989250183105 6.931909561157227 6.6676459312438965
        6.907686710357666 8.16704273223877 8.516512870788574 9.002142906188965 7.626091480255127 7.299128532409668
        6.954426288604736 7.609076976776123 8.44449520111084 11.01025390625 13.701391220092773 14.40063762664795
        14.420036315917969 14.187960624694824 13.782500267028809 13.012994766235352 12.000134468078613 11.894552230834961
        11.924233436584473 11.731072425842285 11.781283378601074 11.691790580749512 11.491147994995117 10.74380111694336
        9.25015926361084 7.4988532066345215 8.127518653869629 10.227153778076172 10.750458717346191 9.716737747192383
        8.236517906188965 4.686079502105713 3.5400993824005127 6.081348419189453 9.324435234069824 11.239670753479004
        11.452013969421387 11.370929718017578 10.514951705932617 9.552094459533691 8.74838638305664 7.972315311431885
        6.6964802742004395 6.74519157409668 4.8896803855896 4.802308559417725 6.465997695922852 9.095049858093262
        10.219202041625977 9.896449089050293 11.732086181640625 11.970019340515137 11.757614135742188 11.045701026916504
        9.78571891784668 8.449516296386719 5.650052070617676 6.056070804595947 8.71601390838623 12.662495613098145
        16.339580535888672 17.754610061645508 15.180216789245605 12.92257022857666 10.2728853225708 5.430736541748047
        3.112358570098877 3.0223371982574463 4.851776599884033 5.4067487716674805 5.23797082901001 5.234519004821777
        5.915398120880127 7.98681640625 14.537732124328613 19.846166610717773 21.535001754760742 17.63892936706543
        16.050369262695312 13.46741771697998 11.138384819030762 8.131025314331055 6.34601354598999 5.078067302703857
        4.06181001663208 3.8082332611083984 4.989041328430176 7.413646221160889 9.824926376342773 11.662613868713379
        12.325811386108398 13.082141876220703 12.8826322555542 13.66127872467041 12.627222061157227 10.969139099121094
        10.262856483459473 9.004205703735352 9.716556549072266 11.055207252502441 11.041158676147461 10.070018768310547
        8.998799324035645 9.068731307983398 9.12817096710205 8.510364532470703 8.239337921142578 7.171061992645264
        6.519121170043945 6.597271919250488 7.936740398406982 10.273115158081055 9.987567901611328 10.735119819641113
        11.997871398925781 13.417552947998047 12.84372329711914 12.293301582336426 11.059925079345703 10.0624418258667
        8.86060619354248 8.425881385803223 7.151359558105469 6.170253753662109 5.605395793914795 5.4301581382751465
        5.012923717498779 4.244687080383301 4.684838771820068 5.241990089416504 5.370673179626465 5.57595682144165
        6.335977077484131 6.165205001831055 5.684527397155762 5.156131267547607 6.032580375671387 6.839793682098389
        7.878969669342041 10.857328414916992 12.767289161682129 13.61801528930664 12.390462875366211 11.03980827331543
        12.037463188171387 12.254450798034668 12.302580833435059 11.379239082336426 10.659289360046387 9.564118385314941
        8.169843673706055 8.028533935546875 7.941675186157227 7.64530611038208 6.739974498748779 7.36061954498291
        7.9325337409973145 8.468974113464355 8.565872192382812 8.714434623718262 9.087552070617676 9.167208671569824
        8.743697166442871 9.090192794799805 8.452757835388184 8.283574104309082 7.404976844787598 7.521713733673096
        7.211395740509033 9.017060279846191 11.435613632202148 14.20722484588623 14.717363357543945 15.538590431213379
        14.826614379882812 14.449901580810547 13.488492965698242 12.609513282775879 12.386191368103027 11.083455085754395
        11.10706901550293 10.679753303527832 10.74489688873291 9.702817916870117 8.475761413574219 7.662107467651367
        7.905915260314941 9.356891632080078 9.585700035095215 8.800199508666992 7.199656963348389 3.4508209228515625
        2.014744520187378 6.344532012939453 10.838501930236816 12.244485855102539 11.735187530517578 10.929922103881836
        9.775832176208496 9.318366050720215 9.093226432800293 8.880023002624512 7.765654563903809 6.997203826904297
        6.1838178634643555 6.348362445831299 7.367588043212891 8.105851173400879 9.332365036010742 9.497986793518066
        10.273494720458984 10.969340324401855 11.069061279296875 11.457715034484863 10.771093368530273 10.445174217224121
        4.47637414932251 4.311517238616943 5.284692764282227 10.335939407348633 16.350507736206055 17.362905502319336
        16.009157180786133 15.357177734375 11.98270034790039 7.086153984069824 4.540717601776123 4.177402019500732
        4.67869234085083 4.791332721710205 4.200348377227783 4.873899459838867 5.125247955322266 4.614391326904297
        7.747988224029541 13.101131439208984 17.98110580444336 19.500337600708008 19.457500457763672 18.47698211669922
        15.861419677734375 12.331938743591309 9.139250755310059 6.92220401763916 4.8114848136901855 3.2871859073638916
        2.555445909500122 3.5997402667999268 3.9823803901672363 5.206879615783691 7.877992630004883 10.757009506225586
        14.522852897644043 14.458452224731445 13.913597106933594 13.043258666992188 13.193775177001953 11.99814510345459
        10.732497215270996 9.945741653442383 10.432461738586426 10.764396667480469 11.282651901245117 11.260573387145996
        10.616605758666992 9.838919639587402 8.73947811126709 7.50437593460083 7.4107465744018555 7.380377292633057
        7.592639446258545 8.091499328613281 7.916660308837891 8.92039966583252 11.700902938842773 14.735706329345703
        15.266016006469727 14.86609935760498 12.729212760925293 10.544806480407715 8.846001625061035 8.817940711975098
        7.880963325500488 6.627842903137207 5.912574768066406 5.983373641967773 6.252364158630371 5.645218372344971
        5.681061267852783 5.195220947265625 5.364863872528076 3.962153434753418 3.5559139251708984 3.3957326412200928
        4.0877790451049805 3.326061725616455 3.5543770790100098 3.9215967655181885 5.270435333251953 7.876343250274658
        9.83469295501709 10.977128982543945 11.505598068237305 11.05276107788086 13.124089241027832 13.502832412719727
        14.206022262573242 13.32686710357666 14.08405590057373 14.015548706054688 11.497438430786133 10.526616096496582
        10.30692195892334 10.431000709533691 9.948808670043945 9.137178421020508 8.932503700256348 9.3193998336792
        9.150063514709473 10.01806640625 10.360530853271484 10.340327262878418 9.315706253051758 9.288944244384766
        9.194658279418945 8.932111740112305 9.081071853637695 7.907330513000488 6.694065570831299 7.375384330749512
        10.516663551330566 13.378252029418945 13.69002914428711 14.851301193237305 14.375432014465332 14.268184661865234
        13.580042839050293 12.88787841796875 12.657632827758789 11.02880573272705 10.417318344116211 9.740190505981445
        9.140560150146484 8.641439437866211 8.83568286895752 9.1474609375 8.516407012939453 8.050163269042969
        7.434826850891113 7.58647346496582 7.087858200073242 4.3020195960998535 3.5834856033325195 6.002987384796143
        8.973058700561523 9.800155639648438 9.532971382141113 10.36987018585205 9.246367454528809 8.79648208618164
        8.81747055053711 9.026341438293457 8.389800071716309 7.695403099060059 7.313023090362549 7.423091411590576
        7.089241981506348 7.309187889099121 7.987060070037842 8.305757522583008 7.93391752243042 8.470352172851562
        9.128077507019043 10.145452499389648 10.207596778869629 11.564763069152832 3.1852192878723145 3.5219287872314453
        3.179950714111328 7.863908767700195 14.774005889892578 16.287534713745117 15.563935279846191 15.230888366699219
        12.66542911529541 9.031604766845703 6.413918972015381 5.897069931030273 4.769726276397705 4.049789905548096
        2.8483729362487793 2.4793612957000732 2.7042958736419678 2.7277708053588867 4.649704456329346 8.714377403259277
        13.707585334777832 16.453052520751953 18.89672088623047 19.42340660095215 17.933095932006836 14.584586143493652
        10.842328071594238 7.958769798278809 5.96004581451416 5.772878170013428 4.871530532836914 4.338805675506592
        2.6633400917053223 3.290597915649414 5.828670024871826 9.493057250976562 12.767791748046875 13.05454158782959
        12.787270545959473 13.04582691192627 14.356881141662598 13.115402221679688 11.379934310913086 9.866947174072266
        10.251935958862305 11.438982963562012 12.03260326385498 11.779424667358398 10.748871803283691 10.834733963012695
        9.548270225524902 8.885875701904297 8.657364845275879 8.254838943481445 7.322869777679443 6.121393203735352
        6.045051574707031 7.581819534301758 12.205967903137207 16.170167922973633 18.017349243164062 17.19904136657715
        14.693819999694824 11.95786190032959 10.945629119873047 11.2161226272583 9.568520545959473 8.1782808303833
        6.575192928314209 6.428102016448975 6.741819381713867 6.531847953796387 6.114529609680176 5.316308498382568
        5.839944839477539 4.686496257781982 3.537999391555786 2.7632153034210205 2.993220567703247 2.6900153160095215
        2.1329615116119385 1.5313386917114258 2.7137539386749268 4.302131652832031 6.258134841918945 7.168545246124268
        9.451526641845703 11.459648132324219 14.084156036376953 14.911069869995117 16.151525497436523 15.401754379272461
        16.242937088012695 16.2640380859375 14.666574478149414 13.58034896850586 13.058141708374023 13.048972129821777
        11.172404289245605 9.712617874145508 9.83296012878418 10.54372501373291 10.17047119140625 10.182437896728516
        10.330633163452148 10.393918991088867 9.739544868469238 10.069225311279297 9.974406242370605 9.556736946105957
        9.670249938964844 7.795590877532959 5.972010612487793 7.445374011993408 9.57197093963623 11.378987312316895
        11.513833999633789 13.444252014160156 13.573258399963379 14.239409446716309 14.114784240722656 14.213395118713379
        13.911882400512695 11.791275978088379 10.859434127807617 10.324958801269531 10.12472915649414 9.717001914978027
        10.670954704284668 10.673637390136719 10.360930442810059 8.214826583862305 6.671798229217529 5.282672882080078
        5.163113117218018 4.381344795227051 5.679022789001465 8.60522174835205 11.618621826171875 11.01228141784668
        10.054791450500488 9.519651412963867 9.214378356933594 8.56765079498291 8.709002494812012 9.230668067932129
        8.91358757019043 9.096046447753906 8.620316505432129 8.02005672454834 7.43599796295166 7.595324993133545
        8.027194023132324 7.648561954498291 7.106534481048584 7.022066593170166 7.754579544067383 9.189473152160645
        10.262161254882812 13.168996810913086 3.3808236122131348 2.9878315925598145 1.9054927825927734 4.683435440063477
        7.980983257293701 11.82373046875 12.64207649230957 13.985719680786133 10.933446884155273 9.617841720581055
        7.648406028747559 7.724246501922607 5.9026923179626465 4.759265422821045 3.2018444538116455 4.21660852432251
        5.2845635414123535 3.877246379852295 2.2473504543304443 5.33651065826416 7.276553153991699 10.923389434814453
        13.548493385314941 16.574295043945312 17.75817108154297 15.493824005126953 11.657992362976074 9.387866973876953
        8.316439628601074 8.426542282104492 8.752788543701172 7.122469425201416 5.263373851776123 3.1541244983673096
        5.181349277496338 7.768691539764404 10.539602279663086 10.821868896484375 10.197261810302734 11.222586631774902
        13.237937927246094 12.714391708374023 10.858199119567871 9.916662216186523 10.446493148803711 11.245993614196777
        11.698592185974121 11.681525230407715 12.019965171813965 12.618836402893066 11.492888450622559 9.937548637390137
        9.626609802246094 8.51757526397705 7.334099769592285 5.863061904907227 6.215092182159424 8.059477806091309
        11.687948226928711 15.0997314453125 17.346473693847656 16.973207473754883 15.356203079223633 13.386881828308105
        13.007980346679688 12.45097541809082 10.993626594543457 9.06132984161377 8.312493324279785 8.099919319152832
        8.540881156921387 7.497557163238525 6.32270622253418 5.350660800933838 6.367300033569336 6.665597438812256
        5.633667469024658 4.788108825683594 3.2765684127807617 2.8507251739501953 1.7769191265106201 1.092225193977356
        1.413260817527771 1.8218680620193481 1.9833952188491821 2.6663975715637207 5.291943073272705 8.212967872619629
        9.69472599029541 10.403995513916016 12.40599536895752 13.469012260437012 14.093152046203613 14.526419639587402
        15.323220252990723 15.135802268981934 15.46783447265625 14.52988338470459 12.117311477661133 9.368526458740234
        9.900626182556152 10.859992027282715 10.511116027832031 10.203985214233398 10.25439739227295 10.560079574584961
        10.493315696716309 10.93595027923584 11.259065628051758 10.493096351623535 9.739884376525879 7.091644287109375
        6.700056552886963 6.863979816436768 7.273486137390137 7.3959197998046875 7.7310590744018555 9.857033729553223
        11.254859924316406 12.573163986206055 13.105088233947754 13.708547592163086 13.520634651184082 11.848807334899902
        11.79757308959961 11.430767059326172 11.311756134033203 10.654457092285156 11.864493370056152 11.893534660339355
        10.395167350769043 9.198258399963379 8.598808288574219 6.680263042449951 3.600289821624756 2.6562774181365967
        4.5659284591674805 7.761768341064453 12.831945419311523 13.547017097473145 12.257908821105957 9.884092330932617
        9.091238021850586 8.018204689025879 8.296721458435059 9.206022262573242 9.46068000793457 9.686548233032227
        9.31879997253418 8.619756698608398 8.380112648010254 9.100979804992676 9.104692459106445 7.395270824432373
        7.204129695892334 7.478634357452393 7.742150783538818 7.818806171417236 9.368754386901855 13.406845092773438
        1.9691414833068848 1.7575029134750366 1.125533103942871 3.668055534362793 8.367830276489258 13.279744148254395
        13.831026077270508 14.266294479370117 10.91454029083252 9.784717559814453 7.330018520355225 6.957554340362549
        5.89827823638916 4.733215808868408 4.101579666137695 4.3970136642456055 4.066098213195801 2.0538837909698486
        2.3687565326690674 5.76240348815918 6.338685989379883 8.451716423034668 9.916922569274902 11.47562026977539
        15.294739723205566 13.834684371948242 12.681577682495117 11.582466125488281 12.60378646850586 12.389562606811523
        11.677492141723633 9.332067489624023 9.032065391540527 6.502906799316406 6.291707992553711 6.274782180786133
        7.06879186630249 7.340304374694824 6.690306663513184 9.81171703338623 11.955587387084961 12.547185897827148
        11.84813404083252 10.995697975158691 10.88349723815918 10.442472457885742 10.513504028320312 11.51674747467041
        11.790799140930176 12.739948272705078 12.27473258972168 11.18430233001709 10.311660766601562 9.637299537658691
        8.455358505249023 5.9510087966918945 5.598541736602783 7.748396873474121 10.261350631713867 13.745841026306152
        15.803539276123047 16.04377555847168 15.428291320800781 14.298745155334473 14.132295608520508 12.187950134277344
        10.931638717651367 9.615306854248047 9.208686828613281 9.724898338317871 9.738824844360352 7.984534740447998
        6.178129196166992 5.823920249938965 6.627723693847656 6.935264587402344 6.147271156311035 6.040206432342529
        5.003425598144531 3.998549461364746 2.2760534286499023 1.5382496118545532 1.5406073331832886 1.3120676279067993
        0.8516533374786377 1.411344289779663 2.255808115005493 4.726419448852539 4.380874156951904 4.104088306427002
        5.195416450500488 7.158197402954102 8.977415084838867 8.97968578338623 12.099065780639648 13.387826919555664
        16.181642532348633 14.823291778564453 13.199527740478516 10.668329238891602 10.597474098205566 10.843978881835938
        10.534465789794922 10.27042293548584 10.625068664550781 10.62534236907959 10.98396110534668 11.75869369506836
        12.60855484008789 11.288370132446289 9.804818153381348 7.503169536590576 6.321806907653809 5.6761345863342285
        6.360487461090088 6.679257392883301 7.12283992767334 8.88332462310791 10.249048233032227 11.909849166870117
        12.612601280212402 13.516511917114258 12.492560386657715 11.551151275634766 12.135661125183105 12.049005508422852
        11.714848518371582 10.958318710327148 11.386545181274414 11.593887329101562 10.904452323913574 11.266120910644531
        10.37675666809082 8.145312309265137 3.1235556602478027 3.3236069679260254 6.483129501342773 8.200274467468262
        11.736306190490723 15.224369049072266 13.827075004577637 12.319128036499023 11.240937232971191 9.392891883850098
        9.495190620422363 8.976318359375 9.495621681213379 9.820953369140625 9.35118579864502 9.235684394836426
        8.429638862609863 8.288542747497559 8.165756225585938 7.144367694854736 7.725505828857422 8.205387115478516
        8.19236946105957 7.653772354125977 8.447224617004395 12.560303688049316 1.532739520072937 2.112596273422241
        0.7101238965988159 2.9535698890686035 7.820786952972412 12.971936225891113 13.059490203857422 14.269105911254883
        13.054986953735352 10.638346672058105 7.311715126037598 5.525010108947754 5.369888782501221 4.448843479156494
        4.048025608062744 2.7254676818847656 0.9036970734596252 1.1468957662582397 0.5678687691688538 1.8154512643814087
        3.4840075969696045 4.13292932510376 5.281139850616455 8.062929153442383 7.966697692871094 7.822855472564697
        7.284084796905518 10.911333084106445 14.335260391235352 14.007678985595703 13.24157428741455 10.052011489868164
        9.642995834350586 7.167896270751953 6.499183177947998 4.455448150634766 4.662286758422852 5.231665134429932
        5.573949813842773 7.5793328285217285 10.801794052124023 11.684735298156738 12.262709617614746 11.55097484588623
        10.602166175842285 10.270315170288086 10.267237663269043 11.540132522583008 12.13442611694336 12.557808876037598
        12.4987154006958 11.153820037841797 10.758307456970215 10.53574275970459 9.10407829284668 6.0975661277771
        4.148869514465332 4.838737964630127 5.547175407409668 9.54894733428955 13.805492401123047 15.11785888671875
        15.555933952331543 15.054581642150879 14.81170654296875 12.984675407409668 10.860374450683594 10.028604507446289
        9.849451065063477 10.828180313110352 11.8932466506958 9.941221237182617 8.12894058227539 7.2796831130981445
        7.7344536781311035 7.622870922088623 6.775684356689453 7.295916557312012 6.38421630859375 5.3162522315979
        3.5544095039367676 2.5144081115722656 1.563103199005127 1.5159271955490112 0.5504435300827026 0.8282396197319031
        1.9578253030776978 2.0589499473571777 2.442272663116455 3.335028886795044 3.2657227516174316 2.977811574935913
        3.9780547618865967 5.093829154968262 8.612336158752441 12.44182300567627 15.494879722595215 16.570100784301758
        16.590810775756836 14.478673934936523 12.650815963745117 10.800566673278809 11.002827644348145 11.258330345153809
        11.830522537231445 11.66163444519043 11.588610649108887 11.784945487976074 12.40135669708252 10.866878509521484
        9.269908905029297 6.628491401672363 5.441232681274414 5.499444484710693 6.517186164855957 7.037290573120117
        7.299808979034424 8.619410514831543 9.337043762207031 10.178428649902344 10.75943374633789 11.497645378112793
        11.078080177307129 10.604435920715332 11.150870323181152 11.05801773071289 10.560111999511719 10.797906875610352
        10.450638771057129 10.856136322021484 10.74164867401123 12.404547691345215 11.537786483764648 7.846311569213867
        4.117403507232666 2.7155864238739014 3.0912880897521973 6.482369422912598 9.561138153076172 13.20681381225586
        13.9447660446167 12.392898559570312 11.232986450195312 10.381110191345215 9.915473937988281 9.79789924621582
        9.915541648864746 10.356138229370117 10.20727825164795 10.570033073425293 9.622891426086426 8.471545219421387
        7.293586254119873 7.04470157623291 7.568423748016357 8.094751358032227 7.441257953643799 6.609701633453369
        6.673541069030762 9.56694221496582 1.1367168426513672 2.5851097106933594 1.2260743379592896 1.9960732460021973
        9.332226753234863 13.529963493347168 16.702495574951172 14.139155387878418 13.413463592529297 11.10505199432373
        8.497066497802734 5.321256637573242 5.171460151672363 4.500401973724365 3.8273701667785645 1.7401014566421509
        2.267702102661133 0.9804767966270447 0.7352638244628906 0.7089677453041077 3.1911494731903076 4.2342047691345215
        3.4436585903167725 4.678377151489258 4.684630393981934 4.922266483306885 4.444520473480225 8.466888427734375
        11.97237491607666 13.323052406311035 13.86567211151123 13.042367935180664 11.235926628112793 9.195363998413086
        8.171630859375 5.70064640045166 4.931646347045898 4.599777698516846 4.973893165588379 6.25740385055542
        9.444598197937012 11.695499420166016 11.340631484985352 10.705158233642578 9.935661315917969 8.599109649658203
        8.69334602355957 9.983612060546875 11.457504272460938 11.810577392578125 11.407508850097656 11.071582794189453
        10.667186737060547 10.70394515991211 9.133683204650879 6.9970245361328125 4.082190990447998 2.5766687393188477
        2.022697687149048 5.399073600769043 10.15318775177002 13.910677909851074 14.553634643554688 14.731829643249512
        14.008520126342773 13.903986930847168 12.419571876525879 11.70146369934082 10.781624794006348 11.5186128616333
        12.585205078125 12.648591995239258 10.377490043640137 8.587955474853516 7.603494644165039 8.493330001831055
        9.567177772521973 9.840051651000977 7.54753303527832 5.88680362701416 4.284383773803711 3.2958805561065674
        1.6517351865768433 1.2531033754348755 0.5964265465736389 0.717668354511261 0.8612770438194275 1.8901634216308594
        2.3865387439727783 3.0533359050750732 3.8162975311279297 3.642117738723755 3.7988312244415283 3.422917127609253
        5.891566753387451 9.889909744262695 12.65480899810791 14.789216041564941 15.587607383728027 15.068634033203125
        12.82826042175293 11.510191917419434 11.621210098266602 13.032846450805664 11.627100944519043 11.492964744567871
        10.70763874053955 10.733378410339355 10.750654220581055 9.465723991394043 8.089951515197754 6.420917510986328
        5.36553955078125 6.114762306213379 6.767424583435059 7.316783905029297 8.512493133544922 9.300421714782715
        9.284424781799316 9.207595825195312 9.70502758026123 10.790682792663574 10.781271934509277 10.966987609863281
        10.853251457214355 10.64483642578125 10.740930557250977 11.132429122924805 11.483723640441895 12.209787368774414
        12.612160682678223 13.010110855102539 11.900409698486328 8.79627799987793 5.527953147888184 2.313549280166626
        2.0479629039764404 4.178220272064209 7.475083827972412 11.47716236114502 13.014857292175293 12.265804290771484
        11.251928329467773 10.248689651489258 10.264307022094727 9.92808723449707 10.737839698791504 10.612841606140137
        10.487326622009277 10.739059448242188 10.060401916503906 9.140933990478516 7.661595821380615 7.552597522735596
        7.7267866134643555 6.922502517700195 6.414226531982422 6.556149482727051 6.1209917068481445 6.948687553405762
        1.0895650386810303 2.807774305343628 2.629256010055542 0.45735281705856323 7.369307994842529 10.262592315673828
        13.324814796447754 13.078343391418457 12.952096939086914 11.026206016540527 9.20533275604248 6.444858074188232
        6.156276702880859 5.743284225463867 5.4099555015563965 3.9674713611602783 3.0674920082092285 1.9462894201278687
        1.5119361877441406 1.4710166454315186 2.5467233657836914 3.346325635910034 3.48105788230896 3.2886404991149902
        3.801044225692749 4.154062271118164 3.916337251663208 5.963906288146973 9.339764595031738 11.7831392288208
        13.692813873291016 13.81255054473877 13.499991416931152 11.9253568649292 10.495107650756836 8.013654708862305
        7.135551929473877 6.898564338684082 6.487606048583984 7.1958417892456055 8.997313499450684 12.020891189575195
        12.126839637756348 10.8182954788208 9.813200950622559 7.715450763702393 7.901340007781982 8.922072410583496
        11.266926765441895 11.191305160522461 10.438462257385254 9.818020820617676 10.72609806060791 10.978781700134277
        9.633687019348145 7.830131530761719 5.519838333129883 3.1302618980407715 1.758779764175415 5.388236999511719
        9.759777069091797 13.595714569091797 13.74576473236084 13.406654357910156 13.684642791748047 15.010895729064941
        13.399728775024414 12.74412727355957 11.374273300170898 13.04527759552002 14.631094932556152 15.42078971862793
        13.41749382019043 10.946976661682129 10.66802978515625 10.503243446350098 10.970314979553223 10.388050079345703
        9.771952629089355 8.503362655639648 6.260051250457764 4.113204479217529 1.8733350038528442 1.8758984804153442
        2.623049736022949 3.7055649757385254 3.139608383178711 4.255495548248291 4.923328876495361 4.596486568450928
        5.047769546508789 4.914272308349609 4.4611921310424805 3.9482877254486084 4.16067361831665 5.825818061828613
        7.66979455947876 10.04232120513916 12.050466537475586 14.168252944946289 12.851722717285156 12.48012638092041
        12.59395694732666 14.13783073425293 12.225895881652832 11.802373886108398 10.068892478942871 8.983887672424316
        8.512832641601562 8.070582389831543 7.09849739074707 6.445084571838379 6.390007972717285 7.203790187835693
        7.731064796447754 8.438936233520508 9.18001651763916 10.023414611816406 9.380184173583984 8.839509963989258
        8.674413681030273 10.350516319274902 11.135188102722168 11.352193832397461 10.55193042755127 10.206201553344727
        10.39877700805664 10.894927024841309 11.847957611083984 12.719403266906738 13.331646919250488 13.101324081420898
        11.100757598876953 7.809605121612549 5.555929660797119 3.0518405437469482 1.2164347171783447 2.732649326324463
        6.823969841003418 9.946053504943848 12.222606658935547 10.828537940979004 9.218840599060059 6.547417640686035
        7.407443523406982 10.072763442993164 11.979183197021484 11.445096969604492 11.492608070373535 11.446907997131348
        11.43559455871582 10.79818058013916 10.100895881652832 9.426694869995117 8.772184371948242 7.132595539093018
        6.704580783843994 6.674510478973389 5.860579967498779 5.927414417266846 3.2138845920562744 1.6420094966888428
        1.4818339347839355 1.1987817287445068 3.422771692276001 7.363367080688477 13.007857322692871 13.527432441711426
        12.248425483703613 11.400527000427246 11.453775405883789 8.787900924682617 7.710191249847412 7.0100178718566895
        7.334194660186768 5.860363960266113 4.278589248657227 3.828916311264038 3.0315072536468506 2.902578592300415
        2.831472873687744 4.0314178466796875 4.123289108276367 2.946810245513916 3.5557861328125 6.015480041503906
        6.883375644683838 8.03060531616211 9.69981861114502 11.408145904541016 11.789382934570312 13.008482933044434
        13.808318138122559 14.589055061340332 12.663613319396973 11.518481254577637 9.43120002746582 8.726354598999023
        6.754819393157959 7.551236629486084 8.617910385131836 11.905427932739258 12.37668514251709 10.519221305847168
        8.704289436340332 7.644504070281982 7.859024524688721 8.5507173538208 9.931527137756348 9.96498966217041
        8.77133560180664 8.870351791381836 9.924904823303223 10.87341594696045 9.106413841247559 7.421982765197754
        6.216895580291748 4.310892105102539 2.590045928955078 5.7411394119262695 10.081192970275879 13.113285064697266
        11.95148754119873 10.72304916381836 10.825203895568848 11.637850761413574 11.150867462158203 11.377747535705566
        10.14228343963623 11.796174049377441 14.392452239990234 16.18693733215332 14.721879005432129 13.080985069274902
        13.143388748168945 11.762141227722168 10.7227201461792 9.96728229522705 11.373445510864258 11.120779037475586
        9.063675880432129 5.978686809539795 3.7992286682128906 4.239592552185059 6.188072204589844 7.640257835388184
        6.486886978149414 8.698563575744629 9.255359649658203 7.715802192687988 4.800235748291016 4.975788593292236
        4.628417015075684 4.593921661376953 4.164766311645508 3.820897102355957 3.2668445110321045 3.914217948913574
        7.2000555992126465 10.394430160522461 11.75802230834961 12.604205131530762 12.20583724975586 13.74355411529541
        12.872106552124023 12.67387580871582 11.023320198059082 10.005175590515137 9.230020523071289 8.287506103515625
        7.571676254272461 7.5443339347839355 7.545362949371338 8.311288833618164 9.33631420135498 9.773233413696289
        9.592623710632324 10.250324249267578 9.98905086517334 10.241964340209961 9.714258193969727 11.093632698059082
        11.641870498657227 11.539613723754883 10.639801025390625 9.904303550720215 9.880315780639648 10.166956901550293
        11.190756797790527 13.096545219421387 13.879987716674805 13.459319114685059 10.926443099975586 6.829135894775391
        3.388895273208618 0.5002501010894775 1.1296076774597168 3.183115243911743 3.3325681686401367 6.896860122680664
        9.072793960571289 8.368866920471191 7.099238872528076 4.99320125579834 5.9539289474487305 9.660137176513672
        11.614968299865723 10.952178001403809 11.34822940826416 11.978450775146484 11.871737480163574 11.68744945526123
        11.474910736083984 10.081897735595703 9.060298919677734 7.751781940460205 7.1716203689575195 7.052711486816406
        5.337967395782471 4.869139671325684 2.6745433807373047 2.0012900829315186 1.2363817691802979 0.39350661635398865
        0.827632486820221 4.266120433807373 8.876526832580566 11.632538795471191 11.480875968933105 11.719111442565918
        10.58161449432373 9.657853126525879 8.258747100830078 8.441905975341797 8.238072395324707 7.548764705657959
        6.161312103271484 6.14994478225708 4.409991264343262 3.7906997203826904 3.482332229614258 3.971315383911133
        4.1245293617248535 2.7411158084869385 2.890122413635254 5.8184895515441895 8.138760566711426 9.694129943847656
        10.273782730102539 10.099255561828613 8.645944595336914 9.655847549438477 12.420595169067383 13.76481819152832
        14.15966510772705 12.804936408996582 10.61913776397705 9.595443725585938 7.487739562988281 7.663333415985107
        7.646291732788086 10.4182767868042 11.941579818725586 10.667201042175293 7.9016008377075195 7.204810619354248
        8.858550071716309 9.990967750549316 9.599685668945312 9.456674575805664 8.394243240356445 8.624423027038574
        9.207859992980957 8.939656257629395 7.876525402069092 6.341736793518066 5.579843997955322 4.456965923309326
        3.8950374126434326 6.568995952606201 10.63056755065918 13.250882148742676 13.155773162841797 11.525010108947754
        10.53293514251709 9.516862869262695 7.500316619873047 7.065964698791504 5.270002841949463 8.794672966003418
        12.962252616882324 17.48282814025879 16.9885196685791 14.448410987854004 15.118477821350098 12.855881690979004
        10.675426483154297 9.507123947143555 11.637740135192871 12.66033935546875 10.486276626586914 8.0636625289917
        6.012461185455322 7.08725643157959 8.124222755432129 9.99682331085205 8.870401382446289 10.527151107788086
        10.300477027893066 8.919294357299805 5.108100414276123 5.099345684051514 5.266556739807129 5.739081382751465
        5.40385103225708 3.53519344329834 2.1216375827789307 2.819434404373169 4.736854076385498 7.572912693023682
        9.235149383544922 11.035794258117676 11.811362266540527 13.025877952575684 14.68553352355957 14.581685066223145
        13.347278594970703 11.583226203918457 10.524456024169922 9.44133472442627 8.694503784179688 9.186090469360352
        8.770650863647461 9.020512580871582 9.785901069641113 10.128312110900879 10.215978622436523 10.75222396850586
        11.206371307373047 11.475465774536133 10.725637435913086 11.875428199768066 11.978144645690918 11.651060104370117
        10.30251407623291 9.324090003967285 9.325749397277832 10.000408172607422 11.01704216003418 13.198081016540527
        15.064106941223145 13.74240779876709 8.881155014038086 3.5148022174835205 1.6100667715072632 1.5298501253128052
        3.5190160274505615 5.1057610511779785 1.8567148447036743 3.5516011714935303 5.803659439086914 6.794600963592529
        5.9962992668151855 4.2181196212768555 5.521448135375977 8.870997428894043 11.597329139709473 11.043024063110352
        11.071196556091309 11.8197603225708 11.782732963562012 11.498882293701172 11.656013488769531 9.729238510131836
        9.000024795532227 7.344188213348389 6.713413238525391 6.614246845245361 5.169583320617676 4.875847816467285
        1.8460325002670288 2.1337571144104004 2.104522705078125 2.3286192417144775 1.2114450931549072 3.2584168910980225
        5.89390230178833 8.996411323547363 8.602128028869629 8.283975601196289 8.433125495910645 8.64509391784668
        7.4754319190979 9.015591621398926 8.579739570617676 8.727802276611328 7.688912868499756 7.304654121398926
        6.794718265533447 5.400460243225098 5.502544403076172 4.77787971496582 4.932246685028076 3.3151535987854004
        4.040099143981934 7.072990417480469 8.8917875289917 10.099076271057129 10.432629585266113 8.868796348571777
        6.773168087005615 7.008838653564453 8.899205207824707 11.691900253295898 13.263476371765137 13.57699203491211
        11.262920379638672 9.661633491516113 8.2782564163208 7.249600410461426 7.476385116577148 7.927493095397949
        9.294918060302734 9.234832763671875 7.821144104003906 7.535080432891846 8.815258979797363 10.358122825622559
        9.774370193481445 9.391143798828125 9.172019958496094 8.734225273132324 7.782198429107666 6.861003875732422
        5.804769039154053 4.749377727508545 5.111393928527832 5.778626918792725 6.4569478034973145 7.05100154876709
        9.2019624710083 11.255149841308594 12.452140808105469 11.80791187286377 9.2503662109375 6.465855598449707
        4.099271297454834 2.32770037651062 2.846867799758911 5.84952449798584 11.472216606140137 13.702352523803711
        15.067655563354492 13.89707088470459 14.3907470703125 13.529886245727539 11.69549560546875 12.34949779510498
        12.588105201721191 13.231291770935059 11.075469017028809 9.815918922424316 9.15282917022705 9.632765769958496
        10.653590202331543 11.433487892150879 9.925077438354492 10.990235328674316 10.3751859664917 9.153855323791504
        6.384684085845947 5.727639675140381 5.775391578674316 6.042322158813477 5.7805962562561035 3.836016893386841
        2.472026824951172 2.846846342086792 3.2012455463409424 3.8003439903259277 6.120161533355713 9.44952392578125
        12.267605781555176 13.606382369995117 15.782186508178711 16.069538116455078 14.910475730895996 12.685585021972656
        10.651409149169922 10.078916549682617 9.973553657531738 10.838981628417969 10.219754219055176 9.818148612976074
        10.371208190917969 10.39667797088623 10.488584518432617 10.726312637329102 11.78688907623291 12.785563468933105
        11.932411193847656 11.861992835998535 11.260296821594238 10.358722686767578 8.366333961486816 8.496609687805176
        9.070256233215332 10.450212478637695 10.918025016784668 13.219226837158203 14.602569580078125 12.809049606323242
        8.044246673583984 2.159111261367798 0.34706833958625793 2.1476306915283203 3.934817314147949 4.293658256530762
        2.1013295650482178 1.883972406387329 2.542689800262451 4.075253486633301 4.941908359527588 5.5208563804626465
        5.379922866821289 7.062499523162842 8.850815773010254 9.866032600402832 10.834189414978027 11.154526710510254
        11.14720344543457 10.742606163024902 10.865381240844727 10.467358589172363 9.539488792419434 8.329018592834473
        7.2858405113220215 6.88613224029541 6.27495002746582 6.413802623748779 1.9617856740951538 1.7881712913513184
        2.4988245964050293 3.442295789718628 4.308585166931152 5.147971153259277 6.878066062927246 6.307718753814697
        5.789994716644287 5.165247917175293 5.082254409790039 5.826454162597656 6.450622081756592 6.907126426696777
        7.885837078094482 9.146888732910156 9.466129302978516 7.189002513885498 7.131595611572266 7.229458808898926
        7.81214714050293 6.333939552307129 5.5707783699035645 3.562248706817627 4.760947227478027 6.433108329772949
        8.184775352478027 8.383208274841309 8.641454696655273 7.760035037994385 6.458203315734863 5.602226257324219
        6.225816249847412 8.113096237182617 10.38266658782959 11.47445297241211 11.80689525604248 10.404802322387695
        9.389387130737305 8.391061782836914 7.796536445617676 7.925360679626465 8.570379257202148 8.461224555969238
        7.362059116363525 7.309826374053955 8.963423728942871 10.51029109954834 10.356917381286621 9.89122200012207
        9.4829683303833 8.761216163635254 7.7898783683776855 6.648021697998047 5.889888763427734 4.512798309326172
        4.474707126617432 4.622010707855225 5.132702350616455 5.878417491912842 7.4539899826049805 9.96823501586914
        10.621560096740723 9.838991165161133 8.130311965942383 6.537177085876465 3.555528402328491 1.1415153741836548
        2.33400559425354 5.27018928527832 10.842931747436523 11.867423057556152 10.850358963012695 9.30073070526123
        12.215052604675293 14.70229434967041 15.539551734924316 15.27969741821289 15.615193367004395 16.688993453979492
        14.116780281066895 12.22933292388916 10.835095405578613 10.651918411254883 10.734654426574707 10.872052192687988
        10.899405479431152 10.036262512207031 9.954080581665039 8.66915512084961 7.998596668243408 6.746245861053467
        6.950031757354736 7.195271968841553 6.133154392242432 4.672849655151367 3.3507866859436035 3.4057517051696777
        3.6222217082977295 3.7491753101348877 5.1588134765625 7.693370342254639 10.784239768981934 11.128625869750977
        13.915640830993652 14.651723861694336 13.694096565246582 9.649396896362305 9.177335739135742 10.386120796203613
        11.360736846923828 11.54311752319336 11.547558784484863 11.489079475402832 10.968123435974121 10.11159610748291
        10.290416717529297 10.884479522705078 11.888741493225098 12.246981620788574 11.240811347961426 9.800457000732422
        7.893533706665039 7.764886856079102 7.593247413635254 8.25352668762207 9.139827728271484 10.663104057312012
        11.060769081115723 12.989583015441895 14.275604248046875 13.320443153381348 8.16845989227295 4.519270896911621
        1.2844892740249634 2.3921902179718018 4.566408157348633 3.144845962524414 2.4199790954589844 3.2547366619110107
        3.699620246887207 4.906620979309082 5.02691125869751 4.748587608337402 5.062183856964111 6.616021156311035
        7.909575462341309 8.548765182495117 9.86696720123291 11.465484619140625 11.939327239990234 12.351828575134277
        11.842219352722168 11.567798614501953 10.602912902832031 9.550360679626465 8.963628768920898 7.8660430908203125
        7.565086841583252 7.311298370361328 3.082282543182373 3.022381067276001 4.275018692016602 5.370234489440918
        6.158820152282715 4.41786527633667 6.016949653625488 6.273350715637207 5.719237804412842 4.346017360687256
        4.444468021392822 4.18194580078125 3.826859474182129 4.15280818939209 6.568245887756348 7.011586666107178
        7.138984680175781 7.225715160369873 7.769299507141113 7.7520318031311035 9.109502792358398 9.187593460083008
        8.5169677734375 6.80236291885376 7.0781049728393555 7.359184265136719 7.340373516082764 7.36442756652832
        8.037360191345215 8.086979866027832 6.792568206787109 5.88064432144165 5.748859405517578 6.083463668823242
        7.022032737731934 9.173276901245117 10.780542373657227 11.714521408081055 11.52270221710205 10.406094551086426
        8.162912368774414 7.322213649749756 6.875365734100342 6.86488151550293 6.787160396575928 7.899441719055176
        8.795236587524414 10.130361557006836 10.850539207458496 11.362438201904297 10.703082084655762 9.283991813659668
        8.236784934997559 6.920708656311035 6.24152946472168 4.991868019104004 5.447601318359375 5.601914882659912
        6.063127517700195 6.292259693145752 6.358389377593994 8.083815574645996 8.98122787475586 8.724732398986816
        8.057064056396484 7.421948432922363 6.49723482131958 4.8377790451049805 5.813050746917725 7.501152992248535
        11.417291641235352 10.227192878723145 7.501498222351074 4.334989070892334 7.837735652923584 11.067273139953613
        13.496695518493652 14.724529266357422 17.384780883789062 20.063501358032227 18.855194091796875 14.974861145019531
        11.782989501953125 11.170397758483887 11.867809295654297 12.180925369262695 12.28713321685791 11.760749816894531
        10.753260612487793 9.316359519958496 8.442047119140625 8.103796005249023 7.995561599731445 7.881678581237793
        6.806461334228516 5.972426414489746 5.190361976623535 4.258975028991699 3.7518906593322754 4.13575553894043
        5.564420223236084 7.338569164276123 9.027312278747559 9.071671485900879 10.537741661071777 10.644449234008789
        10.264455795288086 5.781356334686279 5.177852630615234 8.17446231842041 10.46041202545166 11.19807243347168
        12.773638725280762 12.713682174682617 11.028533935546875 10.233320236206055 10.525758743286133 11.462281227111816
        12.389500617980957 12.156064987182617 10.433120727539062 7.010649681091309 5.8835368156433105 7.124523639678955
        8.073206901550293 8.661567687988281 9.105437278747559 12.367348670959473 12.44894790649414 13.493488311767578
        11.994071960449219 11.511711120605469 5.822597980499268 3.6202473640441895 0.5971171855926514 1.9523948431015015
        2.603865146636963 1.4218149185180664 1.4817901849746704 3.7438085079193115 4.639549255371094 3.9809176921844482
        2.906400680541992 2.7931599617004395 4.215147495269775 6.394851207733154 7.358264446258545 8.703548431396484
        9.75302505493164 11.901998519897461 11.939168930053711 12.510419845581055 11.793663024902344 11.315244674682617
        10.35400390625 9.767179489135742 8.906717300415039 8.5761137008667 8.686781883239746 8.903152465820312
        7.483373165130615 5.695797443389893 5.923956394195557 5.3829498291015625 5.4675703048706055 3.5305795669555664
        5.040160179138184 5.563924312591553 5.490915298461914 4.549737453460693 4.3677287101745605 2.2623226642608643
        1.9660381078720093 2.7242438793182373 6.455272197723389 6.318647384643555 6.242560386657715 6.9755072593688965
        6.602316379547119 5.943012237548828 7.5636186599731445 8.528236389160156 9.481308937072754 8.668153762817383
        9.302933692932129 9.465795516967773 8.199716567993164 8.029568672180176 7.953316688537598 8.22347640991211
        7.199131965637207 5.863593578338623 5.937065124511719 4.586441993713379 4.7407402992248535 7.141791820526123
        10.170734405517578 12.63332462310791 13.008451461791992 11.606195449829102 8.38664722442627 7.390331745147705
        6.7868146896362305 6.866475582122803 6.950071334838867 8.401359558105469 8.557127952575684 10.29723834991455
        11.07974624633789 12.219407081604004 11.93960189819336 10.437846183776855 8.989267349243164 8.189934730529785
        7.745204448699951 7.2710771560668945 6.759100437164307 6.5648980140686035 6.4227776527404785 6.114734172821045
        5.609029293060303 7.0895209312438965 8.184503555297852 7.798144340515137 7.185515880584717 8.913859367370605
        8.98928165435791 7.675206661224365 6.016833305358887 7.437611103057861 11.851449012756348 12.158177375793457
        7.561959266662598 3.826657772064209 2.4408986568450928 5.121585845947266 6.957569599151611 8.736686706542969
        13.29281997680664 17.575210571289062 19.674583435058594 15.673593521118164 12.425884246826172 10.976875305175781
        11.073102951049805 11.892836570739746 12.334238052368164 11.593279838562012 9.931214332580566 8.867307662963867
        8.447877883911133 8.784762382507324 8.438276290893555 7.823848247528076 7.152983665466309 6.245189666748047
        5.865435600280762 5.179597854614258 4.468279838562012 5.421600341796875 5.893708229064941 7.03411340713501
        7.7539567947387695 8.092562675476074 8.084229469299316 7.287210464477539 5.503015518188477 0.8545611500740051
        2.3184750080108643 5.8092522621154785 8.466795921325684 8.869719505310059 11.73383903503418 11.611631393432617
        9.754938125610352 9.110739707946777 10.505525588989258 11.44425106048584 13.459287643432617 12.194689750671387
        9.684565544128418 4.273158073425293 4.213292121887207 5.806717872619629 8.195748329162598 9.63177490234375
        11.577664375305176 14.867919921875 13.66356372833252 13.59459114074707 11.392655372619629 8.968727111816406
        3.2792341709136963 1.8160982131958008 0.6964103579521179 2.2367236614227295 3.8840785026550293 2.6652302742004395
        1.628849983215332 2.834130048751831 4.551193714141846 3.7515087127685547 2.375417709350586 2.140005111694336
        4.457573413848877 6.621832847595215 7.616476058959961 9.26495361328125 10.08574104309082 11.621771812438965
        11.883465766906738 13.03791618347168 13.236063003540039 12.214529991149902 11.003954887390137 10.069607734680176
        9.352631568908691 9.085432052612305 9.811806678771973 9.474665641784668 10.406301498413086 8.078388214111328
        7.254137992858887 5.672393798828125 4.567739963531494 2.4222214221954346 2.333205461502075 3.8119022846221924
        4.608415126800537 4.830872058868408 4.998578071594238 3.516411304473877 3.237712860107422 4.546269416809082
        7.939720153808594 8.222517967224121 7.298528671264648 7.661311149597168 6.629347324371338 6.916111946105957
        8.565530776977539 9.570466041564941 10.70647144317627 9.815342903137207 10.914572715759277 10.042439460754395
        8.042435646057129 8.15290641784668 7.38695764541626 6.940882682800293 5.283493995666504 4.615257263183594
        5.169118881225586 3.439150810241699 4.2487993240356445 7.172739505767822 10.792976379394531 13.51816177368164
        13.950148582458496 13.265454292297363 9.977612495422363 8.433073043823242 7.492745399475098 7.607162952423096
        8.412189483642578 9.14920425415039 7.758686542510986 9.085909843444824 9.82429027557373 12.259028434753418
        12.163025856018066 11.347986221313477 9.743395805358887 9.070263862609863 8.850808143615723 8.887500762939453
        8.962115287780762 9.368922233581543 8.355938911437988 6.805285453796387 5.670742511749268 6.442203998565674
        7.337736129760742 6.893360614776611 6.401675701141357 7.958683967590332 8.520252227783203 7.95581579208374
        7.417427062988281 8.680427551269531 10.750412940979004 9.736970901489258 5.187720775604248 1.644789218902588
        1.8430746793746948 1.811876654624939 1.5816117525100708 3.234095811843872 7.587401390075684 13.667238235473633
        16.43602752685547 15.992045402526855 14.517629623413086 12.525602340698242 12.531035423278809 11.780599594116211
        11.414763450622559 10.106949806213379 9.04312801361084 8.85920524597168 8.691093444824219 9.0242338180542
        8.719858169555664 8.264669418334961 7.792140960693359 5.993006229400635 5.2788825035095215 4.12953519821167
        4.236114501953125 4.927412509918213 5.94347620010376 6.6325178146362305 7.300335884094238 8.027850151062012
        7.535823822021484 6.708384990692139 3.2864153385162354 1.476065993309021 2.1926584243774414 2.6660730838775635
        4.122653007507324 5.77511739730835 9.87312126159668 9.863191604614258 9.745863914489746 8.399439811706543
        9.613487243652344 10.079233169555664 12.960328102111816 11.486723899841309 7.104234218597412 2.7220394611358643
        2.8491077423095703 4.463500499725342 6.984499931335449 9.614163398742676 13.314949989318848 15.864875793457031
        13.539724349975586 10.547403335571289 6.40573263168335 3.320455312728882 1.9854499101638794 2.3774588108062744
        2.0394747257232666 2.420131206512451 3.899533987045288 2.697172164916992 1.9169621467590332 2.3337326049804688
        3.021099090576172 2.798189163208008 1.898618221282959 1.6005377769470215 4.3626203536987305 6.427243709564209
        7.741535663604736 10.138471603393555 10.779176712036133 11.196067810058594 10.72480583190918 11.788666725158691
        12.845699310302734 11.11265754699707 10.312199592590332 9.70871639251709 9.534668922424316 9.302643775939941
        9.515829086303711 9.722918510437012 10.244680404663086 9.864596366882324 8.71379566192627 7.121285915374756
        4.277228355407715 2.292821168899536 1.879543423652649 3.2282984256744385 4.407113552093506 4.166778087615967
        3.821573257446289 3.6324427127838135 3.846414566040039 5.219825267791748 6.101285457611084 7.293292045593262
        7.325421333312988 6.581307411193848 5.924734592437744 7.070010185241699 8.608179092407227 8.636710166931152
        10.031965255737305 11.404266357421875 11.933342933654785 11.016195297241211 8.501646995544434 8.223938941955566
        7.930908679962158 6.94000244140625 5.1148834228515625 3.884366273880005 4.930326461791992 4.498185634613037
        5.774526119232178 7.571016311645508 9.47438907623291 12.33716869354248 13.996407508850098 13.72809886932373
        11.963351249694824 10.659420013427734 9.442431449890137 9.159249305725098 9.700796127319336 10.095253944396973
        8.604048728942871 9.382660865783691 9.910812377929688 11.999289512634277 11.76408863067627 11.322131156921387
        10.175898551940918 9.582168579101562 9.657242774963379 10.60450553894043 10.676595687866211 10.553655624389648
        8.754165649414062 7.08148717880249 6.9850335121154785 6.867382526397705 6.479055881500244 5.457838535308838
        5.883395195007324 7.212099075317383 7.722679615020752 7.390357494354248 8.572269439697266 9.351020812988281
        9.492735862731934 7.988908290863037 4.366628170013428 3.180136203765869 0.5116991400718689 3.2049295902252197
        4.769097805023193 1.168025016784668 3.5779073238372803 9.630437850952148 15.198541641235352 16.54441261291504
        15.036863327026367 12.849668502807617 12.845227241516113 12.311152458190918 11.904757499694824 10.801834106445312
        10.219590187072754 10.208527565002441 9.6610107421875 9.071436882019043 8.935843467712402 8.742103576660156
        8.936091423034668 6.120047569274902 4.883469104766846 3.6031901836395264 3.8805487155914307 3.4253623485565186
        4.323476314544678 5.337155342102051 6.55206823348999 7.169138431549072 7.756776332855225 5.922573089599609
        2.9151904582977295 2.8695478439331055 2.223118782043457 1.7174439430236816 1.9985605478286743 3.5123937129974365
        7.477446556091309 8.218864440917969 9.11145305633545 7.846076011657715 9.590877532958984 10.247982025146484
        12.01806354522705 8.722330093383789 5.108148097991943 1.678763508796692 2.607865571975708 3.634756088256836
        5.87280797958374 9.199213981628418 14.032071113586426 17.030195236206055 14.847626686096191 9.015334129333496
        3.9449031352996826 3.6818859577178955 3.870748996734619 3.5366251468658447 2.365463972091675 3.070590019226074
        4.207782745361328 2.723285675048828 2.4717843532562256 2.658074378967285 1.961507797241211 1.6202747821807861
        1.92561674118042 2.9103286266326904 4.694329261779785 6.224893093109131 7.207860946655273 10.075302124023438
        11.193632125854492 11.38552474975586 10.963567733764648 11.843883514404297 12.62386417388916 11.506394386291504
        10.349475860595703 10.397526741027832 10.28868293762207 9.766068458557129 9.71071720123291 10.039837837219238
        10.7964448928833 11.186925888061523 10.713239669799805 8.323671340942383 6.2156500816345215 4.682823657989502
        4.039928436279297 3.8518154621124268 3.9960289001464844 3.106226682662964 1.9545444250106812 2.8139936923980713
        3.3544483184814453 3.622863292694092 3.492492914199829 4.891413688659668 6.9987640380859375 7.114987373352051
        6.229587554931641 7.930603504180908 9.284198760986328 10.021772384643555 9.375842094421387 10.277408599853516
        10.803611755371094 10.972764015197754 10.661706924438477 9.276179313659668 9.005354881286621 7.955677509307861
        6.015466213226318 4.756488800048828 5.655173301696777 5.3832502365112305 5.693516731262207 5.721609115600586
        7.378852844238281 9.988227844238281 12.341559410095215 13.583005905151367 12.774718284606934 12.0291109085083
        10.119531631469727 9.19814682006836 9.71688461303711 10.084367752075195 9.676553726196289 9.624641418457031
        10.470247268676758 11.707989692687988 11.535157203674316 11.198814392089844 10.509016990661621 9.500683784484863
        9.389261245727539 10.137918472290039 11.836977005004883 11.859818458557129 10.282391548156738 8.489448547363281
        7.785542011260986 6.718866348266602 5.837347984313965 5.1043267250061035 5.835702896118164 6.602852821350098
        8.090310096740723 8.032325744628906 8.754156112670898 10.05502986907959 8.857382774353027 6.399552345275879
        2.4695780277252197 2.109186887741089 0.5817000865936279 1.6219927072525024 2.8010339736938477 0.45491263270378113
        1.6219303607940674 6.365548610687256 11.188224792480469 15.78490161895752 13.595419883728027 11.962215423583984
        11.575664520263672 11.585741996765137 11.69505786895752 11.029485702514648 11.197578430175781 11.199042320251465
        9.956079483032227 9.639883995056152 9.43720531463623 10.018532752990723 9.169283866882324 7.130259037017822
        5.612912654876709 4.6251349449157715 4.007856369018555 3.2670340538024902 4.376918792724609 5.130482196807861
        5.496686935424805 5.610001087188721 6.117213249206543 6.017874240875244 4.03188419342041 3.539241075515747
        3.0962207317352295 2.605111598968506 2.9020633697509766 2.8854799270629883 6.403703689575195 7.542765140533447
        7.642212390899658 8.054728507995605 9.931295394897461 10.10223388671875 8.971213340759277 5.9369707107543945
        3.9611167907714844 2.017653465270996 2.2693850994110107 3.4240810871124268 6.130149841308594 10.057001113891602
        13.229986190795898 16.36344337463379 13.131937026977539 6.428798198699951 5.166933059692383 5.744729518890381
        4.389896392822266 3.2092573642730713 1.889600396156311 2.7461366653442383 3.7624781131744385 3.4021966457366943
        3.005660057067871 2.343613386154175 1.4996368885040283 1.9592747688293457 1.8293516635894775 2.77933669090271
        4.811830997467041 7.758586883544922 8.955341339111328 10.440539360046387 10.925392150878906 12.34079647064209
        12.175355911254883 12.174419403076172 11.380853652954102 10.265254974365234 10.227965354919434 10.967817306518555
        11.519405364990234 10.70042896270752 9.990951538085938 9.938785552978516 11.074726104736328 11.641587257385254
        12.272241592407227 9.816598892211914 8.264769554138184 6.426506042480469 5.4981369972229 4.385473728179932
        3.878506660461426 2.589653253555298 1.6465338468551636 2.896759271621704 3.8951985836029053 3.515594720840454
        3.582797050476074 3.5140140056610107 4.577175140380859 5.1644368171691895 5.414307117462158 6.196287631988525
        7.517842769622803 8.784872055053711 8.559551239013672 9.900365829467773 10.954141616821289 12.137348175048828
        12.807619094848633 12.234308242797852 12.316523551940918 11.249497413635254 9.064252853393555 6.97329044342041
        6.5612616539001465 6.461712837219238 6.402734756469727 5.103299617767334 6.3422393798828125 8.790653228759766
        10.54667854309082 11.494280815124512 12.18901252746582 12.54366397857666 11.594143867492676 10.633935928344727
        10.844208717346191 10.655756950378418 10.922504425048828 11.382514953613281 12.158366203308105 12.747572898864746
        12.617195129394531 12.342080116271973 12.066703796386719 10.468106269836426 10.647762298583984 11.112974166870117
        11.73924732208252 11.436415672302246 10.482953071594238 9.512563705444336 7.791417598724365 6.597215175628662
        6.1252312660217285 5.55315637588501 5.843340873718262 6.445964813232422 8.070286750793457 9.877909660339355
        9.994154930114746 9.846912384033203 7.7257914543151855 5.49918794631958 2.4488093852996826 2.453873634338379
        2.999321460723877 2.0510599613189697 1.1452919244766235 2.5086281299591064 4.345394134521484 6.697758674621582
        9.24183464050293 12.844993591308594 12.1411714553833 10.34711742401123 9.9618558883667 10.54396915435791
        11.544844627380371 11.560124397277832 11.286606788635254 12.199904441833496 11.274748802185059 11.448909759521484
        10.543281555175781 11.65213680267334 10.31762981414795 8.73838996887207 6.818463325500488 5.290935039520264
        4.208323001861572 3.7982523441314697 5.501934051513672 6.456073760986328 6.875574588775635 6.586884498596191
        6.439242839813232 7.077083110809326 5.628109455108643 3.8309311866760254 2.2653701305389404 2.329362154006958
        3.3709628582000732 3.8283205032348633 6.546147346496582 7.807116985321045 7.214845657348633 8.065752029418945
        9.707262992858887 9.224818229675293 8.077351570129395 5.9445295333862305 5.54620361328125 3.546504497528076
        3.063830614089966 4.135991096496582 7.027738094329834 12.136862754821777 14.201295852661133 15.44469165802002
        10.736763954162598 4.480194568634033 2.7881569862365723 3.117189407348633 2.6145334243774414 2.8322315216064453
        2.4283297061920166 3.033641815185547 2.962092399597168 2.896232843399048 2.6361873149871826 2.1115987300872803
        1.4479142427444458 1.4237018823623657 0.8804730176925659 3.51442813873291 5.676507472991943 8.215078353881836
        9.639892578125 11.59987735748291 12.44433879852295 12.330039978027344 11.710714340209961 10.881441116333008
        10.019052505493164 9.956764221191406 10.903239250183105 11.67761516571045 12.799344062805176 12.262073516845703
        10.88421630859375 10.06243896484375 10.468153953552246 10.954903602600098 12.308865547180176 11.446487426757812
        10.570027351379395 9.389610290527344 7.909852504730225 5.877914905548096 4.762735366821289 4.408753871917725
        3.8595292568206787 4.168118953704834 4.169715881347656 3.283245801925659 3.9967758655548096 4.678189277648926
        5.069590091705322 5.822779178619385 5.239017963409424 5.652675151824951 7.053076267242432 9.222197532653809
        9.442281723022461 8.807418823242188 9.942917823791504 12.075247764587402 13.350111961364746 13.76636028289795
        13.389142036437988 13.241968154907227 12.212737083435059 9.727448463439941 7.390254020690918 6.268680095672607
        6.048810958862305 5.389215469360352 6.231457710266113 7.554534435272217 8.681900978088379 9.483820915222168
        11.28403091430664 12.067283630371094 11.656717300415039 10.609560012817383 10.654590606689453 9.786542892456055
        9.830384254455566 10.196242332458496 11.259702682495117 12.389744758605957 12.925975799560547 12.63866901397705
        12.097966194152832 10.574004173278809 10.993764877319336 12.005874633789062 12.487691879272461 12.032792091369629
        11.591389656066895 11.189666748046875 8.790535926818848 7.336109161376953 6.691890716552734 6.255215167999268
        6.094418048858643 6.93360710144043 8.516881942749023 9.836331367492676 10.069306373596191 8.613086700439453
        6.9372968673706055 4.972164154052734 3.9010677337646484 3.211749315261841 4.40994930267334 5.1103925704956055
        4.258458137512207 4.99594259262085 5.94718599319458 8.231724739074707 8.962124824523926 11.855907440185547
        11.658750534057617 10.100403785705566 9.075517654418945 10.144068717956543 11.37117862701416 10.883824348449707
        10.473270416259766 12.142742156982422 12.469900131225586 12.829279899597168 10.779119491577148 11.753714561462402
        10.972923278808594 10.015043258666992 7.948391437530518 6.542881965637207 6.2795305252075195 6.6114115715026855
        7.85103178024292 9.037291526794434 8.155933380126953 7.381569862365723 7.439107418060303 7.69257926940918
        6.771806240081787 4.532284736633301 3.246175765991211 2.7148678302764893 3.8017985820770264 4.206973075866699
        7.271037578582764 8.547364234924316 8.809883117675781 8.615409851074219 8.446403503417969 8.832440376281738
        7.916676044464111 7.1265974044799805 6.363595008850098 4.828559398651123 4.589044570922852 5.883886337280273
        9.345279693603516 13.419193267822266 15.205430030822754 13.605944633483887 7.079284191131592 3.49467396736145
        1.8535398244857788 0.9109030961990356 1.2781327962875366 1.5993698835372925 1.7009494304656982 2.918489694595337
        3.1765694618225098 2.421412944793701 2.225371837615967 2.458479642868042 2.2702221870422363 2.2158007621765137
        2.2311856746673584 3.57185435295105 5.532033920288086 8.853026390075684 11.676051139831543 13.251171112060547
        13.613980293273926 11.264135360717773 10.245989799499512 9.340307235717773 9.197771072387695 9.802342414855957
        11.069805145263672 12.154729843139648 13.295292854309082 13.598808288574219 11.77774429321289 10.077777862548828
        10.128741264343262 10.26915454864502 12.527762413024902 12.281311988830566 12.728772163391113 11.502490043640137
        9.373152732849121 7.105699062347412 6.420637130737305 6.1613922119140625 5.073530673980713 4.54958963394165
        4.93631649017334 4.578823566436768 3.811746835708618 4.4485063552856445 4.270776748657227 5.47497034072876
        4.847259044647217 6.405156135559082 7.513181686401367 9.657754898071289 11.366470336914062 10.288910865783691
        10.851529121398926 12.714868545532227 13.787525177001953 14.53288459777832 13.737321853637695 14.41939926147461
        13.074100494384766 11.256513595581055 9.222984313964844 7.659370422363281 7.256102561950684 6.333619594573975
        7.283114433288574 8.205310821533203 9.01004409790039 8.5476655960083 10.46063232421875 11.440370559692383
        11.723932266235352 10.568842887878418 10.39350700378418 9.320178031921387 9.267704963684082 9.976480484008789
        10.591057777404785 12.232522010803223 12.454273223876953 12.225581169128418 11.424341201782227 10.50333023071289
        11.229804992675781 12.240357398986816 12.405021667480469 12.116756439208984 11.970541954040527 12.43978214263916
        10.19312572479248 8.634684562683105 7.99675989151001 7.556831359863281 6.9202775955200195 6.774039268493652
        7.107276916503906 8.07217025756836 9.092811584472656 8.586625099182129 7.082828044891357 6.149084091186523
        6.011851787567139 5.516177654266357 5.630792140960693 5.963286399841309 4.880823135375977 5.802095413208008
        7.735874652862549 10.474912643432617 11.777210235595703 12.128966331481934 12.894832611083984 11.271474838256836
        10.04426383972168 9.242889404296875 10.169450759887695 9.50425910949707 9.234227180480957 10.937905311584473
        12.592860221862793 12.614486694335938 10.637208938598633 10.737504005432129 11.50615119934082 10.478690147399902
        9.180357933044434 7.757485389709473 8.388035774230957 8.321579933166504 10.004317283630371 10.689048767089844
        9.955353736877441 9.01161003112793 8.72568416595459 6.043520927429199 4.3570709228515625 3.027096748352051
        4.16127872467041 3.5721936225891113 4.267390727996826 4.934817790985107 7.177021503448486 9.410414695739746
        10.613921165466309 10.532610893249512 9.754613876342773 9.308928489685059 9.02221965789795 8.144956588745117
        7.258782386779785 6.125441551208496 6.717867851257324 7.7265424728393555 10.141694068908691 14.399155616760254
        15.97823429107666 14.376816749572754 7.934414863586426 3.9883642196655273 1.906519889831543 0.6640545129776001
        1.9886338710784912 1.822935700416565 1.711523413658142 2.0943591594696045 3.1577837467193604 2.55283784866333
        2.3486571311950684 2.2420222759246826 1.8802491426467896 2.3797647953033447 2.901366949081421 2.766850709915161
        5.8613505363464355 10.532389640808105 14.746381759643555 15.772462844848633 15.389610290527344 11.587764739990234
        8.607987403869629 7.335896968841553 8.22634220123291 9.241226196289062 10.928319931030273 10.846970558166504
        10.908333778381348 11.963201522827148 10.942752838134766 9.923749923706055 9.026505470275879 8.829178810119629
        10.696504592895508 12.393387794494629 13.980095863342285 13.394562721252441 11.179167747497559 9.247239112854004
        7.88005256652832 7.132105350494385 6.381342887878418 5.580600261688232 5.051816463470459 4.958535671234131
        3.1571545600891113 4.156630516052246 4.408131122589111 5.73457670211792 4.9325666427612305 6.408846855163574
        7.359162330627441 8.594386100769043 9.595010757446289 10.292158126831055 10.484146118164062 12.845525741577148
        13.259809494018555 13.584161758422852 12.583258628845215 13.224709510803223 13.513753890991211 12.875833511352539
        11.069389343261719 9.608935356140137 8.815631866455078 8.634936332702637 7.8699164390563965 8.218904495239258
        9.310063362121582 9.468045234680176 11.152914047241211 11.203972816467285 11.202770233154297 10.390149116516113
        9.912923812866211 9.818672180175781 9.51675796508789 9.539240837097168 9.544380187988281 10.861391067504883
        11.804250717163086 11.647906303405762 11.162322044372559 11.39257526397705 11.685053825378418 13.166016578674316
        12.858179092407227 12.994977951049805 13.19197940826416 13.421733856201172 12.0846529006958 10.246804237365723
        9.850525856018066 9.625031471252441 8.854973793029785 7.948276996612549 6.892324924468994 6.61816930770874
        7.568871021270752 8.132110595703125 7.596851348876953 6.918356418609619 7.369653701782227 7.0725483894348145
        6.142979145050049 6.379324913024902 5.230175971984863 6.631128311157227 8.222295761108398 10.617093086242676
        11.185652732849121 11.995423316955566 13.308579444885254 13.601269721984863 11.45727252960205 9.945359230041504
        9.171234130859375 9.12552261352539 8.892228126525879 10.447381973266602 12.239789009094238 12.264185905456543
        11.030556678771973 10.226768493652344 10.996376037597656 11.102595329284668 11.067694664001465 10.067183494567871
        9.400053024291992 9.664909362792969 10.625944137573242 11.212982177734375 10.277039527893066 9.176778793334961
        8.324978828430176 5.377220630645752 3.466228723526001 2.5806832313537598 3.616199254989624 4.487529277801514
        5.596297264099121 6.2948784828186035 7.084721088409424 8.8125 10.698518753051758 10.923982620239258
        10.270896911621094 9.22880744934082 9.274831771850586 8.56019401550293 8.201980590820312 7.526998519897461
        7.845476150512695 8.523307800292969 10.82817268371582 13.406058311462402 13.731213569641113 12.09401798248291
        7.172187328338623 3.1138980388641357 1.5894150733947754 1.332757592201233 1.6948405504226685 1.7052574157714844
        1.6459566354751587 1.5584927797317505 2.621809482574463 2.5778615474700928 2.426693916320801 2.3658101558685303
        1.7784483432769775 2.1901426315307617 1.9894661903381348 2.251784086227417 5.64369535446167 13.146427154541016
        16.924468994140625 17.12892723083496 14.657737731933594 11.364222526550293 8.989630699157715 7.98455286026001
        8.875732421875 9.711888313293457 10.684481620788574 10.532538414001465 10.078984260559082 11.166043281555176
        11.04776382446289 10.359562873840332 8.073359489440918 8.548033714294434 9.977069854736328 11.653864860534668
        14.64369010925293 14.740028381347656 13.463250160217285 10.570621490478516 8.078667640686035 7.121348857879639
        6.765949249267578 7.349626541137695 6.214645862579346 5.746002674102783 4.624234199523926 4.429426193237305
        2.3652024269104004 2.970953941345215 3.4321770668029785 6.953314304351807 7.597005367279053 9.266093254089355
        7.690793514251709 7.816460132598877 9.01904582977295 13.060205459594727 14.226099967956543 13.058812141418457
        11.29987621307373 11.303854942321777 11.070082664489746 11.773648262023926 11.08349323272705 10.961299896240234
        9.970904350280762 10.603472709655762 9.928675651550293 9.579822540283203 9.23995304107666 10.384038925170898
        11.323142051696777 11.674492835998535 11.548336029052734 10.86439037322998 9.98583698272705 9.418506622314453
        9.50622844696045 9.683148384094238 9.673354148864746 10.620705604553223 11.774967193603516 12.490489959716797
        12.05631160736084 12.439004898071289 12.515475273132324 12.903074264526367 12.48283576965332 12.364667892456055
        11.941932678222656 12.237720489501953 11.723475456237793 10.79951286315918 10.770160675048828 10.79355239868164
        10.33108901977539 8.676844596862793 6.612743854522705 6.090997695922852 7.54266357421875 8.424921989440918
        7.904237747192383 7.853622913360596 8.111071586608887 7.102407455444336 7.400526523590088 7.49759578704834
        7.55289888381958 7.9177703857421875 8.93738842010498 10.845980644226074 11.498418807983398 12.569926261901855
        13.42059326171875 14.088831901550293 13.05145263671875 10.53995132446289 8.588018417358398 7.986545562744141
        8.72489070892334 10.262630462646484 11.447872161865234 11.944538116455078 11.392149925231934 10.696965217590332
        11.011780738830566 11.12056827545166 11.358595848083496 10.073800086975098 10.044995307922363 10.86433219909668
        12.021112442016602 11.97519302368164 10.315138816833496 9.493949890136719 8.227962493896484 6.143270969390869
        3.6125755310058594 2.607335090637207 3.5533266067504883 5.815065383911133 6.9805192947387695 7.957799434661865
        8.177494049072266 9.233139038085938 10.52723503112793 10.791686058044434 10.14416790008545 9.101661682128906
        9.455351829528809 9.012845039367676 8.85451889038086 8.236370086669922 8.282354354858398 9.775652885437012
        11.362627029418945 13.608888626098633 12.814436912536621 12.094616889953613 7.499291896820068 3.2367918491363525
        2.293715715408325 3.3542399406433105 2.2262604236602783 1.9316332340240479 1.7558590173721313 1.5020018815994263
        2.089625597000122 2.1274499893188477 2.1021111011505127 2.2286815643310547 1.9839919805526733 1.8281581401824951
        1.3258628845214844 1.9116922616958618 5.724850654602051 12.742521286010742 16.89760971069336 16.479785919189453
        14.004158973693848 11.410015106201172 9.440418243408203 8.86523723602295 8.601909637451172 8.92092227935791
        9.778291702270508 10.020125389099121 10.63224983215332 10.797442436218262 10.617924690246582 10.253986358642578
        7.199635028839111 7.715380668640137 9.176203727722168 10.956844329833984 13.242807388305664 13.843093872070312
        13.607983589172363 11.863996505737305 9.07502555847168 7.967501640319824 7.763175010681152 8.280275344848633
        7.166158676147461 5.9746928215026855 5.504299640655518 4.557214736938477 2.699514627456665 2.5517938137054443
        3.9820706844329834 8.150489807128906 9.289824485778809 9.037277221679688 6.929619789123535 6.2799882888793945
        7.798914909362793 10.587372779846191 13.15881061553955 12.4601469039917 11.2633695602417 10.306300163269043
        10.554252624511719 11.065326690673828 11.614456176757812 12.065104484558105 11.844534873962402 12.056711196899414
        10.536659240722656 10.046865463256836 9.808638572692871 11.975859642028809 12.610800743103027 12.821617126464844
        12.349617004394531 12.134538650512695 11.329916000366211 10.875990867614746 10.251411437988281 10.382023811340332
        9.951677322387695 10.623089790344238 11.630702018737793 12.325162887573242 11.914761543273926 12.809505462646484
        12.852289199829102 12.942170143127441 12.609932899475098 12.691445350646973 11.290851593017578 11.348662376403809
        12.973567008972168 12.727904319763184 12.038836479187012 10.688875198364258 10.821163177490234 9.601347923278809
        7.624307632446289 7.019103050231934 7.696076393127441 8.649051666259766 7.980460166931152 8.09974479675293
        9.37019157409668 9.5928955078125 9.904502868652344 9.87060546875 10.772364616394043 10.567209243774414
        10.958413124084473 11.468266487121582 11.000203132629395 11.196939468383789 12.438814163208008 14.014519691467285
        14.773028373718262 13.056413650512695 10.839187622070312 9.622159957885742 9.87962818145752 11.035205841064453
        11.274938583374023 12.086474418640137 12.22281265258789 11.624296188354492 11.449807167053223 11.396143913269043
        11.710440635681152 10.692896842956543 10.952234268188477 12.499231338500977 13.097236633300781 12.579262733459473
        10.89305591583252 10.28934383392334 8.898956298828125 7.509326457977295 4.85488224029541 3.854506015777588
        5.0252227783203125 7.40618371963501 8.568109512329102 9.5997896194458 10.031869888305664 10.471344947814941
        10.504937171936035 10.381400108337402 10.653328895568848 10.75376033782959 11.093791007995605 10.642642974853516
        9.774998664855957 8.975080490112305 9.362372398376465 11.362191200256348 12.522730827331543 14.415751457214355
        13.17089557647705 10.151571273803711 7.698322772979736 3.9899308681488037 1.5231660604476929 3.004291534423828
        2.422199249267578 2.512345790863037 2.464775323867798 2.2556872367858887 1.9441708326339722 2.0535712242126465
        2.1209120750427246 2.3172967433929443 2.716338872909546 2.291908025741577 1.2410110235214233 1.8556888103485107
        5.146938323974609 11.320536613464355 14.356414794921875 15.826656341552734 13.981474876403809 12.1416654586792
        10.040915489196777 9.657318115234375 9.547384262084961 9.96692180633545 9.919144630432129 10.931203842163086
        11.978283882141113 12.429244041442871 11.581156730651855 11.307144165039062 7.51331090927124 8.664441108703613
        9.294266700744629 10.87125301361084 13.032055854797363 14.286238670349121 13.186590194702148 11.149426460266113
        9.147931098937988 8.397123336791992 8.506917953491211 8.88005256652832 8.05667495727539 6.386576175689697
        5.935370922088623 5.790682792663574 4.462452411651611 3.9277596473693848 4.485645771026611 7.288601875305176
        8.658529281616211 8.680191040039062 8.35628890991211 6.130572319030762 7.4385504722595215 9.369085311889648
        13.362808227539062 13.368606567382812 12.565796852111816 11.204573631286621 10.787178993225098 10.461797714233398
        11.326669692993164 11.337985038757324 11.447721481323242 11.472925186157227 11.04723834991455 10.805583953857422
        11.57058048248291 12.9060640335083 13.234840393066406 12.960390090942383 11.930781364440918 11.99952220916748
        11.407669067382812 12.03746509552002 10.848673820495605 10.27486801147461 8.75083065032959 9.573807716369629
        10.713665962219238 11.348531723022461 10.818925857543945 11.032888412475586 11.199492454528809 12.2582368850708
        12.155896186828613 12.658875465393066 11.924150466918945 11.479825973510742 13.542135238647461 12.71985912322998
        11.753308296203613 10.321414947509766 10.50700569152832 9.838773727416992 8.102840423583984 8.129058837890625
        8.14458179473877 8.755715370178223 8.045921325683594 8.46369457244873 9.789223670959473 10.959030151367188
        11.548115730285645 12.522905349731445 12.931913375854492 12.314835548400879 11.60702133178711 10.006352424621582
        9.419445037841797 9.033426284790039 11.632532119750977 12.951838493347168 13.851388931274414 13.061588287353516
        11.330121040344238 9.948090553283691 9.972410202026367 10.481795310974121 10.491379737854004 11.034202575683594
        11.087931632995605 10.83647632598877 10.762588500976562 11.422079086303711 11.733818054199219 11.453675270080566
        11.628213882446289 13.020315170288086 13.12234878540039 12.382558822631836 11.680630683898926 11.161361694335938
        9.394989013671875 7.5732316970825195 5.660740852355957 5.56071662902832 6.128592014312744 8.385129928588867
        9.775882720947266 10.672738075256348 11.039464950561523 11.187219619750977 10.895814895629883 10.585257530212402
        11.178953170776367 11.260010719299316 11.647820472717285 12.238036155700684 11.656928062438965 10.92578411102295
        11.266546249389648 12.720491409301758 14.409311294555664 15.311705589294434 13.653666496276855 9.611125946044922
        7.185152053833008 3.1434593200683594 3.046832323074341 3.728630304336548 2.9555180072784424 2.802208662033081
        2.886589527130127 2.6656594276428223 2.1267547607421875 2.114919424057007 2.559303045272827 2.53887677192688
        2.797333002090454 2.8813223838806152 2.514892101287842 2.681039571762085 4.933731555938721 9.613137245178223
        13.291559219360352 15.348024368286133 15.025700569152832 13.169303894042969 11.564050674438477 10.461474418640137
        10.057662963867188 10.040952682495117 10.268919944763184 11.279562950134277 11.917330741882324 11.937357902526855
        12.043907165527344 11.974343299865723 8.589770317077637 9.225445747375488 9.451553344726562 10.679287910461426
        13.486281394958496 14.527361869812012 13.214784622192383 12.022547721862793 10.401188850402832 9.158507347106934
        7.939526557922363 8.569011688232422 8.431550025939941 6.612576484680176 6.579694747924805 6.724490642547607
        6.301348686218262 5.343006134033203 5.983553409576416 6.007058620452881 6.444971084594727 5.365373611450195
        8.035150527954102 6.875681400299072 8.878933906555176 8.433534622192383 11.289443969726562 11.956069946289062
        12.573904037475586 11.825507164001465 11.287954330444336 10.27672004699707 10.900263786315918 9.994339942932129
        10.921663284301758 10.872413635253906 10.7648286819458 10.686981201171875 11.518970489501953 12.609591484069824
        13.005887031555176 12.854957580566406 11.776195526123047 10.967676162719727 10.116697311401367 11.20768928527832
        10.460378646850586 9.461807250976562 7.34201192855835 8.209393501281738 8.866299629211426 9.425582885742188
        9.11803913116455 8.899209976196289 9.473431587219238 10.91347885131836 11.707959175109863 12.362269401550293
        12.280682563781738 11.846443176269531 12.977581024169922 12.11058235168457 11.677220344543457 10.63561725616455
        11.01715087890625 10.843027114868164 9.6227388381958 9.571470260620117 8.455284118652344 8.877018928527832
        8.364340782165527 8.820148468017578 10.47853946685791 11.953295707702637 13.167472839355469 13.382476806640625
        13.54898738861084 13.07145881652832 11.475066184997559 9.436653137207031 8.214485168457031 8.477721214294434
        11.372565269470215 12.524147033691406 13.290088653564453 12.87302303314209 12.02017879486084 11.344978332519531
        10.167490005493164 9.861490249633789 9.655351638793945 10.02896499633789 10.330153465270996 10.42490005493164
        10.47063159942627 11.342562675476074 12.438104629516602 13.155990600585938 12.706513404846191 13.006685256958008
        12.622053146362305 12.158127784729004 11.652511596679688 10.705501556396484 8.971461296081543 7.555166721343994
        6.986917972564697 7.219121932983398 7.032199859619141 8.604708671569824 9.851592063903809 10.693792343139648
        10.538883209228516 10.819189071655273 10.69216251373291 10.712381362915039 11.010913848876953 10.720603942871094
        11.723392486572266 12.728381156921387 12.625173568725586 12.203048706054688 12.347870826721191 14.312112808227539
        16.527624130249023 16.7846736907959 11.963587760925293 7.553027153015137 4.658522129058838 3.3025732040405273
        4.638577938079834 5.074161052703857 3.82588267326355 4.0225043296813965 3.042747735977173 2.649578809738159
        2.1100265979766846 2.068995237350464 2.548794746398926 2.434692621231079 2.492830753326416 2.537343978881836
        2.4283969402313232 1.8365429639816284 4.291024684906006 8.98202896118164 13.30164623260498 15.710131645202637
        15.863731384277344 15.868114471435547 13.852261543273926 11.902095794677734 10.981880187988281 9.951107025146484
        10.341143608093262 10.536922454833984 11.111469268798828 11.7310152053833 11.614389419555664 12.212054252624512
        7.80118465423584 8.655491828918457 9.455402374267578 12.052592277526855 14.116360664367676 15.083352088928223
        13.94153118133545 13.111762046813965 12.193635940551758 10.113363265991211 9.12625789642334 8.718827247619629
        8.216906547546387 7.653770446777344 7.839516639709473 8.0590238571167 6.547433376312256 5.093955993652344
        5.921212673187256 6.268777370452881 5.95084285736084 4.794602394104004 6.675501346588135 8.543020248413086
        8.81342601776123 8.517775535583496 8.407210350036621 11.727336883544922 13.09813404083252 13.03219223022461
        10.703686714172363 9.001898765563965 9.162559509277344 9.368453979492188 9.64780330657959 9.62343692779541
        9.346030235290527 9.206223487854004 9.850349426269531 10.535361289978027 11.756928443908691 11.319112777709961
        11.116202354431152 10.317852973937988 9.175667762756348 9.358859062194824 8.40110969543457 7.920051097869873
        7.243521690368652 8.158238410949707 9.036757469177246 9.060400009155273 8.502791404724121 7.943803310394287
        8.160476684570312 10.24375057220459 10.890260696411133 11.942283630371094 12.464073181152344 12.349883079528809
        12.309992790222168 11.19633674621582 10.683070182800293 10.802347183227539 11.19562816619873 11.436460494995117
        10.71651554107666 10.330354690551758 9.159341812133789 8.993522644042969 8.791238784790039 8.768057823181152
        10.028145790100098 11.99515151977539 13.97832202911377 14.779773712158203 13.181272506713867 11.379729270935059
        9.392208099365234 8.691801071166992 8.280080795288086 8.596887588500977 9.78548812866211 11.021373748779297
        12.018889427185059 12.51148796081543 11.825343132019043 11.19017219543457 10.287877082824707 9.801484107971191
        9.838408470153809 9.220826148986816 8.93878173828125 8.835628509521484 9.417889595031738 10.60830020904541
        11.697309494018555 12.72386360168457 13.14478588104248 13.476844787597656 12.879008293151855 12.136693000793457
        11.316869735717773 10.38082218170166 8.846630096435547 8.188124656677246 7.29683256149292 7.443082332611084
        7.044426918029785 8.034674644470215 8.649092674255371 9.670055389404297 9.27064323425293 9.585660934448242
        10.27786636352539 10.690109252929688 10.723459243774414 10.18237590789795 10.978659629821777 11.99537467956543
        12.410120964050293 12.633112907409668 13.384840965270996 15.514497756958008 16.220834732055664 14.32800579071045
        9.365462303161621 5.867438793182373 2.7434420585632324 4.350701332092285 5.464849472045898 6.250304698944092
        5.373979091644287 4.717322826385498 3.008012056350708 2.3976309299468994 2.0189642906188965 1.9774986505508423
        2.1750857830047607 2.1169302463531494 1.7649433612823486 1.923240303993225 1.5996830463409424 1.6633387804031372
        3.3752729892730713 6.50842809677124 9.676758766174316 14.276846885681152 15.1614990234375 15.485029220581055
        14.94240665435791 13.78585433959961 11.918715476989746 10.54408073425293 10.714010238647461 10.82921314239502
        10.247567176818848 10.957315444946289 11.331470489501953 11.999862670898438 6.043351650238037 6.1928534507751465
        6.6027679443359375 11.027034759521484 13.751173973083496 12.813993453979492 14.143341064453125 14.318987846374512
        12.688675880432129 10.446500778198242 10.073797225952148 9.201926231384277 8.284353256225586 8.502303123474121
        9.608551025390625 9.57276439666748 7.9747114181518555 5.926486492156982 5.780557155609131 6.1165266036987305
        5.448665142059326 3.593881368637085 3.4644339084625244 6.059700012207031 7.99622106552124 8.010531425476074
        8.689065933227539 11.915449142456055 13.613870620727539 13.703983306884766 11.229511260986328 9.24980640411377
        8.970657348632812 8.981714248657227 9.079452514648438 8.172340393066406 7.375713348388672 7.431778907775879
        7.887834548950195 9.113018989562988 10.605717658996582 11.238238334655762 10.836366653442383 9.684089660644531
        9.659019470214844 8.569595336914062 7.526276588439941 7.1468024253845215 7.98669958114624 8.995844841003418
        9.100351333618164 9.50963306427002 9.028423309326172 8.428472518920898 8.540858268737793 9.739510536193848
        10.261283874511719 11.596650123596191 12.458386421203613 12.434990882873535 12.039423942565918 12.101550102233887
        11.292704582214355 10.662667274475098 10.707603454589844 11.220465660095215 10.91004753112793 9.78272819519043
        9.201434135437012 8.657400131225586 7.511770725250244 8.106189727783203 9.76191234588623 11.709819793701172
        14.5039644241333 15.344122886657715 14.80984115600586 11.97341537475586 9.987958908081055 9.61780834197998
        9.024450302124023 9.004514694213867 9.036276817321777 10.55374813079834 11.610616683959961 12.45605754852295
        12.812614440917969 12.022043228149414 11.025556564331055 10.450118064880371 10.076714515686035 9.619633674621582
        9.276397705078125 8.76937198638916 8.209315299987793 8.778331756591797 10.235947608947754 10.698680877685547
        11.651371002197266 12.46449089050293 12.952482223510742 12.212239265441895 11.221025466918945 10.307817459106445
        9.01673698425293 8.32116985321045 7.676697254180908 7.416980743408203 7.414977073669434 8.134296417236328
        8.407110214233398 9.421055793762207 9.366584777832031 9.806351661682129 10.058711051940918 9.806035995483398
        9.785999298095703 9.426094055175781 10.439952850341797 10.916851043701172 11.526463508605957 11.995466232299805
        12.642963409423828 14.257575035095215 13.846131324768066 11.497602462768555 7.41074800491333 4.308642387390137
        2.0458927154541016 2.3114583492279053 4.632164001464844 5.93898868560791 5.401542663574219 4.296877384185791
        2.8916232585906982 2.6482911109924316 2.307736873626709 1.6554092168807983 1.749494194984436 1.8128690719604492
        1.8099784851074219 1.3750650882720947 1.3023650646209717 1.6523343324661255 1.7692186832427979 3.7123701572418213
        7.649794578552246 12.395655632019043 14.127852439880371 15.213743209838867 15.425683975219727 15.198626518249512
        12.768254280090332 11.46043586730957 10.535175323486328 10.19499683380127 10.10442066192627 10.990299224853516
        10.41128158569336 10.616219520568848 5.073997497558594 5.099639892578125 5.475174903869629 9.323925971984863
        12.416708946228027 12.468558311462402 13.530003547668457 14.296582221984863 13.0698881149292 11.287339210510254
        10.931419372558594 9.276820182800293 8.386974334716797 8.811478614807129 9.94898509979248 10.319202423095703
        9.370635032653809 7.753105640411377 5.840744972229004 5.542459011077881 4.168490886688232 2.488673210144043
        2.9029016494750977 5.284754276275635 7.826166152954102 8.306575775146484 9.528042793273926 12.922466278076172
        14.887873649597168 14.676238059997559 12.8169584274292 10.839781761169434 9.901483535766602 9.317965507507324
        8.792442321777344 7.688061237335205 6.994756698608398 7.379965782165527 8.615621566772461 9.662576675415039
        10.732817649841309 10.518424034118652 10.685422897338867 9.611764907836914 9.558894157409668 8.783787727355957
        8.07183837890625 8.269758224487305 9.06356143951416 9.972357749938965 9.529322624206543 10.02685260772705
        9.624613761901855 8.952986717224121 9.091592788696289 9.713484764099121 10.133220672607422 11.716780662536621
        13.126235008239746 13.11913013458252 12.385759353637695 12.307337760925293 11.688314437866211 10.723285675048828
        10.528919219970703 10.558074951171875 10.280268669128418 9.957752227783203 9.813173294067383 8.825478553771973
        6.829838752746582 7.4999260902404785 8.856568336486816 11.127141952514648 13.84592056274414 16.443540573120117
        15.899656295776367 13.240496635437012 10.786616325378418 10.066146850585938 9.208645820617676 9.229994773864746
        8.689475059509277 10.153972625732422 11.01402759552002 12.532012939453125 12.702007293701172 12.791852951049805
        11.840365409851074 11.857633590698242 11.249007225036621 10.319182395935059 9.561983108520508 8.530770301818848
        7.655877590179443 8.310257911682129 9.98094654083252 10.239801406860352 10.428075790405273 11.626151084899902
        12.824179649353027 12.116369247436523 11.536893844604492 10.77432918548584 10.302363395690918 9.257959365844727
        8.929327964782715 8.636929512023926 9.144943237304688 9.378838539123535 9.386298179626465 9.441102981567383
        9.920042037963867 9.961791038513184 9.539605140686035 8.753885269165039 8.828091621398926 9.25507926940918
        10.286178588867188 10.655522346496582 11.398466110229492 11.95468521118164 12.348527908325195 11.886242866516113
        10.791074752807617 9.735671043395996 7.103655815124512 4.645674705505371 3.302410840988159 2.7587082386016846
        2.3281638622283936 3.5234997272491455 3.7947404384613037 3.2235255241394043 3.142549514770508 2.7387373447418213
        2.1670100688934326 1.6956015825271606 1.947253704071045 1.702211618423462 1.641540765762329 1.342594027519226
        1.6433796882629395 2.1716902256011963 1.810152292251587 2.713977575302124 4.070245742797852 8.556227684020996
        11.642156600952148 13.887481689453125 14.598007202148438 14.689502716064453 14.139893531799316 12.322968482971191
        11.139691352844238 10.364082336425781 10.456302642822266 11.40063190460205 11.040548324584961 11.021027565002441
        6.143889904022217 5.625244617462158 5.398356914520264 6.636476039886475 9.317455291748047 12.263883590698242
        13.948725700378418 14.932917594909668 13.377080917358398 11.5308198928833 10.295455932617188 9.489343643188477
        8.736377716064453 8.657562255859375 10.02727222442627 11.131134033203125 10.01888370513916 7.644879341125488
        5.6707024574279785 4.9122772216796875 4.1523871421813965 3.2210962772369385 4.08831262588501 4.640976905822754
        4.8642473220825195 5.875205039978027 9.342179298400879 12.401840209960938 13.479493141174316 13.744723320007324
        14.198979377746582 12.231082916259766 10.92397403717041 9.632018089294434 8.889724731445312 7.694404125213623
        7.009546756744385 7.100244045257568 7.5462327003479 8.97584056854248 10.185463905334473 10.436064720153809
        10.146097183227539 9.081693649291992 8.360392570495605 8.118450164794922 8.596452713012695 9.098365783691406
        9.22835922241211 9.461614608764648 8.6912202835083 7.848851203918457 8.318005561828613 8.459171295166016
        8.985901832580566 9.586727142333984 10.252958297729492 10.950042724609375 11.679449081420898 11.134774208068848
        10.818772315979004 11.029428482055664 10.901415824890137 9.684652328491211 9.418719291687012 9.46882152557373
        9.16602897644043 8.815557479858398 8.987910270690918 8.556663513183594 7.195852279663086 7.075287342071533
        7.1967902183532715 9.47319507598877 12.176868438720703 15.531706809997559 14.778688430786133 13.421782493591309
        10.99085521697998 10.36305046081543 9.248796463012695 9.562642097473145 8.876049041748047 9.217765808105469
        9.740221977233887 11.199716567993164 12.360072135925293 13.005569458007812 12.83531379699707 12.831869125366211
        12.003581047058105 10.93128490447998 9.550312042236328 8.513116836547852 7.593017578125 8.3849458694458
        9.852782249450684 10.245412826538086 10.265772819519043 10.873262405395508 11.973820686340332 11.539533615112305
        11.295644760131836 10.598319053649902 10.661413192749023 9.833189010620117 9.547783851623535 9.345390319824219
        10.480242729187012 11.004748344421387 10.837239265441895 10.472784042358398 10.694147109985352 10.224349975585938
        9.643304824829102 8.987931251525879 8.800203323364258 9.182594299316406 9.941360473632812 10.84259033203125
        11.844688415527344 12.37829303741455 12.448013305664062 11.874091148376465 11.60383129119873 10.790038108825684
        8.535051345825195 5.894216060638428 4.05342960357666 2.8960154056549072 3.127595901489258 2.7950634956359863
        2.769435405731201 2.3942577838897705 2.9284250736236572 3.02531361579895 2.7122802734375 1.9551796913146973
        2.0606019496917725 2.1413044929504395 1.9583442211151123 2.013383150100708 2.7862510681152344 3.49198842048645
        2.7699201107025146 2.8783888816833496 2.845252752304077 5.652243614196777 9.453798294067383 12.513731002807617
        14.94438648223877 14.296606063842773 15.008371353149414 13.233896255493164 12.072442054748535 10.822795867919922
        11.345362663269043 11.53744125366211 11.650344848632812 11.85848617553711 6.793118476867676 6.305596828460693
        5.8922247886657715 5.815072536468506 7.432715892791748 11.9423246383667 14.925237655639648 16.577939987182617
        14.237122535705566 13.064756393432617 10.210553169250488 9.888911247253418 8.972875595092773 8.693194389343262
        9.663312911987305 10.441913604736328 9.643112182617188 7.828518390655518 6.084670066833496 3.865046262741089
        3.310152292251587 3.8344838619232178 5.778110504150391 4.9435343742370605 3.8507068157196045 4.5482354164123535
        5.925430774688721 10.194788932800293 11.401168823242188 12.687723159790039 11.317323684692383 10.901875495910645
        10.38500690460205 10.609238624572754 9.754881858825684 8.38866901397705 7.3426032066345215 7.47221040725708
        7.187387943267822 7.6150736808776855 8.366064071655273 9.06608772277832 9.552637100219727 8.701203346252441
        7.616877555847168 6.9743876457214355 8.344162940979004 9.390117645263672 9.015342712402344 8.062874794006348
        7.59176778793335 6.785862445831299 7.296117782592773 7.0788984298706055 8.825261116027832 9.355536460876465
        10.471882820129395 10.218347549438477 9.904457092285156 9.269760131835938 9.483017921447754 9.87478256225586
        10.092642784118652 8.805856704711914 8.389348983764648 8.0860013961792 8.291903495788574 8.079241752624512
        8.291740417480469 7.79316520690918 6.790628433227539 5.900260925292969 6.126974582672119 7.811582088470459
        10.96544361114502 14.399200439453125 14.01710033416748 13.366276741027832 11.274112701416016 11.629608154296875
        9.833135604858398 10.157698631286621 9.42696762084961 9.40291690826416 9.747079849243164 10.690581321716309
        11.502721786499023 12.331093788146973 12.528186798095703 13.064082145690918 12.27769947052002 11.572364807128906
        10.327768325805664 9.774198532104492 9.363224983215332 9.830848693847656 11.003101348876953 11.011139869689941
        10.361927032470703 10.345722198486328 10.897358894348145 10.87926197052002 11.071310997009277 10.819451332092285
        11.19375228881836 10.456765174865723 10.431885719299316 10.130376815795898 10.850274085998535 11.158836364746094
        11.322744369506836 11.51850700378418 10.892911911010742 10.232097625732422 9.660236358642578 9.78599739074707
        10.128746032714844 9.964804649353027 10.044217109680176 10.917227745056152 12.158792495727539 12.794995307922363
        12.666747093200684 11.827422142028809 10.51926040649414 10.043730735778809 8.253157615661621 5.900409698486328
        4.380211353302002 3.1264097690582275 3.0330123901367188 2.7733302116394043 3.0740315914154053 2.3291115760803223
        2.632425546646118 2.699580669403076 3.641533851623535 3.186598300933838 2.727553129196167 2.16890811920166
        2.1075851917266846 2.4736504554748535 3.517204999923706 4.283867359161377 4.360585689544678 4.133356094360352
        3.460695505142212 4.119162559509277 6.276181697845459 9.45188045501709 12.424245834350586 13.320112228393555
        15.074738502502441 13.39428424835205 13.070184707641602 11.441662788391113 11.415836334228516 11.916670799255371
        12.229506492614746 14.307559967041016 6.624830722808838 6.592101573944092 6.25714635848999 5.934751510620117
        8.496581077575684 11.72291374206543 14.560072898864746 17.037673950195312 16.552698135375977 14.538005828857422
        11.384495735168457 9.529210090637207 8.728203773498535 8.61630630493164 9.464356422424316 10.30833911895752
        9.362431526184082 7.924103260040283 6.387320041656494 3.4113881587982178 2.008124828338623 2.105057716369629
        3.113813638687134 3.5435516834259033 3.920091390609741 5.7360005378723145 5.523845195770264 8.146624565124512
        10.143960952758789 12.156256675720215 11.400116920471191 10.184589385986328 10.093472480773926 11.518287658691406
        10.778468132019043 9.530335426330566 8.1035795211792 7.575283527374268 6.537353038787842 6.312292575836182
        7.421907901763916 8.309764862060547 9.014283180236816 8.994711875915527 8.322210311889648 7.736133098602295
        8.048880577087402 8.250189781188965 8.087645530700684 6.883051872253418 6.93653678894043 6.263241767883301
        6.8621978759765625 7.829789638519287 9.055628776550293 9.570441246032715 10.138016700744629 10.345768928527832
        9.160425186157227 8.826342582702637 9.586541175842285 9.666973114013672 9.516408920288086 8.447458267211914
        7.840626239776611 7.763737201690674 7.138434410095215 6.945883750915527 7.187411308288574 6.945375442504883
        5.9930195808410645 5.03612756729126 6.327992916107178 8.251815795898438 9.68023681640625 12.445098876953125
        12.276917457580566 13.178546905517578 11.761391639709473 12.127243995666504 10.942818641662598 10.675190925598145
        10.084318161010742 9.694220542907715 10.328895568847656 11.194534301757812 11.712265968322754 12.393556594848633
        13.591410636901855 13.481552124023438 12.760516166687012 12.025017738342285 11.373651504516602 11.087825775146484
        11.120264053344727 11.544923782348633 11.633688926696777 11.126815795898438 10.440338134765625 10.250590324401855
        10.67652416229248 11.074663162231445 11.688454627990723 11.727802276611328 11.578332901000977 10.743882179260254
        10.882340431213379 10.822522163391113 10.732009887695312 11.01564884185791 11.411776542663574 11.76123332977295
        11.274528503417969 10.830754280090332 10.428417205810547 10.389812469482422 10.592370986938477 10.210856437683105
        10.014859199523926 11.170117378234863 11.893120765686035 12.665149688720703 12.595843315124512 12.190402030944824
        11.407747268676758 10.037087440490723 8.049201011657715 5.783848762512207 4.115962505340576 2.458057403564453
        2.901089906692505 3.0523862838745117 3.3328394889831543 2.68468976020813 2.484041690826416 2.525177240371704
        3.750645637512207 3.482314348220825 3.1792280673980713 2.537407875061035 3.3462588787078857 3.791233539581299
        4.749690532684326 5.224839210510254 5.041801452636719 5.386697292327881 4.9225945472717285 4.969702243804932
        5.059532165527344 6.694034576416016 10.593609809875488 12.882373809814453 14.871748924255371 13.35420036315918
        12.866291046142578 11.406925201416016 11.016631126403809 11.055414199829102 12.049186706542969 13.625287055969238
        4.545184135437012 5.632137775421143 5.005858421325684 6.484091281890869 9.160665512084961 11.198053359985352
        16.988689422607422 16.54646110534668 17.024173736572266 15.407099723815918 13.397281646728516 9.717264175415039
        8.684094429016113 8.699542045593262 8.945564270019531 9.635844230651855 10.300080299377441 8.9437894821167
        6.721161842346191 3.2017579078674316 1.5181039571762085 0.9544892907142639 1.4999451637268066 2.8500821590423584
        4.95643949508667 7.3103179931640625 7.098086833953857 6.587362289428711 7.73671293258667 10.6887845993042
        11.149442672729492 10.327771186828613 10.023797035217285 10.81529712677002 10.10094165802002 8.952768325805664
        8.133976936340332 8.035605430603027 6.848137855529785 6.472445487976074 6.665473937988281 8.053163528442383
        8.400616645812988 8.412006378173828 8.097555160522461 8.295683860778809 8.418302536010742 8.238622665405273
        7.758416175842285 7.583266258239746 7.650704860687256 7.640836715698242 7.505684852600098 8.042268753051758
        9.26714038848877 9.483774185180664 9.419218063354492 9.158905982971191 9.016650199890137 9.686861991882324
        9.931995391845703 10.359298706054688 9.902558326721191 9.018625259399414 7.962442398071289 7.472652912139893
        7.263035774230957 7.115490436553955 7.298508167266846 6.703802108764648 5.731388568878174 5.28262186050415
        6.865005970001221 9.10212230682373 10.660208702087402 12.312653541564941 13.69833755493164 14.692169189453125
        12.913939476013184 12.751724243164062 11.361213684082031 11.138324737548828 10.073860168457031 9.977922439575195
        10.415168762207031 10.283215522766113 10.907607078552246 11.355897903442383 13.089027404785156 13.36001205444336
        12.953832626342773 12.5227632522583 11.603311538696289 11.77802562713623 11.724452018737793 11.894230842590332
        11.746933937072754 11.319252014160156 11.014288902282715 10.760194778442383 10.869657516479492 10.981416702270508
        11.74967098236084 12.059992790222168 11.447394371032715 10.403205871582031 10.891565322875977 10.823322296142578
        10.950620651245117 10.981279373168945 10.695084571838379 10.694303512573242 10.790349960327148 10.985241889953613
        10.41081714630127 10.212220191955566 10.4745454788208 10.155912399291992 10.397151947021484 10.974210739135742
        11.407234191894531 11.839860916137695 12.263081550598145 12.289566993713379 11.739190101623535 9.936942100524902
        7.370537757873535 5.693558216094971 4.928376197814941 3.514976739883423 3.676797389984131 3.9228808879852295
        3.5021300315856934 2.75962233543396 2.7274248600006104 2.455932855606079 3.406942129135132 2.970266103744507
        3.3988449573516846 3.007603883743286 3.8549091815948486 4.072479724884033 5.128726005554199 5.265951633453369
        5.165573596954346 6.054306507110596 6.11752986907959 5.451761722564697 4.545602798461914 5.069444179534912
        8.429155349731445 10.883028030395508 12.80372428894043 11.634632110595703 11.344061851501465 11.269679069519043
        10.208876609802246 9.633352279663086 9.988726615905762 11.307197570800781 6.982234954833984 6.471432685852051
        5.4899396896362305 6.138981819152832 8.010062217712402 9.683903694152832 14.861472129821777 16.539697647094727
        18.626184463500977 18.053050994873047 16.23409080505371 11.251697540283203 9.695877075195312 8.541963577270508
        8.670157432556152 9.090031623840332 10.283992767333984 9.867217063903809 7.5251264572143555 5.470655918121338
        3.309480905532837 2.3129138946533203 1.832352876663208 3.1034188270568848 5.556077480316162 7.0894317626953125
        7.207353591918945 7.719758987426758 8.91516399383545 11.093118667602539 11.906889915466309 11.117578506469727
        11.050498008728027 10.959417343139648 10.648805618286133 9.241835594177246 9.02869701385498 8.142537117004395
        7.080836296081543 7.702183246612549 7.532051086425781 8.421586990356445 8.308578491210938 8.932768821716309
        9.064014434814453 9.386542320251465 9.421692848205566 9.488104820251465 8.613607406616211 8.923094749450684
        8.90856647491455 8.779667854309082 8.197909355163574 8.503424644470215 9.859818458557129 10.118433952331543
        10.494544982910156 10.805595397949219 11.469332695007324 11.189920425415039 11.411931037902832 10.378754615783691
        9.525064468383789 8.064187049865723 8.19633674621582 8.19931697845459 8.559001922607422 8.406179428100586
        8.318944931030273 7.527203559875488 5.981667518615723 5.014013290405273 6.2182087898254395 9.531545639038086
        11.8543701171875 12.40855598449707 13.8677978515625 15.175944328308105 14.391188621520996 13.530135154724121
        12.18764877319336 11.737786293029785 10.702919006347656 10.645808219909668 10.725700378417969 9.851370811462402
        10.249814987182617 10.919711112976074 12.775822639465332 13.343426704406738 13.671862602233887 13.371359825134277
        12.924901008605957 12.719616889953613 12.531974792480469 12.712425231933594 12.464207649230957 12.36799144744873
        12.161876678466797 11.765485763549805 11.579733848571777 11.11742115020752 11.767041206359863 11.866954803466797
        11.445039749145508 10.656702995300293 10.92319393157959 11.080750465393066 11.184922218322754 11.126439094543457
        10.78304386138916 10.276429176330566 10.814733505249023 10.864516258239746 10.721375465393066 10.291622161865234
        10.486268043518066 10.40540599822998 10.541511535644531 10.815627098083496 12.00451946258545 12.587431907653809
        13.01607608795166 12.948040962219238 12.223186492919922 10.285582542419434 7.229241371154785 4.9982781410217285
        4.308321952819824 4.029263973236084 4.022078990936279 3.904226541519165 3.550759792327881 3.6653385162353516
        3.036825180053711 2.7925822734832764 3.0171070098876953 2.5914056301116943 3.182347297668457 3.162700891494751
        4.050004482269287 4.745093822479248 6.248658657073975 5.976308345794678 5.844548225402832 6.424015045166016
        6.978729248046875 6.776522636413574 5.2863264083862305 5.086973667144775 6.709527015686035 8.114606857299805
        10.31917667388916 10.48842716217041 11.25719165802002 11.498784065246582 10.617168426513672 9.214644432067871
        8.786694526672363 9.283565521240234 10.788171768188477 6.567867279052734 5.600436210632324 4.608731269836426
        6.9127068519592285 9.096867561340332 13.30191421508789 16.053848266601562 17.737661361694336 17.734703063964844
        17.080150604248047 14.841567039489746 13.297480583190918 11.267559051513672 9.838848114013672 9.74134635925293
        10.54271411895752 11.241079330444336 8.954392433166504 7.7679762840271 6.005129337310791 4.438525676727295
        2.9419806003570557 2.9523885250091553 4.685409069061279 6.184638500213623 7.280092716217041 9.049703598022461
        8.51507568359375 9.049029350280762 9.529766082763672 10.091256141662598 10.307838439941406 10.07337760925293
        10.093165397644043 9.965672492980957 9.50915241241455 8.692440032958984 7.7972002029418945 8.491129875183105
        7.9924421310424805 7.969410419464111 7.368342399597168 8.315445899963379 9.811175346374512 10.776518821716309
        10.600643157958984 9.866193771362305 9.18588924407959 9.382367134094238 9.586394309997559 9.328689575195312
        8.682721138000488 8.406453132629395 10.20583438873291 11.272501945495605 11.489572525024414 11.041767120361328
        12.122786521911621 11.900604248046875 11.849228858947754 10.447104454040527 9.516267776489258 7.980919361114502
        8.760415077209473 9.25425910949707 9.02341365814209 8.088515281677246 7.78100061416626 7.292932987213135
        6.291182041168213 4.959168910980225 5.486242294311523 8.449501037597656 11.4879789352417 13.219959259033203
        14.202319145202637 14.679113388061523 14.103628158569336 12.941404342651367 12.026578903198242 11.533966064453125
        10.358922958374023 10.367727279663086 10.19149112701416 9.662196159362793 9.509100914001465 9.515070915222168
        10.768248558044434 11.437159538269043 12.578081130981445 12.860501289367676 13.199370384216309 13.173195838928223
        12.941393852233887 12.889516830444336 12.81320571899414 12.793800354003906 12.42276382446289 11.59716510772705
        11.195042610168457 10.938577651977539 11.044201850891113 10.816954612731934 10.700879096984863 10.683781623840332
        10.775164604187012 10.856893539428711 11.069719314575195 10.859137535095215 10.573753356933594 10.196454048156738
        10.474982261657715 10.32580280303955 10.50329875946045 10.280136108398438 10.519431114196777 10.629830360412598
        10.856893539428711 10.97310733795166 12.147844314575195 13.1575927734375 13.498146057128906 12.758328437805176
        10.504334449768066 9.246513366699219 6.142562389373779 4.480231761932373 3.890972852706909 4.056939601898193
        4.288996696472168 3.936418056488037 4.134867191314697 4.148139953613281 3.373561382293701 3.3506715297698975
        3.2151095867156982 3.3128581047058105 3.610469102859497 3.462867021560669 3.5171022415161133 4.418436050415039
        6.032698631286621 6.187936782836914 6.204133033752441 6.06894063949585 6.574131011962891 6.626998424530029
        5.535115718841553 4.289013862609863 4.312795639038086 6.582934379577637 7.899902820587158 9.831061363220215
        10.914942741394043 11.629711151123047 10.372506141662598 9.9324951171875 9.365078926086426 9.874812126159668
        12.343559265136719 8.832414627075195 7.38162088394165 4.917774200439453 5.638371467590332 6.350329399108887
        8.658550262451172 12.845107078552246 13.941076278686523 17.79973602294922 17.027774810791016 17.687524795532227
        16.67458152770996 14.160978317260742 11.640589714050293 9.441975593566895 9.570232391357422 10.631208419799805
        9.144582748413086 8.33064079284668 6.986319065093994 5.705824375152588 4.354153633117676 3.998861312866211
        5.390577793121338 6.688211441040039 7.340524196624756 8.638763427734375 8.458163261413574 8.953341484069824
        10.474828720092773 11.510222434997559 11.954184532165527 10.660673141479492 10.561070442199707 10.217976570129395
        10.141570091247559 9.154006004333496 8.313590049743652 8.79561710357666 8.515019416809082 8.518148422241211
        8.744349479675293 8.706391334533691 10.531754493713379 11.59921646118164 11.863728523254395 10.275338172912598
        10.244174003601074 10.177230834960938 10.049562454223633 9.29714298248291 9.161295890808105 9.08722972869873
        10.301384925842285 11.135793685913086 11.768693923950195 12.159467697143555 11.937943458557129 11.44844913482666
        11.520442962646484 10.381277084350586 9.651127815246582 8.339402198791504 9.312385559082031 9.632949829101562
        9.23430347442627 8.258049011230469 7.227807998657227 6.876246452331543 5.835512161254883 5.23251485824585
        6.143181324005127 8.248282432556152 10.297704696655273 12.09682559967041 13.066457748413086 13.955408096313477
        13.447441101074219 13.04159164428711 11.414423942565918 11.405083656311035 10.66883659362793 10.481287956237793
        10.383438110351562 10.183165550231934 10.027548789978027 10.1035737991333 10.661467552185059 10.961601257324219
        11.56601333618164 11.959704399108887 13.112862586975098 13.160187721252441 13.536678314208984 12.69308090209961
        12.823908805847168 12.659686088562012 12.563440322875977 11.719624519348145 11.215893745422363 11.329206466674805
        11.409628868103027 11.35184097290039 11.242749214172363 10.898725509643555 10.945426940917969 10.7267484664917
        10.974893569946289 10.936199188232422 10.639992713928223 10.559534072875977 10.365885734558105 10.479543685913086
        10.346213340759277 9.822993278503418 10.1763916015625 10.491287231445312 10.87590503692627 11.160001754760742
        12.487471580505371 13.50571346282959 13.545489311218262 12.405427932739258 10.150748252868652 8.847782135009766
        6.559504985809326 4.2778096199035645 3.7120659351348877 3.900317430496216 3.809353828430176 4.093945503234863
        4.784648418426514 4.514758586883545 3.5797641277313232 3.155080556869507 3.0319571495056152 3.007744073867798
        3.034764289855957 3.110618829727173 3.4836955070495605 4.898406505584717 6.521113872528076 6.309518337249756
        6.418537139892578 6.241202354431152 6.654592514038086 6.8946685791015625 6.17218017578125 4.9273529052734375
        4.768435001373291 6.442702293395996 7.635537147521973 9.021167755126953 10.153085708618164 9.943228721618652
        8.904858589172363 9.334989547729492 9.832513809204102 9.309450149536133 8.919750213623047 8.437651634216309
        8.5980863571167 5.176963806152344 3.0094239711761475 3.334287643432617 4.852293968200684 7.4778733253479
        8.88321304321289 11.619632720947266 13.01429271697998 15.645731925964355 17.955230712890625 17.32901382446289
        13.695632934570312 11.582143783569336 11.324945449829102 10.955830574035645 10.205852508544922 10.192015647888184
        9.81058120727539 7.979508876800537 6.671950340270996 5.93239164352417 6.690810680389404 8.143747329711914
        8.84410285949707 9.222902297973633 9.008888244628906 9.172350883483887 11.684102058410645 12.236674308776855
        12.891904830932617 11.324206352233887 10.80745792388916 10.366599082946777 9.836166381835938 8.994610786437988
        8.588130950927734 9.267626762390137 9.469865798950195 9.285832405090332 9.382132530212402 9.52263355255127
        11.413146018981934 14.159991264343262 13.810013771057129 11.214886665344238 10.766958236694336 11.158914566040039
        10.992953300476074 9.677623748779297 9.654257774353027 10.188936233520508 10.744536399841309 11.537368774414062
        11.38679313659668 11.682387351989746 11.09576416015625 10.998730659484863 11.044881820678711 10.298160552978516
        9.342166900634766 9.289009094238281 9.619735717773438 9.960198402404785 9.36475944519043 8.618592262268066
        7.487439155578613 6.875226020812988 6.8760857582092285 7.069969177246094 7.9303693771362305 8.426436424255371
        9.46142864227295 11.904268264770508 12.866934776306152 13.314346313476562 11.849895477294922 11.652135848999023
        11.255779266357422 11.488061904907227 10.720582962036133 10.478058815002441 10.35130500793457 10.665459632873535
        10.068126678466797 10.157698631286621 10.270243644714355 10.824312210083008 11.672130584716797 11.60609245300293
        11.96079158782959 11.949625015258789 12.381355285644531 11.974874496459961 11.768776893615723 11.525308609008789
        11.558302879333496 11.544276237487793 11.869746208190918 11.721027374267578 11.304278373718262 11.232683181762695
        11.285958290100098 11.266681671142578 11.075765609741211 10.769309997558594 10.588372230529785 10.461381912231445
        10.646638870239258 10.681670188903809 10.54112434387207 10.146116256713867 9.737144470214844 9.553922653198242
        9.967020988464355 10.336793899536133 10.499052047729492 10.995759010314941 11.811652183532715 13.077303886413574
        13.129451751708984 11.915168762207031 10.001976013183594 8.136187553405762 6.188645839691162 5.110525608062744
        4.443106174468994 4.293528079986572 4.3949408531188965 4.345641136169434 4.485953330993652 4.901546001434326
        4.357686519622803 3.735874891281128 2.9262304306030273 3.247419834136963 3.600978374481201 3.345989942550659
        3.5044124126434326 4.437100887298584 5.952902317047119 6.240103244781494 6.097509384155273 6.1870436668396
        6.310368061065674 6.7872090339660645 7.00299072265625 6.472105026245117 6.0411248207092285 6.267444133758545
        7.901942729949951 8.395816802978516 9.496106147766113 9.48681640625 8.777665138244629 8.412917137145996
        9.067111015319824 8.549586296081543 5.5153489112854 6.641310214996338 7.380497455596924 5.139779090881348
        1.7181979417800903 1.7438042163848877 2.68506121635437 3.537022113800049 6.514864444732666 9.288165092468262
        9.924845695495605 10.898022651672363 13.884496688842773 14.345002174377441 13.874991416931152 12.933993339538574
        13.286294937133789 12.059004783630371 12.07888126373291 12.158769607543945 11.581925392150879 9.696483612060547
        8.347551345825195 7.589212417602539 7.973812580108643 8.165115356445312 9.346529006958008 9.83423900604248
        9.29265308380127 8.719555854797363 10.762996673583984 11.786504745483398 12.850452423095703 11.275581359863281
        11.467729568481445 9.891495704650879 9.372814178466797 8.770817756652832 8.423958778381348 8.979246139526367
        9.368794441223145 9.88493824005127 10.16031551361084 10.213143348693848 11.755805969238281 13.49404525756836
        13.9302339553833 11.545663833618164 11.136561393737793 10.97909164428711 10.583550453186035 9.720237731933594
        10.298844337463379 10.947944641113281 11.290162086486816 11.279753684997559 12.314577102661133 12.240059852600098
        11.698318481445312 10.417688369750977 10.125799179077148 9.737635612487793 9.594931602478027 9.491602897644043
        9.537687301635742 9.13879108428955 9.180058479309082 8.97094440460205 8.642329216003418 7.902263164520264
        7.640112400054932 7.797804832458496 8.499295234680176 8.462620735168457 9.203182220458984 10.941723823547363
        12.965896606445312 13.110466003417969 11.735250473022461 11.62069034576416 11.328886032104492 12.218558311462402
        11.255452156066895 11.074825286865234 9.896478652954102 9.703603744506836 8.839080810546875 9.382266998291016
        9.848017692565918 11.174917221069336 11.61030101776123 11.658285140991211 11.214984893798828 11.396923065185547
        11.725715637207031 11.054139137268066 11.121492385864258 10.835476875305176 11.19582462310791 11.627584457397461
        11.988425254821777 11.74889850616455 11.028173446655273 11.511676788330078 11.782772064208984 11.388690948486328
        11.05621337890625 10.615494728088379 10.694807052612305 10.374744415283203 10.297294616699219 10.325218200683594
        10.167015075683594 9.875617980957031 9.332236289978027 9.246383666992188 9.81447982788086 9.811040878295898
        9.806785583496094 10.4996919631958 11.3949613571167 12.678954124450684 12.675122261047363 11.71484661102295
        10.88766860961914 8.808771133422852 7.4636054039001465 5.462003231048584 4.8034563064575195 4.518399238586426
        4.68344259262085 4.952182769775391 4.649038791656494 5.041337966918945 4.8429765701293945 4.393890857696533
        3.803213119506836 3.8324482440948486 3.799614667892456 4.0806050300598145 4.301244735717773 5.1390228271484375
        6.046314239501953 6.3926167488098145 6.347317695617676 6.481331825256348 6.629650115966797 6.93881368637085
        6.685993671417236 5.936246871948242 5.795586585998535 6.26165771484375 7.400557518005371 7.328791618347168
        8.460821151733398 9.020267486572266 8.681238174438477 7.286951065063477 6.7546515464782715 6.702065944671631
        10.025005340576172 8.401893615722656 8.651153564453125 4.668581962585449 2.9613277912139893 2.327928066253662
        1.9225529432296753 1.530861735343933 4.153730392456055 5.808033466339111 5.677402019500732 4.184615135192871
        7.862603187561035 9.967815399169922 14.243338584899902 15.584354400634766 16.774856567382812 16.178054809570312
        15.871681213378906 14.533787727355957 14.169133186340332 12.640993118286133 10.735091209411621 9.594679832458496
        9.662894248962402 8.741559982299805 10.045642852783203 11.020695686340332 9.992105484008789 8.538127899169922
        9.423563003540039 10.474467277526855 11.734395980834961 11.900278091430664 12.759220123291016 11.430708885192871
        10.289325714111328 10.722406387329102 10.31401252746582 9.948590278625488 8.635405540466309 8.414386749267578
        8.52148151397705 9.809967041015625 11.668707847595215 13.156197547912598 13.264269828796387 12.24220085144043
        11.732394218444824 11.702857971191406 11.304927825927734 10.28933334350586 10.94670581817627 11.354308128356934
        11.984637260437012 11.58030891418457 12.336313247680664 12.350337982177734 12.376152992248535 10.93067741394043
        10.49688720703125 9.801406860351562 10.452170372009277 10.448665618896484 10.685891151428223 10.20285415649414
        9.790587425231934 9.809178352355957 9.62591552734375 9.069609642028809 8.703553199768066 8.965024948120117
        9.786857604980469 9.210156440734863 9.581110954284668 11.039057731628418 12.588933944702148 12.521931648254395
        11.887593269348145 11.793625831604004 11.376794815063477 12.188677787780762 12.259208679199219 11.761507987976074
        10.021219253540039 9.590179443359375 8.961042404174805 9.665695190429688 10.052560806274414 11.39222240447998
        11.498688697814941 11.869851112365723 11.603636741638184 11.6642484664917 11.935186386108398 11.710525512695312
        11.604622840881348 11.635116577148438 11.420604705810547 11.745107650756836 12.067497253417969 12.07076358795166
        11.825849533081055 12.049859046936035 12.103191375732422 11.72632884979248 11.53049087524414 11.341239929199219
        11.096344947814941 10.571870803833008 10.337925910949707 10.12944221496582 10.383051872253418 9.955193519592285
        9.80582046508789 9.668623924255371 9.889849662780762 9.775081634521484 9.675079345703125 10.187228202819824
        11.23123836517334 12.44794750213623 12.888113975524902 12.189526557922363 11.279216766357422 9.365696907043457
        7.433623313903809 5.147161960601807 4.037570953369141 5.16487979888916 5.810612678527832 5.958417892456055
        5.424172878265381 5.253808975219727 5.269963264465332 5.270803451538086 4.598404884338379 4.469220161437988
        4.665579795837402 5.191106796264648 5.232960224151611 5.521305561065674 6.354301929473877 6.765985488891602
        6.6699442863464355 6.933572292327881 6.7849955558776855 6.6937079429626465 6.343282222747803 5.954146862030029
        5.542555332183838 5.819271087646484 6.800601959228516 7.1376566886901855 8.317760467529297 9.173969268798828
        8.796391487121582 7.71497917175293 7.064545631408691 6.883684158325195 13.454957962036133 9.722485542297363
        7.987712383270264 4.011706829071045 3.4360597133636475 1.2876414060592651 0.592375636100769 2.59206485748291
        2.276144504547119 1.5468573570251465 0.5675005316734314 0.4145200848579407 4.129654407501221 7.614401817321777
        12.567058563232422 16.07244110107422 19.445575714111328 19.46282386779785 17.562162399291992 15.46869945526123
        15.86758041381836 15.283644676208496 12.51186752319336 11.465399742126465 11.635936737060547 11.207947731018066
        10.831649780273438 10.154870986938477 8.401663780212402 7.049468994140625 8.33802604675293 10.70350456237793
        11.260658264160156 12.274298667907715 12.808110237121582 12.072277069091797 10.451522827148438 10.941886901855469
        10.055802345275879 9.159013748168945 7.443522930145264 7.112072467803955 7.504821300506592 8.265195846557617
        9.48438549041748 10.431380271911621 10.705526351928711 11.38624382019043 11.690766334533691 11.51682186126709
        11.144342422485352 10.341416358947754 11.255926132202148 10.60148811340332 10.775899887084961 10.309189796447754
        10.571674346923828 10.396371841430664 10.966776847839355 10.494088172912598 10.27856159210205 9.897089958190918
        10.445713996887207 10.348321914672852 10.284835815429688 9.917204856872559 9.517720222473145 9.64720630645752
        9.634393692016602 8.872802734375 8.132420539855957 8.272446632385254 9.341326713562012 10.248336791992188
        10.097498893737793 10.74413776397705 10.996132850646973 11.681289672851562 12.32715892791748 12.352827072143555
        11.580082893371582 11.837289810180664 12.547547340393066 11.669764518737793 10.094868659973145 9.376510620117188
        9.25355052947998 9.258845329284668 9.598597526550293 10.277355194091797 10.393564224243164 10.828004837036133
        10.829168319702148 11.262344360351562 11.196488380432129 11.391549110412598 11.708232879638672 11.884373664855957
        11.654263496398926 11.183128356933594 11.289688110351562 11.535562515258789 11.540361404418945 11.736793518066406
        11.771567344665527 11.56814193725586 11.538712501525879 11.283041000366211 11.151744842529297 10.7262544631958
        10.402250289916992 9.989185333251953 10.129179954528809 10.156280517578125 10.252365112304688 9.947805404663086
        9.773262977600098 9.762063980102539 9.840847969055176 10.382885932922363 11.443988800048828 12.473139762878418
        13.024351119995117 11.95958137512207 10.398747444152832 8.618512153625488 6.756566047668457 4.328812122344971
        3.3607120513916016 4.987649440765381 6.153425693511963 6.201556205749512 5.624648094177246 4.555655479431152
        4.690968990325928 4.9970293045043945 5.106243133544922 4.651435375213623 5.012266159057617 5.701161861419678
        5.9384565353393555 6.6258134841918945 6.929107189178467 7.159082412719727 6.69012975692749 6.93652868270874
        6.612545490264893 6.632009506225586 6.405615329742432 5.765093803405762 5.364596366882324 5.390963554382324
        6.042339324951172 6.317831993103027 7.403151988983154 8.44649887084961 8.179098129272461 8.17923355102539
        7.901307106018066 7.39713716506958 11.650351524353027 8.795613288879395 8.058959007263184 4.343997001647949
        3.192425489425659 1.6107912063598633 0.4246898293495178 1.1307412385940552 3.048909902572632 5.9501519203186035
        4.905879497528076 2.5982627868652344 4.025815010070801 6.881965637207031 10.931194305419922 14.03281021118164
        19.596153259277344 20.553632736206055 17.96144676208496 16.084476470947266 15.907865524291992 15.448932647705078
        13.074935913085938 11.754499435424805 12.380936622619629 11.934405326843262 11.33432674407959 9.872106552124023
        8.691038131713867 7.476795673370361 8.6926908493042 10.229605674743652 11.664186477661133 12.641716957092285
        12.351325035095215 12.013187408447266 10.948663711547852 11.255169868469238 9.83242130279541 8.767376899719238
        7.009748935699463 6.491429328918457 6.414106845855713 7.19954252243042 8.141968727111816 10.342055320739746
        10.983541488647461 12.59536361694336 11.996783256530762 11.817488670349121 10.411208152770996 10.082056045532227
        10.68331241607666 9.902691841125488 9.778112411499023 8.888598442077637 9.727554321289062 10.779638290405273
        11.254704475402832 11.396953582763672 10.72280216217041 10.254785537719727 10.148554801940918 10.063175201416016
        9.838749885559082 9.352490425109863 9.28619384765625 9.577624320983887 9.277495384216309 9.098174095153809
        8.529895782470703 8.594498634338379 9.749706268310547 10.429000854492188 9.746068000793457 9.904803276062012
        10.494775772094727 11.290931701660156 11.688118934631348 11.894410133361816 11.715958595275879 12.004301071166992
        13.228384971618652 12.361348152160645 11.177870750427246 9.695181846618652 9.507747650146484 9.090349197387695
        9.16561508178711 9.409753799438477 9.618441581726074 10.743575096130371 11.107654571533203 11.3536958694458
        11.176137924194336 11.282514572143555 11.761298179626465 11.700523376464844 11.335861206054688 10.995073318481445
        10.968523025512695 11.426944732666016 11.371496200561523 11.46152114868164 11.381258964538574 11.296357154846191
        11.781335830688477 11.630986213684082 11.293784141540527 10.853870391845703 10.576480865478516 10.513111114501953
        10.215537071228027 10.41042423248291 10.731060028076172 10.288702964782715 10.259475708007812 9.986026763916016
        10.208529472351074 10.443099021911621 11.44604206085205 11.967124938964844 12.23453426361084 11.521805763244629
        10.192371368408203 8.624731063842773 6.789043426513672 4.52434778213501 4.1949262619018555 5.1525421142578125
        5.740860939025879 5.951523303985596 5.820187568664551 4.911112308502197 5.683434963226318 5.544829368591309
        5.512278079986572 4.982913970947266 5.026268005371094 5.360868453979492 5.32538366317749 6.521420001983643
        7.265935897827148 7.0294575691223145 6.326420783996582 6.01607084274292 5.984236717224121 6.565814971923828
        6.48360538482666 6.091139793395996 5.288900375366211 5.561156749725342 6.07635498046875 6.028111457824707
        6.903129577636719 8.122334480285645 8.61030387878418 9.556727409362793 9.363180160522461 9.33671760559082
        7.319738388061523 7.606342315673828 7.889838695526123 6.19596529006958 2.719327688217163 2.293745517730713
        1.2569352388381958 0.4164291322231293 1.4222208261489868 4.333816051483154 3.637140989303589 1.7132099866867065
        2.2889559268951416 5.309260845184326 7.99684476852417 10.212416648864746 13.395642280578613 15.950329780578613
        16.367786407470703 15.51045036315918 15.635985374450684 14.623490333557129 11.939574241638184 10.87768268585205
        10.721420288085938 11.144378662109375 10.475067138671875 9.7876615524292 8.050922393798828 6.3062052726745605
        7.886292934417725 9.701971054077148 12.107999801635742 13.362914085388184 12.866093635559082 12.63720417022705
        11.034805297851562 10.546782493591309 9.438375473022461 8.445209503173828 7.481532096862793 5.702871799468994
        5.5624237060546875 6.327418327331543 7.296084880828857 9.674543380737305 10.813562393188477 12.479767799377441
        11.130780220031738 10.363408088684082 8.904314994812012 8.6312837600708 9.262042045593262 9.506607055664062
        9.478796005249023 8.76083755493164 9.220032691955566 11.628573417663574 12.36083984375 11.689277648925781
        10.725706100463867 10.166106224060059 9.978120803833008 9.979589462280273 9.618849754333496 9.50363826751709
        9.073399543762207 8.839326858520508 8.711838722229004 8.83079719543457 8.903117179870605 8.163519859313965
        9.013702392578125 8.612048149108887 7.674001216888428 8.35489273071289 9.585920333862305 11.1913423538208
        11.463813781738281 12.169254302978516 12.818071365356445 12.692706108093262 13.446884155273438 12.27905559539795
        10.979260444641113 9.69088363647461 8.72217082977295 8.442697525024414 8.427475929260254 9.030735969543457
        9.828890800476074 10.434460639953613 10.428549766540527 10.810552597045898 10.959623336791992 11.317073822021484
        11.127187728881836 10.936776161193848 10.812243461608887 10.804688453674316 11.071541786193848 11.137969017028809
        10.852185249328613 10.811655044555664 10.914820671081543 11.520709991455078 11.725296974182129 11.162687301635742
        10.601140975952148 10.28075122833252 10.619534492492676 10.518593788146973 10.251441955566406 10.322375297546387
        10.783452033996582 10.660552978515625 10.488765716552734 10.208271980285645 10.140240669250488 10.266575813293457
        10.909638404846191 11.428842544555664 11.64982795715332 10.853495597839355 10.855886459350586 9.531229972839355
        7.3640289306640625 5.089998722076416 4.527771949768066 4.4820146560668945 5.465773105621338 5.622340679168701
        5.408493995666504 4.811150550842285 5.800895690917969 6.154490947723389 5.870537281036377 5.694902420043945
        5.749224662780762 5.575647830963135 5.498344898223877 5.760061740875244 6.494564533233643 6.46178674697876
        6.15709924697876 5.421065330505371 5.358805179595947 5.804964065551758 5.5076398849487305 4.861716270446777
        4.7456278800964355 5.782203197479248 6.471654415130615 6.703999996185303 7.245940685272217 8.072538375854492
        8.55403995513916 9.699193954467773 9.714631080627441 10.035468101501465 8.403569221496582 9.303359985351562
        10.008004188537598 7.441875457763672 3.1471943855285645 1.01007878780365 0.5287816524505615 1.9760081768035889
        2.495042085647583 1.9815372228622437 1.016311764717102 1.4824556112289429 1.644309163093567 2.576164484024048
        4.987630844116211 6.772262096405029 7.683465003967285 9.506054878234863 12.281989097595215 12.97625732421875
        13.763795852661133 14.057241439819336 12.02482795715332 10.636964797973633 9.844791412353516 10.344624519348145
        10.628581047058105 10.610382080078125 8.464375495910645 7.409031391143799 8.187807083129883 11.823002815246582
        12.010581970214844 12.408527374267578 12.279770851135254 12.691850662231445 11.844719886779785 10.889692306518555
        10.174079895019531 8.252889633178711 6.257147789001465 4.027763843536377 3.9585299491882324 4.5940842628479
        6.878331184387207 9.800885200500488 12.116567611694336 14.077571868896484 11.98200798034668 10.065051078796387
        7.903245449066162 7.877981662750244 7.623201370239258 7.947995662689209 9.829877853393555 10.691132545471191
        12.43187427520752 12.674860954284668 12.513606071472168 11.4567232131958 10.59366226196289 10.402260780334473
        9.721070289611816 9.796001434326172 9.466527938842773 9.28247356414795 9.0463228225708 8.470577239990234
        8.620553016662598 8.591064453125 8.542206764221191 8.438207626342773 8.738880157470703 7.432461738586426
        6.039456844329834 6.442612648010254 8.741781234741211 10.441386222839355 10.727594375610352 11.361651420593262
        12.072956085205078 13.073417663574219 13.526850700378418 12.53579044342041 11.023131370544434 9.597039222717285
        8.838156700134277 8.873129844665527 8.957350730895996 9.666522979736328 9.70015811920166 10.431214332580566
        10.172609329223633 11.0198974609375 11.322938919067383 11.261103630065918 11.03854751586914 10.767699241638184
        11.05388355255127 11.07889175415039 10.803139686584473 10.85867691040039 10.585577011108398 11.115873336791992
        11.103778839111328 11.25137996673584 11.448439598083496 10.97610855102539 10.786961555480957 10.392937660217285
        10.423272132873535 10.34516429901123 10.196822166442871 10.389920234680176 10.512823104858398 10.23585319519043
        10.256121635437012 9.792258262634277 9.801125526428223 9.75804615020752 10.062026023864746 10.533384323120117
        10.787214279174805 10.678929328918457 10.984501838684082 9.644745826721191 7.05728816986084 4.486423015594482
        3.744410991668701 4.335518836975098 5.894776344299316 6.047956466674805 5.760847568511963 5.000469207763672
        6.120387077331543 6.410873889923096 6.418417453765869 6.012104034423828 6.109831809997559 6.063152313232422
        5.846956729888916 5.816050052642822 5.410460472106934 5.062430381774902 5.337685585021973 5.2993879318237305
        5.905770301818848 5.878827095031738 5.017526626586914 4.315113067626953 4.402370929718018 5.85912561416626
        6.299681186676025 6.875004768371582 7.728447437286377 8.658340454101562 9.462891578674316 9.916360855102539
        9.547064781188965 10.111865997314453 12.037382125854492 11.156128883361816 12.655086517333984 9.62631607055664
        5.540445804595947 1.1285455226898193 1.277174472808838 1.2284119129180908 1.2020455598831177 1.9432389736175537
        1.8469334840774536 3.2412726879119873 2.4564688205718994 2.7008988857269287 4.961442470550537 6.2080583572387695
        5.369460105895996 6.0232062339782715 9.276668548583984 11.05986213684082 12.361573219299316 13.542787551879883
        11.955375671386719 10.134649276733398 10.007868766784668 10.149782180786133 10.583125114440918 10.891770362854004
        9.725629806518555 10.057525634765625 10.104168891906738 12.486753463745117 12.326519966125488 13.399872779846191
        13.632054328918457 13.961160659790039 12.213541984558105 10.332927703857422 9.81013298034668 8.810240745544434
        6.946975231170654 4.0127434730529785 3.572389602661133 4.137927532196045 7.2890095710754395 10.211195945739746
        12.590200424194336 14.01831340789795 13.07123851776123 11.0425386428833 8.595260620117188 8.09283447265625
        8.038680076599121 8.412334442138672 11.382017135620117 12.427056312561035 13.251443862915039 11.192605018615723
        11.128417015075684 11.262974739074707 11.827314376831055 11.306196212768555 10.006159782409668 9.634638786315918
        9.865958213806152 9.854493141174316 9.225567817687988 8.468640327453613 8.499923706054688 8.687897682189941
        8.706298828125 8.602917671203613 8.7284574508667 7.8821702003479 7.306699752807617 6.839775562286377
        8.584424018859863 9.85511589050293 11.131278991699219 11.409710884094238 11.999178886413574 12.749069213867188
        13.011601448059082 11.801094055175781 10.461726188659668 10.107367515563965 10.174493789672852 10.312224388122559
        9.76613712310791 10.459819793701172 10.57024097442627 10.745916366577148 10.278741836547852 10.898201942443848
        11.131528854370117 11.137455940246582 11.110169410705566 11.397050857543945 11.420757293701172 11.298615455627441
        11.17943286895752 10.918868064880371 10.81304931640625 11.08358097076416 11.350812911987305 11.673440933227539
        11.736311912536621 11.46744155883789 11.11953067779541 11.052933692932129 10.630467414855957 10.197850227355957
        10.48659896850586 10.67327880859375 10.5704927444458 10.283445358276367 10.023774147033691 9.8257417678833
        9.717334747314453 9.800091743469238 10.074352264404297 10.493119239807129 10.649764060974121 10.663032531738281
        10.956562995910645 9.968107223510742 7.526728630065918 4.738399982452393 3.7722127437591553 4.5812788009643555
        5.694153785705566 5.8462419509887695 5.573825836181641 5.3662800788879395 6.072172164916992 6.505433082580566
        6.698732852935791 6.486830711364746 6.586681365966797 6.297733783721924 6.734311580657959 6.361688137054443
        5.407989501953125 4.130993843078613 4.345824718475342 5.494691848754883 6.111681938171387 6.28307580947876
        5.131007671356201 4.290702819824219 4.154642581939697 5.327615261077881 6.160343647003174 7.160031795501709
        8.292303085327148 9.02993392944336 9.387335777282715 9.724112510681152 8.941791534423828 8.876333236694336
        13.598515510559082 12.351738929748535 13.605320930480957 9.863018989562988 7.55900764465332 3.5370354652404785
        3.2753348350524902 2.433201551437378 1.5823755264282227 1.9859727621078491 3.60578989982605 5.3997650146484375
        5.268401622772217 4.785342216491699 5.62468147277832 6.552011013031006 6.119402885437012 6.630651950836182
        7.967516899108887 10.104873657226562 11.250433921813965 11.550228118896484 10.192649841308594 8.350720405578613
        8.880361557006836 9.25006103515625 9.34262466430664 8.774338722229004 8.741872787475586 10.128571510314941
        10.965030670166016 13.153767585754395 13.133724212646484 14.197077751159668 13.463135719299316 13.456110000610352
        12.542250633239746 10.716936111450195 9.61923599243164 8.967841148376465 7.620280742645264 4.619885444641113
        3.505789041519165 3.745018720626831 6.668145656585693 10.063977241516113 13.44876480102539 14.436199188232422
        13.637374877929688 10.96094036102295 8.64540958404541 7.618968963623047 7.471755504608154 7.607119083404541
        10.409759521484375 11.631595611572266 13.04701042175293 11.628904342651367 11.757074356079102 11.330647468566895
        12.594411849975586 11.69353199005127 10.249948501586914 9.643717765808105 9.640419960021973 9.357205390930176
        8.731827735900879 8.064464569091797 8.052643775939941 8.38621997833252 8.543705940246582 8.477296829223633
        8.22415542602539 8.382355690002441 8.749305725097656 8.245884895324707 8.641465187072754 8.940552711486816
        10.178298950195312 9.955864906311035 10.766095161437988 11.157395362854004 11.301443099975586 11.125740051269531
        10.346521377563477 10.44190788269043 10.480293273925781 10.348400115966797 9.931244850158691 10.188813209533691
        10.253600120544434 10.152530670166016 9.855671882629395 10.325621604919434 10.425731658935547 10.311995506286621
        10.613054275512695 10.70706558227539 10.829188346862793 10.746790885925293 10.932101249694824 10.761189460754395
        10.106147766113281 10.507766723632812 11.167455673217773 11.76977825164795 11.601303100585938 11.388981819152832
        11.273576736450195 11.440779685974121 10.927631378173828 10.351990699768066 10.182369232177734 10.33115291595459
        10.136716842651367 10.06115436553955 9.709355354309082 9.68264389038086 9.625578880310059 9.889854431152344
        10.193924903869629 10.322173118591309 10.595754623413086 10.625478744506836 10.33469295501709 9.074596405029297
        7.394829273223877 5.352025508880615 4.164787769317627 4.53285026550293 5.198427677154541 4.2728495597839355
        4.25760555267334 4.712404251098633 5.7733869552612305 6.2861199378967285 6.6363043785095215 6.0156965255737305
        5.5795979499816895 5.213168621063232 6.284402847290039 5.954494953155518 4.866325378417969 3.847949266433716
        4.145906448364258 5.702609062194824 5.804356098175049 6.231822490692139 5.7478251457214355 5.581593990325928
        5.156330108642578 5.507071495056152 6.077915668487549 6.7130327224731445 7.623540878295898 8.82453727722168
        9.184106826782227 9.309024810791016 8.591225624084473 8.270631790161133
      </DataArray>
    </PointData>
    <CellData>
    </CellData>
  </Piece>
  </ImageData>
</VTKFile>
