<?xml version="1.0"?>
<VTKFile type="ImageData" version="0.1" byte_order="LittleEndian" header_type="UInt32" compressor="vtkZLibDataCompressor">
  <ImageData WholeExtent="0 159 0 159 0 0" Origin="0 0 0" Spacing="1 1 1" Direction="1 0 0 0 1 0 0 0 1">
  <Piece Extent="0 159 0 159 0 0">
    <PointData Scalars="wind_speed">
      <DataArray type="Float32" Name="wind_speed" format="ascii" RangeMin="0.0518798828125" RangeMax="21.84209442138672">
        5.5726776123046875 5.240028381347656 5.240028381347656 5.5879364013671875 5.648979187011719 4.818871021270752
        3.8514328002929688 3.5615079402923584 3.5096282958984375 3.4028167724609375 3.4119720458984375 3.3997650146484375
        3.2258071899414062 3.051849365234375 2.978607177734375 2.981658935546875 3.006072998046875 3.006072998046875
        2.969451904296875 2.990814208984375 3.103729248046875 3.2105484008789062 3.1312026977539062 2.887054443359375
        2.7069931030273438 2.6795272827148438 2.6825790405273438 2.6490097045898438 2.6490097045898438 2.8229598999023438
        2.975555658340454 3.042694091796875 3.103729248046875 3.1891860961914062 3.2380142211914062 3.2929458618164062
        3.2959976196289062 3.2685317993164062 3.3112564086914062 3.5035247802734375 3.6317059993743896 3.4607999324798584
        3.1403579711914062 2.8626327514648438 2.7222518920898438 2.6184844970703125 2.3651809692382812 2.1912307739257812
        2.2339553833007812 2.3377151489257812 2.4353790283203125 2.2644729614257812 1.7639694213867188 1.055938720703125
        0.6592026352882385 0.991851806640625 1.095611572265625 0.915557861328125 1.3550186157226562 1.2298965454101562
        0.5767974853515625 0.5737457275390625 0.8423080444335938 1.3641738891601562 2.10577392578125 2.7253036499023438
        2.990814208984375 3.1495132446289062 3.3845062255859375 3.4791107177734375 3.4791107177734375 3.5370941162109375
        3.7354660034179688 4.031494140625 4.156623840332031 4.068115234375 3.927734136581421 3.7171554565429688
        3.4211273193359375 3.042694091796875 2.6703720092773438 2.4597930908203125 2.2949905395507812 2.11798095703125
        2.1301956176757812 2.4353790283203125 2.884002685546875 3.1464614868164062 2.978607177734375 2.7619247436523438
        2.7222518920898438 2.7008895874023438 2.6276473999023438 2.3316116333007812 2.2034378051757812 2.3651809692382812
        2.6551132202148438 2.7924423217773438 2.6703720092773438 2.215644598007202 1.98370361328125 1.91351318359375
        1.8311080932617188 1.8066940307617188 1.8341598510742188 1.7426069974899292 1.4893035888671875 1.1627578735351562
        0.8575668334960938 0.7843246459960938 0.6775131821632385 0.36011505126953125 0.9369202256202698 1.004058837890625
        1.049835205078125 0.949127197265625 0.933868408203125 1.2421035766601562 1.6205291748046875 2.01727294921875
        2.3010942935943604 2.5605008602142334 2.6642684936523438 2.6245954036712646 2.4475860595703125 2.08135986328125
        1.6846237182617188 1.2604141235351562 1.013214111328125 0.988800048828125 0.5005035996437073 0.894195556640625
        1.055938720703125 1.101715087890625 1.1536026000976562 1.1291885375976562 0.7995834350585938 0.4516753852367401
        0.17090606689453125 0.0762939453125 0.29602813720703125 0.5676422119140625 0.6958236694335938 0.6805648803710938
        0.6073150038719177 0.33264923095703125 0.3723297119140625 0.5981597900390625 0.6683578491210938 0.4303131103515625
        0.5249176025390625 0.991851806640625 1.3061904907226562 1.1871719360351562 0.714134156703949 0.6530990600585938
        0.6683578491210938 0.689720094203949 0.6561508178710938 0.6530990600585938 5.713066101074219 5.5055389404296875
        5.5360565185546875 5.798515319824219 5.807670593261719 5.163734436035156 4.4221343994140625 4.187141418457031
        4.156623840332031 4.031494140625 3.927734375 3.8758544921875 3.7812423706054688 3.6591720581054688
        3.5767669677734375 3.5584564208984375 3.5554049015045166 3.5035250186920166 3.3967132568359375 3.3539810180664062
        3.4028167724609375 3.4241790771484375 3.2654800415039062 2.978607177734375 2.7375106811523438 2.5666046142578125
        2.4506378173828125 2.4140167236328125 2.4658966064453125 2.7375106811523438 2.969451904296875 3.054901123046875
        3.042694091796875 3.057952880859375 3.085418701171875 3.1525650024414062 3.2105484008789062 3.2471694946289062
        3.3417739868164062 3.6225509643554688 3.872802734375 3.7965009212493896 3.5767669677734375 3.3845062255859375
        3.2258071899414062 3.118988037109375 2.996917724609375 2.8473739624023438 2.6886825561523438 2.4842071533203125
        2.1790237426757812 1.7242965698242188 1.1749649047851562 0.7049789428710938 0.735496461391449 1.077301025390625
        1.2482070922851562 1.4496307373046875 1.8585739135742188 1.5686492919921875 0.7538070678710938 0.4882964789867401
        0.949127197265625 1.7120895385742188 2.3621292114257812 2.7253036499023438 2.8656845092773438 3.045745849609375
        3.2837905883789062 3.3509292602539062 3.3661880493164062 3.5004730224609375 3.7354660034179688 4.0498046875
        4.278694152832031 4.281745910644531 4.196296691894531 4.06201171875 3.8483810424804688 3.5218353271484375
        3.1312026977539062 2.7741317749023438 2.4292755126953125 2.2339553833007812 2.3102493286132812 2.6093292236328125
        2.938934326171875 3.027435302734375 2.880950927734375 2.6886825561523438 2.6520614624023438 2.6978378295898438
        2.6581649780273438 2.3651809692382812 2.09661865234375 2.2705764770507812 2.7527694702148438 2.890106201171875
        2.5177767276763916 2.08746337890625 2.07830810546875 2.10272216796875 2.01727294921875 1.96539306640625
        1.96844482421875 1.8768922090530396 1.6510543823242188 1.3214492797851562 0.985748291015625 0.5645904541015625
        0.25025177001953125 0.7354965209960938 0.958282470703125 0.9338683485984802 0.8148422837257385 1.1383438110351562
        1.3550186157226562 1.4191131591796875 1.5137176513671875 1.8219528198242188 2.1454544067382812 2.3010942935943604
        2.352973699569702 2.2858352661132812 2.1546099185943604 1.93792724609375 1.7212448120117188 1.3367080688476562
        0.9613342881202698 0.985748291015625 0.6592025756835938 0.5676421523094177 0.7385483384132385 0.900299072265625
        1.107818603515625 0.918609619140625 0.28076934814453125 0.29297637939453125 0.5127105712890625 0.5401763916015625
        0.5981597900390625 0.7538070678710938 0.7507553100585938 0.6958236694335938 0.7751693725585938 0.5767974853515625
        0.24414825439453125 0.31128692626953125 0.4181060791015625 0.4577789604663849 0.6347885131835938 0.918609619140625
        1.101715087890625 1.1322402954101562 0.7873764038085938 0.6347885131835938 0.793479859828949 0.7690659165382385
        0.7385482788085938 0.6988754272460938 5.795463562011719 5.844291687011719 5.96331787109375 6.09759521484375
        6.04876708984375 5.694755554199219 5.316322326660156 5.136268615722656 4.998931884765625 4.788352966308594
        4.6143951416015625 4.5258941650390625 4.4465484619140625 4.348884582519531 4.260383605957031 4.214607238769531
        4.181037902832031 4.0833740234375 3.9613037109375 3.9307861328125 3.9857177734375 3.958251953125
        3.7202072143554688 3.4058682918548584 3.1983413696289062 3.027435302734375 2.7954940795898438 2.5177764892578125
        2.4384307861328125 2.8687362670898438 3.109832763671875 3.1769790649414062 3.1739273071289062 3.1495132446289062
        3.1800308227539062 3.2074966430664062 3.2532730102539062 3.2715835571289062 3.3997652530670166 3.7232589721679688
        3.933837890625 3.8178634643554688 3.756828546524048 3.8819580078125 3.8575363159179688 3.6957931518554688
        3.5828704833984375 3.4363861083984375 3.1556167602539062 2.7588729858398438 2.2919390201568604 1.7853317260742188
        1.2756729125976562 0.7965316772460938 0.8392563462257385 1.0711976289749146 1.1352920532226562 1.3275527954101562
        1.8005905151367188 1.7975387573242188 1.049835205078125 0.5035552978515625 0.961334228515625 1.6174774169921875
        2.117980718612671 2.4323272705078125 2.6520614624023438 2.911468505859375 3.1800308227539062 3.2898941040039062
        3.3021011352539062 3.4211273193359375 3.6805343627929688 3.9796142578125 4.181037902832031 4.226814270019531
        4.196296691894531 4.132209777832031 4.007080078125 3.7781906127929688 3.3814544677734375 2.911468505859375
        2.5421905517578125 2.3987579345703125 2.5086212158203125 2.6886825561523438 2.8168563842773438 2.8412704467773438
        2.8687362670898438 2.874847412109375 2.7771835327148438 2.6673202514648438 2.5482940673828125 2.288886785507202
        1.99591064453125 2.2248001098632812 2.6764755249023438 2.7985458374023438 2.4658966064453125 2.2248001098632812
        2.1820755004882812 2.1698684692382812 2.11798095703125 2.06915283203125 2.05694580078125 1.96844482421875
        1.8036422729492188 1.467941403388977 0.36011505126953125 0.6469955444335938 0.6347885131835938 0.869773805141449
        0.8941956162452698 0.7354965209960938 0.6347885131835938 0.946075439453125 1.3183975219726562 1.4679412841796875
        1.617477297782898 1.8372116088867188 2.00506591796875 2.05389404296875 2.00201416015625 1.93182373046875
        1.8707809448242188 1.8158493041992188 1.6663131713867188 1.3489151000976562 0.988800048828125 0.909454345703125
        0.7965316772460938 0.5951080322265625 0.7538070678710938 0.8026351928710938 0.994903564453125 0.6469955444335938
        0.31433868408203125 0.6073150634765625 0.8331528306007385 0.8545150756835938 0.8423080444335938 0.8545150756835938
        0.790428102016449 0.8423080444335938 1.031524658203125 0.9796447157859802 0.6469955444335938 0.4852447509765625
        0.4791412353515625 0.6592026352882385 0.8392563462257385 0.955230712890625 0.973541259765625 1.013214111328125
        0.8087387084960938 0.5340728759765625 0.6103668212890625 0.7873764038085938 0.8178940415382385 0.8301010727882385
        6.6042022705078125 6.735435485839844 6.704917907714844 6.6072540283203125 6.4424591064453125 6.189155578613281
        5.96026611328125 5.792411804199219 5.5604705810546875 5.267494201660156 5.075225830078125 5.020294189453125
        4.995880126953125 4.925689697265625 4.837181091308594 4.760887145996094 4.663230895996094 4.4831695556640625
        4.269538879394531 4.174934387207031 4.220710754394531 4.220710754394531 3.9979248046875 3.6805343627929688
        3.5065765380859375 3.4424896240234375 3.2959976196289062 3.061004638671875 2.887054443359375 2.984710693359375
        3.1281509399414062 3.2044448852539062 3.286842107772827 3.3692400455474854 3.4669036865234375 3.4638519287109375
        3.4577484130859375 3.4119720458984375 3.4485933780670166 3.711052179336548 3.955200433731079 4.06201171875
        4.293952941894531 4.5136871337890625 4.278694152832031 3.8483810424804688 3.6713790893554688 3.5920257568359375
        3.3814544677734375 3.024383544921875 2.5635528564453125 2.1454544067382812 1.7548141479492188 1.1566543579101562
        0.875885009765625 1.113922119140625 1.1993789672851562 1.2634658813476562 1.4954071044921875 1.7517623901367188
        1.2512588500976562 0.4974517822265625 0.6317367553710938 1.1963272094726562 1.7273483276367188 2.09356689453125
        2.3957061767578125 2.7222518920898438 3.015228271484375 3.2319107055664062 3.3448257446289062 3.4150238037109375
        3.5798187255859375 3.7873458862304688 3.91552734375 3.9918212890625 4.0284423828125 3.9918212890625
        3.9033203125 3.7080001831054688 3.2410659790039062 2.7130966186523438 2.4414825439453125 2.3957061767578125
        2.4140167236328125 2.4933624267578125 2.5788116455078125 2.6581649780273438 2.8656845092773438 3.067108154296875
        2.969451904296875 2.5849151611328125 2.3071975708007812 2.09051513671875 1.99896240234375 2.2400588989257812
        2.5666046142578125 2.7314071655273438 2.5971221923828125 2.3804473876953125 2.2186965942382812 2.1637649536132812
        2.1393508911132812 2.10577392578125 2.09356689453125 1.92877197265625 1.8433152437210083 1.7120895385742188
        1.034576416015625 1.025421142578125 0.8606185913085938 0.9277649521827698 1.120025634765625 1.2634658813476562
        1.086456298828125 0.9399719834327698 1.2360000610351562 1.5198211669921875 1.7273483276367188 1.9043580293655396
        1.95013427734375 1.96234130859375 1.8005905151367188 1.7151414155960083 1.6296920776367188 1.6876755952835083
        1.6022186279296875 1.1963272094726562 0.936920166015625 0.8667221069335938 0.5706939697265625 0.4882965087890625
        0.6347885131835938 0.5798492431640625 0.7690658569335938 0.5005035400390625 0.5432281494140625 0.7141342163085938
        0.8453598022460938 0.897247314453125 0.943023681640625 0.988800048828125 0.9521790146827698 1.071197509765625
        1.3214492797851562 1.3946990966796875 1.1474990844726562 0.8301010131835938 0.7507553696632385 0.9033508896827698
        1.1261367797851562 1.113922119140625 0.991851806640625 0.994903564453125 0.955230712890625 0.8117904663085938
        0.6408920884132385 0.793479859828949 0.943023681640625 1.110870361328125 6.985687255859375 7.095550537109375
        6.997894287109375 6.857505798339844 6.677452087402344 6.5126495361328125 6.4302520751953125 6.286811828613281
        5.95111083984375 5.6184539794921875 5.4902801513671875 5.4963836669921875 5.4963836669921875 5.4628143310546875
        5.4109344482421875 5.316322326660156 5.145423889160156 4.913482666015625 4.669334411621094 4.5289459228515625
        4.5289459228515625 4.4923248291015625 4.254280090332031 3.9521484375 3.8209152221679688 3.8178634643554688
        3.7293624877929688 3.5218353271484375 3.2624282836914062 3.088470458984375 3.112884521484375 3.2258071899414062
        3.4058685302734375 3.6286544799804688 3.8026046752929688 3.8392257690429688 3.7934494018554688 3.6805343627929688
        3.6317059993743896 3.8453290462493896 4.245124816894531 4.6143951416015625 4.873809814453125 4.855492115020752
        4.4953765869140625 4.031494140625 3.6805343627929688 3.4516448974609375 3.3936614990234375 3.3143081665039062
        2.993865966796875 2.6154327392578125 2.2431106567382812 1.6907272338867188 1.1322402954101562 1.2024307250976562
        1.3214492797851562 1.3763885498046875 1.3397598266601562 1.6113739013671875 1.5442352294921875 1.001007080078125
        0.5066070556640625 0.4455718994140625 0.982696533203125 1.6083221435546875 2.1332473754882812 2.5482940673828125
        2.8595809936523438 3.122039794921875 3.2929458618164062 3.3326187133789062 3.3753509521484375 3.4882659912109375
        3.5981292724609375 3.6988449096679688 3.7537765502929688 3.6988449096679688 3.5554046630859375 3.2990493774414062
        2.899261474609375 2.4933624267578125 2.3285598754882812 2.4231719970703125 2.4262237548828125 2.3712844848632812
        2.4109652042388916 2.5543975830078125 2.8443222045898438 3.109832763671875 3.070159912109375 2.5635528564453125
        2.1637649536132812 1.9440308809280396 2.08135986328125 2.3133010864257812 2.5269317626953125 2.7039413452148438
        2.6947860717773438 2.4567413330078125 2.2553176879882812 2.1973342895507812 2.1759722232818604 2.1424026489257812
        2.05999755859375 1.8341598510742188 1.6357954740524292 1.5808563232421875 1.7609176635742188 1.1719131469726562
        0.891143798828125 1.0925599336624146 1.2207412719726562 1.4282684326171875 1.6724166870117188 1.4008026123046875
        1.2726211547851562 1.510665774345398 1.7578659057617188 1.87994384765625 1.87689208984375 1.8677291870117188
        1.8097457885742188 1.6876754760742188 1.4435272216796875 1.4191131591796875 1.4130096435546875 1.098663330078125
        0.958282470703125 0.927764892578125 0.3845367431640625 0.23499298095703125 0.32349395751953125 0.24414823949337006
        0.4150543212890625 0.33570098876953125 0.4760894775390625 0.6592026352882385 0.7995834350585938 0.8789367079734802
        1.052886962890625 1.2146377563476562 1.1993789672851562 1.2939834594726562 1.5350799560546875 1.6785202026367188
        1.5564422607421875 1.2451553344726562 1.1993789672851562 1.3458632230758667 1.4954071044921875 1.2451553344726562
        1.068145751953125 1.092559814453125 1.1291885375976562 1.092559814453125 0.891143798828125 0.900299072265625
        1.101715087890625 1.3641738891601562 6.881927490234375 7.040618896484375 7.083343505859375 7.052825927734375
        6.949066162109375 6.936859130859375 6.985687255859375 6.765953063964844 6.299018859863281 5.96636962890625
        5.88397216796875 5.89312744140625 5.87786865234375 5.841239929199219 5.816825866699219 5.737480163574219
        5.5360565185546875 5.252235412597656 4.986724853515625 4.846336364746094 4.809715270996094 4.693748474121094
        4.4038238525390625 4.104736328125 4.0101318359375 4.031494140625 3.9552001953125 3.8056564331054688
        3.6225509643554688 3.4546966552734375 3.3753507137298584 3.3906097412109375 3.5401458740234375 3.7903976440429688
        3.982666015625 4.03759765625 4.01318359375 3.927734375 3.903320074081421 4.11083984375
        4.547256946563721 4.983673095703125 5.145423889160156 4.968414306640625 4.654075622558594 4.321418762207031
        3.9429931640625 3.6500167846679688 3.6439132690429688 3.6927413940429688 3.4791107177734375 3.070159912109375
        2.5849151611328125 2.108825922012329 1.6235885620117188 1.4008026123046875 1.4130096435546875 1.4465789794921875
        1.2878799438476562 1.3489151000976562 1.7151412963867188 1.7822799682617188 1.4557342529296875 0.7843246459960938
        0.4333648681640625 1.1383438110351562 1.7426071166992188 2.1851272583007812 2.4720001220703125 2.7283554077148438
        2.914520263671875 2.993865966796875 3.051849365234375 3.1312026977539062 3.2319107055664062 3.3295669555664062
        3.3448257446289062 3.2776870727539062 3.1403579711914062 2.908416748046875 2.6368026733398438 2.3865509033203125
        2.2492141723632812 2.3285598754882812 2.4781036376953125 2.4506378173828125 2.3865509033203125 2.5055694580078125
        2.7741317749023438 3.003021240234375 2.996917724609375 2.6642684936523438 2.1881790161132812 1.92877197265625
        2.1576614379882812 2.3804473876953125 2.4933624267578125 2.6337509155273438 2.6825790405273438 2.5299835205078125
        2.3987579345703125 2.3682327270507812 2.3133010864257812 2.215644598007202 1.99285888671875 1.6724166870117188
        1.4038543701171875 1.4069061279296875 1.8463668823242188 1.3946990966796875 1.019317626953125 1.2085342407226562
        1.2573624849319458 1.3702774047851562 1.7487106323242188 1.8463668823242188 1.6724166870117188 1.6205291748046875
        1.7273483276367188 1.7914352416992188 1.7151412963867188 1.602218508720398 1.7151412963867188 1.5961151123046875
        1.3306045532226562 1.2939834594726562 1.2329483032226562 0.991851806640625 1.016265869140625 0.900299072265625
        0.4638824164867401 0.15564727783203125 0.34790802001953125 0.08544921875 0.21057893335819244 0.21057891845703125
        0.32044219970703125 0.5829010009765625 0.8239974975585938 0.994903564453125 1.2451553344726562 1.4465789794921875
        1.4252166748046875 1.4740447998046875 1.6602096557617188 1.7975387573242188 1.7975387573242188 1.596114993095398
        1.5900115966796875 1.8433151245117188 1.98065185546875 1.6205291748046875 1.2695693969726562 1.2604141235351562
        1.2726211547851562 1.2665177583694458 1.089508056640625 1.058990478515625 1.2024307250976562 1.4557342529296875
        6.680503845214844 6.906341552734375 7.077239990234375 7.199317932128906 7.263404846191406 7.327491760253906
        7.296974182128906 7.028411865234375 6.677452087402344 6.4821319580078125 6.3814239501953125 6.268501281738281
        6.146430969238281 6.06402587890625 6.04571533203125 6.01519775390625 5.856498718261719 5.5665740966796875
        5.322425842285156 5.218666076660156 5.117950439453125 4.889068603515625 4.5716705322265625 4.306159973144531
        4.211555480957031 4.184089660644531 4.0711669921875 3.927734375 3.7873458862304688 3.6500167846679688
        3.5554046630859375 3.5401458740234375 3.6744308471679688 3.8453292846679688 3.93994140625 3.9796142578125
        4.0040283203125 4.0528564453125 4.104736328125 4.199348449707031 4.4740142822265625 4.889068603515625
        5.105743408203125 4.950103759765625 4.681541442871094 4.4740142822265625 4.232917785644531 4.0833740234375
        4.126106262207031 4.184089660644531 3.994873046875 3.4821624755859375 2.8168563842773438 2.2553176879882812
        1.88299560546875 1.6602096557617188 1.5625457763671875 1.5472869873046875 1.3763885498046875 1.2909317016601562
        1.8616256713867188 2.3621292114257812 2.10577392578125 1.2970352172851562 0.25940704345703125 0.8484115600585938
        1.2970352172851562 1.6724166870117188 1.95928955078125 2.2034378051757812 2.3834991455078125 2.5208282470703125
        2.6337509155273438 2.7283554077148438 2.8595809936523438 2.969451904296875 2.957244873046875 2.902313232421875
        2.8138046264648438 2.6398544311523438 2.4689483642578125 2.3285598754882812 2.2003860473632812 2.2064895629882812
        2.4079132080078125 2.5543975830078125 2.5055694580078125 2.4994661808013916 2.6429061889648438 2.8443219661712646
        2.917572021484375 2.8077011108398438 2.313300848007202 2.00201416015625 2.1973342895507812 2.3926544189453125
        2.4170684814453125 2.5879669189453125 2.6551132202148438 2.6429061889648438 2.6032257080078125 2.6001739501953125
        2.5147247314453125 2.3590774536132812 2.02642822265625 1.5839080810546875 1.2390518188476562 1.2878799438476562
        1.4984588623046875 0.888092041015625 0.909454345703125 1.1871719360351562 1.2604141235351562 1.4374237060546875
        1.7731246948242188 1.92572021484375 1.97149658203125 1.89825439453125 1.7853317260742188 1.7975388765335083
        1.6266403198242188 1.379440188407898 1.4954071044921875 1.3885955810546875 1.1841201782226562 1.2207412719726562
        1.1902236938476562 0.976593017578125 0.967437744140625 0.8148422241210938 0.4821929931640625 0.25940704345703125
        0.3997955322265625 0.25330352783203125 0.19532012939453125 0.15259552001953125 0.35095977783203125 0.5890045166015625
        0.7843246459960938 1.062042236328125 1.3275527954101562 1.4648895263671875 1.4862518310546875 1.5594940185546875
        1.7059860229492188 1.7914351224899292 1.8280564546585083 1.7426071166992188 1.7426071166992188 1.87384033203125
        2.06915283203125 2.08441162109375 1.6327438354492188 1.3855438232421875 1.4221649169921875 1.477096438407898
        1.437423586845398 1.3183975219726562 1.2421035766601562 1.4832000732421875 6.329536437988281 6.689659118652344
        6.973480224609375 7.226783752441406 7.4312591552734375 7.4678802490234375 7.339698791503906 7.187110900878906
        7.092498779296875 7.031463623046875 6.872772216796875 6.5889434814453125 6.335639953613281 6.219673156738281
        6.198310852050781 6.134223937988281 5.93585205078125 5.667289733886719 5.5024871826171875 5.4628143310546875
        5.313270568847656 4.986724853515625 4.654075622558594 4.4709625244140625 4.4496002197265625 4.4434967041015625
        4.330574035644531 4.168830871582031 3.994873046875 3.8392257690429688 3.7354660034179688 3.6530685424804688
        3.6744308471679688 3.8056564331054688 3.9185791015625 3.9857177734375 4.068115234375 4.193244934082031
        4.242073059082031 4.208503723144531 4.306159973144531 4.6021881103515625 4.861595153808594 4.873810291290283
        4.770042419433594 4.696800231933594 4.5686187744140625 4.5014801025390625 4.632713317871094 4.693748474121094
        4.327522277832031 3.6713790893554688 3.067108154296875 2.4781036376953125 2.03558349609375 1.8280562162399292
        1.6754683256149292 1.5625457763671875 1.440475583076477 1.5198211669921875 2.05694580078125 2.3651809692382812
        2.1576614379882812 1.6113739013671875 0.8056869506835938 0.3997955322265625 0.31433868408203125 0.5737457275390625
        1.065093994140625 1.5594940185546875 1.93487548828125 2.1698684692382812 2.3071975708007812 2.4292755126953125
        2.5696563720703125 2.6184844970703125 2.5818634033203125 2.5605010986328125 2.5116729736328125 2.4048614501953125
        2.3407669067382812 2.2980422973632812 2.2003860473632812 2.1485061645507812 2.2736282348632812 2.5360870361328125
        2.6154327392578125 2.6062774658203125 2.6459579467773438 2.7893905639648438 2.917572021484375 2.8626327514648438
        2.4323272705078125 2.07525634765625 2.1851272583007812 2.352973699569702 2.304145574569702 2.5482940673828125
        2.6551132202148438 2.7222518920898438 2.7954940795898438 2.7863388061523438 2.7161483764648438 2.5757598876953125
        2.2400588989257812 1.6876754760742188 1.4252166748046875 1.1261367797851562 0.4699859619140625 0.4150543212890625
        0.9826964735984802 1.1749649047851562 1.2848281860351562 1.525924563407898 1.8341598510742188 1.8402633666992188
        1.8005905151367188 1.8585740327835083 1.7304000854492188 1.6968307495117188 1.5198211669921875 1.2268447875976562
        1.3092422485351562 1.2512588500976562 1.025421142578125 1.098663330078125 1.1383438110351562 0.936920166015625
        0.875885009765625 0.6714096069335938 0.3875885009765625 0.33875274658203125 0.4608306884765625 0.4120025634765625
        0.3875885009765625 0.34485626220703125 0.5005035400390625 0.5767974853515625 0.6775131225585938 0.9918518662452698
        1.2695693969726562 1.2878799438476562 1.3153457641601562 1.516769289970398 1.6998825073242188 1.7609176635742188
        1.7975387573242188 1.7975387573242188 1.7700728178024292 1.4984588623046875 1.7304000854492188 2.2980422973632812
        1.9501343965530396 1.4679412841796875 1.480148196220398 1.5594940185546875 1.6022186279296875 1.4435272216796875
        1.3122940063476562 1.5167694091796875 5.862602233886719 6.241035461425781 6.5614776611328125 6.863609313964844
        7.113861083984375 7.232887268066406 7.266456604003906 7.306129455566406 7.330543518066406 7.303077697753906
        7.156593322753906 6.836143493652344 6.4699249267578125 6.262397766113281 6.192207336425781 6.06097412109375
        5.810722351074219 5.5787811279296875 5.5269012451171875 5.5604705810546875 5.4292449951171875 5.075225830078125
        4.751731872558594 4.651023864746094 4.696800231933594 4.718162536621094 4.626609802246094 4.4282379150390625
        4.159675598144531 3.9246826171875 3.8239669799804688 3.7903976440429688 3.775139093399048 3.8605880737304688
        4.0040283203125 4.1016845703125 4.220710754394531 4.364143371582031 4.3824615478515625 4.275642395019531
        4.220710754394531 4.293952941894531 4.5014801025390625 4.818870544433594 5.090484619140625 5.142372131347656
        4.959259033203125 4.852439880371094 4.980621337890625 4.873809814453125 4.239021301269531 3.5920257568359375
        3.2410659790039062 2.8443222045898438 2.3651809692382812 2.08441162109375 1.8494186401367188 1.5930633544921875
        1.495406985282898 1.8127975463867188 2.3529739379882812 2.4231719970703125 2.2583694458007812 2.1424026489257812
        2.06915283203125 1.93487548828125 1.3641738891601562 0.5188140869140625 0.20752716064453125 0.7660140991210938
        1.2237930297851562 1.5625457763671875 1.8158493041992188 1.98065185546875 2.07220458984375 2.09051513671875
        2.10577392578125 2.1820755004882812 2.2156448364257812 2.2003860473632812 2.2095413208007812 2.2125930786132812
        2.1912307739257812 2.1973342895507812 2.2522659301757812 2.4628448486328125 2.6612167358398438 2.7741317749023438
        2.7985458374023438 2.8717880249023438 2.975555419921875 2.7924423217773438 2.4750518798828125 2.1881790161132812
        2.1790237426757812 2.2583694458007812 2.2309038639068604 2.5635526180267334 2.7191998958587646 2.7253036499023438
        2.8595809936523438 2.8595809936523438 2.850425958633423 2.7649765014648438 2.4903104305267334 1.96234130859375
        1.3458633422851562 1.028472900390625 1.1505508422851562 0.6378402709960938 0.9155579209327698 1.089508056640625
        1.2512588500976562 1.5381317138671875 1.8311080932617188 1.7334518432617188 1.3702774047851562 1.3855438232421875
        1.4374237060546875 1.4770965576171875 1.4709930419921875 1.1352920532226562 1.113922119140625 1.077301025390625
        0.933868408203125 1.007110595703125 1.031524658203125 0.878936767578125 0.8026351928710938 0.5706939697265625
        0.3723297417163849 0.4791412353515625 0.5706939697265625 0.5859527587890625 0.5859527587890625 0.5401764512062073
        0.5890045762062073 0.5188140869140625 0.6439437866210938 0.918609619140625 1.1322402954101562 1.022369384765625
        0.9979552626609802 1.3306045532226562 1.6296920776367188 1.7334518432617188 1.8402634859085083 1.8677293062210083
        1.7609175443649292 1.0376280546188354 1.3702774047851562 2.3377151489257812 2.2461624145507812 1.6052703857421875
        1.4770965576171875 1.5137176513671875 1.5594940185546875 1.416061282157898 1.2482070922851562 1.4313201904296875
        5.4750213623046875 5.725273132324219 6.00299072265625 6.302070617675781 6.5706329345703125 6.784263610839844
        6.964324951171875 7.077239990234375 7.110809326171875 7.110809326171875 7.058929443359375 6.836143493652344
        6.4760284423828125 6.225776672363281 6.146430969238281 5.99078369140625 5.661186218261719 5.4170379638671875
        5.4200897216796875 5.5330047607421875 5.4963836669921875 5.252235412597656 5.017242431640625 4.892120361328125
        4.803611755371094 4.724266052246094 4.629661560058594 4.4404449462890625 4.187141418457031 4.0040283203125
        4.019287109375 4.1138916015625 4.1199951171875 4.190193176269531 4.3916168212890625 4.5136871337890625
        4.5228424072265625 4.5014801025390625 4.4160308837890625 4.281745910644531 4.232917785644531 4.318367004394531
        4.5838775634765625 5.096588134765625 5.5940399169921875 5.673393249511719 5.4139862060546875 5.267494201660156
        5.261390686035156 4.797508239746094 3.9124755859375 3.347877264022827 3.1617202758789062 2.975555419921875
        2.7100448608398438 2.5147247314453125 2.2858352661132812 2.05084228515625 1.98675537109375 2.2003860473632812
        2.5513458251953125 2.7527694702148438 2.978607177734375 3.1800308227539062 3.3753509521484375 3.1403579711914062
        2.2095413208007812 1.2298965454101562 0.6073150634765625 0.23499298095703125 0.4425201117992401 0.5371246337890625
        0.6439437866210938 0.9826964735984802 1.2848281860351562 1.4191131591796875 1.5533905029296875 1.7304000854492188
        1.8524703979492188 1.91656494140625 1.97760009765625 2.05694580078125 2.12103271484375 2.1912307739257812
        2.2766799926757812 2.4720001220703125 2.7405624389648438 2.966400146484375 3.018280029296875 2.999969482421875
        2.978607177734375 2.6856307983398438 2.3865509033203125 2.1607131958007812 2.1607131958007812 2.2278518676757812
        2.1454544067382812 2.5605010986328125 2.8412702083587646 2.7558212280273438 2.905364990234375 2.893157958984375
        2.935882806777954 2.945038080215454 2.8534774780273438 2.1851274967193604 2.1332473754882812 2.3133010864257812
        1.049835205078125 0.24720001220703125 0.6469955444335938 1.1413955688476562 1.2909317016601562 1.3153457641601562
        1.5869598388671875 1.5961151123046875 1.007110595703125 0.7293930053710938 0.936920166015625 1.1749649047851562
        1.3061904907226562 1.1597061157226562 1.028472900390625 0.878936767578125 0.8148422241210938 0.939971923828125
        0.8697738647460938 0.7751693725585938 0.7629623413085938 0.6103668212890625 0.5859527587890625 0.6530990600585938
        0.6195220947265625 0.7141342163085938 0.6530990600585938 0.6042633652687073 0.5737457275390625 0.4455718994140625
        0.5798493027687073 0.8850402235984802 0.939971923828125 0.7477035522460938 0.6653060913085938 1.025421142578125
        1.385543942451477 1.5991668701171875 1.7914351224899292 1.8463668823242188 1.5533905029296875 0.20447540283203125
        1.4008026123046875 2.09967041015625 2.2553176879882812 1.6998825073242188 1.452682375907898 1.4221649169921875
        1.5137176513671875 1.4313201904296875 1.1810684204101562 1.3031387329101562 5.163734436035156 5.203407287597656
        5.352943420410156 5.5940399169921875 5.88092041015625 6.192207336425781 6.4638214111328125 6.5889434814453125
        6.5950469970703125 6.5980987548828125 6.6072540283203125 6.4912872314453125 6.216621398925781 5.99993896484375
        5.94195556640625 5.783256530761719 5.4292449951171875 5.166786193847656 5.206459045410156 5.4597625732421875
        5.5818328857421875 5.4597625732421875 5.313270568847656 5.148475646972656 4.882965087890625 4.666282653808594
        4.5808258056640625 4.5197906494140625 4.4404449462890625 4.4099273681640625 4.5381011962890625 4.715110778808594
        4.702903747558594 4.644920349121094 4.730369567871094 4.7822489738464355 4.678489685058594 4.5533599853515625
        4.4801177978515625 4.4923248291015625 4.635765075683594 4.858543395996094 5.081329345703125 5.368202209472656
        5.679496765136719 5.792411804199219 5.667289733886719 5.5085906982421875 5.221717834472656 4.4923248291015625
        3.6774826049804688 3.2776870727539062 3.1250991821289062 2.975555419921875 2.8595809936523438 2.7375106811523438
        2.5910186767578125 2.4658966064453125 2.5086212158203125 2.6947860717773438 2.969451904296875 3.283790349960327
        3.5584564208984375 3.6133880615234375 3.7385177612304688 3.6774826049804688 3.057952880859375 2.2461624145507812
        1.6296920776367188 1.1505508422851562 1.043731689453125 1.113922119140625 0.927764892578125 0.8301010131835938
        0.9674378037452698 1.071197509765625 1.2024307250976562 1.3153457641601562 1.4587860107421875 1.6052703857421875
        1.7242964506149292 1.8372116088867188 1.95623779296875 2.09356689453125 2.2553176879882812 2.5055694580078125
        2.8046493530273438 3.042693853378296 3.146461248397827 3.115936279296875 3.012176275253296 2.6581649780273438
        2.3957061767578125 2.2095415592193604 2.1973342895507812 2.2095415592193604 2.1240921020507812 2.5543975830078125
        2.7649765014648438 2.6093292236328125 2.884002447128296 2.932830572128296 3.091522216796875 3.1617202758789062
        3.057952880859375 2.01116943359375 3.118988037109375 2.2553176879882812 0.6744613647460938 0.4547271728515625
        0.939971923828125 0.8606185913085938 0.5310211181640625 0.5188140869140625 1.022369384765625 1.1810684204101562
        0.6836166381835938 0.5005035400390625 0.6378402709960938 0.7721176147460938 1.019317626953125 1.037628173828125
        0.930816650390625 0.7110824584960938 0.7263412475585938 0.8636703491210938 0.7080307006835938 0.6439437866210938
        0.7446517944335938 0.7965316772460938 0.8270492553710938 0.5798492431640625 0.7721176147460938 0.7507553100585938
        0.5798492431640625 0.640891969203949 0.5462799072265625 0.3936919867992401 0.4425201117992401 0.7263412475585938
        0.7232894897460938 0.6317367553710938 0.5188140869140625 0.7568588256835938 1.0406800508499146 1.2573623657226562
        1.5411834716796875 1.6541060209274292 1.058990478515625 1.0681456327438354 1.92572021484375 1.90130615234375
        1.95623779296875 1.6510543823242188 1.3702774047851562 1.3153457641601562 1.4893035888671875 1.489303469657898
        1.2787246704101562 1.3519668579101562 5.023345947265625 4.901275634765625 4.907379150390625 5.020294189453125
        5.240028381347656 5.5879364013671875 5.96636962890625 6.170845031738281 6.201362609863281 6.225776672363281
        6.277656555175781 6.231880187988281 6.03045654296875 5.847343444824219 5.792411804199219 5.627616882324219
        5.273597717285156 4.998931884765625 5.026397705078125 5.325477600097656 5.5330047607421875 5.4902801513671875
        5.365150451660156 5.142372131347656 4.812767028808594 4.6082916259765625 4.6204986572265625 4.702903747558594
        4.739524841308594 4.782249450683594 4.940948486328125 5.121002197265625 5.035552978515625 4.797508239746094
        4.742576599121094 4.821922302246094 4.864646911621094 4.886016845703125 4.953155517578125 5.090484619140625
        5.291908264160156 5.4322967529296875 5.4170379638671875 5.368202209472656 5.4689178466796875 5.710014343261719
        5.91754150390625 5.804618835449219 5.136268615722656 4.263435363769531 3.7018966674804688 3.3906097412109375
        3.112884521484375 2.8260116577148438 2.6581649780273438 2.6581649780273438 2.8595809936523438 3.048797845840454
        3.1617202758789062 3.234962224960327 3.3814544677734375 3.5737152099609375 3.7018966674804688 3.7446212768554688
        3.8941650390625 4.138313293457031 4.232917785644531 3.897216796875 3.1281509399414062 2.2858352661132812
        1.7914352416992188 1.5625457763671875 1.3428114652633667 1.110870361328125 1.010162353515625 1.1017149686813354
        1.2054824829101562 1.2146377563476562 1.3153457641601562 1.4770965576171875 1.5686492919921875 1.6144256591796875
        1.7242965698242188 1.9196165800094604 2.1759719848632812 2.5116729736328125 2.8015975952148438 2.984710454940796
        3.1250991821289062 3.100677490234375 3.009124755859375 2.5055694580078125 2.1607134342193604 2.1515579223632812
        2.249213933944702 2.352973699569702 2.011169672012329 2.3987581729888916 2.4994661808013916 2.4475860595703125
        2.7314071655273438 2.969451904296875 3.146461248397827 3.2654800415039062 2.8626327514648438 1.99896240234375
        3.3845062255859375 1.7426071166992188 0.4455718994140625 0.29297637939453125 0.4425201416015625 1.043731689453125
        0.5035552978515625 0.28382110595703125 0.6042633056640625 0.6561508178710938 0.5981597900390625 0.4486236572265625
        0.5645904541015625 0.8178939819335938 0.952178955078125 0.872833251953125 0.7538070678710938 0.5706939697265625
        0.6836166381835938 0.7416000366210938 0.5676422119140625 0.6256332397460938 0.8575668334960938 1.040679931640625
        0.6927719712257385 0.7629623413085938 0.921661376953125 0.7385482788085938 0.689720094203949 0.720237672328949
        0.6530990600585938 0.3875885307788849 0.27161407470703125 0.4455718994140625 0.5523834228515625 0.5890045166015625
        0.5005035400390625 0.640891969203949 0.8392562866210938 0.897247314453125 1.2237930297851562 1.4252166748046875
        0.6286849975585938 1.9318236112594604 2.09661865234375 1.6693649291992188 1.6205291748046875 1.5594940185546875
        1.2634658813476562 1.062042236328125 1.1658096313476562 1.3092422485351562 1.3855438232421875 1.4069061279296875
        5.050811767578125 4.937896728515625 4.797508239746094 4.730369567871094 4.831077575683594 5.151527404785156
        5.5848846435546875 5.87481689453125 5.96331787109375 6.02740478515625 6.11285400390625 6.11285400390625
        5.95416259765625 5.734428405761719 5.5665740966796875 5.365150451660156 5.096588134765625 4.919586181640625
        4.953155517578125 5.145423889160156 5.334632873535156 5.4200897216796875 5.3743133544921875 5.154579162597656
        4.876861572265625 4.748680114746094 4.794456481933594 4.910430908203125 4.980621337890625 5.041656494140625
        5.188148498535156 5.3834686279296875 5.355995178222656 5.087432861328125 4.986724853515625 5.175941467285156
        5.4414520263671875 5.648979187011719 5.764945983886719 5.786308288574219 5.807670593261719 5.829032897949219
        5.710014343261719 5.4902801513671875 5.4414520263671875 5.795463562011719 6.241035461425781 5.99993896484375
        4.876861572265625 3.8300704956054688 3.4150238037109375 3.2105484008789062 2.975555419921875 2.7375106811523438
        2.6245956420898438 2.8107528686523438 3.2990496158599854 3.6164398193359375 3.6042327880859375 3.5615079402923584
        3.720207452774048 3.9429931640625 4.104736328125 4.303108215332031 4.5838775634765625 4.843284606933594
        5.072174072265625 4.937896728515625 3.9033203125 2.4811553955078125 1.7181930541992188 1.4923553466796875
        1.4130096435546875 1.3489151000976562 1.3092422485351562 1.3733367919921875 1.3763885498046875 1.3214492797851562
        1.379440188407898 1.5045623779296875 1.562545895576477 1.5900115966796875 1.6876755952835083 1.8402633666992188
        2.02032470703125 2.304145574569702 2.6276473999023438 2.8717880249023438 3.048797607421875 3.036590576171875
        2.911468505859375 2.5177767276763916 2.02032470703125 2.087463617324829 2.298042058944702 2.3133010864257812
        1.7059860229492188 2.2064895629882812 2.1759719848632812 1.8280562162399292 2.6368026733398438 2.758873224258423
        2.926727294921875 3.115936040878296 2.2705764770507812 2.1271438598632812 3.3967132568359375 1.89520263671875
        1.1780166625976562 1.4526824951171875 1.6388473510742188 0.958282470703125 0.28382110595703125 0.6103668212890625
        0.936920166015625 0.5035552978515625 0.26551055908203125 0.3997955322265625 0.5615386962890625 0.921661376953125
        0.946075439453125 0.6378402709960938 0.5157623291015625 0.5645904541015625 0.6988754272460938 0.6439437866210938
        0.6408920288085938 0.7354965209960938 1.001007080078125 1.004058837890625 0.4058990478515625 1.031524658203125
        0.8239974975585938 0.7965316772460938 0.7751693725585938 0.7141342163085938 0.7660141587257385 0.5432281494140625
        0.28076934814453125 0.29907989501953125 0.4882965385913849 0.5188140869140625 0.4303131103515625 0.5981597900390625
        0.7904281616210938 0.7782211303710938 0.976593017578125 1.2604141235351562 0.7568588256835938 1.90740966796875
        2.212592840194702 1.6296920776367188 1.3916473388671875 1.5350799560546875 1.2512587308883667 0.827049195766449
        0.6378402709960938 0.8148422241210938 1.1993789672851562 1.3855438232421875 5.117950439453125 5.209510803222656
        5.081329345703125 4.910430908203125 4.928741455078125 5.154579162597656 5.4597625732421875 5.682548522949219
        5.792411804199219 5.847343444824219 5.88397216796875 5.92669677734375 5.90228271484375 5.710014343261719
        5.4048309326171875 5.090484619140625 4.821922302246094 4.690696716308594 4.727317810058594 4.849388122558594
        5.017242431640625 5.218666076660156 5.319374084472656 5.188148498535156 4.962310791015625 4.873809814453125
        4.940948486328125 5.081329345703125 5.209510803222656 5.331581115722656 5.4933319091796875 5.722221374511719
        5.862602233886719 5.771049499511719 5.700859069824219 5.865653991699219 6.11590576171875 6.299018859863281
        6.344795227050781 6.213569164276123 6.03961181640625 5.95721435546875 5.871757507324219 5.642875671386719
        5.4841766357421875 5.89312744140625 6.5401153564453125 6.180000305175781 4.6113433837890625 3.3021011352539062
        2.874847412109375 2.7405624389648438 2.7191998958587646 2.8077011108398438 2.945037841796875 3.2685317993164062
        3.7141036987304688 3.8148117065429688 3.848381280899048 4.0162353515625 4.205451965332031 4.257331848144531
        4.245124340057373 4.364143371582031 4.5777740478515625 4.715110778808594 4.950103759765625 5.020294189453125
        4.153572082519531 2.8290634155273438 2.00811767578125 1.6174774169921875 1.4893035888671875 1.5228729248046875
        1.5320281982421875 1.5289764404296875 1.5411834716796875 1.5411834716796875 1.5289764404296875 1.5655975341796875
        1.599166989326477 1.6174774169921875 1.7273482084274292 1.87689208984375 2.014220952987671 2.1607134342193604
        2.4079132080078125 2.743614435195923 2.966400146484375 3.009124755859375 2.8321151733398438 2.5757598876953125
        2.3163528442382812 2.2583694458007812 2.3743438720703125 2.2309038639068604 1.7487105131149292 2.3194046020507812
        2.04473876953125 1.1474990844726562 2.5574493408203125 2.5879669189453125 2.01422119140625 2.5086212158203125
        1.8707810640335083 1.6571578979492188 3.5096282958984375 2.5055694580078125 2.01116943359375 1.8189010620117188
        1.2848281860351562 0.5920562744140625 0.3814849853515625 0.6286849975585938 1.065093994140625 1.1780166625976562
        0.7873764038085938 0.3967437744140625 0.5981597900390625 0.994903564453125 0.918609619140625 0.5066070556640625
        0.4974517822265625 0.6347885131835938 0.5981597900390625 0.6500473022460938 0.885040283203125 0.7965316772460938
        1.028472900390625 0.5127105712890625 0.979644775390625 1.001007080078125 0.900299072265625 0.7171859741210938
        0.7690658569335938 0.7446517944335938 0.7202377319335938 0.7019271850585938 0.5096588134765625 0.4577789306640625
        0.4974517822265625 0.4425201416015625 0.35095977783203125 0.4913482666015625 0.7110824584960938 0.7721176147460938
        0.799583375453949 0.991851806640625 0.8514633178710938 1.5381317138671875 2.1271440982818604 1.8646775484085083
        1.3977508544921875 1.4191131591796875 1.2665176391601562 0.7751693725585938 0.27466583251953125 0.4760894775390625
        0.909454345703125 1.080352783203125 5.182044982910156 5.3926239013671875 5.316322326660156 5.099639892578125
        5.111846923828125 5.285804748535156 5.4048309326171875 5.4628143310546875 5.4933319091796875 5.4872283935546875
        5.4780731201171875 5.5787811279296875 5.771049499511719 5.771049499511719 5.4475555419921875 4.998932361602783
        4.666282653808594 4.5319976806640625 4.5594635009765625 4.651023864746094 4.788352966308594 4.995880126953125
        5.160682678222656 5.133216857910156 5.001983642578125 4.971466064453125 5.047760009765625 5.160682678222656
        5.313270568847656 5.5055389404296875 5.716117858886719 5.94195556640625 6.161689758300781 6.228828430175781
        6.192207336425781 6.231880187988281 6.338691711425781 6.4333038330078125 6.4210968017578125 6.2166218757629395
        5.91754150390625 5.728324890136719 5.688652038574219 5.5940399169921875 5.4780731201171875 5.92364501953125
        6.704917907714844 6.283760070800781 4.4160308837890625 2.963348388671875 2.5238800048828125 2.4994659423828125
        2.7466659545898438 3.1312026977539062 3.5065762996673584 3.8880615234375 4.031494140625 3.9857177734375
        4.1199951171875 4.3855133056640625 4.5655670166015625 4.5777740478515625 4.4709625244140625 4.4312896728515625
        4.5350494384765625 4.760887145996094 5.133216857910156 5.194252014160156 4.4129791259765625 3.3417739868164062
        2.6093292236328125 2.11187744140625 1.8250045776367188 1.7609176635742188 1.7120895385742188 1.596114993095398
        1.614425539970398 1.7090377807617188 1.6754683256149292 1.6357955932617188 1.6449508666992188 1.6602096557617188
        1.7304000854492188 1.8372116088867188 1.9714967012405396 2.1271438598632812 2.3407669067382812 2.6581649780273438
        2.908416748046875 3.009124755859375 2.893157958984375 2.8015975952148438 2.7893905639648438 2.5543975830078125
        2.5360870361328125 2.3560256958007812 2.08746337890625 2.4994659423828125 2.3071975708007812 1.4893035888671875
        2.6093292236328125 2.5330355167388916 1.3611221313476562 1.89825439453125 1.90130615234375 0.976593017578125
        3.009124755859375 2.08746337890625 1.1963272094726562 1.107818603515625 0.909454345703125 0.3936920166015625
        0.3875885009765625 0.6714096069335938 1.083404541015625 1.4221649169921875 1.4404754638671875 0.897247314453125
        0.6317367553710938 1.019317626953125 0.8423080444335938 0.4669342041015625 0.5767974853515625 0.6286849975585938
        0.5310211181640625 0.8392562866210938 1.065093994140625 0.8606185913085938 0.845359742641449 0.5096588134765625
        0.979644775390625 0.888092041015625 0.8697738647460938 0.5462799072265625 0.5981597900390625 0.6225814819335938
        0.6408920288085938 0.6286849975585938 0.5554351806640625 0.6134185791015625 0.6378402709960938 0.5066070556640625
        0.36621856689453125 0.3936920166015625 0.5615386962890625 0.6500473022460938 0.6012115478515625 0.6469955444335938
        0.7049789428710938 1.2115859985351562 1.7944871187210083 1.94708251953125 1.544235110282898 1.2939834594726562
        1.025421142578125 0.7171859741210938 0.4394683837890625 0.4394683837890625 0.5767974853515625 0.8056869506835938
        5.3987274169921875 5.5635223388671875 5.4536590576171875 5.172889709472656 5.142372131347656 5.328529357910156
        5.4139862060546875 5.343788146972656 5.221717834472656 5.111846923828125 5.038604736328125 5.081329345703125
        5.313270568847656 5.5848846435546875 5.5726776123046875 5.249183654785156 4.922637939453125 4.763938903808594
        4.727317810058594 4.751731872558594 4.837181091308594 4.989776611328125 5.081329345703125 5.063018798828125
        5.075225830078125 5.194252014160156 5.355995178222656 5.5055389404296875 5.676445007324219 5.89617919921875
        6.11895751953125 6.320381164550781 6.4973907470703125 6.5614776611328125 6.4882354736328125 6.4088897705078125
        6.3905792236328125 6.3844757080078125 6.274604797363281 5.99688720703125 5.648979187011719 5.3987274169921875
        5.325477600097656 5.298011779785156 5.334632873535156 5.88397216796875 6.6042022705078125 5.96942138671875
        4.104736328125 3.036590576171875 2.8015975952148438 2.917572021484375 3.2654800415039062 3.7141036987304688
        4.116943359375 4.324470520019531 4.327522277832031 4.251228332519531 4.306159973144531 4.5106353759765625
        4.745628356933594 4.992828369140625 5.011138916015625 4.763938903808594 4.635765075683594 4.724266052246094
        4.940948486328125 4.956207275390625 4.3916168212890625 3.5676116943359375 3.018280029296875 2.6642684936523438
        2.3163528442382812 2.063049554824829 1.9318236112594604 1.8372116088867188 1.7822799682617188 1.8250045776367188
        1.8189010620117188 1.7700730562210083 1.7670210599899292 1.7914351224899292 1.8097457885742188 1.8341599702835083
        1.93182373046875 2.12103271484375 2.3712844848632812 2.6734237670898438 2.926727294921875 3.033538818359375
        2.969451904296875 2.938934326171875 3.021331787109375 2.7863388061523438 2.7680282592773438 2.6947860717773438
        2.5543978214263916 2.7222518920898438 2.6642684936523438 2.2522659301757812 2.874847173690796 2.4506378173828125
        1.7456587553024292 1.7639694213867188 1.3061904907226562 1.7883834838867188 2.3285598754882812 1.88299560546875
        0.943023681640625 0.30518341064453125 0.25635528564453125 0.13123321533203125 0.25025177001953125 0.6622543334960938
        0.967437744140625 1.1993789672851562 1.3580703735351562 1.2634658813476562 1.101715087890625 1.095611572265625
        0.7507553100585938 0.5523834228515625 0.6653060913085938 0.6622543334960938 0.6530990600585938 1.025421142578125
        1.1932754516601562 0.8117904663085938 0.18311311304569244 1.025421142578125 0.927764892578125 0.900299072265625
        0.8087387084960938 0.4211578369140625 0.3875885009765625 0.4333648681640625 0.5310211181640625 0.6317367553710938
        0.5005035400390625 0.4974517822265625 0.5890045166015625 0.5706939697265625 0.4608306884765625 0.4150542914867401
        0.4669342041015625 0.4303131103515625 0.31739044189453125 0.36927032470703125 0.4577789306640625 0.8636703491210938
        1.3855438232421875 1.6968307495117188 1.5350799560546875 1.3763885498046875 1.058990478515625 0.909454345703125
        0.6897201538085938 0.4638824760913849 0.6469955444335938 0.6225814819335938 5.633720397949219 5.865653991699219
        5.722221374511719 5.236976623535156 4.956207275390625 5.053863525390625 5.185096740722656 5.121002197265625
        4.953155517578125 4.818870544433594 4.754783630371094 4.760887145996094 4.889068603515625 5.166786193847656
        5.4353485107421875 5.4628143310546875 5.264442443847656 5.032501220703125 4.892120361328125 4.831077575683594
        4.824974060058594 4.882965087890625 4.892120361328125 4.818870544433594 4.846336364746094 5.035552978515625
        5.270545959472656 5.4597625732421875 5.6154022216796875 5.777153015136719 5.94195556640625 6.10980224609375
        6.241035461425781 6.259346008300781 6.125068664550781 5.94805908203125 5.844291687011719 5.795463562011719
        5.679496765136719 5.3773651123046875 4.962310791015625 4.672386169433594 4.5747222900390625 4.6021881103515625
        4.931793212890625 5.734428405761719 6.302070617675781 5.5848846435546875 4.193244934082031 3.5035250186920166
        3.4821624755859375 3.7232589721679688 3.933837890625 4.138313293457031 4.324470520019531 4.5136871337890625
        4.5716705322265625 4.4251861572265625 4.358039855957031 4.5136871337890625 4.730369567871094 4.977569580078125
        5.041656494140625 4.800559997558594 4.5106353759765625 4.174934387207031 3.8697433471679688 3.7903974056243896
        3.6744308471679688 3.3570327758789062 3.097625732421875 2.926727294921875 2.6795272827148438 2.3743438720703125
        2.1820755004882812 2.1454544067382812 2.07220458984375 1.95623779296875 1.9226685762405396 1.94097900390625
        1.96539306640625 1.98980712890625 1.98370361328125 1.95013427734375 1.98370361328125 2.1362991333007812
        2.3957061767578125 2.7008895874023438 2.945038080215454 3.054901123046875 3.003021240234375 2.978606939315796
        3.061004638671875 2.914520263671875 2.935882568359375 2.957244873046875 2.899261236190796 2.975555419921875
        3.097625732421875 2.984710693359375 3.2959976196289062 2.963348627090454 2.7100448608398438 2.7863388061523438
        2.8473739624023438 2.5147247314453125 2.2400588989257812 1.7914352416992188 1.2298965454101562 0.6988754272460938
        0.4791412353515625 0.25635528564453125 0.103759765625 0.6103668212890625 0.8148422241210938 0.927764892578125
        1.1505508422851562 1.2695693969726562 1.4679412841796875 1.2573623657226562 0.8117904663085938 0.7873764038085938
        0.8270492553710938 0.8239974975585938 0.897247314453125 1.3519668579101562 1.4648895263671875 0.3906402587890625
        0.6622543334960938 1.2451553344726562 1.1444473266601562 0.933868408203125 0.5859527587890625 0.28687286376953125
        0.29602813720703125 0.31433868408203125 0.5890045166015625 0.6530990600585938 0.6195220947265625 0.5584869384765625
        0.5005035400390625 0.4425201416015625 0.4120025634765625 0.4089508354663849 0.3997955620288849 0.24109649658203125
        0.0946044921875 0.15869903564453125 0.29297637939453125 0.6012115478515625 1.1688613891601562 1.5655975341796875
        1.5808563232421875 1.6357957124710083 1.5198211669921875 1.3183975219726562 0.8392562866210938 0.6714096069335938
        0.6988754272460938 0.32959747314453125 5.780204772949219 6.143379211425781 5.96942138671875 5.319374084472656
        4.864646911621094 4.831077575683594 4.937896728515625 4.992828369140625 4.913482666015625 4.754783630371094
        4.681541442871094 4.712059020996094 4.766990661621094 4.855491638183594 5.035552978515625 5.249183654785156
        5.288856506347656 5.093536376953125 4.886016845703125 4.766990661621094 4.669334411621094 4.626609802246094
        4.5838775634765625 4.4618072509765625 4.4282379150390625 4.657127380371094 5.044708251953125 5.3987274169921875
        5.633720397949219 5.752738952636719 5.853446960449219 6.00299072265625 6.140327453613281 6.195259094238281
        6.164741516113281 6.082335948944092 5.96942138671875 5.93280029296875 5.93585205078125 5.694755554199219
        5.194252014160156 4.800559997558594 4.5747222900390625 4.4404449462890625 4.6204986572265625 5.066070556640625
        5.227821350097656 4.895172119140625 4.4038238525390625 4.162727355957031 4.312263488769531 4.4068756103515625
        4.327522277832031 4.239021301269531 4.263435363769531 4.4587554931640625 4.5930328369140625 4.5503082275390625
        4.5472564697265625 4.660179138183594 4.724266052246094 4.754783630371094 4.806663513183594 4.815818786621094
        4.5960845947265625 3.897216796875 3.082366943359375 2.7222518920898438 2.7039413452148438 2.7497177124023438
        2.8046493530273438 2.8168563842773438 2.7649765014648438 2.5940704345703125 2.3926544189453125 2.3133010864257812
        2.2553176879882812 2.1240921020507812 2.05389404296875 2.09661865234375 2.1301956176757812 2.1362991333007812
        2.1485061645507812 2.1515579223632812 2.1851272583007812 2.2858352661132812 2.4628448486328125 2.6947860717773438
        2.893158197402954 2.999969720840454 3.012176513671875 3.057952880859375 3.112884521484375 3.042694091796875
        3.106781005859375 3.1525652408599854 3.106781005859375 3.143409490585327 3.3478775024414062 3.3997650146484375
        3.6561203002929688 3.4821624755859375 3.4333343505859375 3.2532730102539062 3.5706634521484375 3.7415695190429688
        3.3021011352539062 2.3163528442382812 1.5106658935546875 0.881988525390625 0.5035552978515625 0.25635528564453125
        0.3845367431640625 0.8239974975585938 0.885040283203125 0.958282470703125 1.095611572265625 1.1871719360351562
        1.5015106201171875 1.4221649169921875 1.1688613891601562 1.007110595703125 0.921661376953125 1.110870361328125
        1.3489151000976562 1.7212448120117188 1.95013427734375 1.095611572265625 0.949127197265625 1.077301025390625
        1.2024307250976562 0.6775131225585938 0.5615386962890625 0.4364166259765625 0.32044219970703125 0.3784332275390625
        0.4211578667163849 0.5890045166015625 0.8636703491210938 0.793479859828949 0.6134186387062073 0.3814849853515625
        0.21057891845703125 0.23194122314453125 0.19532012939453125 0.0518798828125 0.14649200439453125 0.3784332275390625
        0.5798492431640625 0.7232895493507385 1.2573623657226562 1.7365036010742188 1.7670210599899292 1.7334518432617188
        1.6998825073242188 1.5686492919921875 1.3580703735351562 1.2207412719726562 0.778221070766449 0.7843246459960938
        5.633720397949219 5.91143798828125 5.740531921386719 5.215614318847656 4.818870544433594 4.690696716308594
        4.702903747558594 4.824974060058594 4.922637939453125 4.892120361328125 4.867698669433594 4.913482666015625
        4.953155517578125 4.956207275390625 4.977569580078125 5.127113342285156 5.261390686035156 5.136268615722656
        4.916534423828125 4.855491638183594 4.834129333496094 4.773094177246094 4.705955505371094 4.5930328369140625
        4.5503082275390625 4.773094177246094 5.203407287597656 5.645927429199219 5.98773193359375 6.146430492401123
        6.198310852050781 6.268501281738281 6.350898742675781 6.4210968017578125 6.4424591064453125 6.323432922363281
        6.09149169921875 5.98773193359375 6.06707763671875 5.92059326171875 5.4536590576171875 5.117950439453125
        5.041656494140625 5.111846923828125 5.355995178222656 5.3956756591796875 4.992828369140625 4.6113433837890625
        4.5289459228515625 4.5472564697265625 4.5319976806640625 4.4618072509765625 4.300056457519531 4.132209777832031
        4.1444172859191895 4.324470520019531 4.5381011962890625 4.800559997558594 5.072174072265625 5.157630920410156
        4.992828369140625 4.742576599121094 4.6082916259765625 4.724266052246094 4.690696716308594 3.9002685546875
        2.8199081420898438 2.2736282348632812 2.2064895629882812 2.2858352661132812 2.3987579345703125 2.4781036376953125
        2.5605010986328125 2.5513458251953125 2.4231719970703125 2.3163528442382812 2.2766799926757812 2.2705764770507812
        2.2919387817382812 2.3041458129882812 2.2522659301757812 2.1668167114257812 2.1729202270507812 2.2339553833007812
        2.3255081176757812 2.4445343017578125 2.5666046142578125 2.7008895874023438 2.8504257202148438 2.929779052734375
        2.963348388671875 3.118988037109375 3.2074966430664062 3.1830825805664062 3.2715835571289062 3.3234634399414062
        3.2502212524414062 3.2563247680664062 3.4760589599609375 3.6011810302734375 3.8117599487304688 3.7354660034179688
        2.914520263671875 2.890106201171875 4.092529296875 4.196296691894531 3.4180755615234375 2.4262237548828125
        1.5717010498046875 0.976593017578125 0.5767974853515625 0.4882965385913849 0.7629624009132385 1.004058837890625
        0.9704895615577698 1.086456298828125 1.1474990844726562 1.2573623657226562 1.5015106201171875 1.5442352294921875
        1.3183975219726562 1.034576416015625 0.952178955078125 1.1230850219726562 1.4618377685546875 1.90130615234375
        2.09051513671875 1.5869598388671875 0.891143798828125 0.7171859741210938 1.007110595703125 0.8606185913085938
        1.089508056640625 0.985748291015625 0.5951080322265625 0.25025177001953125 0.4791412353515625 0.8270492553710938
        1.0986634492874146 1.037628173828125 0.772117555141449 0.5005035400390625 0.20447541773319244 0.0518798828125
        0.16175079345703125 0.31739044189453125 0.7263412475585938 1.028472900390625 1.077301025390625 1.2756729125976562
        1.7151412963867188 2.1546096801757812 2.3957061767578125 2.2736282348632812 2.00506591796875 2.08441162109375
        2.02642822265625 1.8097457885742188 1.5839080810546875 1.4679412841796875 5.5787811279296875 5.703910827636719
        5.4750213623046875 5.081329345703125 4.876861572265625 4.824974060058594 4.821922302246094 4.965362548828125
        5.224769592285156 5.4200897216796875 5.4872283935546875 5.4933319091796875 5.5116424560546875 5.5085906982421875
        5.4292449951171875 5.3956756591796875 5.4597625732421875 5.3743133544921875 5.151527404785156 5.127113342285156
        5.270545959472656 5.313270568847656 5.188148498535156 4.995880126953125 4.870750427246094 4.928741455078125
        5.178993225097656 5.5360565185546875 5.92974853515625 6.247138977050781 6.3936309814453125 6.4210968017578125
        6.4119415283203125 6.4149932861328125 6.369209289550781 6.192207336425781 5.97552490234375 5.95416259765625
        6.08843994140625 5.98773193359375 5.6215057373046875 5.4414520263671875 5.5940399169921875 5.89923095703125
        6.146430969238281 5.95721435546875 5.252235412597656 4.5991363525390625 4.278694152832031 4.135261535644531
        4.08642578125 4.07421875 4.0009765625 3.930785894393921 4.0284423828125 4.174934387207031
        4.205451965332031 4.358039855957031 4.715110778808594 5.075225830078125 5.209510803222656 5.011138916015625
        4.727317810058594 4.800559997558594 4.861595153808594 4.11083984375 3.033538818359375 2.4964141845703125
        2.3957061767578125 2.3285598754882812 2.2797317504882812 2.2736284732818604 2.3041458129882812 2.2949905395507812
        2.2644729614257812 2.2614212036132812 2.2797317504882812 2.3407669067382812 2.4323272705078125 2.4597930908203125
        2.3865509033203125 2.2339553833007812 2.1546096801757812 2.2064895629882812 2.3041458129882812 2.4506378173828125
        2.6062774658203125 2.7192001342773438 2.8534774780273438 2.911468505859375 2.887054443359375 3.079315185546875
        3.2532730102539062 3.2197036743164062 3.2746353149414062 3.3692398071289062 3.3692398071289062 3.4485931396484375
        3.7141034603118896 3.8422775268554688 3.958251953125 3.6744308471679688 2.2827835083007812 3.7018966674804688
        4.5625152587890625 3.9918212890625 3.070159912109375 2.4231722354888916 1.7914352416992188 1.2360000610351562
        0.7690658569335938 0.885040283203125 1.058990478515625 1.080352783203125 1.040679931640625 1.2604141235351562
        1.3489151000976562 1.4496307373046875 1.5900115966796875 1.5167694091796875 1.3153457641601562 1.1108704805374146
        1.065093994140625 1.2421035766601562 1.5381317138671875 1.7670210599899292 1.89520263671875 1.4954071044921875
        0.8331527709960938 0.7324447631835938 0.8697738647460938 1.007110595703125 1.2604141235351562 1.3550186157226562
        0.982696533203125 0.6347885131835938 1.086456298828125 1.425216555595398 1.5289764404296875 1.4008026123046875
        1.1566543579101562 0.7904281616210938 0.5371246337890625 0.3906402587890625 0.4852447509765625 0.7873764038085938
        1.2604141235351562 1.538131833076477 1.8158494234085083 2.1820755004882812 2.5025177001953125 2.7283554077148438
        2.8656845092773438 2.972503662109375 2.7222518920898438 2.5727081298828125 2.4872589111328125 2.1942825317382812
        2.09967041015625 1.7273482084274292 5.4841766357421875 5.5177459716796875 5.285804748535156 5.001983642578125
        5.026397705078125 5.148475646972656 5.160682678222656 5.279701232910156 5.5207977294921875 5.664237976074219
        5.691703796386719 5.706962585449219 5.752738952636719 5.798515319824219 5.731376647949219 5.5635223388671875
        5.4994354248046875 5.4475555419921875 5.273597717285156 5.236976623535156 5.4506072998046875 5.6215057373046875
        5.4994354248046875 5.194252014160156 4.928741455078125 4.794456481933594 4.846336364746094 5.084381103515625
        5.4658660888671875 5.91448974609375 6.271553039550781 6.4272003173828125 6.4088897705078125 6.308174133300781
        6.137275695800781 5.91754150390625 5.813774108886719 5.96331787109375 6.131172180175781 5.92059326171875
        5.4902801513671875 5.3743133544921875 5.798515319824219 6.4485626220703125 6.775108337402344 6.170845031738281
        4.977569580078125 4.123054504394531 3.6072847843170166 3.3326187133789062 3.3295669555664062 3.3997652530670166
        3.3936614990234375 3.3906097412109375 3.5218353271484375 3.6927413940429688 3.7110519409179688 3.7568283081054688
        4.019287109375 4.5106353759765625 4.956207275390625 5.081329345703125 4.937896728515625 4.992828369140625
        5.020294189453125 4.318367004394531 3.4211270809173584 2.984710931777954 2.8687362670898438 2.7039413452148438
        2.5025177001953125 2.3651809692382812 2.3041458129882812 2.2522661685943604 2.2003860473632812 2.2309036254882812
        2.3194046020507812 2.4018096923828125 2.4475860595703125 2.4872589111328125 2.5055694580078125 2.4903106689453125
        2.4750518798828125 2.4781036376953125 2.4445343017578125 2.4842071533203125 2.6459579467773438 2.7619247436523438
        2.8504254817962646 2.911468505859375 2.926727294921875 3.076263666152954 3.231910467147827 3.1769793033599854
        3.2197036743164062 3.3600845336914062 3.4852139949798584 3.6591718196868896 3.9552001953125 4.0345458984375
        4.0345458984375 3.4058685302734375 3.4363861083984375 5.218666076660156 4.800559997558594 3.4485931396484375
        2.5635528564453125 2.09356689453125 1.7120895385742188 1.3428114652633667 0.903350830078125 1.1047667264938354
        1.2665176391601562 1.2695693969726562 1.2512587308883667 1.4557342529296875 1.6174774169921875 1.6266402006149292
        1.614425778388977 1.5015106201171875 1.3763885498046875 1.2909317016601562 1.3824920654296875 1.6418991088867188
        1.7273483276367188 1.608322262763977 1.6296920776367188 1.2451553344726562 0.5920562744140625 0.6866683959960938
        0.927764892578125 1.1474990844726562 1.3519668579101562 1.388595700263977 1.3306045532226562 1.1902236938476562
        1.3489151000976562 1.6388473510742188 1.8433152437210083 1.6998823881149292 1.5778045654296875 1.3489151000976562
        1.1871719360351562 1.071197509765625 1.101715087890625 1.3489151000976562 1.6022186279296875 1.8646774291992188
        2.2186965942382812 2.6825790405273438 3.045745849609375 3.1617202758789062 3.091522455215454 3.082366943359375
        3.057952880859375 2.7802352905273438 2.5086212158203125 2.3621292114257812 2.1668167114257812 1.8158494234085083
        5.5543670654296875 5.4200897216796875 5.169837951660156 4.989776611328125 5.056915283203125 5.111846923828125
        4.953155517578125 4.815818786621094 4.843284606933594 4.962310791015625 5.154579162597656 5.313270568847656
        5.3834686279296875 5.4841766357421875 5.5513153076171875 5.4384002685546875 5.307167053222656 5.264442443847656
        5.175941467285156 5.136268615722656 5.307167053222656 5.5177459716796875 5.4719696044921875 5.185096740722656
        4.889068603515625 4.663230895996094 4.5747222900390625 4.684593200683594 4.989776611328125 5.4139862060546875
        5.844291687011719 6.195259094238281 6.3814239501953125 6.299018859863281 5.99383544921875 5.676445007324219
        5.627616882324219 5.96331787109375 6.329535961151123 6.283760070800781 5.95416259765625 5.96636962890625
        6.741539001464844 7.9378662109375 8.0782470703125 6.228828430175781 4.4953765869140625 3.8605880737304688
        3.3631362915039062 2.975555419921875 2.890106201171875 2.884002685546875 2.941986083984375 3.118988037109375
        3.2898941040039062 3.3936614990234375 3.4852142333984375 3.4943695068359375 3.5493011474609375 3.8209149837493896
        4.251228332519531 4.660179138183594 5.017242431640625 5.301063537597656 5.172889232635498 4.504532337188721
        3.8178632259368896 3.4485931396484375 3.3021011352539062 3.100677490234375 2.8260116577148438 2.6032257080078125
        2.4781036376953125 2.4109649658203125 2.337714910507202 2.3102493286132812 2.3865509033203125 2.4903106689453125
        2.5208282470703125 2.5452423095703125 2.6490097045898438 2.7832870483398438 2.893157958984375 2.868736505508423
        2.7130966186523438 2.6215362548828125 2.7222518920898438 2.8443222045898438 2.896209716796875 2.960296392440796
        3.057952880859375 3.1373062133789062 3.1800308227539062 3.1830825805664062 3.2563250064849854 3.3509294986724854
        3.4699554443359375 3.6988449096679688 3.973510980606079 4.0955810546875 4.0406494140625 3.4363861083984375
        5.117950439453125 5.847343444824219 4.6021881103515625 3.2105484008789062 2.5269317626953125 1.99285888671875
        1.7578659057617188 1.4893035888671875 1.062042236328125 1.2298964262008667 1.4679412841796875 1.6296919584274292
        1.6144256591796875 1.6083221435546875 1.7487106323242188 1.7426071166992188 1.6510543823242188 1.5594940185546875
        1.480148434638977 1.513717532157898 1.7151412963867188 1.8463668823242188 1.6418992280960083 1.3000870943069458
        1.1810684204101562 0.927764892578125 0.6012115478515625 0.6042633056640625 0.909454345703125 1.2909317016601562
        1.3824920654296875 1.4496307373046875 1.5106658935546875 1.4221649169921875 1.3794403076171875 1.5686492919921875
        1.8372116088867188 1.7242964506149292 1.608322262763977 1.6235885620117188 1.6785202026367188 1.7090377807617188
        1.7914351224899292 1.97454833984375 2.1607131958007812 2.3010940551757812 2.5208282470703125 2.8107528686523438
        3.057952880859375 3.106781005859375 3.021331787109375 2.938934326171875 2.902313232421875 2.6490097045898438
        2.2827835083007812 2.2339553833007812 2.288886785507202 2.1759719848632812 5.4261932373046875 5.227821350097656
        5.038604736328125 4.870750427246094 4.748680114746094 4.669334411621094 4.5808258056640625 4.4221343994140625
        4.232917785644531 4.138313293457031 4.245124816894531 4.4434967041015625 4.5930328369140625 4.809715270996094
        5.066070556640625 5.078277587890625 4.919586181640625 4.849388122558594 4.843284606933594 4.831077575683594
        4.922637939453125 5.078277587890625 5.102691650390625 4.962310791015625 4.791404724121094 4.6204986572265625
        4.4587554931640625 4.3946685791015625 4.5197906494140625 4.846336364746094 5.258338928222656 5.697807312011719
        6.183052062988281 6.5095977783203125 6.4058380126953125 6.01214599609375 5.789360046386719 6.11285400390625
        6.701866149902344 6.732383728027344 6.01824951171875 5.91754150390625 7.5319671630859375 9.643852233886719
        8.441421508789062 5.243080139160156 3.9429931640625 3.8026046752929688 3.4791107177734375 3.088470458984375
        2.8595809936523438 2.8504257202148438 2.984710693359375 3.112884521484375 3.2288589477539062 3.3784027099609375
        3.5737152099609375 3.6744308471679688 3.6103360652923584 3.6439132690429688 3.970458984375 4.5167388916015625
        5.117950439453125 5.4384002685546875 5.206459045410156 4.669334411621094 4.138313293457031 3.7965009212493896
        3.6164398193359375 3.4272310733795166 3.1647720336914062 2.929779291152954 2.7588729858398438 2.6245956420898438
        2.5269317626953125 2.4597928524017334 2.4475860595703125 2.5116729736328125 2.5879666805267334 2.6642684936523438
        2.7863388061523438 2.884002685546875 2.957244873046875 2.984710693359375 2.926727294921875 2.8473739624023438
        2.8595809936523438 2.941985845565796 2.981658935546875 3.003021240234375 3.070159912109375 3.106780767440796
        3.103729248046875 3.1861343383789062 3.2929461002349854 3.2685320377349854 3.2166521549224854 3.3814544677734375
        3.6622238159179688 3.8544845581054688 3.6927413940429688 2.990814208984375 5.5970916748046875 6.3997344970703125
        5.047760009765625 3.4943695068359375 2.7283554077148438 2.2309036254882812 1.95928955078125 1.6846237182617188
        1.2939834594726562 1.3641738891601562 1.6602096557617188 1.9348756074905396 1.9196165800094604 1.6296920776367188
        1.7151412963867188 1.8280564546585083 1.7517625093460083 1.6510543823242188 1.590011715888977 1.6602096557617188
        1.8311080932617188 1.9592894315719604 1.3580703735351562 0.958282470703125 0.8270492553710938 0.6653060913085938
        0.4699859619140625 0.6958236694335938 0.955230712890625 1.1902236938476562 1.3519668579101562 1.4740447998046875
        1.528976559638977 1.4709930419921875 1.4648895263671875 1.5778045654296875 1.7151412963867188 1.5320281982421875
        1.4099578857421875 1.4557342529296875 1.6052703857421875 1.8066940307617188 2.08135986328125 2.3743438720703125
        2.5299835205078125 2.5513458251953125 2.6825790405273438 2.8534774780273438 2.941985845565796 2.899261474609375
        2.8473739624023438 2.7924423217773438 2.7863388061523438 2.6825790405273438 2.3010940551757812 2.1698684692382812
        2.3377151489257812 2.4597930908203125 5.200355529785156 5.124061584472656 5.056915283203125 4.837181091308594
        4.5533599853515625 4.330574035644531 4.150520324707031 3.9033203125 3.6256027221679688 3.4852142333984375
        3.5645599365234375 3.6591720581054688 3.5706634521484375 3.6072845458984375 4.03759765625 4.4404449462890625
        4.5228424072265625 4.5106353759765625 4.5655670166015625 4.626609802246094 4.660179138183594 4.663230895996094
        4.629661560058594 4.5777740478515625 4.5503082275390625 4.5503082275390625 4.5228424072265625 4.4496002197265625
        4.4465484619140625 4.672386169433594 5.038604736328125 5.359046936035156 5.810722351074219 6.4912872314453125
        6.839195251464844 6.3753204345703125 5.685600280761719 5.813774108886719 6.6072540283203125 6.759849548339844
        5.96026611328125 6.826988220214844 10.229804992675781 10.992767333984375 7.007049560546875 4.278694152832031
        3.7324142456054688 3.6835861206054688 3.6530685424804688 3.3112564086914062 2.963348627090454 2.7863388061523438
        2.8107528686523438 2.929779052734375 2.972503662109375 3.1525650024414062 3.5309903621673584 3.87890625
        3.96435546875 3.933837890625 4.0345458984375 4.242073059082031 4.5381011962890625 4.849388122558594
        4.944000244140625 4.705955505371094 4.306159973144531 3.98876953125 3.8056564331054688 3.6622238159179688
        3.4913177490234375 3.3173599243164062 3.1556167602539062 2.935882568359375 2.7436141967773438 2.6245956420898438
        2.5330355167388916 2.5055694580078125 2.5971221923828125 2.7436141967773438 2.8534774780273438 2.8290634155273438
        2.7985458374023438 2.908416748046875 3.024383544921875 3.057952880859375 3.030487060546875 2.993865966796875
        2.941985845565796 2.896209716796875 2.877899169921875 2.899261236190796 2.929779052734375 2.978607177734375
        3.048797607421875 3.018280029296875 2.871788263320923 2.8107528686523438 3.042694091796875 3.2563247680664062
        2.987762451171875 1.1536026000976562 5.096588134765625 7.086395263671875 5.642875671386719 3.7873458862304688
        2.935882568359375 2.5299835205078125 2.2461624145507812 1.97454833984375 1.6327438354492188 1.5472869873046875
        1.8341598510742188 2.07220458984375 1.8677291870117188 1.5045623779296875 1.7090377807617188 1.8463668823242188
        1.8433151245117188 1.7975387573242188 1.7670211791992188 1.8036422729492188 1.90435791015625 2.166816473007202
        1.2207411527633667 0.869773805141449 0.6958236694335938 0.33875274658203125 0.3875885009765625 0.4882965087890625
        0.6744613647460938 1.1291885375976562 1.2939834594726562 1.4282684326171875 1.5259246826171875 1.4832000732421875
        1.4923553466796875 1.5625457763671875 1.4893035888671875 1.2146377563476562 1.101715087890625 1.2482070922851562
        1.5320281982421875 1.8616256713867188 2.1790239810943604 2.3987579345703125 2.4964141845703125 2.5208282470703125
        2.6001739501953125 2.7283554077148438 2.7497177124023438 2.7100448608398438 2.7283554077148438 2.7375106811523438
        2.6581649780273438 2.6123809814453125 2.4872589111328125 2.3712844848632812 2.4445343017578125 2.5330352783203125
        5.121002197265625 5.163734436035156 5.011138916015625 4.5777740478515625 4.339729309082031 4.245124816894531
        4.0040283203125 3.7446212768554688 3.6133880615234375 3.5950775146484375 3.6805343627929688 3.7141036987304688
        3.5004730224609375 3.3173599243164062 3.4302825927734375 3.6011810302734375 3.6469650268554688 3.7354660034179688
        3.98876953125 4.272590637207031 4.4343414306640625 4.4648590087890625 4.4251861572265625 4.4007720947265625
        4.4068756103515625 4.4618072509765625 4.5197906494140625 4.4709625244140625 4.3733062744140625 4.4404449462890625
        4.629661560058594 4.751731872558594 5.136268615722656 6.201362609863281 7.123023986816406 6.729331970214844
        5.92974853515625 6.259346008300781 7.4068450927734375 7.647941589355469 7.214576721191406 8.639793395996094
        11.124000549316406 9.96429443359375 6.11590576171875 4.202400207519531 3.665275812149048 3.5523529052734375
        3.6469650268554688 3.5035250186920166 3.2471694946289062 2.923675537109375 2.7863388061523438 2.914520263671875
        3.039642333984375 3.1739273071289062 3.5523529052734375 4.0498046875 4.345832824707031 4.361091613769531
        4.251228332519531 4.1016845703125 4.0345458984375 4.196296691894531 4.4343414306640625 4.4496002197265625
        4.226814270019531 3.9857177734375 3.8453292846679688 3.7751388549804688 3.7110519409179688 3.6164398193359375
        3.5187835693359375 3.2990493774414062 3.015228271484375 2.8077011108398438 2.6581649780273438 2.5818634033203125
        2.6276473999023438 2.7497177124023438 2.8168563842773438 2.7588729858398438 2.7100448608398438 2.8534774780273438
        3.012176275253296 3.057952880859375 3.024383544921875 2.938934326171875 2.8015975952148438 2.6795272827148438
        2.6093292236328125 2.5818634033203125 2.6093292236328125 2.5696563720703125 2.4964141845703125 2.5055694580078125
        2.5543975830078125 2.5055694580078125 2.5849151611328125 2.6703720092773438 2.6520614624023438 1.1352920532226562
        5.679496765136719 7.251197814941406 5.340736389160156 3.7568283081054688 3.3295669555664062 3.1647722721099854
        2.8168563842773438 2.2583694458007812 1.8677291870117188 1.6968307495117188 1.8616256713867188 2.06915283203125
        1.5869598388671875 1.3458633422851562 1.7029341459274292 1.8280562162399292 1.90130615234375 2.00506591796875
        2.059997320175171 2.02337646484375 2.05389404296875 2.3071975708007812 1.2207411527633667 0.735496461391449
        0.5890045166015625 0.22278594970703125 0.4516754150390625 0.8178939819335938 0.7538071274757385 0.8484115600585938
        1.1291885375976562 1.3153457641601562 1.4008026123046875 1.4191131591796875 1.4832000732421875 1.4252166748046875
        1.1536026000976562 0.988800048828125 1.1719131469726562 1.5320281982421875 1.89215087890625 2.00506591796875
        2.03253173828125 2.10577392578125 2.2370071411132812 2.3468704223632812 2.3896026611328125 2.4109649658203125
        2.4567413330078125 2.4872589111328125 2.5086212158203125 2.5086212158203125 2.4872589111328125 2.4231719970703125
        2.4109649658203125 2.4475860595703125 2.5086212158203125 2.5330352783203125 5.227821350097656 5.294960021972656
        4.992828369140625 4.4251861572265625 4.202400207519531 4.177986145019531 3.888061761856079 3.6194915771484375
        3.5798187255859375 3.4821624755859375 3.3204116821289062 3.2166519165039062 3.033538818359375 2.926727294921875
        3.112884521484375 3.2837905883789062 3.2013931274414062 3.051849365234375 3.051849365234375 3.2227554321289062
        3.4058685302734375 3.5004730224609375 3.5462493896484375 3.6225509643554688 3.7415695190429688 3.8636395931243896
        3.9796142578125 4.03759765625 4.043701171875 4.135261535644531 4.303108215332031 4.4953765869140625
        5.053863525390625 6.161689758300781 6.973480224609375 6.634727478027344 5.93890380859375 6.183052062988281
        7.000946044921875 7.187110900878906 7.034515380859375 8.05078125 9.131141662597656 8.343757629394531
        6.256294250488281 4.644920349121094 3.833122491836548 3.5615079402923584 3.6469650268554688 3.741569757461548
        3.7018966674804688 3.4241790771484375 3.1342544555664062 3.097625732421875 3.250221014022827 3.3417739868164062
        3.5645599365234375 4.031494140625 4.4831695556640625 4.660179138183594 4.5503082275390625 4.248176574707031
        3.96435546875 3.897216796875 3.982666015625 4.0101318359375 3.9246826171875 3.7965009212493896
        3.7110519409179688 3.7049484252929688 3.7171554565429688 3.6866378784179688 3.6561203002929688 3.5493011474609375
        3.3082046508789062 3.054901123046875 2.8717880249023438 2.7619247436523438 2.7405624389648438 2.7497177124023438
        2.7130966186523438 2.673424005508423 2.6947860717773438 2.8168563842773438 2.896209716796875 2.8565292358398438
        2.795494318008423 2.7558212280273438 2.6642684936523438 2.5299835205078125 2.4079132080078125 2.3224563598632812
        2.3010940551757812 2.2186965942382812 2.10577392578125 2.1240921020507812 2.365180730819702 2.5605010986328125
        2.5208282470703125 2.4628448486328125 2.3926544189453125 1.8189010620117188 6.06707763671875 6.5706329345703125
        4.977569580078125 3.96435546875 3.5981292724609375 3.3509292602539062 2.972503662109375 2.1942825317382812
        1.6907272338867188 1.5594940185546875 1.6510543823242188 1.8677291870117188 1.416061520576477 1.2970352172851562
        1.6510543823242188 1.8066940307617188 1.93487548828125 2.1546099185943604 2.337714910507202 2.2492141723632812
        2.09967041015625 2.2003860473632812 1.3641738891601562 0.6622543334960938 0.6042633056640625 0.4058990478515625
        0.5767974853515625 1.065093994140625 1.1474990844726562 1.040679931640625 1.058990478515625 1.1627578735351562
        1.2329483032226562 1.2817764282226562 1.4160614013671875 1.3397598266601562 1.113922119140625 1.2146377563476562
        1.5686492919921875 1.8646775484085083 1.96234130859375 1.8066940307617188 1.7151412963867188 1.8311080932617188
        1.99896240234375 2.10882568359375 2.10882568359375 2.05694580078125 2.10272216796875 2.1485061645507812
        2.07830810546875 2.09356689453125 2.1851272583007812 2.2553176879882812 2.3041458129882812 2.2736282348632812
        2.2827835083007812 2.4170684814453125 5.664237976074219 5.5024871826171875 4.907379150390625 4.351936340332031
        4.254280090332031 4.226814270019531 3.7934494018554688 3.2929458618164062 3.1617202758789062 3.1586685180664062
        3.067108154296875 2.999969482421875 3.003021240234375 3.118988037109375 3.2715835571289062 3.2746353149414062
        3.2410659790039062 3.3814544677734375 3.5554046630859375 3.5096280574798584 3.3204116821289062 3.1678237915039062
        3.094573974609375 3.1342544555664062 3.2410659790039062 3.3478775024414062 3.4821624755859375 3.6103363037109375
        3.6957931518554688 3.7934494018554688 3.9429931640625 4.159675598144531 4.5747222900390625 5.224769592285156
        5.789360046386719 5.868705749511719 5.5238494873046875 5.4231414794921875 6.10369873046875 7.3458027839660645
        7.9805908203125 7.687614440917969 7.4160003662109375 7.257301330566406 6.311225891113281 5.099639892578125
        4.226814270019531 3.9002685546875 3.8453292846679688 3.936889410018921 4.0406494140625 3.9490966796875
        3.6439132690429688 3.3509292602539062 3.3356704711914062 3.4150238037109375 3.5889742374420166 3.9674072265625
        4.4496002197265625 4.806663513183594 4.861595153808594 4.5625152587890625 4.138313293457031 3.8636398315429688
        3.7446212768554688 3.6286544799804688 3.5279388427734375 3.4730072021484375 3.4211273193359375 3.4333343505859375
        3.5035245418548584 3.5493011474609375 3.5706634521484375 3.5676116943359375 3.4699556827545166 3.3021011352539062
        3.1342544555664062 2.987762212753296 2.890106201171875 2.8138046264648438 2.6947860717773438 2.6459579467773438
        2.6886825561523438 2.7558212280273438 2.7558212280273438 2.6612167358398438 2.5635528564453125 2.5391390323638916
        2.5086212158203125 2.4323272705078125 2.2919387817382812 2.1790237426757812 2.1393508911132812 2.10577392578125
        2.035583257675171 2.04779052734375 2.2461624145507812 2.5360870361328125 2.4353790283203125 2.3377151489257812
        2.02337646484375 2.8412704467773438 6.204414367675781 6.195259094238281 5.011138916015625 4.0955810546875
        3.4546966552734375 2.929779052734375 2.6245956420898438 1.96234130859375 1.4221649169921875 1.2939834594726562
        1.4252166748046875 1.6296920776367188 1.3763885498046875 1.3061904907226562 1.6418991088867188 1.7609177827835083
        1.93487548828125 2.1942825317382812 2.3834991455078125 2.2064895629882812 1.92877197265625 1.89520263671875
        1.5503387451171875 0.906402587890625 0.8606185913085938 0.5920562744140625 0.7110824584960938 1.110870361328125
        1.2482070922851562 1.1719131469726562 1.1444473266601562 1.1627578735351562 1.092559814453125 1.1841201782226562
        1.4191131591796875 1.4282684326171875 1.3519668579101562 1.5106658935546875 1.7700729370117188 1.89520263671875
        1.7914352416992188 1.6205291748046875 1.5930633544921875 1.6480025053024292 1.8036422729492188 1.87384033203125
        1.7731246948242188 1.7059860229492188 1.7029341459274292 1.7487105131149292 1.6907272338867188 1.7578659057617188
        1.95928955078125 2.1485061645507812 2.2370071411132812 2.2186965942382812 2.2248001098632812 2.2431106567382812
        6.5309600830078125 6.05792236328125 4.983673095703125 4.339729309082031 4.3763580322265625 4.348884582519531
        3.8453292846679688 3.1525650024414062 2.7314071655273438 2.6215362548828125 2.6398544311523438 2.7649765014648438
        3.1250991821289062 3.5493011474609375 3.6378097534179688 3.3753509521484375 3.082366943359375 2.963348388671875
        3.036590576171875 3.2807388305664062 3.6072845458984375 3.8148117065429688 3.8544843196868896 3.897216796875
        3.994873046875 4.080322265625 4.141365051269531 4.141365051269531 4.0650634765625 4.0589599609375
        4.318367004394531 4.632713317871094 4.5960845947265625 4.3946685791015625 4.623558044433594 5.203407287597656
        5.3743133544921875 5.108795166015625 5.786308288574219 7.8951416015625 9.079254150390625 7.910400390625
        6.756797790527344 6.747642517089844 6.295966625213623 5.298011779785156 4.5655670166015625 4.290901184082031
        4.0589599609375 3.96435546875 4.0955810546875 4.165779113769531 3.9735107421875 3.6500167846679688
        3.4974212646484375 3.5248870849609375 3.6896896362304688 3.9918212890625 4.3794097900390625 4.791404724121094
        5.050811767578125 4.910430908203125 4.4251861572265625 3.9918212890625 3.7324142456054688 3.4760589599609375
        3.2563247680664062 3.1678237915039062 3.115936279296875 3.088470697402954 3.170875310897827 3.3021011352539062
        3.3814544677734375 3.4211273193359375 3.4211273193359375 3.3722991943359375 3.2868423461914062 3.1525652408599854
        3.012176513671875 2.902313232421875 2.7893905639648438 2.7100448608398438 2.7222518920898438 2.7405624389648438
        2.6886825561523438 2.5879669189453125 2.4811553955078125 2.4079132080078125 2.3834993839263916 2.352973699569702
        2.2278518676757812 2.099670648574829 2.04779052734375 2.078307867050171 2.10882568359375 2.1729202270507812
        2.2492141723632812 2.2614212036132812 2.1698684692382812 2.3682327270507812 1.99285888671875 4.196296691894531
        5.722221374511719 5.594040393829346 4.968414306640625 4.156623840332031 3.289893865585327 2.5452423095703125
        2.1942825317382812 1.7914352416992188 1.3397598266601562 1.1352920532226562 1.3183975219726562 1.5900115966796875
        1.452682375907898 1.2329483032226562 1.6113739013671875 1.7212446928024292 1.91961669921875 2.1607131958007812
        2.1881790161132812 1.87384033203125 1.5747528076171875 1.4709930419921875 1.3275527954101562 0.9826964735984802
        0.9125061631202698 0.8484115600585938 1.040679931640625 1.3245010375976562 1.4252166748046875 1.2604141235351562
        1.2024307250976562 1.052886962890625 0.994903564453125 1.1719131469726562 1.2787246704101562 1.3641738891601562
        1.4496307373046875 1.6052703857421875 1.7365036010742188 1.7670211791992188 1.6693649291992188 1.5839080810546875
        1.5717010498046875 1.5625457763671875 1.7181930541992188 1.6388473510742188 1.4862518310546875 1.4832000732421875
        1.4282684326171875 1.5045623779296875 1.6510543823242188 1.8677291870117188 2.10577392578125 2.2766799926757812
        2.3499221801757812 2.3804473876953125 2.2980422973632812 2.02947998046875 6.4485626220703125 6.622520923614502
        5.4902801513671875 4.5075836181640625 4.4068756103515625 4.370246887207031 4.031494140625 3.5431976318359375
        3.009124755859375 2.6459579467773438 2.5971221923828125 2.8382186889648438 3.2868423461914062 3.6561203002929688
        3.6805343627929688 3.4882659912109375 3.3509292602539062 3.3051528930664062 3.2197036743164062 3.112884521484375
        3.106781005859375 3.2044448852539062 3.353980779647827 3.6378097534179688 4.0528564453125 4.4587554931640625
        4.715110778808594 4.776145935058594 4.757835388183594 4.861595153808594 5.233924865722656 5.5238494873046875
        5.215614318847656 4.657127380371094 4.736473083496094 5.4109344482421875 5.801567077636719 5.734428405761719
        6.6194610595703125 8.890045166015625 10.00091552734375 8.279670715332031 6.6042022705078125 6.5462188720703125
        6.369209289550781 5.4536590576171875 4.739524841308594 4.4312896728515625 4.174934387207031 4.019287109375
        4.0833740234375 4.226814270019531 4.156623840332031 3.8819580078125 3.6896896362304688 3.683586359024048
        3.7995529174804688 4.007080078125 4.297004699707031 4.681541442871094 5.066070556640625 5.154579162597656
        4.785301208496094 4.235969543457031 3.8239669799804688 3.4852142333984375 3.1800308227539062 2.990814208984375
        2.899261474609375 2.8473739624023438 2.887054443359375 3.030487060546875 3.1556167602539062 3.2197036743164062
        3.253272771835327 3.2715835571289062 3.2654800415039062 3.1952898502349854 3.070159912109375 2.957244873046875
        2.887054443359375 2.8199079036712646 2.8107528686523438 2.8077011108398438 2.7436141967773438 2.6520614624023438
        2.5543975830078125 2.4597930908203125 2.3590774536132812 2.2736284732818604 2.163764715194702 2.03558349609375
        1.96844482421875 2.02642822265625 2.2034378051757812 2.3896026611328125 2.3926544189453125 2.2553176879882812
        2.3529739379882812 2.2980422973632812 3.2197036743164062 5.343788146972656 5.307167053222656 5.001983642578125
        4.675437927246094 4.1077880859375 3.2502212524414062 2.4597930908203125 1.93792724609375 1.5655975341796875
        1.2085342407226562 1.049835205078125 1.2970352172851562 1.608322262763977 1.5717010498046875 1.2665177583694458
        1.6266402006149292 1.7578659057617188 1.9165648221969604 2.05084228515625 1.93487548828125 1.5076141357421875
        1.1444473266601562 0.979644775390625 0.8911438584327698 0.912506103515625 1.065093994140625 1.101715087890625
        1.1932754516601562 1.4618377685546875 1.6235885620117188 1.5411834716796875 1.4160614013671875 1.1536026000976562
        1.1963272094726562 1.2207412719726562 1.1413955688476562 1.3153457641601562 1.4648895263671875 1.5747528076171875
        1.5991668701171875 1.6357955932617188 1.5442352294921875 1.4435272216796875 1.4893035888671875 1.5381317138671875
        1.3367080688476562 1.2482070922851562 1.388595700263977 1.470992922782898 1.3458633422851562 1.4740447998046875
        1.7395553588867188 2.08135986328125 2.3285598754882812 2.4140167236328125 2.3010942935943604 2.1240921020507812
        2.03863525390625 1.91656494140625 5.746635437011719 6.778160095214844 6.271553039550781 4.959259033203125
        4.361091613769531 4.211555480957031 4.1016845703125 3.9033203125 3.5096282958984375 3.118988037109375
        2.999969482421875 3.2044448852539062 3.5126800537109375 3.6622238159179688 3.6103363037109375 3.5431976318359375
        3.5767669677734375 3.6042327880859375 3.5157318115234375 3.3875579833984375 3.2868423461914062 3.1708755493164062
        3.091522216796875 3.2105484008789062 3.6225509643554688 4.177986145019531 4.4923248291015625 4.4129791259765625
        4.272590637207031 4.333625793457031 4.669334411621094 5.053863525390625 5.078277587890625 4.968414306640625
        5.264442443847656 5.87481689453125 6.222724914550781 6.366157531738281 7.3732757568359375 9.329505920410156
        10.10772705078125 8.624534606933594 7.025360584259033 6.6103057861328125 6.5065460205078125 5.795463562011719
        4.995880126953125 4.5106353759765625 4.269538879394531 4.138313293457031 4.1199951171875 4.348884582519531
        4.4404449462890625 4.1138916015625 3.8392257690429688 3.8697431087493896 3.970458984375 4.0528564453125
        4.248176574707031 4.5930328369140625 4.968414306640625 5.224769592285156 5.130165100097656 4.6052398681640625
        3.9796142578125 3.5309908390045166 3.2013931274414062 2.920623779296875 2.7466659545898438 2.6764755249023438
        2.6642684936523438 2.7527694702148438 2.896209716796875 3.006072998046875 3.079314947128296 3.115936279296875
        3.122039556503296 3.112884521484375 3.051849365234375 2.972503662109375 2.945037841796875 2.963348388671875
        2.966400146484375 2.932830810546875 2.8565292358398438 2.7832870483398438 2.7008895874023438 2.5818631649017334
        2.4201200008392334 2.2736282348632812 2.1271438598632812 2.002014398574829 1.97149658203125 2.05389404296875
        2.2675247192382812 2.4170684814453125 2.4964141845703125 2.6459579467773438 2.07830810546875 2.4689483642578125
        4.312263488769531 4.980621337890625 5.041656494140625 4.651023864746094 4.351936340332031 3.9307861328125
        3.1678237915039062 2.4323272705078125 1.7761764526367188 1.2573623657226562 0.8636703491210938 0.885040283203125
        1.2909317016601562 1.6113739013671875 1.6327438354492188 1.4252166748046875 1.7548140287399292 1.7914351224899292
        1.8433151245117188 1.8463670015335083 1.6663131713867188 1.1627578735351562 0.8209457397460938 0.8301010131835938
        0.8453598022460938 0.897247314453125 1.1444473266601562 1.116973876953125 1.083404541015625 1.4557342529296875
        1.6144256591796875 1.6022186279296875 1.4893035888671875 1.3611221313476562 1.2939834594726562 1.2787246704101562
        1.2421035766601562 1.3306045532226562 1.4618377685546875 1.4893035888671875 1.5869598388671875 1.6754684448242188
        1.4648895263671875 1.3061904907226562 1.5289764404296875 1.4160614013671875 1.068145751953125 1.043731689453125
        1.4252166748046875 1.6907272338867188 1.7761764526367188 1.87384033203125 2.01422119140625 2.1942825317382812
        2.4048614501953125 2.4323272705078125 2.2644729614257812 2.06915283203125 1.88604736328125 1.8005905151367188
        4.6113433837890625 6.03350830078125 6.857505798339844 5.810722351074219 4.354988098144531 3.8209152221679688
        3.9674072265625 4.104736328125 4.0345458984375 3.8483810424804688 3.6469650268554688 3.5920257568359375
        3.6347579956054688 3.6103363037109375 3.5676116943359375 3.6439132690429688 3.8209149837493896 3.8666915893554688
        3.7171554565429688 3.6072845458984375 3.5828704833984375 3.5187835693359375 3.4669036865234375 3.5706634521484375
        3.9368896484375 4.5381011962890625 4.989776611328125 4.977569580078125 4.782249450683594 4.806663513183594
        5.084381103515625 5.313270568847656 5.298011779785156 5.246131896972656 5.3926239013671875 5.630668640136719
        5.764945983886719 6.03656005859375 6.997894287109375 8.447525024414062 9.125038146972656 8.609268188476562
        7.5106048583984375 6.793418884277344 6.5309600830078125 6.05181884765625 5.316322326660156 4.681541442871094
        4.4312896728515625 4.397720813751221 4.3885650634765625 4.696800231933594 4.913482666015625 4.5197906494140625
        4.0772705078125 4.0345458984375 4.126106262207031 4.159675598144531 4.278694152832031 4.5747222900390625
        4.892120361328125 5.185096740722656 5.4017791748046875 5.114898681640625 4.303108215332031 3.5798187255859375
        3.1983413696289062 2.911468505859375 2.6520614624023438 2.5147247314453125 2.4628448486328125 2.4842071533203125
        2.6032257080078125 2.7588729858398438 2.923675537109375 3.036590576171875 3.048797607421875 3.024383544921875
        3.006072998046875 2.975555419921875 2.984710693359375 3.085418701171875 3.1434097290039062 3.088470458984375
        2.987762451171875 2.914520263671875 2.8504257202148438 2.6551132202148438 2.4506378173828125 2.3651809692382812
        2.1851274967193604 1.9989625215530396 1.93487548828125 1.9592894315719604 2.04779052734375 2.11798095703125
        2.5116729736328125 2.00811767578125 1.96844482421875 3.8239669799804688 4.327522277832031 4.678489685058594
        4.757835388183594 4.623558044433594 4.361091613769531 3.8636398315429688 3.1647720336914062 2.6276473999023438
        1.97454833984375 1.1688613891601562 0.6897201538085938 0.930816650390625 1.3550186157226562 1.596114993095398
        1.6693649291992188 1.5869598388671875 1.8585740327835083 1.7944871187210083 1.7365037202835083 1.6449508666992188
        1.431320071220398 0.921661376953125 0.8026351928710938 0.997955322265625 0.982696533203125 0.949127197265625
        1.110870361328125 0.881988525390625 0.8392562866210938 1.2726211547851562 1.6113739013671875 1.5564422607421875
        1.3336563110351562 1.3946990966796875 1.4404754638671875 1.5076141357421875 1.4832000732421875 1.4191131591796875
        1.3702774047851562 1.3214492797851562 1.2329483032226562 1.1322402954101562 1.2207412719726562 1.068145751953125
        1.089508056640625 1.007110595703125 0.943023681640625 1.2451553344726562 1.5320281982421875 1.7365036010742188
        2.00506591796875 2.2675247192382812 2.3865509033203125 2.3712844848632812 2.4018096923828125 2.4781033992767334
        2.4506378173828125 2.2339553833007812 2.03253173828125 1.95623779296875 3.7476730346679688 4.821922302246094
        6.643882751464844 6.689659118652344 4.898223876953125 3.7263107299804688 3.8178634643554688 4.025390625
        4.03759765625 3.9124755859375 3.7018966674804688 3.4760589599609375 3.3906097412109375 3.4455413818359375
        3.5554046630859375 3.7110519409179688 3.98876953125 4.165779113769531 4.007080078125 3.7995529174804688
        3.7598800659179688 3.6927413940429688 3.5859222412109375 3.6683273315429688 4.0711669921875 4.690696716308594
        5.160682678222656 5.233924865722656 5.090484619140625 5.078277587890625 5.279701232910156 5.4963836669921875
        5.5787811279296875 5.5970916748046875 5.6123504638671875 5.5909881591796875 5.670341491699219 6.09454345703125
        6.833091735839844 7.5533294677734375 8.0111083984375 7.971435546875 7.3732757568359375 6.802574157714844
        6.4821319580078125 6.11285400390625 5.5146942138671875 4.831077575683594 4.5472564697265625 4.684593200683594
        4.785301208496094 4.937896728515625 5.124061107635498 4.919586181640625 4.4557037353515625 4.229866027832031
        4.248176574707031 4.251228332519531 4.324470520019531 4.5808258056640625 4.873809814453125 5.178993225097656
        5.633720397949219 5.694755554199219 4.821922302246094 3.7385177612304688 3.2288589477539062 2.969451904296875
        2.6642684936523438 2.4079132080078125 2.2919387817382812 2.2919387817382812 2.3896026611328125 2.5635528564453125
        2.7924423217773438 2.993865966796875 3.054901123046875 2.978607177734375 2.923675537109375 2.887054443359375
        2.945037841796875 3.100677490234375 3.2319107055664062 3.2380144596099854 3.1769793033599854 3.103729248046875
        2.960296392440796 2.691734552383423 2.4597930908203125 2.3682327270507812 2.2400588989257812 2.063049554824829
        1.89825439453125 1.7609177827835083 1.8097457885742188 2.07220458984375 2.01422119140625 2.3102493286132812
        3.8117599487304688 4.245124816894531 4.5258941650390625 4.5716705322265625 4.5625152587890625 4.629661560058594
        4.5167388916015625 3.9674072265625 3.2715835571289062 2.8504257202148438 2.2125930786132812 1.2268447875976562
        0.8026351928710938 1.0773011445999146 1.4282684326171875 1.6235884428024292 1.7242965698242188 1.6937789916992188
        1.8463668823242188 1.7609175443649292 1.6846237182617188 1.6144256591796875 1.4130096435546875 0.955230712890625
        1.028472900390625 1.2207412719726562 1.113922119140625 1.037628173828125 0.982696533203125 0.6347885131835938
        0.7324447631835938 1.1536026000976562 1.4618377685546875 1.4313201904296875 1.4465789794921875 1.4557342529296875
        1.3916473388671875 1.4465789794921875 1.3336563110351562 1.2390518188476562 1.2787246704101562 1.2451553344726562
        0.973541259765625 0.897247314453125 1.120025634765625 0.949127197265625 0.7904281616210938 1.022369384765625
        0.891143798828125 1.004058837890625 1.5991668701171875 2.00201416015625 2.3316116333007812 2.5574491024017334
        2.6306991577148438 2.5299835205078125 2.4323272705078125 2.4933624267578125 2.5147247314453125 2.3773956298828125
        2.1607131958007812 2.02947998046875 3.5340423583984375 4.092529296875 5.777153015136719 6.823936462402344
        5.92974853515625 4.4496002197265625 3.958251953125 4.0406494140625 4.0223388671875 3.814811944961548
        3.6103363037109375 3.4760587215423584 3.4699554443359375 3.6652755737304688 3.8148117065429688 3.8605880737304688
        4.06201171875 4.254280090332031 4.1016845703125 3.7934494018554688 3.6347579956054688 3.5401458740234375
        3.3845062255859375 3.3326187133789062 3.6683273315429688 4.318367004394531 4.776145935058594 4.867698669433594
        4.821922302246094 4.831077575683594 4.983673095703125 5.261390686035156 5.5146942138671875 5.6184539794921875
        5.6154022216796875 5.624565124511719 5.755790710449219 6.11285400390625 6.5157012939453125 6.796470642089844
        7.034515380859375 7.104705810546875 6.875823974609375 6.5767364501953125 6.317329406738281 6.04266357421875
        5.5970916748046875 4.940948486328125 4.5442047119140625 4.803611755371094 5.261390686035156 5.328529357910156
        5.227821350097656 5.121002197265625 4.7883524894714355 4.4831695556640625 4.4953765869140625 4.5289459228515625
        4.5197906494140625 4.6632304191589355 4.950103759765625 5.316322326660156 5.87786865234375 6.128120422363281
        5.298011779785156 4.019287109375 3.3448259830474854 3.100677490234375 2.8626327514648438 2.5543975830078125
        2.3102495670318604 2.2766799926757812 2.3743438720703125 2.5452423095703125 2.7710800170898438 2.954193115234375
        3.003021240234375 2.905364990234375 2.7985458374023438 2.7710800170898438 2.890106201171875 3.064056396484375
        3.2349624633789062 3.3417742252349854 3.3784027099609375 3.3295669555664062 3.1281509399414062 2.8504257202148438
        2.5879669189453125 2.3987579345703125 2.3102493286132812 2.2125930786132812 1.97454833984375 1.8127975463867188
        1.9470824003219604 2.1424026489257812 2.929779052734375 4.007080078125 4.3733062744140625 4.5106353759765625
        4.641868591308594 4.709007263183594 4.736473083496094 4.843284606933594 4.913482666015625 4.5228424072265625
        3.6347579956054688 2.960296630859375 2.362128973007202 1.449630618095398 1.1017149686813354 1.2451553344726562
        1.6083221435546875 1.8494186401367188 1.8372114896774292 1.7609177827835083 1.7914352416992188 1.6998826265335083
        1.6693649291992188 1.6815718412399292 1.4832000732421875 1.1627578735351562 1.3245010375976562 1.4130096435546875
        1.1566543579101562 0.9735412001609802 0.8056869506835938 0.5981598496437073 0.8575668334960938 1.1597061157226562
        1.3306045532226562 1.3611221313476562 1.4496307373046875 1.4587860107421875 1.4252166748046875 1.3611221313476562
        1.1688613891601562 1.043731689453125 1.004058837890625 0.8453598022460938 0.6958236694335938 0.7202377319335938
        0.7202377319335938 0.6530990600585938 0.6408920288085938 0.967437744140625 0.997955322265625 1.3000869750976562
        1.8494186401367188 2.2064895629882812 2.5635528564453125 2.7314071655273438 2.7222518920898438 2.6429061889648438
        2.5574493408203125 2.5299832820892334 2.5055694580078125 2.4018096923828125 2.1485061645507812 2.05389404296875
        3.8148117065429688 3.9857177734375 5.047760009765625 6.5431671142578125 6.881927490234375 5.743583679199219
        4.5716705322265625 4.254280090332031 4.156623840332031 3.9033203125 3.6927413940429688 3.7202072143554688
        3.933837890625 4.214607238769531 4.318367004394531 4.208503723144531 4.156623840332031 4.214607238769531
        4.165779113769531 3.9552001953125 3.7049484252929688 3.5157318115234375 3.3478775024414062 3.2166519165039062
        3.3570327758789062 3.8880615234375 4.3916168212890625 4.5869293212890625 4.657127380371094 4.760887145996094
        4.947052001953125 5.249183654785156 5.5482635498046875 5.697807312011719 5.789360046386719 5.93585205078125
        6.02435302734375 6.04876708984375 6.03961181640625 5.98468017578125 6.01824951171875 6.11285400390625
        6.134223937988281 6.05181884765625 5.868705749511719 5.716117858886719 5.5299530029296875 5.099639892578125
        4.669334411621094 4.733421325683594 5.279701232910156 5.5879364013671875 5.4200897216796875 5.215614318847656
        4.950103759765625 4.684593200683594 4.812767028808594 5.041656494140625 4.983673095703125 4.913482666015625
        5.044708251953125 5.349891662597656 5.862602233886719 6.186103820800781 5.5848846435546875 4.354988098144531
        3.5004730224609375 3.2105484008789062 3.061004638671875 2.7619247436523438 2.3957061767578125 2.2888870239257812
        2.3987581729888916 2.5818634033203125 2.7924423217773438 2.926727294921875 2.929779052734375 2.8626327514648438
        2.8107528686523438 2.8626327514648438 2.975555419921875 3.118988037109375 3.3112564086914062 3.4424896240234375
        3.5248868465423584 3.5309906005859375 3.4211270809173584 3.1922378540039062 2.920623779296875 2.6490097045898438
        2.4842071533203125 2.3529739379882812 2.1393508911132812 2.1973342895507812 2.7222518920898438 3.6835858821868896
        4.358039855957031 4.6174468994140625 4.693748474121094 4.684593200683594 4.748680114746094 4.861595153808594
        4.947052001953125 4.940948486328125 5.044708251953125 5.127113342285156 4.4282379150390625 3.3997650146484375
        2.8626327514648438 2.08746337890625 1.5625457763671875 1.6052703857421875 2.00811767578125 2.2034380435943604
        2.04473876953125 1.89520263671875 1.8280563354492188 1.7090377807617188 1.6754684448242188 1.6602096557617188
        1.4923553466796875 1.437423586845398 1.6113739013671875 1.5839080810546875 1.2268447875976562 0.939971923828125
        0.7721176743507385 0.7385482788085938 0.939971923828125 1.116973876953125 1.2512588500976562 1.3183975219726562
        1.3641738891601562 1.3946990966796875 1.4435272216796875 1.3916473388671875 1.1291885375976562 0.927764892578125
        0.8026351928710938 0.6561508178710938 0.6073150634765625 0.6195220947265625 0.5371246337890625 0.35095977783203125
        0.27161407470703125 0.881988525390625 1.3550186157226562 1.6815719604492188 2.1698684692382812 2.4658966064453125
        2.7039413452148438 2.7771835327148438 2.6978378295898438 2.6062774658203125 2.5421905517578125 2.4689483642578125
        2.3743438720703125 2.2919387817382812 2.05084228515625 1.8555221557617188 4.397720813751221 4.4648590087890625
        4.959259033203125 5.987731456756592 6.723228931427002 6.4119415283203125 5.4261932373046875 4.724266052246094
        4.364143371582031 4.043701171875 3.8544845581054688 4.0162353515625 4.4160308837890625 4.718162536621094
        4.785301208496094 4.626609802246094 4.4221343994140625 4.4038238525390625 4.5319976806640625 4.4953765869140625
        4.196296691894531 3.8270187377929688 3.5309906005859375 3.3997652530670166 3.4577484130859375 3.7476730346679688
        4.144416809082031 4.4312896728515625 4.6204986572265625 4.815818786621094 5.038604736328125 5.298011779785156
        5.5604705810546875 5.767997741699219 5.99688720703125 6.234931945800781 6.280708312988281 6.186103820800781
        5.98162841796875 5.5421600341796875 5.172889709472656 5.053863525390625 5.026397228240967 5.090484619140625
        5.111846923828125 5.099639892578125 5.182044982910156 5.121002197265625 4.794456481933594 4.4862213134765625
        4.696800231933594 5.301063537597656 5.5543670654296875 5.3956756591796875 5.084381103515625 4.794456481933594
        4.910430908203125 5.325477600097656 5.4261932373046875 5.294960021972656 5.233924388885498 5.346839904785156
        5.700859069824219 6.09759521484375 5.865653991699219 4.828025817871094 3.7995529174804688 3.3631362915039062
        3.2074966430664062 2.914520263671875 2.5147249698638916 2.3316116333007812 2.4506378173828125 2.6398544311523438
        2.8168563842773438 2.935882568359375 2.990814208984375 3.061004638671875 3.1617202758789062 3.2532730102539062
        3.2654800415039062 3.3295669555664062 3.4913177490234375 3.5798187255859375 3.6042327880859375 3.6347579956054688
        3.6042327880859375 3.4699554443359375 3.2624282836914062 2.960296869277954 2.7161483764648438 2.4994661808013916
        2.4018094539642334 2.7771835327148438 3.8514325618743896 4.657127380371094 4.770042896270752 4.876861572265625
        4.739524841308594 4.5625152587890625 4.657127380371094 4.831077575683594 4.809715270996094 4.5991363525390625
        4.498427867889404 4.733421325683594 4.672386169433594 4.0406494140625 3.6256027221679688 3.024383544921875
        2.2919387817382812 2.09967041015625 2.2766799926757812 2.3377151489257812 2.2064895629882812 2.06304931640625
        1.91351318359375 1.7426071166992188 1.6480025053024292 1.5839080810546875 1.507614016532898 1.6357957124710083
        1.8005905151367188 1.6907272338867188 1.3580703735351562 1.089508056640625 0.9308165907859802 0.872833251953125
        0.9674378037452698 1.1474990844726562 1.2604141235351562 1.1841201782226562 1.055938720703125 1.034576416015625
        1.1261367797851562 1.1627578735351562 1.010162353515625 0.8117904663085938 0.7141342163085938 0.7232894897460938
        0.7171859741210938 0.6317367553710938 0.4333648681640625 0.21057891845703125 0.7904281616210938 1.2695693969726562
        1.7304000854492188 2.05694580078125 2.4536895751953125 2.7100448608398438 2.8077011108398438 2.7741317749023438
        2.6551132202148438 2.5269317626953125 2.3712844848632812 2.2614212036132812 2.1881790161132812 2.10882568359375
        1.7456588745117188 1.5259246826171875 4.141365051269531 4.223762512207031 4.5350494384765625 5.050811767578125
        5.5391082763671875 5.801567077636719 5.6550822257995605 5.203407287597656 4.705955505371094 4.235969543457031
        3.9613037109375 4.068115234375 4.4526519775390625 4.800559997558594 4.944000244140625 4.867698669433594
        4.763938903808594 4.837181091308594 4.980621337890625 4.962310791015625 4.712059020996094 4.263435363769531
        3.8422775268554688 3.7202072143554688 3.7995529174804688 3.9368896484375 4.1199951171875 4.324470520019531
        4.5289459228515625 4.782249450683594 5.029449462890625 5.200355529785156 5.4048309326171875 5.746635437011719
        6.03961181640625 6.07318115234375 6.146430969238281 6.4485626220703125 6.4699249267578125 5.767997741699219
        4.779197692871094 4.174934387207031 3.89111328125 3.9429931640625 4.156623840332031 4.333625793457031
        4.599136829376221 4.818871021270752 4.690696716308594 4.3763580322265625 4.4892730712890625 5.2552876472473145
        5.816825866699219 5.645927429199219 5.215614318847656 4.849388122558594 4.803611755371094 5.142372131347656
        5.4139862060546875 5.4628143310546875 5.4658660888671875 5.5360565185546875 5.728324890136719 6.06402587890625
        6.09149169921875 5.307167053222656 4.239021301269531 3.6561203002929688 3.4302828311920166 3.1525652408599854
        2.8077011108398438 2.6123809814453125 2.7191998958587646 2.914520263671875 2.993865966796875 3.006073236465454
        3.091522455215454 3.3265151977539062 3.5584564208984375 3.6652753353118896 3.6530683040618896 3.6439132690429688
        3.6957931518554688 3.6805343627929688 3.6469650268554688 3.6744308471679688 3.683586359024048 3.6713790893554688
        3.5370941162109375 3.2563250064849854 3.024383544921875 2.8321151733398438 2.890106201171875 3.4180755615234375
        4.333625793457031 4.715110778808594 4.864646911621094 4.965362548828125 4.687644958496094 4.4648590087890625
        4.754783630371094 5.020294189453125 4.690696716308594 4.281745910644531 4.165779113769531 4.5442047119140625
        4.965362548828125 4.623558044433594 3.9063720703125 3.3509292602539062 2.7985458374023438 2.4048614501953125
        2.1637649536132812 2.1698684692382812 2.1271438598632812 2.03863525390625 1.91961669921875 1.7242965698242188
        1.5900115966796875 1.5655975341796875 1.5320281982421875 1.6205291748046875 1.7090377807617188 1.5686492919921875
        1.3733367919921875 1.2176893949508667 1.086456298828125 0.967437744140625 0.994903564453125 1.1536026000976562
        1.1749649047851562 0.955230712890625 0.7660140991210938 0.7934799194335938 0.888092041015625 0.949127197265625
        0.9277648329734802 0.8697738647460938 0.885040283203125 0.912506103515625 0.7904281616210938 0.5645905137062073
        0.34180450439453125 0.924713134765625 1.4465789794921875 1.7975387573242188 2.1485064029693604 2.4811553955078125
        2.6673202514648438 2.7436141967773438 2.7832870483398438 2.8107528686523438 2.7741317749023438 2.5971221923828125
        2.3133010864257812 2.1301956176757812 2.06915283203125 1.90130615234375 1.4893035888671875 1.4343719482421875
        3.2959976196289062 3.3661880493164062 3.872802734375 4.498427867889404 4.797508239746094 4.901275634765625
        5.026397705078125 5.029449462890625 4.831077575683594 4.4404449462890625 4.0772705078125 4.043701171875
        4.235969543457031 4.4343414306640625 4.6143951416015625 4.712059020996094 4.745628356933594 4.809715270996094
        4.870750427246094 5.026397705078125 5.203407287597656 4.858543395996094 4.171882629394531 3.946045160293579
        4.135261535644531 4.330574035644531 4.4496002197265625 4.5381011962890625 4.641868591308594 4.840232849121094
        5.093536376953125 5.246131896972656 5.4689178466796875 6.01824951171875 6.363105773925781 6.07012939453125
        6.326484680175781 7.318336486816406 7.5045013427734375 5.777153015136719 4.08642578125 3.5340423583984375
        3.3936612606048584 3.3845062255859375 3.5645599365234375 3.8300704956054688 4.199348449707031 4.4953765869140625
        4.4831695556640625 4.339729309082031 4.480117321014404 5.111846923828125 5.697807312011719 5.636772155761719
        5.218666076660156 4.873809814453125 4.779197692871094 4.980621337890625 5.279701232910156 5.5238494873046875
        5.783256530761719 5.98773193359375 6.01519775390625 6.08233642578125 6.12200927734375 5.5909881591796875
        4.6052398681640625 3.933837890625 3.7141036987304688 3.5554049015045166 3.3448257446289062 3.180030584335327
        3.2227554321289062 3.335670232772827 3.2746353149414062 3.143409490585327 3.1800308227539062 3.4455413818359375
        3.7141034603118896 3.836174249649048 3.8819580078125 3.8880615234375 3.8300704956054688 3.7385177612304688
        3.756828546524048 3.842277765274048 3.9063720703125 3.927734613418579 3.8148117065429688 3.5676116943359375
        3.3997650146484375 3.3814544677734375 3.5798187255859375 3.897216796875 4.11083984375 4.199348449707031
        4.3855133056640625 4.3763580322265625 4.184089660644531 4.300056457519531 4.962310791015625 5.3804168701171875
        5.053863525390625 4.5747222900390625 4.5197906494140625 4.934844970703125 5.246131896972656 4.751731872558594
        3.6835861206054688 3.006072998046875 2.7466659545898438 2.4262237548828125 1.96234130859375 1.99896240234375
        1.9013062715530396 1.8341598510742188 1.8127975463867188 1.6846237182617188 1.580856204032898 1.6388473510742188
        1.6327438354492188 1.6235885620117188 1.5015106201171875 1.3153457641601562 1.2665177583694458 1.2909317016601562
        1.1963272094726562 1.101715087890625 1.095611572265625 1.107818603515625 1.068145751953125 0.930816650390625
        0.8453598022460938 0.8545150756835938 0.906402587890625 0.9796447157859802 1.074249267578125 1.1200257539749146
        1.110870361328125 1.010162353515625 0.6988754272460938 0.35401153564453125 0.8392562866210938 1.4343719482421875
        1.8555221557617188 2.1973342895507812 2.5208282470703125 2.7405624389648438 2.8168563842773438 2.8107528686523438
        2.8229596614837646 2.877899169921875 2.890106201171875 2.6764755249023438 2.3163528442382812 2.09356689453125
        1.96844482421875 1.7365036010742188 1.4374237060546875 1.5655975341796875 2.6703720092773438 2.6734237670898438
        3.2197036743164062 4.0040283203125 4.4038238525390625 4.361091613769531 4.190193176269531 4.0894775390625
        3.9918212890625 3.7903976440429688 3.5126800537109375 3.6042327880859375 3.9521484375 4.03759765625
        4.08642578125 4.297004699707031 4.5106353759765625 4.654075622558594 4.776145935058594 4.980621337890625
        5.230873107910156 5.151527404785156 4.736473083496094 4.4679107666015625 4.5564117431640625 4.696800231933594
        4.782249450683594 4.751731872558594 4.675437927246094 4.742576599121094 4.956207275390625 5.069122314453125
        5.273597717285156 5.801567077636719 5.93280029296875 5.4933319091796875 6.241035461425781 8.624534606933594
        8.249153137207031 4.660179138183594 3.1922378540039062 3.2837905883789062 3.3387222290039062 3.3997650146484375
        3.4852142333984375 3.6835858821868896 3.9918212890625 4.242073059082031 4.223762512207031 4.184089660644531
        4.4740142822265625 5.035552978515625 5.5330047607421875 5.6215057373046875 5.310218811035156 5.044708251953125
        5.005035400390625 5.099639892578125 5.264442443847656 5.4841766357421875 5.838188171386719 6.12200927734375
        6.05792236328125 5.92669677734375 5.95111083984375 5.706962585449219 4.940948486328125 4.235969543457031
        3.96435546875 3.89111328125 3.869743585586548 3.8514328002929688 3.89111328125 3.906371831893921
        3.7141034603118896 3.4516448974609375 3.3784027099609375 3.5248870849609375 3.7293624877929688 3.878906011581421
        3.9674072265625 3.997925043106079 3.91552734375 3.872802734375 3.9796142578125 4.116943359375
        4.165779113769531 4.150520324707031 4.0711669921875 3.909423828125 3.8666915893554688 4.0009765625
        4.0162353515625 3.8178634643554688 3.6896896362304688 3.7934494018554688 4.0467529296875 4.132209777832031
        4.1138916015625 4.367195129394531 5.017242431640625 5.4200897216796875 5.053863525390625 4.318367004394531
        3.933837890625 4.116943359375 4.4343414306640625 4.199348449707031 3.3234634399414062 2.5818634033203125
        2.4353790283203125 2.3377151489257812 1.9898072481155396 1.99285888671875 1.7853317260742188 1.6754684448242188
        1.6754685640335083 1.6785202026367188 1.6937789916992188 1.8005906343460083 1.8097457885742188 1.7212449312210083
        1.507614016532898 1.3214492797851562 1.2939834594726562 1.3458633422851562 1.3031387329101562 1.2909317016601562
        1.2817764282226562 1.1963272094726562 1.080352783203125 0.979644775390625 0.9399719834327698 0.927764892578125
        0.985748291015625 1.071197509765625 1.1810684204101562 1.1474990844726562 0.979644775390625 0.6500473022460938
        0.33570098876953125 0.906402587890625 1.4526824951171875 1.8341598510742188 2.1942825317382812 2.4872589111328125
        2.6734237670898438 2.8351669311523438 2.951141595840454 3.003021240234375 2.996917724609375 2.941986083984375
        2.917572021484375 2.8321151733398438 2.5849151611328125 2.2522659301757812 1.91656494140625 1.6571578979492188
        1.5503387451171875 1.8372114896774292 2.1637649536132812 2.1790237426757812 2.5879669189453125 3.3478775024414062
        4.0009765625 4.123054504394531 3.7110519409179688 3.2654800415039062 2.981658935546875 2.7893905639648438
        2.5635528564453125 2.5116729736328125 2.880950927734375 3.1647720336914062 3.2959976196289062 3.5248870849609375
        3.912475824356079 4.287848949432373 4.5503082275390625 4.687644958496094 4.766990661621094 4.742576599121094
        4.5472564697265625 4.248176574707031 4.150520324707031 4.199348449707031 4.293952941894531 4.248176574707031
        4.187141418457031 4.361091613769531 4.5960845947265625 4.632713317871094 4.940948486328125 5.5299530029296875
        5.5238494873046875 5.5940399169921875 7.846305847167969 10.184028625488281 7.058929443359375 3.8117599487304688
        3.1342544555664062 3.2044448852539062 3.3753509521484375 3.4638516902923584 3.6103363037109375 3.7751388549804688
        3.946044921875 4.0772705078125 4.08642578125 4.156623840332031 4.6204986572265625 5.093536376953125
        5.371253967285156 5.645927429199219 5.5635223388671875 5.261390686035156 5.117950439453125 5.078278064727783
        5.072174072265625 5.142372131347656 5.5269012451171875 6.10675048828125 6.311225891113281 6.277656555175781
        6.3722686767578125 6.201362609863281 5.4445037841796875 4.647972106933594 4.239021301269531 4.126106262207031
        4.211555480957031 4.354988098144531 4.4282379150390625 4.4770660400390625 4.3946685791015625 4.0711669921875
        3.7934494018554688 3.7171554565429688 3.8056561946868896 3.952148199081421 4.0589599609375 4.07421875
        4.06201171875 4.123054504394531 4.254280090332031 4.351936340332031 4.336677551269531 4.293952941894531
        4.306159973144531 4.306159973144531 4.3763580322265625 4.403824329376221 4.202400207519531 4.0833740234375
        4.199348449707031 4.306159973144531 4.4068756103515625 4.4892730712890625 4.4618072509765625 4.800559997558594
        5.5970916748046875 5.786308288574219 4.843284606933594 3.6561203002929688 3.057952880859375 3.042694091796875
        3.3326187133789062 3.3234634399414062 2.899261474609375 2.4506378173828125 2.3499221801757812 2.3438186645507812
        2.191230535507202 2.2095413208007812 1.95928955078125 1.8097457885742188 1.7456588745117188 1.8005905151367188
        1.8829954862594604 2.00506591796875 1.8585739135742188 1.6724166870117188 1.5778045654296875 1.4832000732421875
        1.3885955810546875 1.3672256469726562 1.3458633422851562 1.3824920654296875 1.4313201904296875 1.3916473388671875
        1.1993789672851562 1.049835205078125 0.9857483506202698 0.964385986328125 1.001007080078125 1.0620423555374146
        1.034576416015625 0.8239974975585938 0.5157623291015625 0.4547271728515625 0.952178955078125 1.5717010498046875
        1.94708251953125 2.1424026489257812 2.4628448486328125 2.6856307983398438 2.7832870483398438 2.902313232421875
        3.051849603652954 3.1617202758789062 3.1373062133789062 2.981658935546875 2.896209716796875 2.893157958984375
        2.7619247436523438 2.4048614501953125 1.88909912109375 1.6113739013671875 1.6907272338867188 1.9592894315719604
        1.7304000854492188 1.6907272338867188 1.99591064453125 2.6032257080078125 3.2868423461914062 3.7324142456054688
        3.5798189640045166 3.048797607421875 2.6581649780273438 2.4994661808013916 2.3743438720703125 2.2034380435943604
        2.1820755004882812 2.2461624145507812 2.2492141723632812 2.2461624145507812 2.4414825439453125 2.8687362670898438
        3.2471694946289062 3.3906097412109375 3.5157318115234375 3.5889739990234375 3.4974210262298584 3.2410659790039062
        2.963348388671875 2.5971221923828125 2.06915283203125 1.4221649169921875 1.1444473266601562 2.11492919921875
        3.5401458740234375 3.98876953125 4.4923248291015625 5.029449462890625 4.953155517578125 6.128120422363281
        9.610275268554688 9.329505920410156 4.910430908203125 3.4608001708984375 3.3997652530670166 3.2654800415039062
        3.4089202880859375 3.3753507137298584 3.4791107177734375 3.5737152099609375 3.6805343627929688 3.8758544921875
        4.01318359375 4.092529296875 4.5045318603515625 4.913482666015625 5.133216857910156 5.5421600341796875
        5.716117858886719 5.4780731201171875 5.246131896972656 5.133216857910156 5.090484619140625 5.182044982910156
        5.691703796386719 6.4302520751953125 6.701866149902344 6.677452087402344 6.729331970214844 6.4516143798828125
        5.758842468261719 5.096588134765625 4.684593200683594 4.5533599853515625 4.687645435333252 4.7975077629089355
        4.770042419433594 4.779197692871094 4.907379150390625 4.806663513183594 4.4679107666015625 4.141365051269531
        4.0223388671875 4.062011241912842 4.138313293457031 4.196296691894531 4.309211730957031 4.4312896728515625
        4.5228424072265625 4.5838775634765625 4.5472564697265625 4.5014801025390625 4.5960845947265625 4.724266052246094
        4.809715270996094 4.751731872558594 4.672386169433594 4.843284606933594 5.032501220703125 4.849388122558594
        4.730369567871094 4.748680114746094 4.6052398681640625 4.944000244140625 5.88397216796875 5.95111083984375
        4.5808258056640625 3.070159912109375 2.2553176879882812 2.1729202270507812 2.5086212158203125 2.5482940673828125
        2.3071975708007812 2.2064895629882812 2.206489324569702 2.2431106567382812 2.2339553833007812 2.4048614501953125
        2.249213933944702 2.163764715194702 2.05084228515625 2.03253173828125 2.02032470703125 2.10272216796875
        1.8005903959274292 1.5900115966796875 1.544235110282898 1.495406985282898 1.3855438232421875 1.3031387329101562
        1.3153457641601562 1.3794403076171875 1.4587860107421875 1.4770965576171875 1.2939834594726562 1.1291885375976562
        1.010162353515625 0.991851806640625 0.997955322265625 0.933868408203125 0.8209457993507385 0.6683578491210938
        0.7507553100585938 0.967437744140625 1.5503387451171875 2.08746337890625 2.4231719970703125 2.4994659423828125
        2.6093292236328125 2.8443222045898438 2.990814208984375 3.039642333984375 3.097625732421875 3.2105484008789062
        3.2013931274414062 3.051849365234375 2.914520263671875 2.877899169921875 2.7008895874023438 2.1759719848632812
        1.5106658935546875 1.4404754638671875 1.7090377807617188 1.93792724609375 1.7304000854492188 1.8707809448242188
        2.2217483520507812 2.5666046142578125 2.945037841796875 3.4455413818359375 3.5309906005859375 3.003021240234375
        2.5513458251953125 2.4292755126953125 2.3834991455078125 2.2888870239257812 2.1485061645507812 2.01727294921875
        1.89520263671875 1.7304000854492188 1.6083221435546875 1.7609176635742188 1.95318603515625 1.91351318359375
        1.8890992403030396 1.93182373046875 1.97149658203125 2.09051513671875 1.95928955078125 1.5015106201171875
        0.900299072265625 0.17395782470703125 0.21668243408203125 0.5615386962890625 0.6439437866210938 1.080352783203125
        2.8107528686523438 3.6957931518554688 4.4618072509765625 7.788322448730469 10.470901489257812 7.650993347167969
        4.144416809082031 3.6225509643554688 3.5676116943359375 3.4546966552734375 3.4821624755859375 3.2624282836914062
        3.1495132446289062 3.030487298965454 3.2074966430664062 3.7202072143554688 3.9674072265625 3.9735107421875
        4.159675598144531 4.4465484619140625 4.669334411621094 4.959259033203125 5.2522358894348145 5.4261932373046875
        5.4872283935546875 5.4322967529296875 5.325477600097656 5.4292449951171875 5.862602233886719 6.323432922363281
        6.4760284423828125 6.4546661376953125 6.4516143798828125 6.250190734863281 6.04571533203125 5.87481689453125
        5.4567108154296875 5.243080139160156 5.3651509284973145 5.301063537597656 5.121001720428467 4.986724853515625
        5.090485095977783 5.249183654785156 5.148475646972656 4.782249450683594 4.425185680389404 4.251228332519531
        4.229866027832031 4.345832824707031 4.547256946563721 4.678489685058594 4.773094177246094 4.898223876953125
        4.919585704803467 4.898223876953125 4.971466064453125 5.114898204803467 5.276648998260498 5.331581115722656
        5.4231414794921875 5.752738952636719 5.771049499511719 5.273597717285156 5.099639892578125 5.243080139160156
        4.992828369140625 4.751731872558594 5.3834686279296875 5.4811248779296875 4.205451965332031 2.945037841796875
        2.1301956176757812 1.6510543823242188 1.9348756074905396 2.1729202270507812 1.8372116088867188 1.8036422729492188
        1.97149658203125 2.059997320175171 2.01727294921875 2.2431106567382812 2.2614214420318604 2.3285598754882812
        2.2461624145507812 2.1546096801757812 2.04168701171875 2.02337646484375 1.7548140287399292 1.6449508666992188
        1.5717010498046875 1.4862518310546875 1.3733367919921875 1.2939834594726562 1.3702774047851562 1.4618377685546875
        1.4648895263671875 1.4313201904296875 1.3428115844726562 1.2909315824508667 1.110870361328125 1.052886962890625
        1.0376280546188354 0.9613342881202698 0.921661376953125 1.065093994140625 1.1536026000976562 1.4191131591796875
        2.1881790161132812 2.8382186889648438 3.039642333984375 2.8443222045898438 2.6459579467773438 2.8412704467773438
        3.115936279296875 3.1952896118164062 3.1678237915039062 3.2166519165039062 3.3112564086914062 3.2807390689849854
        3.070159912109375 2.920623779296875 2.5330352783203125 1.7639694213867188 1.2634658813476562 1.4648895263671875
        1.7059860229492188 1.91656494140625 2.2492141723632812 2.4628448486328125 2.7253036499023438 2.8138046264648438
        2.893157958984375 3.2410659790039062 3.4028167724609375 3.027435302734375 2.5971221923828125 2.4109649658203125
        2.3468704223632812 2.337714910507202 2.3377151489257812 2.2583694458007812 2.11492919921875 1.98980712890625
        1.90740966796875 1.8097457885742188 1.6327438354492188 1.4435272216796875 1.3641738891601562 1.2970352172851562
        1.1505508422851562 1.1047667264938354 1.058990478515625 0.8331527709960938 0.4882965087890625 0.4455719292163849
        0.5432281494140625 0.9765930771827698 1.5350799560546875 0.949127197265625 1.4252166748046875 3.7537765502929688
        6.753746032714844 10.03448486328125 9.109771728515625 5.3956756591796875 4.177986145019531 4.01318359375
        3.6713790893554688 3.6378097534179688 3.5401458740234375 3.2288589477539062 2.990814208984375 2.6825790405273438
        2.8504257202148438 3.7903976440429688 4.129158020019531 3.8514328002929688 3.7537765502929688 3.7171554565429688
        3.6835861206054688 3.9033203125 4.330574035644531 4.785301208496094 5.185096740722656 5.310218811035156
        5.133216857910156 5.084381103515625 5.4414520263671875 5.94500732421875 6.180000305175781 6.244087219238281
        6.4638214111328125 6.665245056152344 6.790367126464844 6.6194610595703125 6.04266357421875 5.92364501953125
        5.91143798828125 5.764945983886719 5.5238494873046875 5.310218811035156 5.288856506347656 5.4414520263671875
        5.5085906982421875 5.334632873535156 4.992828369140625 4.669334411621094 4.4953765869140625 4.5136871337890625
        4.6296610832214355 4.742576599121094 4.953155517578125 5.215614318847656 5.3743133544921875 5.4231414794921875
        5.4139862060546875 5.4841766357421875 5.710014343261719 5.93585205078125 6.06402587890625 6.02130126953125
        5.673393249511719 5.081329345703125 4.962310791015625 5.835136413574219 5.706962585449219 4.770042419433594
        4.867698669433594 4.852439880371094 3.7110519409179688 2.7222518920898438 2.2339553833007812 1.6602096557617188
        1.5289764404296875 1.96844482421875 1.8524702787399292 1.7181930541992188 1.7487107515335083 1.91351318359375
        1.8524702787399292 2.00201416015625 2.08441162109375 2.2278518676757812 2.1790239810943604 2.08135986328125
        1.94403076171875 1.89215087890625 1.6693648099899292 1.6541061401367188 1.6541061401367188 1.5808563232421875
        1.4984588623046875 1.4374237060546875 1.4893035888671875 1.532028317451477 1.4770965576171875 1.4191131591796875
        1.4374237060546875 1.4709930419921875 1.3000870943069458 1.1902235746383667 1.2207411527633667 1.2939834594726562
        1.3641738891601562 1.2695693969726562 1.3702774047851562 2.04779052734375 2.911468505859375 3.5889737606048584
        3.6805343627929688 3.3936612606048584 3.079315185546875 2.999969482421875 3.1373062133789062 3.2105484008789062
        3.1800308227539062 3.1708755493164062 3.3417739868164062 3.4852142333984375 3.2136001586914062 2.8260116577148438
        2.1362991333007812 1.4893035888671875 1.5015106201171875 1.6815719604492188 1.88299560546875 2.10882568359375
        2.7527694702148438 2.896209716796875 3.006072998046875 2.963348388671875 2.923675537109375 3.1769790649414062
        3.3967132568359375 3.1952896118164062 2.8534774780273438 2.6429061889648438 2.5543975830078125 2.6093292236328125
        2.7283554077148438 2.6825790405273438 2.5177764892578125 2.4933624267578125 2.5177764892578125 2.3682327270507812
        2.02642822265625 1.7181930541992188 1.5900115966796875 1.5106658935546875 1.3733367919921875 1.3153457641601562
        1.2085342407226562 0.991851806640625 0.897247314453125 1.037628173828125 1.1627578735351562 1.532028317451477
        2.1393508911132812 1.611374020576477 1.2115859985351562 4.254280090332031 7.864616394042969 9.692680358886719
        7.107757568359375 4.5594635009765625 4.272590637207031 4.156623840332031 3.753776788711548 3.6927413940429688
        3.5218355655670166 3.2593765258789062 3.012176513671875 2.6886825561523438 2.749717950820923 3.7446212768554688
        4.190193176269531 3.7873458862304688 3.7171554565429688 3.6469650268554688 3.3845062255859375 3.4913177490234375
        3.8758544921875 4.214607238769531 4.669334411621094 5.053863525390625 5.111847400665283 5.142372131347656
        5.810722351074219 6.872772216796875 7.345802307128906 7.351905822753906 7.5075531005859375 7.4373626708984375
        6.961273193359375 6.4424591064453125 6.183052062988281 6.1952595710754395 6.08233642578125 5.96636962890625
        5.798515319824219 5.633720397949219 5.6062469482421875 5.655082702636719 5.661186695098877 5.5757293701171875
        5.4017791748046875 5.197303771972656 5.008087158203125 4.812767028808594 4.678489685058594 4.724266052246094
        5.053863525390625 5.5024871826171875 5.816825866699219 5.96331787109375 5.95416259765625 5.87786865234375
        5.99688720703125 6.350898742675781 6.3875274658203125 5.819877624511719 5.243080139160156 4.937896728515625
        5.282752990722656 6.186103820800781 6.146430969238281 4.992828369140625 4.208503723144531 3.8392257690429688
        3.1464614868164062 2.4933621883392334 2.2248001098632812 1.8707809448242188 1.5778045654296875 1.7822799682617188
        2.05389404296875 1.8677291870117188 1.7609177827835083 1.8646774291992188 1.9409791231155396 2.07220458984375
        2.06304931640625 2.07220458984375 2.04168701171875 1.9837037324905396 1.8677293062210083 1.8555221557617188
        1.5930633544921875 1.562545657157898 1.620529055595398 1.6052703857421875 1.5655975341796875 1.5137176513671875
        1.4862518310546875 1.4496307373046875 1.3550186157226562 1.3214492797851562 1.4404754638671875 1.5320281982421875
        1.5137176513671875 1.5503387451171875 1.608322262763977 1.580856204032898 1.3946990966796875 1.5961151123046875
        2.2370071411132812 2.902313232421875 3.6256027221679688 4.202400207519531 4.266487121582031 3.9368896484375
        3.5584564208984375 3.3936614990234375 3.3906097412109375 3.3112564086914062 3.2105484008789062 3.057952880859375
        3.091522216796875 3.3356704711914062 3.1769790649414062 2.5757598876953125 1.6815719604492188 1.5778045654296875
        1.7944871187210083 1.8585740327835083 1.94403076171875 2.2522659301757812 2.7039413452148438 2.908416748046875
        3.064056396484375 3.155616521835327 3.1647720336914062 3.3539810180664062 3.5950775146484375 3.4791107177734375
        3.1739273071289062 3.027435302734375 2.951141357421875 2.923675537109375 2.960296630859375 2.902313232421875
        2.8046493530273438 2.887054443359375 3.033538818359375 2.993865966796875 2.7314071655273438 2.3682327270507812
        2.084411859512329 1.97149658203125 1.8311080932617188 1.7029341459274292 1.5076141357421875 1.3092422485351562
        1.5411834716796875 1.5839080810546875 1.2512587308883667 1.5137176513671875 1.7578659057617188 1.5411834716796875
        2.899261474609375 4.940948486328125 7.669303894042969 8.279670715332031 6.06097412109375 4.889069080352783
        4.391617298126221 4.235969543457031 3.9002685546875 3.6835861206054688 3.4913177490234375 3.2776870727539062
        3.036590576171875 2.844322443008423 2.8626327514648438 3.2166519165039062 3.4272308349609375 3.122039794921875
        2.969451904296875 2.993865966796875 2.8595809936523438 2.929779052734375 3.360084295272827 3.7842941284179688
        4.251228332519531 4.715110778808594 4.968414306640625 5.163734436035156 6.02740478515625 7.211524963378906
        7.5350189208984375 7.135231018066406 6.769004821777344 6.4027862548828125 6.07318115234375 6.02130126953125
        6.11590576171875 6.073181629180908 5.859550476074219 5.700859069824219 5.636772155761719 5.661186218261719
        5.758842468261719 5.829032897949219 5.7893595695495605 5.6520304679870605 5.5391082763671875 5.4841766357421875
        5.4200897216796875 5.182044982910156 4.922637939453125 4.901275634765625 5.2522358894348145 5.822929382324219
        6.289863586425781 6.476028919219971 6.363105773925781 6.07623291015625 5.98162841796875 6.259346008300781
        6.299018859863281 5.645927429199219 4.934844970703125 4.992828369140625 5.5421600341796875 5.700859069824219
        5.676445007324219 5.4017791748046875 4.4984283447265625 3.5554046630859375 2.899261474609375 2.2736282348632812
        1.9318236112594604 1.8341599702835083 1.7517622709274292 1.7120896577835083 1.96234130859375 2.1332473754882812
        2.07220458984375 2.102722406387329 2.2003860473632812 2.2095413208007812 2.09356689453125 2.00811767578125
        1.97760009765625 1.95318603515625 1.8494186401367188 1.8585739135742188 1.6754684448242188 1.6144256591796875
        1.6022186279296875 1.5350799560546875 1.4832000732421875 1.4374237060546875 1.4008026123046875 1.3275527954101562
        1.2115859985351562 1.1688613891601562 1.3183975219726562 1.4893035888671875 1.583907961845398 1.6266403198242188
        1.544235348701477 1.5564422607421875 2.00506591796875 2.6123809814453125 3.1403579711914062 3.6866378784179688
        4.297004699707031 4.754783630371094 4.782249450683594 4.4068756103515625 3.894164800643921 3.5645599365234375
        3.4821624755859375 3.4241790771484375 3.2654800415039062 2.941986083984375 2.7802352905273438 2.987762451171875
        2.987762451171875 2.3316116333007812 1.5198211669921875 1.7822798490524292 1.9806517362594604 1.95928955078125
        1.95623779296875 2.02337646484375 2.917572021484375 3.100677490234375 3.1830825805664062 3.1952896118164062
        3.1861343383789062 3.3143081665039062 3.4760589599609375 3.3967132568359375 3.1769790649414062 3.097625732421875
        3.122039794921875 3.1281509399414062 3.1250991821289062 3.073211669921875 3.045745849609375 3.1830825805664062
        3.4424896240234375 3.5065765380859375 3.3845062255859375 3.088470458984375 2.6886825561523438 2.5086212158203125
        2.4384307861328125 2.2125930786132812 1.8158494234085083 1.5167694091796875 1.3641738891601562 1.3824920654296875
        2.4781036376953125 2.996917724609375 3.2776870727539062 3.7049484252929688 3.9613037109375 4.889068603515625
        6.881927490234375 7.269508361816406 6.10064697265625 5.188148498535156 4.6021881103515625 4.449600696563721
        4.1138916015625 3.7781906127929688 3.5645599365234375 3.3265151977539062 3.1281509399414062 3.070159912109375
        2.945037841796875 2.3926544189453125 2.1912307739257812 1.9043580293655396 1.7914352416992188 1.5015106201171875
        0.8117904663085938 0.979644775390625 2.4842071533203125 3.3997650146484375 3.7202072143554688 4.321418762207031
        4.629661560058594 4.898223876953125 5.722221374511719 6.906341552734375 7.309181213378906 6.881927490234375
        6.11590576171875 5.4414520263671875 5.343788146972656 5.627616882324219 5.8076701164245605 5.697807312011719
        5.4017791748046875 5.218666076660156 5.230873107910156 5.3956756591796875 5.5848846435546875 5.676445007324219
        5.758842468261719 5.749687194824219 5.6184539794921875 5.4933319091796875 5.4750213623046875 5.331580638885498
        5.197303771972656 5.224769592285156 5.5299530029296875 6.00604248046875 6.4363555908203125 6.637779235839844
        6.549270153045654 6.234931945800781 6.04266357421875 6.216621398925781 6.347846984863281 5.810722351074219
        5.005035400390625 5.053863525390625 5.676445007324219 5.676445007324219 5.4475555419921875 5.4750213623046875
        4.867698669433594 3.9124755859375 3.1830825805664062 2.2888870239257812 1.6846237182617188 1.7059860229492188
        1.8250045776367188 1.7517622709274292 1.6632614135742188 2.1454544067382812 2.4750518798828125 2.5208282470703125
        2.3804473876953125 2.2156448364257812 2.08135986328125 2.01116943359375 1.97760009765625 1.92266845703125
        1.8158494234085083 1.7914352416992188 1.7700729370117188 1.8494186401367188 1.7761764526367188 1.5625457763671875
        1.419113278388977 1.3885955810546875 1.4038543701171875 1.3153457641601562 1.1566543579101562 1.110870361328125
        1.1566542387008667 1.3153457641601562 1.4679412841796875 1.5381317138671875 1.7792282104492188 2.3529739379882812
        2.932830810546875 3.3295669555664062 3.7598800659179688 4.284797668457031 4.840232849121094 5.267494201660156
        5.282752990722656 4.849388122558594 4.144416809082031 3.5157318115234375 3.3021011352539062 3.2990493774414062
        3.112884521484375 2.7558212280273438 2.5543975830078125 2.6520614624023438 2.5635528564453125 1.89215087890625
        1.6357955932617188 2.09661865234375 2.1576614379882812 2.066100835800171 2.00506591796875 1.88909912109375
        2.7924423217773438 2.960296630859375 2.966400146484375 2.884002685546875 2.899261474609375 3.018280029296875
        3.085418701171875 2.954193115234375 2.7771835327148438 2.7802352905273438 2.914520263671875 3.030487060546875
        3.051849365234375 2.932830572128296 2.8321151733398438 2.954193115234375 3.2502212524414062 3.4516448974609375
        3.5096282958984375 3.3967132568359375 3.045745849609375 2.7710800170898438 2.7253036499023438 2.5818634033203125
        2.2797317504882812 1.96234130859375 1.92877197265625 2.6184844970703125 3.4638519287109375 4.092529296875
        4.5533599853515625 4.5258941650390625 4.1016845703125 4.5442047119140625 5.95721435546875 6.4760284423828125
        6.03656005859375 5.310218811035156 4.763938903808594 4.5655670166015625 4.205451965332031 3.885009765625
        3.6469650268554688 3.4119720458984375 3.3173601627349854 3.176978826522827 2.5910189151763916 1.7334519624710083
        1.413009762763977 1.086456298828125 1.1536026000976562 1.028472900390625 0.6134186387062073 0.26551055908203125
        1.7639694213867188 2.8321151733398438 2.969451904296875 3.6011810302734375 3.9368896484375 4.5228424072265625
        5.5818328857421875 6.5492706298828125 6.5736846923828125 6.149482727050781 5.771049499511719 5.267494201660156
        5.041656494140625 5.227821350097656 5.270545959472656 5.102691650390625 4.913482666015625 4.892120361328125
        4.974517822265625 5.090484619140625 5.185096740722656 5.233924865722656 5.4780731201171875 5.777153015136719
        5.728325366973877 5.4567108154296875 5.337684631347656 5.273597717285156 5.346839904785156 5.5238494873046875
        5.816825866699219 6.195259094238281 6.4729766845703125 6.5126495361328125 6.3783721923828125 6.04571533203125
        5.743583679199219 6.05181884765625 6.741539001464844 6.4851837158203125 5.5299530029296875 5.166786193847656
        5.652030944824219 6.4119415283203125 6.881927490234375 6.817832946777344 5.795463562011719 4.4801177978515625
        3.6957931518554688 3.030487060546875 2.4018096923828125 2.03253173828125 1.93487548828125 1.8524703979492188
        1.7334519624710083 1.93487548828125 2.1332473754882812 2.4720001220703125 2.4109649658203125 2.1759722232818604
        2.04168701171875 1.99896240234375 1.98065185546875 1.98370361328125 1.8768922090530396 1.7853318452835083
        1.7822799682617188 1.98370361328125 1.9226685762405396 1.6388473510742188 1.4984588623046875 1.4893035888671875
        1.4893035888671875 1.3946990966796875 1.019317626953125 0.9521788954734802 1.031524658203125 1.2329483032226562
        1.4832000732421875 1.90435791015625 2.5360870361328125 3.1250991821289062 3.6042327880859375 4.0223388671875
        4.4312896728515625 4.782249450683594 5.157630920410156 5.5848846435546875 5.667289733886719 5.185096740722656
        4.284797668457031 3.4058685302734375 2.957244873046875 2.893157958984375 2.7924423217773438 2.5055694580078125
        2.2980422973632812 2.2736282348632812 2.02032470703125 1.6602096557617188 2.157661199569702 2.5116729736328125
        2.3071975708007812 2.142402410507202 2.2278518676757812 2.1515579223632812 2.7680282592773438 2.911468505859375
        2.8717880249023438 2.7069931030273438 2.7008895874023438 2.8717880249023438 3.027435302734375 2.923675537109375
        2.7344589233398438 2.7771835327148438 2.938934326171875 3.085418701171875 3.1830825805664062 3.1464614868164062
        2.987762451171875 2.938934326171875 3.109832525253296 3.3143081665039062 3.5218353271484375 3.6805343627929688
        3.4760589599609375 3.054901123046875 2.951141357421875 2.975555658340454 2.8351669311523438 2.6123809814453125
        2.6093292236328125 3.100677490234375 3.8941650390625 4.696800231933594 4.953155517578125 4.3916168212890625
        3.909423828125 4.4068756103515625 5.243080139160156 5.4353485107421875 5.319374084472656 5.121002197265625
        4.748680114746094 4.4129791259765625 4.0528564453125 3.7842941284179688 3.5096280574798584 3.3417742252349854
        3.3173599243164062 2.966400146484375 2.05084228515625 1.5472869873046875 1.4282684326171875 1.107818603515625
        1.010162353515625 1.040679931640625 0.949127197265625 0.924713134765625 0.7904281616210938 2.3346633911132812
        2.7680282592773438 3.4485931396484375 3.958251953125 4.815818786621094 6.02740478515625 6.656089782714844
        6.128120422363281 5.4445037841796875 5.4261932373046875 5.3895721435546875 5.087432861328125 4.986724853515625
        4.852439880371094 4.696800231933594 4.635765075683594 4.730369567871094 4.879913330078125 4.931793212890625
        4.886016845703125 4.876861572265625 5.093536376953125 5.4750213623046875 5.648979187011719 5.5207977294921875
        5.294960021972656 5.209510803222656 5.4048309326171875 5.725273132324219 6.03656005859375 6.3112263679504395
        6.344795227050781 6.2807087898254395 6.2227253913879395 5.725273132324219 5.258338928222656 6.161689758300781
        7.5045013427734375 7.4160003662109375 6.302070617675781 5.355995178222656 5.066070556640625 5.6215057373046875
        6.683555603027344 6.997894287109375 5.825981140136719 4.290901184082031 3.6469650268554688 3.5218350887298584
        3.1708755493164062 2.5299835205078125 2.05694580078125 1.98675537109375 1.97149658203125 2.03558349609375
        1.99896240234375 1.99591064453125 1.9562379121780396 1.93182373046875 1.87384033203125 1.8433152437210083
        1.88604736328125 1.98065185546875 1.97760009765625 1.8341598510742188 1.7883833646774292 1.95928955078125
        1.99896240234375 1.8036423921585083 1.6907272338867188 1.6052703857421875 1.4709930419921875 1.4587860107421875
        1.4465789794921875 1.3367080688476562 1.3397598266601562 1.5533905029296875 1.99896240234375 2.6062774658203125
        3.2532730102539062 3.8453292846679688 4.303108215332031 4.690696716308594 5.056915283203125 5.276649475097656
        5.3865203857421875 5.5269012451171875 5.5635223388671875 5.182044982910156 4.290901184082031 3.3265151977539062
        2.8473739624023438 2.7924423217773438 2.6703720092773438 2.3926544189453125 2.1485061645507812 1.95013427734375
        1.7120895385742188 2.2003860473632812 2.6917343139648438 2.8290634155273438 2.7253036499023438 2.6795270442962646
        2.8351669311523438 3.1983413696289062 3.018280029296875 3.109832763671875 3.061004638671875 2.902313232421875
        2.874847412109375 3.061004638671875 3.2776873111724854 3.1739273071289062 2.8473739624023438 2.7649765014648438
        2.8656845092773438 3.061004638671875 3.3051528930664062 3.3661880493164062 3.2105484008789062 3.1342544555664062
        3.2898941040039062 3.4699556827545166 3.7354660034179688 4.0284423828125 3.87890625 3.3814544677734375
        3.1556167602539062 3.118988037109375 2.990814208984375 2.896209716796875 2.8107528686523438 2.984710693359375
        4.0589599609375 5.316322326660156 5.124061584472656 4.03759765625 3.8117599487304688 4.3885650634765625
        4.855491638183594 4.745628356933594 4.4984283447265625 4.5625152587890625 4.4618072509765625 4.141364574432373
        3.8422775268554688 3.6072845458984375 3.2959976196289062 3.122039556503296 3.042694091796875 2.7008895874023438
        2.06610107421875 1.91046142578125 1.8707810640335083 1.6754683256149292 1.5900115966796875 1.2451553344726562
        1.098663330078125 1.2482070922851562 0.17395782470703125 1.083404541015625 1.6266403198242188 2.3255081176757812
        2.887054443359375 3.8544845581054688 5.3804168701171875 6.149482727050781 5.761894226074219 5.182044982910156
        5.075225830078125 5.178993225097656 5.001983642578125 4.7883524894714355 4.641868591308594 4.5594635009765625
        4.5045318603515625 4.5136871337890625 4.638816833496094 4.754783630371094 4.715110778808594 4.635765075683594
        4.681541442871094 4.876861572265625 5.166786193847656 5.365150451660156 5.307166576385498 5.206459045410156
        5.3834686279296875 5.706962585449219 5.841239929199219 5.612349987030029 4.931793212890625 4.4343414306640625
        4.406876087188721 4.5899810791015625 4.705955505371094 5.825981140136719 7.864616394042969 8.447525024414062
        7.116912841796875 5.4963836669921875 4.687644958496094 4.867698669433594 5.5909881591796875 5.88702392578125
        5.285804748535156 4.339729309082031 3.7781903743743896 3.5462496280670166 3.1434097290039062 2.4750518798828125
        1.97760009765625 1.89825439453125 2.04473876953125 2.3621292114257812 2.5177767276763916 2.01422119140625
        1.3031387329101562 1.4221649169921875 1.5900115966796875 1.6663132905960083 1.6968307495117188 1.7517622709274292
        1.8341598510742188 1.8494186401367188 1.8311080932617188 1.95318603515625 2.09051513671875 2.00201416015625
        1.8555221557617188 1.5930633544921875 1.3702774047851562 1.4069061279296875 1.7029342651367188 2.05694580078125
        2.3590774536132812 2.6551132202148438 2.926727294921875 3.3448257446289062 3.9368896484375 4.4923248291015625
        4.849388122558594 5.133216857910156 5.4231414794921875 5.5574188232421875 5.4994354248046875 5.4139862060546875
        5.3773651123046875 5.056915283203125 4.162727355957031 3.048797607421875 2.6123809814453125 2.7069931030273438
        2.5299835205078125 2.2248001098632812 2.02032470703125 1.92877197265625 2.2461624145507812 3.216651678085327
        3.2807388305664062 3.3387222290039062 3.061004638671875 2.945037841796875 3.5248870849609375 3.4943695068359375
        3.100677490234375 3.051849365234375 3.033538818359375 2.960296630859375 2.914520263671875 3.048797607421875
        3.2532730102539062 3.1983413696289062 2.941986083984375 2.8595809936523438 2.972503662109375 3.2532730102539062
        3.5401458740234375 3.5248870849609375 3.2929458618164062 3.2288589477539062 3.3997650146484375 3.5187835693359375
        3.6439132690429688 3.8148117065429688 3.7385177612304688 3.3906097412109375 3.1250991821289062 2.999969482421875
        2.899261474609375 2.908416748046875 2.880950927734375 2.963348388671875 4.031494140625 5.5391082763671875
        5.246131896972656 3.7659835815429688 3.4058685302734375 3.7781906127929688 4.135261535644531 4.263435363769531
        4.0345458984375 4.0009765625 4.0284423828125 3.8636395931243896 3.6713790893554688 3.4821624755859375
        3.1769793033599854 2.902313470840454 2.7039413452148438 2.6154327392578125 2.4811553955078125 2.3468704223632812
        2.2339553833007812 2.01727294921875 2.09051513671875 1.93182373046875 1.5869598388671875 1.3916473388671875
        0.5615386962890625 0.6866683959960938 1.110870361328125 1.8433151245117188 2.4933624267578125 3.6805343627929688
        5.084381103515625 5.5207977294921875 5.243080139160156 5.017242431640625 4.873809814453125 4.760887145996094
        4.632713317871094 4.4892730712890625 4.367195129394531 4.254280090332031 4.116943359375 4.007080078125
        4.092529296875 4.318367004394531 4.370246887207031 4.229866027832031 4.181037425994873 4.281745910644531
        4.5014801025390625 4.782249450683594 4.983673095703125 5.078278064727783 5.273597717285156 5.5360565185546875
        5.3956756591796875 4.5869293212890625 3.3600845336914062 2.4689483642578125 1.8555220365524292 1.7639693021774292
        2.2827835083007812 4.647972106933594 7.7028727531433105 9.292884826660156 8.340705871582031 6.4180450439453125
        5.185096740722656 5.197303771972656 5.746635437011719 5.6031951904296875 4.748680114746094 4.025390625
        3.7873458862304688 3.5737152099609375 2.990814208984375 2.1912307739257812 1.7487105131149292 1.7212448120117188
        1.88604736328125 2.1332473754882812 2.1851272583007812 1.7914352416992188 1.2878799438476562 1.1413955688476562
        1.3306046724319458 1.507614016532898 1.5503387451171875 1.5503387451171875 1.6785202026367188 1.8189010620117188
        1.92572021484375 2.11492919921875 2.1820755004882812 2.09356689453125 2.07220458984375 2.02337646484375
        1.94708251953125 1.97454833984375 2.11798095703125 2.4109649658203125 2.7954940795898438 3.161720037460327
        3.3997652530670166 3.7080001831054688 4.269538879394531 4.886016845703125 5.288856506347656 5.365150451660156
        5.319374084472656 5.288856506347656 5.157630920410156 4.998931884765625 4.910430908203125 4.5533599853515625
        3.6835861206054688 2.7069931030273438 2.3987579345703125 2.5086212158203125 2.3194046020507812 1.99591064453125
        1.94097900390625 2.2583694458007812 3.5523529052734375 4.251228332519531 3.7842941284179688 3.5981290340423584
        3.6469650268554688 3.8666915893554688 3.7903976440429688 3.4333343505859375 3.2959976196289062 3.076263427734375
        2.948089599609375 2.932830810546875 2.969451904296875 3.109832763671875 3.2715835571289062 3.2166519165039062
        3.051849365234375 3.045745849609375 3.088470458984375 3.1342544555664062 3.3753509521484375 3.5767669677734375
        3.4730072021484375 3.4058685302734375 3.6103360652923584 3.7598800659179688 3.7873458862304688 3.7873458862304688
        3.6683273315429688 3.3936612606048584 3.103729248046875 3.006072998046875 3.070159912109375 3.1281509399414062
        3.073211669921875 3.103729248046875 3.9368896484375 5.3834686279296875 5.5024871826171875 4.104736328125
        3.1403579711914062 2.911468505859375 2.999969482421875 3.3478775024414062 3.4638519287109375 3.3356704711914062
        3.2593765258789062 3.2044448852539062 3.1678237915039062 3.064056634902954 2.917572021484375 2.6520614624023438
        2.3804471492767334 2.3834991455078125 2.5269317626953125 2.346870183944702 2.10577392578125 2.09661865234375
        2.3682327270507812 2.5299835205078125 2.2156448364257812 1.6998825073242188 0.9186096787452698 0.958282470703125
        1.2482070922851562 1.9409791231155396 2.7832870483398438 4.07421875 5.108795166015625 5.157630920410156
        4.803611755371094 4.696800231933594 4.6174468994140625 4.3702473640441895 4.181037902832031 4.0650634765625
        3.93994140625 3.7598800659179688 3.5584564208984375 3.3875579833984375 3.4211273193359375 3.6652755737304688
        3.7842938899993896 3.6866378784179688 3.6408615112304688 3.747673273086548 3.89111328125 4.06201171875
        4.324470520019531 4.666283130645752 4.956206798553467 5.102691650390625 4.812767028808594 3.891113042831421
        2.7832870483398438 2.02032470703125 1.5533905029296875 1.6144256591796875 1.6113739013671875 0.7934799194335938
        4.803611755371094 8.316291809082031 9.082305908203125 8.124031066894531 6.5919952392578125 6.03961181640625
        6.4485626220703125 6.03656005859375 4.742576599121094 3.946044921875 3.87890625 3.7598800659179688
        3.097625732421875 2.1790237426757812 1.6327438354492188 1.525924801826477 1.6266403198242188 1.611374020576477
        1.4221649169921875 1.3733367919921875 1.5594940185546875 1.4679412841796875 1.4343719482421875 1.5045623779296875
        1.5839080810546875 1.6418991088867188 1.7822799682617188 1.93182373046875 2.1668167114257812 2.3834991455078125
        2.4201202392578125 2.3682327270507812 2.3407669067382812 2.3804471492767334 2.4323272705078125 2.5452423095703125
        2.6856307983398438 2.8473739624023438 3.1922378540039062 3.5981292724609375 3.769035577774048 3.8880615234375
        4.306159973144531 4.910430908203125 5.331581115722656 5.304115295410156 4.925689697265625 4.6143951416015625
        4.4465484619140625 4.324470520019531 4.193244934082031 3.750725030899048 2.975555419921875 2.3865509033203125
        2.069153070449829 2.01727294921875 2.1485061645507812 2.1546099185943604 2.8565289974212646 3.872802495956421
        4.6632304191589355 4.681541442871094 4.5197906494140625 4.602188587188721 4.824974060058594 4.672386169433594
        3.87890625 3.5523529052734375 3.6835858821868896 3.4089202880859375 3.042694091796875 2.932830810546875
        3.036590576171875 3.2166519165039062 3.3295669555664062 3.2044448852539062 3.091522216796875 3.2074966430664062
        3.2654800415039062 3.1281509399414062 3.2227554321289062 3.4974212646484375 3.5309906005859375 3.4669036865234375
        3.6530685424804688 3.9002685546875 3.9918212890625 3.9979248046875 3.933837890625 3.7141036987304688
        3.4119720458984375 3.4119720458984375 3.7263107299804688 3.7934494018554688 3.5187835693359375 3.4302825927734375
        4.0589599609375 5.240028381347656 5.4231414794921875 4.126106262207031 2.8595809936523438 2.3804473876953125
        2.2339553833007812 2.3560256958007812 2.6429061889648438 2.6581649780273438 2.4811553955078125 2.3377151489257812
        2.4079132080078125 2.4414825439453125 2.4750518798828125 2.3682327270507812 2.1759719848632812 1.96234130859375
        2.1240921020507812 1.9806517362594604 1.8036423921585083 2.01422119140625 2.3346633911132812 2.5971221923828125
        2.5208282470703125 1.99591064453125 1.098663330078125 1.4740447998046875 1.8036423921585083 2.2858352661132812
        3.021331787109375 4.06201171875 4.849388122558594 4.907379150390625 4.5167388916015625 4.287849426269531
        4.245124816894531 4.043701171875 3.833122491836548 3.6469650268554688 3.4913179874420166 3.3326187133789062
        3.1647720336914062 2.975555658340454 2.877899408340454 2.972503662109375 3.112884521484375 3.1830825805664062
        3.2380142211914062 3.3600845336914062 3.4577484130859375 3.5523529052734375 3.7141034603118896 4.0040283203125
        4.226814270019531 4.174934387207031 3.7232589721679688 2.941986083984375 2.2614212036132812 1.92877197265625
        1.8555220365524292 1.8189010620117188 2.002014398574829 0.7049789428710938 3.5248870849609375 6.6133575439453125
        8.261360168457031 8.554336547851562 8.328498840332031 8.191169738769531 8.056884765625 7.5502777099609375
        6.292915344238281 5.084381103515625 4.4129791259765625 3.8880615234375 3.027435302734375 2.1668167114257812
        1.7426071166992188 1.6632614135742188 1.6998825073242188 1.6541060209274292 1.5381317138671875 1.5900115966796875
        1.7670210599899292 1.87384033203125 1.8494186401367188 1.8066940307617188 1.8555221557617188 1.95013427734375
        1.99285888671875 2.1942825317382812 2.5513458251953125 2.6978378295898438 2.6856307983398438 2.7222518920898438
        2.8046493530273438 2.7832870483398438 2.7100448608398438 2.7832870483398438 2.926727294921875 3.103729248046875
        3.4760589599609375 3.927734375 4.116943359375 4.0711669921875 4.165779113769531 4.5381011962890625
        4.721214294433594 4.5442047119140625 4.031494140625 3.6225509643554688 3.4608001708984375 3.3509292602539062
        3.1586685180664062 2.7649765014648438 2.5605010986328125 2.6306989192962646 2.7619247436523438 2.948089599609375
        2.841270685195923 3.021331787109375 4.235969543457031 4.986724376678467 5.197303771972656 5.038604736328125
        4.968414306640625 5.142372131347656 5.4536590576171875 4.986724853515625 3.946044921875 3.7324142456054688
        3.9857177734375 3.7903976440429688 3.332618474960327 3.033538818359375 3.115936279296875 3.3784027099609375
        3.4424896240234375 3.2288589477539062 3.143409490585327 3.2441177368164062 3.2746353149414062 3.1708755493164062
        3.1739273071289062 3.3661880493164062 3.5248870849609375 3.5340423583984375 3.6561203002929688 3.958251953125
        4.126106262207031 4.153572082519531 4.150520324707031 3.98876953125 3.7232589721679688 3.8453292846679688
        4.333625793457031 4.3824615478515625 3.96435546875 3.982666015625 4.6143951416015625 5.282752990722656
        4.940948486328125 3.4882659912109375 2.3102493286132812 1.95318603515625 1.8066939115524292 1.6815719604492188
        1.7548140287399292 1.92572021484375 1.88909912109375 1.6663131713867188 1.7120895385742188 1.8402634859085083
        2.02337646484375 2.1424026489257812 2.020324468612671 1.7639694213867188 1.7792280912399292 1.6418991088867188
        1.7059860229492188 1.92572021484375 2.105773687362671 2.4140167236328125 2.6398544311523438 1.98370361328125
        1.068145751953125 1.6022186279296875 1.8433151245117188 2.11798095703125 2.6642684936523438 3.4760589599609375
        4.147468566894531 4.330574035644531 4.0345458984375 3.7720870971679688 3.7873458862304688 3.6927413940429688
        3.5035250186920166 3.283790349960327 3.076263427734375 2.917572021484375 2.8199081420898438 2.6734235286712646
        2.4506378173828125 2.2980422973632812 2.3285598754882812 2.4964141845703125 2.7314071655273438 2.993865966796875
        3.1281509399414062 3.2471694946289062 3.2807388305664062 3.1525650024414062 2.966400146484375 2.6825790405273438
        2.1881790161132812 1.7944869995117188 1.8463668823242188 2.1301958560943604 2.2309036254882812 2.09661865234375
        2.02947998046875 1.96234130859375 1.1322402954101562 4.635765075683594 6.930755615234375 7.8951416015625
        7.779167175292969 7.431259632110596 7.5167083740234375 7.953125 7.965331554412842 7.202369689941406
        6.353950500488281 5.734428405761719 4.5869293212890625 3.039642333984375 2.09967041015625 1.7395553588867188
        1.586959719657898 1.7578659057617188 2.026428461074829 2.2156448364257812 2.240058660507202 2.2858352661132812
        2.2461624145507812 2.1301956176757812 2.2400588989257812 2.4018094539642334 2.4414825439453125 2.6215362548828125
        2.890106201171875 2.966400146484375 2.954193115234375 3.006072998046875 3.085418701171875 3.009124755859375
        2.893157958984375 3.024383544921875 3.1312026977539062 3.1678237915039062 3.4455413818359375 4.138313293457031
        4.5258941650390625 4.242073059082031 3.927734375 4.0223388671875 4.0101318359375 3.6561203002929688
        3.085418701171875 2.7008895874023438 2.5360870361328125 2.4079132080078125 2.3255081176757812 2.4384307861328125
        2.4842071533203125 3.2013931274414062 3.6591720581054688 4.818870544433594 5.102691650390625 5.050811767578125
        5.203407287597656 5.267494201660156 5.4994354248046875 5.4902801513671875 5.4719696044921875 5.5360565185546875
        5.331581115722656 4.6204986572265625 3.89111328125 3.7995529174804688 4.1077880859375 4.031494140625
        3.7080001831054688 3.3326187133789062 3.3326187133789062 3.6133880615234375 3.6103363037109375 3.3356707096099854
        3.2746353149414062 3.3326187133789062 3.2837905883789062 3.146461248397827 3.070159912109375 3.1891860961914062
        3.3387222290039062 3.3295669555664062 3.3906097412109375 3.6988449096679688 3.927734375 4.0009765625
        4.06201171875 3.93994140625 3.6835861206054688 3.8331222534179688 4.370246887207031 4.5014801025390625
        4.333625793457031 4.678489685058594 5.206459045410156 5.4292449951171875 4.898223876953125 3.4943695068359375
        2.3743438720703125 2.10577392578125 1.95928955078125 1.7120895385742188 1.5320281982421875 1.5961151123046875
        1.6815719604492188 1.5350799560546875 1.4770965576171875 1.6907272338867188 1.8494187593460083 1.8952027559280396
        1.97454833984375 1.8433152437210083 1.7456589937210083 1.538131833076477 1.7303999662399292 1.8433151245117188
        2.2156448364257812 2.4231719970703125 2.4781036376953125 1.519821047782898 1.1230850219726562 1.5228729248046875
        1.8005905151367188 2.09967041015625 2.6062774658203125 3.1495132446289062 3.4608001708984375 3.5584564208984375
        3.3967132568359375 3.2105484008789062 3.2502212524414062 3.2197036743164062 3.082366943359375 2.896209716796875
        2.6978378295898438 2.5025174617767334 2.4079132080078125 2.3651809692382812 2.2156448364257812 1.9318236112594604
        1.7334519624710083 1.8372116088867188 2.1637649536132812 2.5788116455078125 2.8534772396087646 2.963348388671875
        2.8199081420898438 2.3468704223632812 1.8768922090530396 1.590011715888977 1.3519668579101562 1.449630856513977
        1.9440308809280396 2.4170682430267334 2.4689483642578125 2.2949905395507812 1.93182373046875 2.102722406387329
        0.991851806640625 1.4496307373046875 4.4373931884765625 6.762901306152344 6.869712829589844 6.4577178955078125
        6.683555603027344 7.4800872802734375 7.9073486328125 7.840202808380127 7.4922943115234375 7.242042541503906
        6.790367126464844 5.6031951904296875 4.199348449707031 2.8473737239837646 2.03863525390625 2.08441162109375
        2.2278518676757812 2.3987579345703125 2.5482940673828125 2.5025177001953125 2.3865509033203125 2.4231719970703125
        2.7375106811523438 2.969452142715454 3.033538818359375 3.045745849609375 3.109832763671875 3.1708755493164062
        3.2746353149414062 3.3539810180664062 3.3234634399414062 3.082366943359375 2.938934326171875 3.039642333984375
        2.978607177734375 2.8015975952148438 3.079315185546875 4.1199951171875 4.733421325683594 4.159675598144531
        3.5370941162109375 3.2929458618164062 3.103729248046875 2.6612167358398438 2.3590774536132812 2.3743438720703125
        2.4750516414642334 2.6398544311523438 2.914520263671875 3.027435064315796 2.4842071533203125 3.082366943359375
        3.7354660034179688 4.3763580322265625 4.748680114746094 5.734428405761719 6.161689758300781 6.173896789550781
        6.753746032714844 6.872772216796875 6.10980224609375 5.090484619140625 4.4007720947265625 4.019287109375
        3.921630859375 4.4251861572265625 4.165779113769531 4.132209777832031 3.9368896484375 3.6011810302734375
        3.4760589599609375 3.6500167846679688 3.6652753353118896 3.4669036865234375 3.4974212646484375 3.6347579956054688
        3.5401458740234375 3.3204116821289062 3.2166519165039062 3.2868423461914062 3.3661880493164062 3.3417739868164062
        3.3967132568359375 3.6774826049804688 3.9033203125 3.9613037109375 3.9979248046875 3.927734375
        3.7080001831054688 3.7263107299804688 4.0040283203125 4.01318359375 3.9552001953125 4.367195129394531
        4.882965087890625 5.191200256347656 4.739524841308594 3.3784027099609375 2.3041458129882812 2.02642822265625
        1.91961669921875 1.7639694213867188 1.4984588623046875 1.2878799438476562 1.5503387451171875 1.4252166748046875
        1.2390518188476562 1.071197509765625 1.2817764282226562 1.7395554780960083 1.8097457885742188 1.8677293062210083
        1.7731246948242188 1.614425539970398 1.5198211669921875 1.4191131591796875 1.7334519624710083 2.1851274967193604
        1.7975388765335083 1.2024307250976562 1.3611221313476562 1.6663131713867188 1.91961669921875 2.2583694458007812
        2.8321151733398438 3.1922378540039062 3.094573974609375 2.951141357421875 2.8473739624023438 2.7283554077148438
        2.7192001342773438 2.7130966186523438 2.6032257080078125 2.4842071533203125 2.4384307861328125 2.2949905395507812
        2.1698684692382812 2.1729204654693604 2.1912307739257812 2.03863525390625 1.7639694213867188 1.7090377807617188
        1.90130615234375 2.3346633911132812 2.7802352905273438 2.7924420833587646 2.3499221801757812 1.88909912109375
        1.5655975341796875 1.5472869873046875 1.4984588623046875 1.7059860229492188 2.1881790161132812 2.5696563720703125
        2.6459579467773438 2.3957061767578125 1.6937789916992188 1.2787246704101562 1.1322402954101562 0.7751693725585938
        2.06610107421875 5.319374084472656 6.5492706298828125 6.628624439239502 6.964324951171875 7.376327037811279
        7.300025939941406 7.135231018066406 7.202369689941406 7.4251556396484375 7.782218933105469 7.6174163818359375
        6.735435485839844 5.249183177947998 3.8239669799804688 3.122039794921875 2.7924423217773438 2.6734237670898438
        2.7375106811523438 2.6795272827148438 2.5666043758392334 2.7985458374023438 3.2136001586914062 3.3539810180664062
        3.3967132568359375 3.2776870727539062 3.2990493774414062 3.4150238037109375 3.5218353271484375 3.5676116943359375
        3.4180755615234375 3.1617202758789062 3.064056396484375 3.012176513671875 2.890106201171875 2.7497177124023438
        2.954193115234375 3.7690353393554688 4.019287109375 3.2685317993164062 2.990814208984375 2.8412704467773438
        2.4903106689453125 2.11492919921875 2.1820755004882812 2.4933624267578125 2.914520263671875 3.3356704711914062
        3.7141036987304688 3.924682378768921 3.2502212524414062 3.2349624633789062 3.9765625 3.2715835571289062
        4.104736328125 5.713066101074219 6.5004425048828125 6.207466125488281 6.283760070800781 6.265449523925781
        5.316322326660156 4.242073059082031 3.9674072265625 4.4404449462890625 5.5238494873046875 6.5797882080078125
        4.303108215332031 4.235969543457031 4.0894775390625 3.8361740112304688 3.6652755737304688 3.7324142456054688
        3.7934494018554688 3.7354660034179688 3.8148117065429688 3.8941650390625 3.7476730346679688 3.5309906005859375
        3.3936614990234375 3.3753509521484375 3.3997650146484375 3.3906097412109375 3.4455413818359375 3.6957929134368896
        3.9429931640625 4.0345458984375 4.07421875 4.1138916015625 4.07421875 4.031494140625
        4.162727355957031 4.193244934082031 4.162727355957031 4.3763580322265625 4.736473083496094 4.886016845703125
        4.138313293457031 2.8565292358398438 2.1790237426757812 1.98370361328125 1.8372116088867188 1.7883834838867188
        1.5564422607421875 1.2573623657226562 1.3977508544921875 1.1658096313476562 0.6225814819335938 0.27466583251953125
        0.7141342163085938 1.1383439302444458 1.6785202026367188 1.7944869995117188 1.5930633544921875 1.495406985282898
        1.4099578857421875 1.88604736328125 1.4526824951171875 1.7059860229492188 1.2512587308883667 1.2207413911819458
        1.4923553466796875 1.7975388765335083 1.99285888671875 2.2949905395507812 2.874847412109375 3.2990493774414062
        3.067108154296875 2.7253036499023438 2.5330355167388916 2.4201202392578125 2.3133010864257812 2.3102493286132812
        2.2309036254882812 2.145454168319702 2.2248001098632812 2.2278518676757812 2.1301956176757812 2.1240923404693604
        2.2400588989257812 2.2614212036132812 2.1607131958007812 2.078307867050171 2.05694580078125 2.2888870239257812
        2.6673202514648438 2.6245956420898438 2.05389404296875 1.7731245756149292 1.6998825073242188 1.88909912109375
        1.91351318359375 2.117980718612671 2.5299832820892334 2.8412704467773438 2.954193115234375 2.3560256958007812
        1.1383438110351562 0.7110824584960938 1.3245010375976562 1.7487106323242188 0.6256332397460938 3.057952880859375
        5.694755554199219 6.4882354736328125 7.141334533691406 7.626579284667969 7.6082611083984375 7.229835510253906
        6.952117919921875 6.888031482696533 7.260353088378906 7.89208984375 7.892090320587158 6.836143493652344
        5.5879364013671875 4.559463977813721 4.040648937225342 3.7507247924804688 3.5523531436920166 3.2197036743164062
        3.015228271484375 3.1891860961914062 3.5981292724609375 3.6439130306243896 3.4974212646484375 3.3387222290039062
        3.4699556827545166 3.5584564208984375 3.5004730224609375 3.3906097412109375 3.2288589477539062 3.170875310897827
        3.2105484008789062 3.1678237915039062 2.874847412109375 2.5757598876953125 2.6306991577148438 2.935882568359375
        3.024383544921875 2.7832870483398438 2.8260116577148438 2.8321151733398438 2.5971221923828125 2.4628448486328125
        3.064056634902954 3.2441177368164062 3.4455413818359375 3.7903976440429688 4.0772705078125 4.4526519775390625
        4.284797668457031 4.776145935058594 5.310218811035156 5.227821350097656 5.4078826904296875 6.262397766113281
        7.126075744628906 6.927703857421875 6.5095977783203125 5.90228271484375 4.944000244140625 4.5686187744140625
        5.188148498535156 6.00299072265625 6.689659118652344 7.336647033691406 4.4770660400390625 4.3946685791015625
        4.266487121582031 4.0894775390625 3.9307861328125 3.9246826171875 4.0040283203125 3.982666015625
        3.9124755859375 3.8636398315429688 3.8026046752929688 3.7110519409179688 3.5889739990234375 3.5096282958984375
        3.4730072021484375 3.4760589599609375 3.5645599365234375 3.7720870971679688 3.98876953125 4.0772705078125
        4.007080078125 3.9429931640625 4.068115234375 4.0101318359375 3.933837890625 4.0650634765625
        4.263435363769531 4.705955505371094 5.316322326660156 5.090484619140625 3.8819580078125 2.896209716796875
        2.4628448486328125 2.1881790161132812 1.99591064453125 2.04168701171875 2.05694580078125 1.98675537109375
        1.7212448120117188 1.1780166625976562 0.6683578491210938 0.091552734375 0.5920562744140625 0.6317367553710938
        1.1474990844726562 1.2237930297851562 1.3580703735351562 1.2756729125976562 1.3641738891601562 1.6205291748046875
        1.2848281860351562 1.489303469657898 1.2543106079101562 1.2634658813476562 1.3214492797851562 1.5045623779296875
        1.6632614135742188 1.7914352416992188 2.3651809692382812 2.975555419921875 2.926727294921875 2.6520614624023438
        2.3773956298828125 2.2827835083007812 2.05999755859375 2.02642822265625 1.99285888671875 1.93487548828125
        2.00506591796875 2.1271440982818604 2.11187744140625 2.06304931640625 2.1454544067382812 2.3010940551757812
        2.4475860595703125 2.4933624267578125 2.4323272705078125 2.4567413330078125 2.5421905517578125 2.4262237548828125
        2.08135986328125 1.95623779296875 2.00201416015625 2.2064895629882812 2.3560256958007812 2.6398544311523438
        2.981658935546875 3.1891860961914062 3.2074966430664062 2.3957061767578125 1.3641738891601562 1.4191131591796875
        1.7120895385742188 1.96844482421875 2.06915283203125 0.7263412475585938 2.929779052734375 5.792411804199219
        6.5736846923828125 7.3946380615234375 7.757804870605469 7.5746917724609375 7.2084736824035645 6.720176696777344
        6.341742992401123 6.775108337402344 7.4282073974609375 7.135230541229248 6.3722686767578125 5.694756031036377
        5.4750213623046875 5.099639892578125 4.5258941650390625 4.0589599609375 3.720207452774048 3.4272308349609375
        3.6744308471679688 3.7629318237304688 3.5279388427734375 3.3509292602539062 3.3539810180664062 3.3936614990234375
        3.2441177368164062 3.100677251815796 3.103729248046875 3.2807388305664062 3.4455413818359375 3.3753509521484375
        2.981658935546875 2.5574493408203125 2.4048614501953125 2.2522659301757812 2.05999755859375 2.6612167358398438
        2.8168563842773438 2.7619247436523438 2.8473739624023438 3.054901123046875 3.8026046752929688 4.104736328125
        4.5594635009765625 4.699851989746094 4.867698669433594 5.371253967285156 5.94805908203125 6.723228454589844
        6.738487243652344 5.700859069824219 4.675437927246094 5.001983642578125 6.820884704589844 8.362068176269531
        7.4465179443359375 5.752738952636719 4.959259033203125 5.3834686279296875 6.4546661376953125 6.5248565673828125
        5.169837951660156 4.174934387207031 4.6082916259765625 4.5442047119140625 4.4892730712890625 4.4007720947265625
        4.284797668457031 4.269538879394531 4.3946685791015625 4.443497180938721 4.275642395019531 4.06201171875
        3.982666015625 3.9857177734375 3.970458984375 3.9521484375 3.9735107421875 4.043701171875
        4.147468566894531 4.275642395019531 4.4160308837890625 4.5289459228515625 4.5136871337890625 4.367195129394531
        4.4129791259765625 4.644920349121094 4.904327392578125 5.041656494140625 5.3865203857421875 6.244087219238281
        6.4210968017578125 5.121002197265625 3.7171554565429688 3.2532730102539062 2.8656845092773438 2.4658966064453125
        2.2644729614257812 2.3163528442382812 2.4903106689453125 2.6337509155273438 2.3743438720703125 1.3763885498046875
        0.32654571533203125 0.6469955444335938 0.28687286376953125 0.12207794189453125 0.5890045166015625 1.052886962890625
        1.2817764282226562 1.2787246704101562 1.7395554780960083 1.7151412963867188 1.4679412841796875 1.6541061401367188
        1.4832000732421875 1.434371829032898 1.3275527954101562 1.3763885498046875 1.4893035888671875 1.3122938871383667
        1.7517622709274292 2.3590774536132812 2.5543978214263916 2.5452425479888916 2.240058660507202 2.1698684692382812
        1.8250045776367188 1.7609176635742188 1.7548141479492188 1.7853317260742188 1.7792282104492188 1.89520263671875
        1.97454833984375 1.97149658203125 2.01116943359375 2.2675247192382812 2.5238800048828125 2.6795272827148438
        2.7130966186523438 2.7161483764648438 2.7222518920898438 2.6306991577148438 2.5208282470703125 2.4140167236328125
        2.3957061767578125 2.5788116455078125 2.877899169921875 3.109832763671875 3.2715835571289062 3.3417739868164062
        3.2380142211914062 2.7192001342773438 2.3712844848632812 2.3560256958007812 2.4079132080078125 2.5177764892578125
        2.255317449569702 2.02032470703125 0.5523834228515625 3.4333343505859375 5.807670593261719 6.323432922363281
        7.153541564941406 7.5930023193359375 7.751701354980469 7.235939025878906 6.2166218757629395 5.746635437011719
        6.259346008300781 6.683555603027344 6.4760284423828125 6.299018859863281 6.305122375488281 5.7679972648620605
        5.102691650390625 4.922637939453125 4.4984283447265625 3.6347579956054688 3.5157318115234375 3.6378095149993896
        3.4791107177734375 3.2593765258789062 3.112884521484375 3.1495134830474854 2.975555419921875 2.999969482421875
        3.088470458984375 3.323463201522827 3.4028167724609375 3.3692398071289062 3.112884521484375 2.7069931030273438
        2.4720001220703125 2.288886785507202 2.02337646484375 2.938934326171875 2.975555658340454 2.6429061889648438
        2.761924982070923 3.4760589599609375 3.9429931640625 4.898223876953125 5.676445007324219 5.368202209472656
        5.5909881591796875 6.720176696777344 7.254249572753906 6.839195251464844 6.253242492675781 5.636772155761719
        5.032501220703125 4.321418762207031 4.5655670166015625 6.994842529296875 8.288825988769531 6.5462188720703125
        6.128120422363281 6.796470642089844 6.5034942626953125 5.340736389160156 4.321418762207031 3.6835858821868896
        4.4831695556640625 4.4190826416015625 4.4160308837890625 4.4373931884765625 4.4129791259765625 4.4404449462890625
        4.629661560058594 4.8158183097839355 4.745628356933594 4.4373931884765625 4.217658996582031 4.248176574707031
        4.333625793457031 4.3855133056640625 4.4709625244140625 4.5686187744140625 4.6143951416015625 4.651023864746094
        4.730369567871094 4.852439880371094 4.904327392578125 4.815818786621094 4.913482666015625 5.154579162597656
        5.203407287597656 5.063018798828125 5.679496765136719 6.729331970214844 6.311225891113281 4.5564117431640625
        3.4852142333984375 3.1434097290039062 2.8351669311523438 2.5452423095703125 2.4933624267578125 2.6093292236328125
        2.8321151733398438 3.118988037109375 3.024383544921875 2.1851272583007812 1.2085341215133667 1.4160614013671875
        1.388595700263977 1.083404541015625 1.0986634492874146 1.5655975341796875 1.7395553588867188 1.6754684448242188
        1.99896240234375 1.7761764526367188 1.7487106323242188 1.8616255521774292 1.6907272338867188 1.6571578979492188
        1.593063473701477 1.6327439546585083 1.6907272338867188 1.5411834716796875 1.6449507474899292 1.99591064453125
        2.2644729614257812 2.3133010864257812 2.05694580078125 2.01422119140625 1.599166989326477 1.5961151123046875
        1.5991668701171875 1.7365034818649292 1.7975387573242188 1.8066939115524292 1.8402633666992188 1.9348756074905396
        2.12103271484375 2.4567413330078125 2.6612167358398438 2.7619247436523438 2.8504257202148438 2.948089599609375
        3.073211669921875 3.170875310897827 3.2380142211914062 3.1373062133789062 3.048797607421875 3.2105484008789062
        3.3539810180664062 3.2898941040039062 3.2563247680664062 3.2349624633789062 3.082366943359375 2.887054443359375
        2.877899169921875 2.893157958984375 2.8626327514648438 2.8138046264648438 2.7710800170898438 2.2614212036132812
        2.1454544067382812 0.29602813720703125 3.91552734375 5.859550476074219 6.222724914550781 7.080291748046875
        7.5411224365234375 7.3000264167785645 6.207466125488281 5.359046936035156 5.368202209472656 5.856498718261719
        6.073181629180908 6.259346008300781 6.3783721923828125 5.792411804199219 5.154579162597656 5.276649475097656
        4.968414306640625 4.080322265625 3.8514328002929688 3.906371831893921 3.5981292724609375 3.2807390689849854
        3.079314947128296 3.085418701171875 2.932831048965454 2.972503662109375 3.021332025527954 3.1617202758789062
        3.170875310897827 3.2959976196289062 3.1861343383789062 2.923675537109375 2.5940704345703125 2.2919387817382812
        2.362128973007202 3.262428045272827 3.3570327758789062 3.021331548690796 2.996917724609375 3.842277765274048
        4.321418285369873 5.172889232635498 5.87786865234375 6.170845031738281 7.110809326171875 8.136238098144531
        8.371223449707031 7.9561767578125 7.4831390380859375 7.5289154052734375 7.724235534667969 5.92059326171875
        3.7141036987304688 3.897216796875 6.918548583984375 5.633720397949219 3.3509292602539062 3.6591720581054688
        4.5777740478515625 4.635765075683594 4.1077880859375 3.7354660034179688 4.278694152832031 4.162727355957031
        4.251228332519531 4.348884582519531 4.284797668457031 4.370246887207031 4.745628356933594 5.069122314453125
        5.026397705078125 4.709007263183594 4.4557037353515625 4.4312896728515625 4.5045318603515625 4.5808258056640625
        4.715110778808594 4.824974060058594 4.879913330078125 4.944000244140625 5.078277587890625 5.209510803222656
        5.212562561035156 5.139320373535156 5.322425842285156 5.673393249511719 5.6154022216796875 5.636772155761719
        6.830039978027344 7.4861907958984375 5.98468017578125 4.229866027832031 3.5065762996673584 2.8565292358398438
        2.1912307739257812 1.8341598510742188 1.7548141479492188 2.1332473754882812 2.8321151733398438 3.2288589477539062
        3.1434097290039062 2.7314071655273438 2.1729202270507812 1.96844482421875 2.08441162109375 1.9348756074905396
        1.8066939115524292 1.95928955078125 2.1759719848632812 2.04779052734375 2.09967041015625 1.9806517362594604
        2.056946039199829 2.029480218887329 1.90740966796875 1.9043580293655396 1.89520263671875 1.90740966796875
        1.91351318359375 1.7944871187210083 1.6418991088867188 1.7792282104492188 2.09356689453125 2.05389404296875
        1.89215087890625 1.92572021484375 1.6724166870117188 1.6907272338867188 1.6815719604492188 1.8189010620117188
        1.91046142578125 1.8982542753219604 1.92572021484375 2.06610107421875 2.3163528442382812 2.6337509155273438
        2.8229598999023438 2.8595809936523438 2.890106201171875 3.009124755859375 3.2166519165039062 3.4852142333984375
        3.6927413940429688 3.7232589721679688 3.7263107299804688 3.7873458862304688 3.6713790893554688 3.4241790771484375
        3.2837905883789062 3.1678237915039062 3.057952880859375 3.057952880859375 3.1250991821289062 3.1312026977539062
        3.097625732421875 3.1556167602539062 3.2563247680664062 2.877899169921875 2.5086212158203125 2.5574493408203125
        0.31128692626953125 4.4465484619140625 5.4628143310546875 5.697807312011719 6.5004425048828125 6.683555603027344
        5.99688720703125 5.188148498535156 5.023345947265625 5.319374084472656 5.639823913574219 5.8076701164245605
        5.829032897949219 5.5604705810546875 5.102691650390625 5.081329345703125 4.846336841583252 4.632713317871094
        4.815818786621094 4.776145935058594 4.324470520019531 3.7842941284179688 3.3631362915039062 3.3265154361724854
        3.1250994205474854 3.036590814590454 2.941986083984375 2.990814208984375 3.018280029296875 3.2776870727539062
        3.3417739868164062 3.1464614868164062 2.6398544311523438 2.2705764770507812 2.6245954036712646 3.3051528930664062
        3.3112564086914062 3.3631365299224854 3.994873046875 4.766990661621094 4.950103759765625 5.6184539794921875
        6.662193298339844 6.848350524902344 6.4729766845703125 6.900238037109375 8.178962707519531 9.042633056640625
        9.140296936035156 9.137245178222656 8.944976806640625 6.952117919921875 3.8636398315429688 3.7293624877929688
        5.804618835449219 4.4068756103515625 1.8127975463867188 1.6876754760742188 2.7344589233398438 3.7507247924804688
        4.0345458984375 4.208503723144531 4.312263488769531 4.132209777832031 4.181037902832031 4.321418762207031
        4.275642395019531 4.4099273681640625 4.882965087890625 5.157630920410156 5.041656494140625 4.852439880371094
        4.681541442871094 4.5777740478515625 4.5564117431640625 4.635765075683594 4.791404724121094 4.889068603515625
        4.940948486328125 5.069122314453125 5.270545959472656 5.3895721435546875 5.279701232910156 5.178992748260498
        5.4689178466796875 5.841239929199219 5.676445007324219 6.106750011444092 7.739494323730469 7.660148620605469
        5.5452117919921875 4.339729309082031 3.927734375 3.1647720336914062 2.3224563598632812 1.6724166870117188
        1.2817764282226562 1.6418991088867188 2.4323272705078125 2.8717880249023438 3.036590576171875 2.7893905639648438
        2.4903106689453125 2.5116729736328125 2.6276473999023438 2.6184844970703125 2.5086212158203125 2.5055694580078125
        2.3346633911132812 2.3255081176757812 2.304145574569702 2.2766799926757812 2.3102493286132812 2.2095413208007812
        2.08746337890625 2.05694580078125 2.02947998046875 2.01422119140625 1.99896240234375 1.7731246948242188
        1.5381317138671875 1.6449508666992188 1.98980712890625 1.88909912109375 1.8280563354492188 1.91046142578125
        1.8463668823242188 1.8097459077835083 1.8219528198242188 1.90740966796875 1.91046142578125 1.8646774291992188
        1.93487548828125 2.1576614379882812 2.4018096923828125 2.6398544311523438 2.7832870483398438 2.7680282592773438
        2.7588729858398438 2.8534774780273438 3.054901123046875 3.360084295272827 3.6378097534179688 3.7965011596679688
        3.885009527206421 3.9033203125 3.7903976440429688 3.6286544799804688 3.4638519287109375 3.2898941040039062
        3.2410659790039062 3.2929458618164062 3.2990493774414062 3.3143081665039062 3.3265151977539062 3.4577484130859375
        3.5615081787109375 3.3295669555664062 2.932830810546875 2.957244873046875 2.7069931030273438 0.28992462158203125
        3.8941650390625 4.828025817871094 5.294960021972656 5.89617919921875 5.5543670654296875 4.867698669433594
        4.690696716308594 5.145423889160156 5.4292449951171875 5.4811248779296875 5.4139862060546875 5.5391082763671875
        5.322425842285156 4.953155517578125 4.864646911621094 5.316322326660156 5.5055389404296875 5.264441967010498
        4.910430908203125 4.5350494384765625 4.055908203125 3.7873458862304688 3.5340423583984375 3.3600845336914062
        3.027435302734375 3.012176513671875 3.061004638671875 3.3082046508789062 3.366187810897827 3.1250991821289062
        2.7893905639648438 2.5147247314453125 2.6215362548828125 3.1495132446289062 3.067108154296875 3.4028167724609375
        4.751732349395752 5.5543670654296875 5.5482635498046875 6.237983703613281 7.5594329833984375 7.6052093505859375
        6.234931945800781 6.4333038330078125 8.853416442871094 10.748619079589844 10.690635681152344 10.202339172363281
        9.683525085449219 7.821891784667969 5.243080139160156 5.6062469482421875 7.281715393066406 5.215614318847656
        2.09356689453125 1.5747528076171875 2.1851272583007812 2.8290634155273438 3.3448257446289062 3.5187835693359375
        4.358039855957031 4.135261535644531 4.0650634765625 4.159675598144531 4.150520324707031 4.281745910644531
        4.641868591308594 4.892120361328125 4.947052001953125 4.934844970703125 4.803611755371094 4.6204986572265625
        4.5503082275390625 4.641868591308594 4.773094177246094 4.785301208496094 4.803611755371094 4.995880126953125
        5.236976623535156 5.340736389160156 5.291908264160156 5.3407368659973145 5.673393249511719 5.97857666015625
        6.10064697265625 6.958221435546875 8.203376770019531 7.5930023193359375 5.767997741699219 4.748680114746094
        4.205451965332031 3.4241790771484375 2.5849151611328125 2.1515579223632812 2.04473876953125 1.94708251953125
        2.09967041015625 2.5543975830078125 3.003021240234375 2.929779052734375 2.6734237670898438 2.877898931503296
        2.8626327514648438 2.8382186889648438 2.7192001342773438 2.7344589233398438 2.3621292114257812 2.3621292114257812
        2.3316116333007812 2.3712844848632812 2.3224563598632812 2.2095415592193604 2.05999755859375 2.03863525390625
        2.02032470703125 2.04779052734375 1.9470824003219604 1.7578659057617188 1.6266403198242188 1.6907272338867188
        1.95013427734375 1.8555220365524292 1.88909912109375 1.97760009765625 1.99285888671875 1.95623779296875
        2.02337646484375 2.06610107421875 1.96844482421875 1.89520263671875 1.9989625215530396 2.2370071411132812
        2.4994659423828125 2.7100448608398438 2.7558212280273438 2.6490097045898438 2.6062774658203125 2.6642684936523438
        2.8077011108398438 3.027435302734375 3.2685317993164062 3.4730072021484375 3.6072843074798584 3.6805343627929688
        3.6957931518554688 3.6622238159179688 3.5645599365234375 3.4638519287109375 3.4638519287109375 3.4669039249420166
        3.4577484130859375 3.5401458740234375 3.6042327880859375 3.6866378784179688 3.6164398193359375 3.2898941040039062
        2.999969482421875 2.960296630859375 3.106781005859375 2.7863388061523438 0.4150543212890625 2.8260116577148438
        4.132209777832031 4.5686187744140625 4.800559997558594 4.5930328369140625 4.647972106933594 5.038604736328125
        5.221717357635498 5.258338928222656 5.050811767578125 5.313270568847656 5.633720397949219 5.3712544441223145
        4.861595153808594 5.243080139160156 5.362098693847656 5.166786193847656 4.971466064453125 4.882965087890625
        4.754783630371094 4.412978649139404 4.153572082519531 3.8056564331054688 3.2868423461914062 3.2929461002349854
        3.3478775024414062 3.4180757999420166 3.2807388305664062 3.082366943359375 3.003021478652954 2.7649765014648438
        2.5574493408203125 2.893157958984375 3.051849365234375 3.7110519409179688 4.742576599121094 5.728324890136719
        5.789360046386719 6.11590576171875 7.5563812255859375 8.249153137207031 7.3915863037109375 7.589951038360596
        9.93682861328125 11.511581420898438 11.447494506835938 11.197242736816406 10.727256774902344 8.819847106933594
        5.6123504638671875 5.4780731201171875 8.154548645019531 7.000946044921875 3.6378097534179688 2.6429061889648438
        2.6642684936523438 2.6886825561523438 2.984710693359375 3.1861343383789062 4.669334411621094 4.321418762207031
        3.897216796875 3.9185791015625 4.06201171875 4.202400207519531 4.4343414306640625 4.696800231933594
        4.950103759765625 5.075225830078125 4.940948486328125 4.721214294433594 4.696800231933594 4.837181091308594
        4.901275634765625 4.812767028808594 4.840233325958252 5.069122314453125 5.273597717285156 5.3865203857421875
        5.5299530029296875 5.679496765136719 5.88702392578125 6.231880187988281 6.723228931427002 7.4129486083984375
        7.812736511230469 7.358009338378906 6.311225891113281 5.246131896972656 4.272590637207031 3.3326187133789062
        2.4811553955078125 2.1668167114257812 2.1973342895507812 2.11492919921875 2.12103271484375 2.4506378173828125
        2.896209716796875 2.945037841796875 2.6795272827148438 2.5452425479888916 2.4201202392578125 2.3743438720703125
        2.07525634765625 1.96539306640625 1.8250045776367188 1.99591064453125 2.09661865234375 2.07525634765625
        2.081360101699829 2.08746337890625 2.10577392578125 2.1240923404693604 2.1301956176757812 2.05999755859375
        1.7395554780960083 1.6937788724899292 1.7487107515335083 1.8463670015335083 1.89215087890625 1.89825439453125
        2.02032470703125 2.03863525390625 2.07220458984375 2.1485061645507812 2.2644729614257812 2.2064895629882812
        2.05694580078125 2.084411859512329 2.3102493286132812 2.4872589111328125 2.6123809814453125 2.7527694702148438
        2.7039413452148438 2.5574493408203125 2.4781036376953125 2.5208282470703125 2.6062774658203125 2.7130966186523438
        2.890106201171875 3.094573974609375 3.2807388305664062 3.4150238037109375 3.4791107177734375 3.5157318115234375
        3.5096282958984375 3.4913177490234375 3.5279388427734375 3.5523529052734375 3.6286544799804688 3.7965011596679688
        3.9033203125 3.885009765625 3.5370941162109375 3.076263666152954 2.7802352905273438 2.7558212280273438
        2.8229598999023438 2.987762451171875 2.8534774780273438 1.1688613891601562 1.3763885498046875 2.4079132080078125
        2.2248001098632812 2.1424026489257812 2.7253036499023438 3.6042327880859375 3.96435546875 4.4496002197265625
        4.748680114746094 5.3773651123046875 5.88092041015625 4.660179138183594 2.2919387817382812 2.03863525390625
        3.366187810897827 4.724266052246094 4.687644958496094 4.629661560058594 4.7242655754089355 4.4221343994140625
        4.129158020019531 3.5859222412109375 3.1922378540039062 3.3112564086914062 3.4211275577545166 3.286842107772827
        3.1464614868164062 2.8534774780273438 2.4567413330078125 2.3621292114257812 2.4079132080078125 2.4994661808013916
        2.929779052734375 3.6378097534179688 4.715110778808594 5.664237976074219 5.404831409454346 5.648979187011719
        7.098602294921875 8.648948669433594 8.590957641601562 8.621475219726562 10.141304016113281 11.392562866210938
        12.1036376953125 12.335578918457031 11.828971862792969 10.251168251037598 7.046722412109375 5.291908264160156
        6.958221435546875 7.257301330566406 4.968414306640625 3.9033203125 3.4638519287109375 2.972503662109375
        2.981658935546875 3.3051528930664062 4.5808258056640625 4.0711669921875 3.7385177612304688 3.8636398315429688
        4.0650634765625 4.184089660644531 4.339729309082031 4.6082916259765625 5.001983642578125 5.261390686035156
        5.124061584472656 4.858543395996094 4.898223876953125 5.121002197265625 5.133216857910156 4.989776611328125
        5.023345947265625 5.151527404785156 5.221717834472656 5.3987274169921875 5.676445007324219 5.807670593261719
        5.92669677734375 6.4760284423828125 7.4465179443359375 7.9378662109375 7.650993347167969 7.367164611816406
        6.811729431152344 5.4902801513671875 4.1199951171875 3.1861343383789062 2.6093292236328125 2.4170682430267334
        2.4170684814453125 2.3834991455078125 2.4506378173828125 2.6673202514648438 2.8687362670898438 2.8168563842773438
        2.5482940673828125 2.3194046020507812 2.1881790161132812 1.9592894315719604 1.5137176513671875 1.1536027193069458
        1.052886962890625 1.062042236328125 1.2451553344726562 1.7639693021774292 1.8463670015335083 2.11492919921875
        2.264472723007202 2.2248003482818604 2.00811767578125 1.6632614135742188 1.2909317016601562 1.3733367919921875
        1.6602096557617188 1.91961669921875 1.8189010620117188 1.8555221557617188 1.98980712890625 2.05694580078125
        2.1332473754882812 2.2492141723632812 2.2858352661132812 2.1973342895507812 2.1637649536132812 2.3316116333007812
        2.6306991577148438 2.4964141845703125 2.3010942935943604 2.3438186645507812 2.362128973007202 2.3163528442382812
        2.2797317504882812 2.3377151489257812 2.4048614501953125 2.4842071533203125 2.6154327392578125 2.7954940795898438
        3.003021240234375 3.1678237915039062 3.2624282836914062 3.3417739868164062 3.3814544677734375 3.4272310733795166
        3.5218353271484375 3.6011810302734375 3.7903976440429688 4.0467529296875 4.165779113769531 4.019287109375
        3.4821624755859375 2.957244873046875 2.5696563720703125 2.3499221801757812 2.4475860595703125 2.7069931030273438
        3.006072998046875 2.8138046264648438 1.95013427734375 1.2390518188476562 1.419113278388977 1.7181930541992188
        1.4648895263671875 0.8575668931007385 0.18921661376953125 0.7171859741210938 1.5778045654296875 2.4720001220703125
        2.5971221923828125 0.23804475367069244 2.05694580078125 2.03253173828125 1.5594940185546875 1.7853317260742188
        2.8138046264648438 3.662224054336548 3.7202072143554688 3.5309908390045166 3.2685317993164062 2.7497177124023438
        2.6551132202148438 2.8534772396087646 3.042693853378296 2.8199081420898438 2.3926544189453125 1.571700930595398
        1.2298965454101562 0.9216614365577698 0.7904281616210938 1.7822799682617188 2.3133010864257812 1.87384033203125
        1.8250045776367188 3.8209152221679688 4.794456481933594 5.3804168701171875 6.5340118408203125 8.261360168457031
        9.152503967285156 9.347816467285156 9.95513916015625 10.956146240234375 12.274543762207031 12.796409606933594
        12.161628723144531 11.206398010253906 9.054840087890625 6.665245056152344 6.784263610839844 7.5685882568359375
        5.92059326171875 4.754783630371094 4.01318359375 3.2105484008789062 2.899261474609375 3.3143081665039062
        3.982666015625 3.4180755615234375 3.6164398193359375 4.06201171875 4.254280090332031 4.275642395019531
        4.364143371582031 4.5808258056640625 5.020294189453125 5.3926239013671875 5.304114818572998 5.001983642578125
        5.044708251953125 5.307167053222656 5.346839904785156 5.246131896972656 5.264442443847656 5.252235412597656
        5.279701232910156 5.627616882324219 5.96331787109375 6.04571533203125 6.302070617675781 7.165748596191406
        8.459732055664062 9.036529541015625 8.532974243164062 7.776115417480469 6.695762634277344 5.142372131347656
        3.8056564331054688 2.966400146484375 2.5543975830078125 2.5696563720703125 2.6612167358398438 2.6184844970703125
        2.7344589233398438 3.030487060546875 3.1312026977539062 2.884002685546875 2.5727081298828125 2.4292755126953125
        2.3224563598632812 2.00506591796875 1.5167694091796875 1.1566543579101562 0.988800048828125 0.5310211181640625
        0.18006134033203125 1.419113278388977 1.6266403198242188 1.8433152437210083 1.8585739135742188 1.8005906343460083
        1.5930633544921875 1.2451553344726562 1.052886962890625 1.1536026000976562 1.5076141357421875 1.8372116088867188
        1.7944868803024292 1.7731246948242188 1.87689208984375 2.02947998046875 2.1454544067382812 2.2217483520507812
        2.2797319889068604 2.3071975708007812 2.3560256958007812 2.6245954036712646 2.5940704345703125 1.7090377807617188
        1.3153457641601562 1.577804446220398 1.8005905151367188 1.94097900390625 1.98675537109375 2.07220458984375
        2.1851272583007812 2.2980422973632812 2.4018096923828125 2.5391390323638916 2.7466659545898438 2.917572021484375
        3.033538818359375 3.1586685180664062 3.2624282836914062 3.3967132568359375 3.5157318115234375 3.6439132690429688
        3.9368896484375 4.202400207519531 4.226814270019531 3.91552734375 3.3478775024414062 2.8443222045898438
        2.4597930908203125 2.2370071411132812 2.3560256958007812 2.6032257080078125 2.7405624389648438 2.7985458374023438
        2.6886825561523438 2.3834991455078125 2.2095415592193604 2.2675247192382812 2.2919387817382812 2.4079132080078125
        2.7130966186523438 2.893157958984375 2.8015975952148438 2.6306991577148438 2.7771835327148438 3.1739273071289062
        2.7375106811523438 2.05694580078125 1.93182373046875 2.2980422973632812 1.5259246826171875 2.2095413208007812
        3.030487298965454 3.070159912109375 2.6184844970703125 2.1942825317382812 2.2492141723632812 2.2766799926757812
        1.97454833984375 1.1810684204101562 1.068145751953125 1.3855438232421875 1.6296920776367188 1.068145751953125
        0.32349395751953125 0.8148422241210938 0.943023681640625 0.8392562866210938 1.580856204032898 2.1332473754882812
        4.1077880859375 4.950103759765625 5.017242431640625 6.125068664550781 7.6143646240234375 7.803581237792969
        7.6235270500183105 8.85952091217041 11.346778869628906 12.0914306640625 11.029388427734375 10.388503074645996
        9.207435607910156 7.351905822753906 7.4068450927734375 9.134193420410156 7.721183776855469 5.804618835449219
        4.690696716308594 3.7171554565429688 3.012176513671875 2.938934326171875 3.7812423706054688 3.2044448852539062
        3.4791107177734375 4.290901184082031 4.693748474121094 4.5899810791015625 4.4923248291015625 4.6174468994140625
        4.971466064453125 5.352943420410156 5.355995178222656 5.117950439453125 5.163734436035156 5.4048309326171875
        5.4292449951171875 5.3987274169921875 5.4414520263671875 5.346839904785156 5.334632873535156 5.691703796386719
        5.90533447265625 5.5909881591796875 5.7710490226745605 7.4587249755859375 9.720146179199219 10.608230590820312
        9.778129577636719 7.885986328125 5.96331787109375 4.690696716308594 3.8148117065429688 2.969451904296875
        2.4964141845703125 2.6856307983398438 2.954193115234375 2.890106201171875 2.929779052734375 3.323463201522827
        3.5004730224609375 3.1464614868164062 2.7497177124023438 2.7222518920898438 2.7558212280273438 2.5269317626953125
        2.07830810546875 1.7365036010742188 1.5015106201171875 0.897247314453125 0.16785430908203125 0.9613342881202698
        1.3122938871383667 1.2421035766601562 1.6327438354492188 1.5625457763671875 1.5167694091796875 1.2939834594726562
        1.113922119140625 1.1566542387008667 1.3946990966796875 1.6449507474899292 1.7456588745117188 1.6876754760742188
        1.6846237182617188 1.8555221557617188 2.09661865234375 2.2461624145507812 2.2919387817382812 2.2614212036132812
        2.3621292114257812 2.4536895751953125 1.8005906343460083 0.7660140991210938 0.717185914516449 1.1566543579101562
        1.4221649169921875 1.6418991088867188 1.7487107515335083 1.88604736328125 2.02642822265625 2.11492919921875
        2.1729202270507812 2.3102493286132812 2.5025177001953125 2.6764755249023438 2.8473739624023438 3.030487060546875
        3.1861343383789062 3.3906097412109375 3.5706634521484375 3.7720870971679688 4.055908203125 4.177986145019531
        4.0284423828125 3.6347579956054688 3.1891860961914062 2.8199081420898438 2.5086212158203125 2.3804473876953125
        2.3560256958007812 2.3468704223632812 2.3255081176757812 2.4323272705078125 2.6001739501953125 2.5818634033203125
        2.6001739501953125 2.6978378295898438 2.6306991577148438 2.5330352783203125 2.6520614624023438 2.7619247436523438
        2.7985458374023438 2.8107528686523438 2.7192001342773438 2.2980422973632812 1.87384033203125 1.92572021484375
        2.3407669067382812 2.6062774658203125 2.5666046142578125 1.92266845703125 1.6296920776367188 1.3397599458694458
        0.4120025634765625 0.5493316650390625 0.21668243408203125 0.1190185546875 0.13123321533203125 0.7538070678710938
        1.5808563232421875 2.041686773300171 1.95318603515625 1.1505508422851562 0.4028473198413849 0.7965316772460938
        1.92877197265625 2.6581649780273438 2.6459579467773438 2.874847412109375 3.6378097534179688 3.8880615234375
        3.3631362915039062 3.3631362915039062 4.4496002197265625 5.032501220703125 4.971466064453125 6.711021423339844
        10.00396728515625 11.453598022460938 10.534987449645996 9.485153198242188 8.261360168457031 6.848350524902344
        7.248146057128906 9.87884521484375 9.802543640136719 7.9805908203125 6.683555603027344 5.529953479766846
        3.7751388549804688 2.4079132080078125 5.6154022216796875 4.242073059082031 4.0284423828125 4.675437927246094
        5.273597717285156 5.078277587890625 4.757835388183594 4.730369567871094 4.974517822265625 5.246131896972656
        5.258338928222656 5.099639892578125 5.206459045410156 5.557419300079346 5.633720397949219 5.5940399169921875
        5.688652038574219 5.5513153076171875 5.352943420410156 5.487228870391846 5.676445484161377 5.310218811035156
        5.719169616699219 8.719139099121094 11.578720092773438 11.221656799316406 9.521774291992188 7.702873229980469
        5.728324890136719 4.6052398681640625 3.9979248046875 3.1525650024414062 2.6032257080078125 2.8534774780273438
        3.2410659790039062 3.1830825805664062 3.100677490234375 3.5035247802734375 3.8087081909179688 3.4455413818359375
        2.926727294921875 2.951141357421875 3.1617202758789062 2.981658935546875 2.5055694580078125 2.2034378051757812
        1.97760009765625 1.5747528076171875 1.1993789672851562 1.1719131469726562 1.2298965454101562 1.4282684326171875
        1.7609176635742188 1.7670211791992188 1.7822799682617188 1.5503387451171875 1.2756729125976562 1.2787246704101562
        1.4221649169921875 1.5808563232421875 1.7212448120117188 1.7090377807617188 1.6541061401367188 1.8463668823242188
        2.056946039199829 2.02947998046875 1.8402633666992188 1.8036422729492188 1.8372116088867188 1.5015106201171875
        0.943023681640625 0.7446517944335938 0.885040283203125 1.1658097505569458 1.3672256469726562 1.5503387451171875
        1.6541061401367188 1.7792282104492188 1.8677291870117188 1.87384033203125 1.8616256713867188 1.91961669921875
        2.07525634765625 2.3438186645507812 2.6368026733398438 2.899261474609375 3.109832525253296 3.3784027099609375
        3.6103363037109375 3.8514328002929688 4.03759765625 4.0040283203125 3.7446212768554688 3.3692398071289062
        3.106781005859375 2.890106201171875 2.6368026733398438 2.5543975830078125 2.4689483642578125 2.2858352661132812
        2.1637649536132812 2.2522659301757812 2.4414825439453125 2.5208282470703125 2.4994659423828125 2.4567413330078125
        2.4048614501953125 2.3133010864257812 2.4140167236328125 2.6825790405273438 2.8412704467773438 2.8412704467773438
        2.5666046142578125 2.2431106567382812 2.11187744140625 2.2064895629882812 2.4720001220703125 2.4292755126953125
        2.3255081176757812 2.2919387817382812 2.3224563598632812 2.7253036499023438 3.3295669555664062 2.938934564590454
        2.5330352783203125 2.04168701171875 1.3000869750976562 1.004058837890625 2.02337646484375 3.5157318115234375
        3.8544845581054688 3.7080001831054688 3.4669036865234375 3.5706634521484375 3.9674072265625 4.007080078125
        3.91552734375 4.254280090332031 4.770042419433594 4.855492115020752 4.657127380371094 4.623558044433594
        4.5716705322265625 4.5319976806640625 5.017242431640625 6.869712829589844 9.659110069274902 11.087371826171875
        10.626548767089844 9.552291870117188 8.0843505859375 6.6011505126953125 6.256294250488281 7.846305847167969
        8.917510986328125 8.410903930664062 7.849357604980469 7.019256114959717 4.809715270996094 3.2013931274414062
        7.742546081542969 6.082336902618408 5.124061584472656 5.127113342285156 5.5604705810546875 5.4170379638671875
        5.038604259490967 4.892120361328125 5.093536376953125 5.273597717285156 5.230873107910156 5.072174072265625
        5.218666076660156 5.752739429473877 5.969421863555908 5.853446960449219 5.87786865234375 5.661186218261719
        5.163734436035156 4.886016845703125 4.950103759765625 4.5503082275390625 4.684593200683594 7.8249430656433105
        11.716056823730469 12.332527160644531 10.626548767089844 8.603164672851562 6.4180450439453125 5.017242431640625
        4.229866027832031 3.3631362915039062 2.914520263671875 3.180030584335327 3.5584564208984375 3.4730072021484375
        3.3570330142974854 3.7568283081054688 4.147468566894531 3.8209152221679688 3.2013931274414062 3.1403579711914062
        3.4760589599609375 3.3173599243164062 2.6673202514648438 2.3224563598632812 2.2766799926757812 2.06610107421875
        1.8189010620117188 1.6205291748046875 1.5839080810546875 1.7151412963867188 1.7944869995117188 1.88299560546875
        2.07220458984375 1.95318603515625 1.5442352294921875 1.3763885498046875 1.5198211669921875 1.6876754760742188
        1.8372114896774292 1.8311080932617188 1.7670211791992188 1.8158494234085083 1.7944871187210083 1.6663132905960083
        1.486251950263977 1.379440426826477 1.1688613891601562 0.979644775390625 0.9552306532859802 1.022369384765625
        1.092559814453125 1.2756729125976562 1.4770965576171875 1.6083221435546875 1.6846237182617188 1.7212448120117188
        1.7487107515335083 1.6754684448242188 1.5778045654296875 1.4893035888671875 1.571700930595398 1.90740966796875
        2.3224563598632812 2.6673202514648438 2.969451904296875 3.2349624633789062 3.4455413818359375 3.6988449096679688
        3.8331222534179688 3.7110519409179688 3.3478775024414062 3.042694091796875 2.966400146484375 2.8717880249023438
        2.7039413452148438 2.6703720092773438 2.7008895874023438 2.6306991577148438 2.4903106689453125 2.4750518798828125
        2.5330352783203125 2.4933624267578125 2.4201202392578125 2.4079132080078125 2.4414825439453125 2.3438186645507812
        2.2217483520507812 2.4170684814453125 2.6245956420898438 2.6368026733398438 2.3621292114257812 2.09967041015625
        1.95013427734375 1.98065185546875 2.3194046020507812 2.2431106567382812 2.2278521060943604 2.7954940795898438
        3.109832763671875 3.1708755493164062 3.1586685180664062 2.877899169921875 2.6398544311523438 2.2461624145507812
        1.5106658935546875 1.2451553344726562 3.106781005859375 3.799553155899048 4.751731872558594 5.5238494873046875
        5.703910827636719 5.3743133544921875 5.148475646972656 5.005035400390625 5.038604736328125 5.3926239013671875
        5.804618835449219 5.850395202636719 5.716117858886719 5.5177459716796875 5.075225830078125 4.672386169433594
        5.014190673828125 6.192207336425781 7.806632995605469 9.045684814453125 9.634696960449219 9.860527038574219
        9.216590881347656 7.788322925567627 6.5614776611328125 6.4638214111328125 7.052825927734375 7.104705810546875
        7.217628479003906 7.135231018066406 5.4322967529296875 3.6835858821868896 7.4282073974609375 6.6042022705078125
        5.767997741699219 5.3956756591796875 5.6001434326171875 5.5055389404296875 5.182044982910156 4.925689697265625
        5.063018798828125 5.203407287597656 5.127113342285156 4.934844970703125 5.020294189453125 5.5055389404296875
        5.810722351074219 5.703910827636719 5.5696258544921875 5.264442443847656 4.785301208496094 4.5533599853515625
        4.754783630371094 4.5594635009765625 4.300056457519531 5.87481689453125 9.656059265136719 12.622459411621094
        12.335578918457031 9.91851806640625 7.4312591552734375 6.320381164550781 5.642875671386719 4.5503082275390625
        3.881958246231079 3.872802734375 4.0406494140625 3.89111328125 3.7690353393554688 4.165779113769531
        4.5747222900390625 4.257331848144531 3.5859220027923584 3.3112564086914062 3.5096282958984375 3.4028167724609375
        2.7100448608398438 2.2064895629882812 2.1912307739257812 2.1240921020507812 1.94097900390625 1.7914352416992188
        1.8372116088867188 2.06610107421875 2.09661865234375 2.05694580078125 2.2766799926757812 2.2858352661132812
        1.92266845703125 1.5808563232421875 1.5747528076171875 1.7426069974899292 1.89825439453125 1.87384033203125
        1.7029342651367188 1.5991668701171875 1.6174774169921875 1.6388473510742188 1.5747528076171875 1.385543942451477
        1.1444474458694458 1.086456298828125 1.1505508422851562 1.2207412719726562 1.2817764282226562 1.4435272216796875
        1.6480025053024292 1.7822799682617188 1.8555221557617188 1.8433151245117188 1.7700729370117188 1.6388473510742188
        1.5717010498046875 1.5228729248046875 1.492355465888977 1.6510543823242188 2.04168701171875 2.3926544189453125
        2.7253036499023438 2.990814208984375 3.201392889022827 3.4241790771484375 3.4546966552734375 3.2471694946289062
        2.877899169921875 2.6520614624023438 2.6368026733398438 2.6032257080078125 2.5177767276763916 2.5330352783203125
        2.5788116455078125 2.5360870361328125 2.4933624267578125 2.4536895751953125 2.3468704223632812 2.3255081176757812
        2.4323272705078125 2.5055694580078125 2.4384307861328125 2.1759719848632812 2.1424026489257812 2.3621292114257812
        2.5513458251953125 2.5086212158203125 2.3560256958007812 2.1576614379882812 2.1546096801757812 2.5757598876953125
        3.1403579711914062 2.3621292114257812 2.7924423217773438 2.8595809936523438 2.7008895874023438 2.7466659545898438
        2.990814208984375 3.1495132446289062 2.7344589233398438 2.4170684814453125 1.077301025390625 1.8524703979492188
        3.015228271484375 3.6439132690429688 4.651023864746094 5.673393249511719 6.4973907470703125 6.720176696777344
        6.3875274658203125 5.859550476074219 5.719169616699219 6.10980224609375 6.772056579589844 6.939911365509033
        6.820884704589844 6.631675720214844 6.08843994140625 5.352943420410156 5.191200256347656 5.93585205078125
        6.5645294189453125 6.894134521484375 7.809684753417969 9.414962768554688 10.08331298828125 9.155555725097656
        7.837150573730469 7.153541564941406 6.860557556152344 6.344795227050781 6.228828430175781 6.5157012939453125
        5.5879364013671875 3.6835861206054688 6.06402587890625 6.04266357421875 5.716117858886719 5.4841766357421875
        5.6062469482421875 5.4872283935546875 5.160682678222656 4.739524841308594 4.742576599121094 4.892120361328125
        4.861595153808594 4.718162536621094 4.788352966308594 5.197303771972656 5.6062469482421875 5.664237976074219
        5.5024871826171875 5.200355529785156 4.840232849121094 4.5411529541015625 4.217658996582031 3.2258071899414062
        1.7456587553024292 1.8280562162399292 7.5807952880859375 12.710960388183594 12.506484985351562 10.385452270507812
        8.05078125 7.4190521240234375 7.3763275146484375 6.4912872314453125 5.4322967529296875 4.889068603515625
        4.644920349121094 4.370246887207031 4.254280090332031 4.684593200683594 5.093536376953125 4.709007263183594
        4.0040283203125 3.5737152099609375 3.4699554443359375 3.3570327758789062 2.917572021484375 2.4079132080078125
        2.2034378051757812 2.10272216796875 1.95013427734375 1.7822799682617188 1.6846237182617188 1.8555220365524292
        2.1515579223632812 2.2278518676757812 2.3499221801757812 2.4536895751953125 2.3499221801757812 2.1301956176757812
        1.95013427734375 1.95928955078125 2.01422119140625 1.95928955078125 1.7853317260742188 1.6907272338867188
        1.7181930541992188 1.7700729370117188 1.8036422729492188 1.7090377807617188 1.4984588623046875 1.3153457641601562
        1.3763885498046875 1.4313201904296875 1.5289764404296875 1.6510543823242188 1.8097457885742188 1.9318236112594604
        1.95928955078125 1.90435791015625 1.7914352416992188 1.6937789916992188 1.7426071166992188 1.8677291870117188
        1.8127975463867188 1.7029342651367188 1.89215087890625 2.1851272583007812 2.4842071533203125 2.7375106811523438
        2.960296630859375 3.118988037109375 3.122039556503296 2.999969482421875 2.6642684936523438 2.346870183944702
        2.2797317504882812 2.2522659301757812 2.2064895629882812 2.2675247192382812 2.3102493286132812 2.3010940551757812
        2.3682327270507812 2.4262237548828125 2.2980422973632812 2.1698684692382812 2.2736282348632812 2.3651809692382812
        2.2217483520507812 2.03863525390625 2.09356689453125 2.2797317504882812 2.4750518798828125 2.4536895751953125
        2.3926544189453125 2.5025177001953125 2.7893905639648438 3.2624282836914062 2.966400146484375 2.948089599609375
        2.969452142715454 2.5513458251953125 2.3804473876953125 2.4872589111328125 2.7375106811523438 2.3834991455078125
        2.1485064029693604 2.2095413208007812 1.101715087890625 2.4720001220703125 2.7741317749023438 3.6408615112304688
        4.696800231933594 5.636772155761719 6.3844757080078125 7.187110900878906 7.4037933349609375 6.683555603027344
        6.09454345703125 6.430251598358154 7.220680236816406 7.3915863037109375 7.147438049316406 7.147438049316406
        7.061981201171875 6.5736846923828125 6.170845031738281 6.5218048095703125 6.924652099609375 6.5950469970703125
        6.262397766113281 7.470931529998779 9.216591835021973 9.283729553222656 8.310187339782715 7.699821472167969
        7.113861083984375 6.329536437988281 6.11590576171875 6.3936309814453125 6.04266357421875 4.358039855957031
        5.197303771972656 5.298011779785156 5.285804748535156 5.380416393280029 5.5635223388671875 5.4719696044921875
        5.194252014160156 4.718162536621094 4.5869293212890625 4.821922302246094 4.974517822265625 4.931793212890625
        5.023345947265625 5.3865203857421875 5.758842468261719 5.816825866699219 5.5452117919921875 4.953155517578125
        4.0894775390625 3.1434097290039062 2.4292755126953125 1.89825439453125 2.2553176879882812 7.196266174316406
        13.480026245117188 14.423049926757812 12.460708618164062 10.364082336425781 8.349861145019531 7.4831390380859375
        7.763908386230469 7.4373626708984375 6.662193298339844 5.853446960449219 5.203407287597656 4.782249450683594
        4.751731872558594 5.282752990722656 5.645927429199219 5.133216857910156 4.4465484619140625 4.0711669921875
        3.8117599487304688 3.5462491512298584 3.2044448852539062 2.8077011108398438 2.5696563720703125 2.4536895751953125
        2.3499221801757812 2.2034378051757812 1.95928955078125 1.8616256713867188 2.04168701171875 2.1973342895507812
        2.2492141723632812 2.2888870239257812 2.3194046020507812 2.2827835083007812 2.11187744140625 2.03558349609375
        2.1576614379882812 2.2095413208007812 2.06304931640625 1.96234130859375 1.9562379121780396 1.9989625215530396
        2.09356689453125 2.05084228515625 1.88604736328125 1.6602096557617188 1.5961151123046875 1.6388473510742188
        1.7181929349899292 1.7883834838867188 1.87384033203125 1.9379273653030396 1.92572021484375 1.91656494140625
        1.88299560546875 1.8585740327835083 1.9257200956344604 2.111877202987671 2.1240921020507812 1.91351318359375
        1.8707809448242188 2.07220458984375 2.2522659301757812 2.3957061767578125 2.5360870361328125 2.7069931030273438
        2.8565292358398438 2.7558212280273438 2.2705764770507812 1.91656494140625 1.8402633666992188 1.8402633666992188
        1.8616256713867188 1.88299560546875 1.96844482421875 2.01727294921875 2.01116943359375 2.08135986328125
        2.10272216796875 2.04473876953125 2.11798095703125 2.2583694458007812 2.2125930786132812 2.07830810546875
        2.03253173828125 2.1851272583007812 2.2980422973632812 2.4079132080078125 2.4109649658203125 2.4170684814453125
        2.6368026733398438 2.5940704345703125 2.7100448608398438 3.003021240234375 2.8382186889648438 2.3590774536132812
        1.88299560546875 1.8494186401367188 2.1454544067382812 1.7120895385742188 0.891143798828125 0.17090606689453125
        1.1505508422851562 1.8402633666992188 2.4536895751953125 3.2349624633789062 4.4831695556640625 5.676445007324219
        6.3905792236328125 7.144386291503906 7.779167175292969 7.654045104980469 6.891082763671875 6.646934509277344
        6.765953063964844 6.808677673339844 6.927703857421875 7.217628479003906 7.4068450927734375 7.3915863037109375
        7.5868988037109375 8.0782470703125 8.310188293457031 7.678459167480469 6.6042022705078125 6.4058380126953125
        7.4831390380859375 7.96533203125 7.4251556396484375 7.245094299316406 7.214576721191406 6.952117919921875
        6.656089782714844 6.649986743927002 6.5858917236328125 5.4322967529296875 4.812767028808594 4.824974060058594
        4.907379150390625 5.178993225097656 5.4353485107421875 5.4994354248046875 5.4628143310546875 5.203407287597656
        4.916534423828125 4.986724853515625 5.127112865447998 5.050811767578125 4.971466064453125 5.130165100097656
        5.273597717285156 5.102691650390625 4.666282653808594 3.976562738418579 3.1647720336914062 2.8077011108398438
        3.3722991943359375 4.239021301269531 6.2318806648254395 10.568557739257812 13.88287353515625 13.324378967285156
        11.078216552734375 9.289833068847656 7.98974609375 7.171852111816406 7.184059143066406 7.196266174316406
        7.077239990234375 6.4333038330078125 5.5787811279296875 5.041656494140625 5.136268615722656 5.740531921386719
        5.98162841796875 5.3895721435546875 4.815818786621094 4.5655670166015625 4.293952941894531 3.888061761856079
        3.4180755615234375 3.018280029296875 2.841270685195923 2.8046493530273438 2.8107528686523438 2.8046493530273438
        2.6795272827148438 2.5513458251953125 2.5757598876953125 2.6520614624023438 2.6398544311523438 2.5757598876953125
        2.5574493408203125 2.5238800048828125 2.3773956298828125 2.2034378051757812 2.2064895629882812 2.2614212036132812
        2.1912307739257812 2.08441162109375 2.07830810546875 2.1271438598632812 2.2431106567382812 2.2522659301757812
        2.10882568359375 1.92572021484375 1.8097457885742188 1.8341598510742188 1.88299560546875 1.93487548828125
        1.95623779296875 1.96844482421875 1.9714967012405396 2.04473876953125 2.09967041015625 2.10577392578125
        2.10272216796875 2.1240921020507812 2.1485061645507812 2.05084228515625 1.95623779296875 2.008117437362671
        2.03863525390625 2.05999755859375 2.1240921020507812 2.2522661685943604 2.2583694458007812 1.96539306640625
        1.5900115966796875 1.4435272216796875 1.3885955810546875 1.4252166748046875 1.4404754638671875 1.4618377685546875
        1.6144256591796875 1.6449508666992188 1.6235885620117188 1.7914352416992188 1.91046142578125 1.91656494140625
        1.96234130859375 2.02947998046875 1.94097900390625 1.8463668823242188 1.87689208984375 1.98675537109375
        2.05389404296875 2.09967041015625 2.07220458984375 2.02032470703125 2.1393508911132812 2.3621292114257812
        2.6245956420898438 2.6734237670898438 2.4658966064453125 2.05694580078125 1.5900115966796875 1.87384033203125
        2.01422119140625 1.9013062715530396 1.7944871187210083 1.97760009765625 1.8433151245117188 1.1902236938476562
        1.5411834716796875 2.2553176879882812 3.3204116821289062 5.059967041015625 6.259346008300781 6.711021423339844
        7.309181213378906 7.675407409667969 7.312232971191406 7.126075744628906 6.979583740234375 6.634727478027344
        6.836143493652344 7.235939025878906 7.324440002441406 7.358009338378906 7.922607421875 8.554336547851562
        8.609268188476562 7.898193359375 6.881927490234375 6.180000305175781 6.128120422363281 6.4821319580078125
        7.071136951446533 7.675407409667969 7.626579284667969 7.113861083984375 6.5309600830078125 6.360054016113281
        6.5523223876953125 5.88397216796875 4.641868591308594 4.663230895996094 4.715110778808594 4.931793212890625
        5.218666076660156 5.3956756591796875 5.4628143310546875 5.3773651123046875 4.992828369140625 4.666283130645752
        4.5869293212890625 4.4221343994140625 4.211555480957031 4.3763580322265625 4.712059497833252 4.733421325683594
        4.5899810791015625 4.4709625244140625 4.4740142822265625 4.855491638183594 5.5513153076171875 6.3997344970703125
        8.0477294921875 10.748619079589844 12.439346313476562 11.764884948730469 9.787284851074219 8.130134582519531
        7.254249572753906 6.823936462402344 6.769005298614502 7.000946044921875 7.254249572753906 6.8178324699401855
        5.838188171386719 5.233924865722656 5.5940399169921875 6.311225891113281 6.277656555175781 5.4963836669921875
        4.895172119140625 4.760887145996094 4.632713317871094 4.214607238769531 3.5920257568359375 3.045745849609375
        2.7832870483398438 2.7405624389648438 2.8168563842773438 2.920623779296875 2.926727294921875 2.8168563842773438
        2.7069931030273438 2.7191998958587646 2.8229596614837646 2.7924423217773438 2.7436141967773438 2.7985458374023438
        2.6703720092773438 2.3987579345703125 2.3041458129882812 2.2827835083007812 2.2766799926757812 2.2003860473632812
        2.1301956176757812 2.2400588989257812 2.3529739379882812 2.4048614501953125 2.3010940551757812 2.1698684692382812
        2.10272216796875 2.09967041015625 2.11187744140625 2.1576614379882812 2.1698684692382812 2.1820755004882812
        2.1973342895507812 2.2827835083007812 2.362128973007202 2.346870183944702 2.2705764770507812 2.1515579223632812
        2.08746337890625 2.05084228515625 2.029480218887329 2.00506591796875 1.98065185546875 1.9867554903030396
        1.96844482421875 1.7975387573242188 1.571700930595398 1.3824920654296875 1.2970352172851562 1.2787246704101562
        1.1474990844726562 1.074249267578125 1.080352783203125 1.120025634765625 1.2146377563476562 1.1780166625976562
        1.2878799438476562 1.5259246826171875 1.6235885620117188 1.6083221435546875 1.5686492919921875 1.5839080810546875
        1.4435272216796875 1.3641738891601562 1.5259246826171875 1.6144256591796875 1.7365036010742188 1.7975387573242188
        1.7242965698242188 1.6113739013671875 1.6388473510742188 1.8585739135742188 2.1485061645507812 2.1851272583007812
        1.8555221557617188 1.5106658935546875 1.3885955810546875 1.6907272338867188 1.88909912109375 1.88604736328125
        1.9318236112594604 2.02337646484375 2.00811767578125 1.5869598388671875 1.5961151123046875 1.4191131591796875
        1.9226685762405396 3.2654800415039062 4.663230895996094 5.221717834472656 5.639823913574219 6.04571533203125
        6.219673156738281 6.6164093017578125 7.306129455566406 7.226783752441406 7.1382832527160645 7.129127502441406
        6.955169677734375 7.049774169921875 7.641838073730469 8.06298828125 7.947021484375 7.4953460693359375
        7.113861083984375 6.976531982421875 6.979583740234375 7.107757568359375 7.5807952880859375 7.873779296875
        7.3732757568359375 6.5309600830078125 5.92669677734375 5.749687194824219 6.09149169921875 5.789360046386719
        4.303108215332031 4.367195129394531 4.354988098144531 4.3733062744140625 4.657127380371094 4.947052001953125
        4.974517822265625 4.791404724121094 4.4770660400390625 4.242073059082031 4.293952941894531 4.293952941894531
        4.260383605957031 4.715110778808594 5.5207977294921875 6.02130126953125 6.146430969238281 6.183052062988281
        6.183052062988281 6.170845031738281 6.4821319580078125 7.5502777099609375 9.305091857910156 10.971405029296875
        11.508529663085938 10.641807556152344 8.993804931640625 7.4251556396484375 6.5370635986328125 6.347846984863281
        6.5523223876953125 7.052825927734375 7.5350189208984375 7.3854827880859375 6.582840442657471 6.04571533203125
        6.4149932861328125 6.933807373046875 6.711021423339844 5.856498718261719 5.047760009765625 4.730369567871094
        4.669334411621094 4.3916168212890625 3.823967218399048 3.2502212524414062 2.8626327514648438 2.6978378295898438
        2.7161483764648438 2.7741317749023438 2.7863388061523438 2.7466659545898438 2.6184844970703125 2.5482940673828125
        2.6581649780273438 2.7375106811523438 2.8046493530273438 3.009124755859375 2.905364990234375 2.4872589111328125
        2.3102493286132812 2.3163528442382812 2.3163528442382812 2.2644729614257812 2.2217483520507812 2.3590774536132812
        2.4475860595703125 2.5086212158203125 2.5025174617767334 2.4720001220703125 2.4781033992767334 2.4872586727142334
        2.4658966064453125 2.4964141845703125 2.5055694580078125 2.5055694580078125 2.5116729736328125 2.5879669189453125
        2.6398544311523438 2.6001741886138916 2.5055694580078125 2.3712844848632812 2.2125930786132812 2.096618413925171
        2.07525634765625 2.08135986328125 2.063049554824829 2.02032470703125 1.91046142578125 1.6907272338867188
        1.5198211669921875 1.431320309638977 1.3702774047851562 1.3000869750976562 1.071197509765625 0.949127197265625
        0.8819884657859802 0.875885009765625 0.6927719116210938 0.5676422119140625 0.8514633178710938 1.043731689453125
        1.1841201782226562 1.107818603515625 0.982696533203125 1.040679931640625 0.997955322265625 0.955230712890625
        1.077301025390625 1.1444473266601562 1.3519668579101562 1.4923553466796875 1.4252166748046875 1.3489151000976562
        1.3611221313476562 1.4679412841796875 1.5381317138671875 1.4374237060546875 1.107818603515625 0.8484115600585938
        0.6683578491210938 0.6378402709960938 1.019317626953125 1.4160614013671875 1.5961151123046875 1.7181930541992188
        1.8250046968460083 1.5137176513671875 1.400802731513977 1.1444473266601562 1.116973876953125 1.4893035888671875
        1.88909912109375 2.5147247314453125 3.2593765258789062 4.315315246582031 5.4872283935546875 5.92974853515625
        6.5889434814453125 7.205421447753906 7.1291279792785645 6.811729431152344 6.711021423339844 7.052825927734375
        7.3732757568359375 7.257301330566406 7.061981201171875 7.123023986816406 7.217628479003906 7.138282775878906
        7.052825927734375 6.976531982421875 6.891082763671875 6.732383728027344 6.338691711425781 5.87481689453125
        5.5696258544921875 5.298011779785156 5.127113342285156 4.953155517578125 3.952148199081421 4.080322265625
        4.1199951171875 4.080322265625 4.306159973144531 4.763938903808594 5.038604736328125 4.910430908203125
        4.727317810058594 4.797508239746094 5.108795166015625 5.334632873535156 5.5055389404296875 6.05487060546875
        6.897185802459717 7.4251556396484375 7.412949085235596 7.226783752441406 7.129127025604248 6.997893810272217
        7.113861083984375 8.06298828125 9.543136596679688 10.794395446777344 11.212501525878906 10.470901489257812
        8.941925048828125 7.303077697753906 6.192207336425781 5.98162841796875 6.4394073486328125 7.226783752441406
        7.8768310546875 7.995849609375 7.525863170623779 6.891082763671875 6.637779235839844 6.720176696777344
        6.671348571777344 6.189155578613281 5.4628143310546875 4.898223876953125 4.657127380371094 4.4557037353515625
        4.0650634765625 3.6042327880859375 3.2471694946289062 3.036590576171875 3.003021240234375 3.012176513671875
        2.923675537109375 2.8382186889648438 2.7558212280273438 2.7008895874023438 2.7497177124023438 2.8351669311523438
        3.033538818359375 3.115936279296875 2.8138046264648438 2.4994659423828125 2.4903106689453125 2.4842071533203125
        2.4658966064453125 2.4384307861328125 2.4475858211517334 2.5574493408203125 2.6551132202148438 2.7344589233398438
        2.8199081420898438 2.8534772396087646 2.8717880249023438 2.884002923965454 2.877899169921875 2.902313232421875
        2.923675537109375 2.8717877864837646 2.8199081420898438 2.8321151733398438 2.8534774780273438 2.8443222045898438
        2.7954938411712646 2.6856307983398438 2.5116729736328125 2.3590774536132812 2.298042058944702 2.3010940551757812
        2.2736284732818604 2.1729202270507812 2.06610107421875 1.9531861543655396 1.7944868803024292 1.6235884428024292
        1.486251711845398 1.3794403076171875 1.2268447875976562 1.1261367797851562 0.8514633178710938 0.5951080322265625
        0.26856231689453125 0.19837188720703125 0.21668243408203125 0.5157623291015625 0.5340728759765625 0.4394683837890625
        0.5432281494140625 0.6866683959960938 0.6378402709960938 0.5584869384765625 0.6836166381835938 0.7934799194335938
        1.004058837890625 1.2115859985351562 1.1841201782226562 1.120025634765625 1.120025634765625 1.2543106079101562
        1.5503387451171875 1.4893035888671875 1.034576416015625 0.6042633056640625 0.4120025634765625 0.7141342163085938
        1.3672256469726562 1.7700729370117188 1.7639694213867188 1.6113739013671875 1.4069061279296875 1.086456298828125
        0.979644775390625 0.7873764038085938 0.5157623291015625 0.3906402885913849 0.6103668212890625 0.8087387084960938
        1.2237929105758667 2.4872589111328125 4.641868591308594 5.676445007324219 5.850395202636719 6.3905792236328125
        6.5889434814453125 6.5553741455078125 6.884979248046875 7.248146057128906 7.165748596191406 6.814781188964844
        6.646934509277344 6.790367126464844 6.970428466796875 6.952117919921875 6.854454040527344 6.772056579589844
        6.634727478027344 6.4119415283203125 6.09149169921875 5.829032897949219 5.661186218261719 5.276649475097656
        4.757835388183594 4.4587554931640625 4.306159973144531 4.5045318603515625 4.696800231933594 4.754783630371094
        4.931793212890625 5.4963836669921875 6.09759521484375 6.204414367675781 6.04266357421875 6.10064697265625
        6.3783721923828125 6.5767364501953125 6.686607360839844 7.043670654296875 7.644889831542969 7.9500732421875
        7.663200378417969 7.3976898193359375 7.681510925292969 8.0477294921875 8.0294189453125 8.151496887207031
        9.143348693847656 10.690635681152344 11.624504089355469 11.130104064941406 9.613327026367188 7.870719909667969
        6.5340118408203125 6.10980224609375 6.5492706298828125 7.434310436248779 8.130134582519531 8.362068176269531
        8.178962707519531 7.5502777099609375 6.753746032714844 6.314277172088623 6.225776672363281 6.06707763671875
        5.728324890136719 5.307167053222656 4.922637939453125 4.638816833496094 4.364143371582031 3.997925043106079
        3.6500167846679688 3.4424896240234375 3.3906097412109375 3.4241790771484375 3.3692398071289062 3.2532730102539062
        3.2197036743164062 3.1800308227539062 3.064056396484375 3.3387222290039062 3.9674072265625 3.7659835815429688
        2.6215362548828125 2.09051513671875 2.3773956298828125 2.5635528564453125 2.6581649780273438 2.6398544311523438
        2.6581649780273438 2.7893905639648438 2.914520263671875 2.981658935546875 3.064056396484375 3.106781005859375
        3.1647720336914062 3.1922378540039062 3.234962224960327 3.2776870727539062 3.323463201522827 3.2654800415039062
        3.176978826522827 3.1281509399414062 3.1373064517974854 3.1495132446289062 3.1342544555664062 3.064056396484375
        2.935882806777954 2.8199081420898438 2.7436141967773438 2.6886825561523438 2.6245954036712646 2.5116729736328125
        2.3743438720703125 2.2583694458007812 2.07220458984375 1.8646774291992188 1.7517623901367188 1.6968307495117188
        1.620529294013977 1.4587860107421875 1.089508056640625 0.8239974975585938 0.7049789428710938 0.6164703369140625
        0.5737457275390625 0.5432281494140625 0.3967437744140625 0.5249176025390625 0.4638824462890625 0.4730377197265625
        0.29907989501953125 0.079345703125 0.18006134033203125 0.4425201416015625 0.7232894897460938 0.927764892578125
        0.936920166015625 0.997955322265625 1.001007080078125 0.979644775390625 0.964385986328125 0.7293930053710938
        0.6805648803710938 0.7843246459960938 0.4394683539867401 0.3906402587890625 1.028472900390625 1.4130096435546875
        1.5808563232421875 1.5686492919921875 1.3763885498046875 1.1566542387008667 0.930816650390625 0.6286849975585938
        0.4425201416015625 0.5920562744140625 0.7904281616210938 0.6683578491210938 0.7568588256835938 1.6205291748046875
        3.6317059993743896 5.148475646972656 5.764945983886719 6.3936309814453125 6.628623962402344 6.802574157714844
        7.4007415771484375 7.4648284912109375 6.875823974609375 6.5065460205078125 6.3783721923828125 6.363105773925781
        6.4424591064453125 6.5218048095703125 6.5431671142578125 6.5340118408203125 6.5187530517578125 6.4088897705078125
        6.10980224609375 5.792411804199219 5.5543670654296875 5.188148498535156 4.681541442871094 4.330574035644531
        5.5391082763671875 5.685600280761719 5.92669677734375 6.07012939453125 6.210517883300781 6.640830993652344
        7.220680236816406 7.3946380615234375 7.156593322753906 7.013153076171875 7.068084716796875 7.046722412109375
        6.955169677734375 7.1443867683410645 7.669303894042969 7.898193359375 7.4678802490234375 7.351905822753906
        8.310188293457031 9.414962768554688 9.460739135742188 9.039581298828125 9.524826049804688 10.937835693359375
        11.8839111328125 11.285743713378906 9.665214538574219 8.133186340332031 7.074188709259033 6.5706329345703125
        6.808677673339844 7.611312389373779 8.264411926269531 8.471939086914062 8.465835571289062 8.0416259765625
        7.123023986816406 6.295967102050781 5.94195556640625 5.871757507324219 5.93280029296875 5.94805908203125
        5.6031951904296875 5.072174072265625 4.681541442871094 4.297004699707031 3.9002685546875 3.711052179336548
        3.7385177612304688 3.8636398315429688 3.885009765625 3.753776788711548 3.6866378784179688 3.7293624877929688
        3.8026046752929688 4.260383605957031 5.139320373535156 4.818870544433594 3.094573974609375 2.09967041015625
        1.98980712890625 2.2431106567382812 2.4903106689453125 2.7008895874023438 2.8229598999023438 3.036590576171875
        3.2044448852539062 3.262428045272827 3.2746353149414062 3.3265151977539062 3.3661880493164062 3.4272308349609375
        3.5157318115234375 3.6317062377929688 3.7110519409179688 3.7324142456054688 3.6530685424804688 3.5554046630859375
        3.5218353271484375 3.5218353271484375 3.4882659912109375 3.4363861083984375 3.3539810180664062 3.2197036743164062
        3.076263666152954 2.966400146484375 2.902313232421875 2.8260116577148438 2.6825790405273438 2.5330352783203125
        2.3651809692382812 2.1637649536132812 2.09051513671875 2.06915283203125 2.00506591796875 1.89215087890625
        1.6724166870117188 1.4770965576171875 1.4893035888671875 1.4923553466796875 1.2909317016601562 1.101715087890625
        1.1444473266601562 1.1658096313476562 0.958282470703125 0.6775131225585938 0.5218658447265625 0.5737457275390625
        0.6164702773094177 0.5371246337890625 0.5249176025390625 0.6134185791015625 0.6469955444335938 0.6073150634765625
        0.4577789306640625 0.5279693603515625 0.4211578369140625 0.35706329345703125 0.7141342163085938 1.062042236328125
        0.8667221069335938 0.31128692626953125 0.34485626220703125 0.7507553100585938 1.046783447265625 1.2665176391601562
        1.2085342407226562 1.2085342407226562 1.2085342407226562 1.107818603515625 1.062042236328125 1.046783447265625
        0.936920166015625 0.6683578491210938 0.5340728163719177 1.1383439302444458 3.021331787109375 4.690696716308594
        5.642875671386719 6.335639953613281 6.5034942626953125 6.5523223876953125 6.817832946777344 6.842247009277344
        6.625572204589844 6.4882354736328125 6.317329406738281 6.152534484863281 6.152534484863281 6.271553039550781
        6.366157531738281 6.3783721923828125 6.3783721923828125 6.329536437988281 6.140327453613281 5.871757507324219
        5.5330047607421875 5.093536376953125 4.6143951416015625 4.214607238769531 6.799522399902344 6.711021423339844
        6.878875732421875 7.071136474609375 7.110809326171875 7.226783752441406 7.5380706787109375 7.647941589355469
        7.3915863037109375 7.159645080566406 7.095550537109375 6.976531982421875 6.860557556152344 7.080291748046875
        7.638786315917969 7.861564636230469 7.4343109130859375 7.3732757568359375 8.621475219726562 10.159614562988281
        10.473953247070312 10.08331298828125 10.01922607421875 10.483108520507812 11.004974365234375 10.617385864257812
        9.271522521972656 7.9927978515625 7.232887268066406 6.891082763671875 7.135231018066406 7.840202331542969
        8.355964660644531 8.499404907226562 8.578750610351562 8.435317993164062 7.742546081542969 6.762901306152344
        6.06097412109375 5.865653991699219 6.186103820800781 6.692710876464844 6.5584259033203125 5.731376647949219
        5.056915283203125 4.638816833496094 4.284797668457031 4.123054504394531 4.132209777832031 4.202400207519531
        4.251228332519531 4.223762512207031 4.159675598144531 4.184089660644531 4.4465484619140625 5.111846923828125
        6.02130126953125 5.835136413574219 3.7293624877929688 1.6968306303024292 1.116973876953125 1.5350799560546875
        2.09051513671875 2.5696563720703125 2.920623779296875 3.1434097290039062 3.3967132568359375 3.5401458740234375
        3.5615081787109375 3.5798189640045166 3.5828704833984375 3.6378097534179688 3.7446212768554688 3.89111328125
        3.9857177734375 4.0833740234375 4.080322742462158 3.9490966796875 3.8209149837493896 3.7720870971679688
        3.7049484252929688 3.6225509643554688 3.5676116943359375 3.4730072021484375 3.2929458618164062 3.122039556503296
        3.054901123046875 3.106781005859375 3.112884521484375 2.987762451171875 2.8015975952148438 2.6093292236328125
        2.6001739501953125 2.8107528686523438 3.027435302734375 2.993865966796875 2.7069931030273438 2.6490097045898438
        2.887054443359375 2.8534774780273438 2.3743438720703125 1.8677291870117188 1.6815718412399292 1.7273483276367188
        1.7334518432617188 1.5655975341796875 1.4069061279296875 1.4069061279296875 1.3428115844726562 1.1932754516601562
        1.1566543579101562 1.2756729125976562 1.4893035888671875 1.5625457763671875 1.4893035888671875 1.5564422607421875
        1.7731246948242188 2.00506591796875 2.02032470703125 1.8219528198242188 1.2787246704101562 0.5920562744140625
        0.17090606689453125 0.17700958251953125 0.3997955322265625 0.6958236694335938 0.7599105834960938 0.939971923828125
        0.988800048828125 1.068145751953125 1.1749649047851562 1.104766845703125 0.8850402235984802 0.5859527587890625
        0.4577789306640625 0.8239974975585938 2.7680282592773438 4.5228424072265625 5.652030944824219 6.210517883300781
        6.3722686767578125 6.4943389892578125 6.5950469970703125 6.653038024902344 6.741539001464844 6.711021423339844
        6.4638214111328125 6.244087219238281 6.201362609863281 6.210517883300781 6.198310852050781 6.219673156738281
        6.231880187988281 6.180000305175781 6.137275695800781 5.98773193359375 5.624565124511719 5.096588134765625
        4.5869293212890625 4.217658996582031 7.6021575927734375 7.260353088378906 7.238990783691406 7.4190521240234375
        7.3885345458984375 7.199317932128906 7.220680236816406 7.306129455566406 7.220680236816406 7.107757568359375
        7.046722412109375 6.927703857421875 6.884979248046875 7.184059143066406 7.712028503417969 7.834098815917969
        7.351905345916748 7.254249572753906 8.594009399414062 10.501419067382812 11.252174377441406 11.044647216796875
        10.64791202545166 10.257270812988281 10.238960266113281 10.04364013671875 9.060943603515625 7.904297351837158
        7.257300853729248 7.159644603729248 7.5411224365234375 8.105712890625 8.471939086914062 8.609268188476562
        8.706932067871094 8.728294372558594 8.319343566894531 7.3854827880859375 6.4302520751953125 6.05792236328125
        6.5553741455078125 7.574691295623779 7.800529479980469 6.857506275177002 5.89312744140625 5.294960021972656
        4.806663513183594 4.5655670166015625 4.5655670166015625 4.690696716308594 4.855491638183594 4.886016845703125
        4.666282653808594 4.4862213134765625 4.852439880371094 5.700859069824219 6.6042022705078125 6.4210968017578125
        3.8666915893554688 1.040679931640625 0.5676422119140625 1.2817764282226562 2.04168701171875 2.4964141845703125
        2.990814208984375 3.2502212524414062 3.5676116943359375 3.7842941284179688 3.8880615234375 3.89111328125
        3.8636398315429688 3.8666915893554688 4.0040283203125 4.177986145019531 4.290900707244873 4.3885650634765625
        4.4740142822265625 4.3885650634765625 4.232917785644531 4.190193176269531 4.165779113769531 4.0894775390625
        4.0498046875 4.07421875 4.0162353515625 3.8178634643554688 3.6347579956054688 3.6774826049804688
        3.8270187377929688 3.7751388549804688 3.5645599365234375 3.3906097412109375 3.4028167724609375 3.711052179336548
        4.0955810546875 4.168830871582031 4.0162353515625 4.123054504394531 4.300056457519531 3.994873046875
        3.3204116821289062 2.7680282592773438 2.6184844970703125 2.7436141967773438 2.8626327514648438 2.7924423217773438
        2.7130966186523438 2.7741317749023438 2.7344589233398438 2.6337509155273438 2.6429061889648438 2.7253036499023438
        2.7619247436523438 2.7375106811523438 2.7863388061523438 2.938934326171875 3.122039794921875 3.094573974609375
        2.7832870483398438 2.3865509033203125 1.87384033203125 1.2665176391601562 0.7843246459960938 0.4333648681640625
        0.14344024658203125 0.34485626220703125 0.6256332397460938 0.8575668334960938 0.888092041015625 0.8301010131835938
        0.8056869506835938 0.7599105834960938 0.6622543334960938 0.4242095947265625 0.5127105712890625 0.7721176147460938
        2.6520614624023438 4.306159973144531 5.4170379638671875 5.96942138671875 6.128120422363281 6.271553039550781
        6.3814239501953125 6.4607696533203125 6.5797882080078125 6.6164093017578125 6.4760284423828125 6.317329406738281
        6.180000305175781 5.92669677734375 5.728324890136719 5.804618835449219 6.02435302734375 6.09454345703125
        5.95721435546875 5.795463562011719 5.5787811279296875 5.175941467285156 4.678489685058594 4.293952941894531
        7.977538585662842 7.4587249755859375 7.144385814666748 7.1352314949035645 7.193214416503906 7.098602294921875
        7.007049560546875 7.049774169921875 7.150489807128906 7.199317932128906 7.171852111816406 7.058929443359375
        7.061981201171875 7.4373626708984375 8.0050048828125 8.139289855957031 7.748649597167969 7.782218933105469
        9.125038146972656 11.114837646484375 12.323372840881348 12.463760375976562 11.868644714355469 10.895111083984375
        10.306098937988281 9.95819091796875 9.115875244140625 8.044677734375 7.4648284912109375 7.535018444061279
        7.98974609375 8.420059204101562 8.661155700683594 8.841209411621094 9.018218994140625 9.109771728515625
        8.856468200683594 8.117919921875 7.327491760253906 7.037567138671875 7.5563812255859375 8.584854125976562
        8.941925048828125 8.194221496582031 7.165748596191406 6.357002258300781 5.700859069824219 5.2980122566223145
        5.203407287597656 5.4536590576171875 5.89007568359375 6.07012939453125 5.673393249511719 5.154579162597656
        5.703910827636719 7.238990783691406 8.352912902832031 7.068084716796875 3.3967132568359375 0.5920562744140625
        0.25330352783203125 1.2573623657226562 2.3865509033203125 2.920623779296875 3.3967132568359375 3.7049484252929688
        3.9979248046875 4.168830871582031 4.284797668457031 4.303108215332031 4.281745910644531 4.263435363769531
        4.416031360626221 4.654075622558594 4.831077575683594 4.913482666015625 5.032501220703125 5.087432861328125
        5.084381103515625 5.127113342285156 5.096588134765625 4.922637939453125 4.776145935058594 4.806663513183594
        4.910430908203125 4.812767028808594 4.5075836181640625 4.4007720947265625 4.638816833496094 4.763938903808594
        4.568619251251221 4.351936340332031 4.3763580322265625 4.699851989746094 5.096588134765625 5.169837951660156
        4.904327392578125 4.718162536621094 4.681541442871094 4.5167388916015625 4.181037902832031 3.93994140625
        3.9521484375 3.9185791015625 3.7263107299804688 3.5004730224609375 3.3814544677734375 3.3875579833984375
        3.2380142211914062 2.975555419921875 2.887054443359375 2.7832870483398438 2.5666046142578125 2.4048614501953125
        2.3468704223632812 2.3560256958007812 2.3926544189453125 2.3316116333007812 2.00811767578125 1.6144256591796875
        1.3183975219726562 0.976593017578125 0.6561508178710938 0.4699859917163849 0.5127105712890625 0.6805648803710938
        0.8209457397460938 0.9308165907859802 1.037628173828125 1.092559814453125 1.101715087890625 1.058990478515625
        0.909454345703125 0.5829010009765625 0.6653060913085938 0.6317367553710938 2.3255081176757812 4.092529296875
        5.343788146972656 5.98162841796875 6.00909423828125 5.88397216796875 5.774101257324219 5.630668640136719
        5.5543670654296875 5.6154022216796875 5.767997741699219 5.859550476074219 5.728324890136719 5.4536590576171875
        5.352943420410156 5.5146942138671875 5.740531921386719 5.88092041015625 5.783256530761719 5.4994354248046875
        5.331581115722656 5.206459045410156 4.852439880371094 4.3946685791015625 8.413955688476562 7.763908386230469
        7.287818908691406 7.095550537109375 7.141334533691406 7.171852111816406 7.086395263671875 7.086395263671875
        7.254249572753906 7.4190521240234375 7.4709320068359375 7.428206920623779 7.5045013427734375 7.934814453125
        8.517715454101562 8.682518005371094 8.340705871582031 8.279670715332031 9.259315490722656 10.837120056152344
        11.9937744140625 12.436294555664062 12.231819152832031 11.542098999023438 10.864585876464844 10.266426086425781
        9.405807495117188 8.444473266601562 7.8951416015625 7.965331554412842 8.401748657226562 8.761863708496094
        8.972442626953125 9.262367248535156 9.598068237304688 9.775077819824219 9.622489929199219 9.143348693847656
        8.645896911621094 8.410903930664062 8.615371704101562 9.277626037597656 9.595016479492188 9.030426025390625
        8.117919921875 7.4465179443359375 6.988738536834717 6.5370635986328125 6.09149169921875 6.259346008300781
        7.214576721191406 7.904296398162842 7.2115254402160645 6.3997344970703125 7.669303894042969 10.214546203613281
        10.592971801757812 7.205421447753906 2.877899169921875 0.6530990600585938 0.4516754448413849 1.4069061279296875
        2.6184844970703125 3.4272308349609375 3.9735107421875 4.315315246582031 4.5381011962890625 4.693748474121094
        4.818871021270752 4.858543395996094 4.889068603515625 4.928741455078125 5.093536376953125 5.3773651123046875
        5.652030944824219 5.829032897949219 5.91448974609375 5.93585205078125 5.92974853515625 5.93890380859375
        5.865653991699219 5.664237976074219 5.4384002685546875 5.3743133544921875 5.5085906982421875 5.4963836669921875
        5.124061584472656 4.840232849121094 5.047760009765625 5.328529357910156 5.182044982910156 4.818870544433594
        4.641868591308594 4.730369567871094 4.983673095703125 5.099639892578125 4.898223876953125 4.660179138183594
        4.5655670166015625 4.4465484619140625 4.229866027832031 4.0009765625 3.8270187377929688 3.5950775146484375
        3.2776870727539062 2.926727294921875 2.7008895874023438 2.7466659545898438 2.7588729858398438 2.5727081298828125
        2.3773956298828125 2.2400588989257812 2.11798095703125 2.02642822265625 1.98675537109375 1.92572021484375
        1.8646774291992188 1.7731245756149292 1.5594940185546875 1.2939834594726562 1.1902236938476562 1.1291885375976562
        0.955230712890625 0.6683578491210938 0.32044219970703125 0.5127105712890625 0.7599105834960938 0.915557861328125
        1.1810684204101562 1.3672256469726562 1.3122940063476562 1.1719131469726562 0.897247314453125 0.4730377197265625
        0.5035552978515625 0.30518341064453125 1.9714967012405396 3.7568283081054688 5.243080139160156 6.137275695800781
        6.256294250488281 6.08233642578125 5.91143798828125 5.700859069824219 5.4811248779296875 5.349891662597656
        5.4048309326171875 5.5421600341796875 5.5085906982421875 5.322425842285156 5.243080139160156 5.322425842285156
        5.5238494873046875 5.786308288574219 5.792411804199219 5.4170379638671875 5.111846923828125 5.053863525390625
        4.882965087890625 4.5136871337890625 9.094513893127441 8.362068176269531 7.779167652130127 7.5563812255859375
        7.5411224365234375 7.5014495849609375 7.3976898193359375 7.367164611816406 7.4770355224609375 7.654045104980469
        7.794425964355469 7.858512878417969 7.971435546875 8.297981262207031 8.740501403808594 8.899200439453125
        8.728294372558594 8.813743591308594 9.625541687011719 10.675376892089844 11.383407592773438 11.838127136230469
        11.9998779296875 11.706901550292969 11.215553283691406 10.629600524902344 9.863577842712402 9.060943603515625
        8.557388305664062 8.526870727539062 8.807640075683594 9.118927001953125 9.427169799804688 9.88800048828125
        10.397659301757812 10.684532165527344 10.586868286132812 10.162666320800781 9.704887390136719 9.533981323242188
        9.784233093261719 10.293891906738281 10.367134094238281 9.717094421386719 8.905303955078125 8.478042602539062
        8.243049621582031 7.730339050292969 7.058929443359375 7.208473205566406 8.487197875976562 9.024322509765625
        7.699821472167969 7.055877685546875 9.497360229492188 12.289802551269531 11.102630615234375 6.625572204589844
        2.6093292236328125 1.1993789672851562 1.4221649169921875 2.09967041015625 3.103729248046875 3.997925043106079
        4.638816833496094 5.041656494140625 5.301063537597656 5.4811248779296875 5.5848846435546875 5.627616882324219
        5.664237976074219 5.725273132324219 5.859550476074219 6.128120422363281 6.4790802001953125 6.753746509552002
        6.714073181152344 6.4516143798828125 6.250190734863281 6.176948547363281 6.149482727050781 6.07623291015625
        5.87786865234375 5.667289733886719 5.636772155761719 5.5940399169921875 5.246131896972656 4.849388122558594
        4.922637939453125 5.206459045410156 5.032501220703125 4.5106353759765625 4.162727355957031 4.11083984375
        4.257331848144531 4.3885650634765625 4.318367004394531 4.150520324707031 4.031494140625 3.933837890625
        3.7263107299804688 3.3509292602539062 2.945037841796875 2.6642684936523438 2.4597930908203125 2.1881790161132812
        1.8585740327835083 1.8433152437210083 2.12103271484375 2.3133010864257812 2.3987579345703125 2.4597930908203125
        2.4933624267578125 2.5147247314453125 2.5086212158203125 2.4231719970703125 2.2370071411132812 2.03558349609375
        1.88909912109375 1.7914352416992188 1.7578659057617188 1.6998825073242188 1.5259246826171875 1.1658096313476562
        0.6134185791015625 0.3967437744140625 0.5035552978515625 0.5523834228515625 0.8270492553710938 1.077301025390625
        1.113922119140625 1.022369384765625 0.6988754272460938 0.1190185546875 0.3936920166015625 0.8026351928710938
        2.11187744140625 3.5554046630859375 4.785301208496094 5.673393249511719 6.08843994140625 6.149482727050781
        6.07012939453125 5.93890380859375 5.734428405761719 5.5146942138671875 5.4322967529296875 5.5024871826171875
        5.5055389404296875 5.334632873535156 5.114898681640625 4.965362548828125 4.940948486328125 5.069122314453125
        5.267494201660156 5.243080139160156 5.029449462890625 4.974517822265625 4.971466064453125 4.760887145996094
        9.656059265136719 9.063995361328125 8.374282836914062 8.0751953125 8.008056640625 7.931763172149658
        7.806632995605469 7.708976745605469 7.702873229980469 7.812736511230469 7.9927978515625 8.151496887207031
        8.255256652832031 8.410903930664062 8.752708435058594 9.091461181640625 9.259315490722656 9.497360229492188
        10.08636474609375 10.800498962402344 11.365089416503906 11.807609558105469 11.94189453125 11.593978881835938
        11.157569885253906 10.834068298339844 10.412918090820312 9.89105224609375 9.512619018554688 9.384445190429688
        9.436324119567871 9.579757690429688 9.88800048828125 10.464797973632812 11.16672420501709 11.627555847167969
        11.572616577148438 11.081268310546875 10.531936645507812 10.370185852050781 10.693687438964844 11.145362854003906
        11.102630615234375 10.376296997070312 9.533981323242188 9.121978759765625 8.984649658203125 8.536026000976562
        7.724235534667969 7.4648284912109375 8.328498840332031 8.816795349121094 7.867668151855469 7.8768310546875
        10.614334106445312 12.689598083496094 10.953094482421875 6.704917907714844 3.2227554321289062 2.1301958560943604
        2.5940704345703125 3.2959978580474854 4.031494140625 4.705955505371094 5.352943420410156 5.780204772949219
        6.07012939453125 6.228828430175781 6.244087219238281 6.234931945800781 6.253242492675781 6.280708312988281
        6.338691711425781 6.5187530517578125 6.823936462402344 7.092498779296875 7.016204833984375 6.5645294189453125
        6.140327453613281 5.95111083984375 5.90533447265625 5.93890380859375 5.87481689453125 5.6123504638671875
        5.343788146972656 5.172889709472656 4.892120361328125 4.4831695556640625 4.431289196014404 4.739524841308594
        4.721214294433594 4.254280090332031 3.8209149837493896 3.6500167846679688 3.6713790893554688 3.7659835815429688
        3.7842941284179688 3.6530685424804688 3.4943692684173584 3.4241790771484375 3.3082046508789062 2.963348388671875
        2.5147247314453125 2.2736282348632812 2.2248001098632812 2.11798095703125 1.8158493041992188 1.5655975341796875
        1.5778045654296875 1.7609176635742188 1.95318603515625 2.1362991333007812 2.3560256958007812 2.4872589111328125
        2.4964141845703125 2.4292755126953125 2.2064895629882812 1.90435791015625 1.7731246948242188 1.8494186401367188
        2.01422119140625 2.10577392578125 1.89215087890625 1.3916473388671875 0.8117904663085938 0.4577789306640625
        0.32349395751953125 0.33570098876953125 0.5035552978515625 0.7599105834960938 0.8484115600585938 0.7782211303710938
        0.36011505126953125 0.4699859917163849 0.912506103515625 1.5076141357421875 2.4323272705078125 3.3997650146484375
        4.104736328125 4.632713317871094 5.172889709472656 5.697807312011719 6.01214599609375 6.11895751953125
        6.04266357421875 5.758842468261719 5.5024871826171875 5.4902801513671875 5.5116424560546875 5.340736389160156
        5.056915283203125 4.824974060058594 4.6113433837890625 4.4343414306640625 4.5197906494140625 4.782249450683594
        4.928741455078125 5.029449939727783 5.102691650390625 4.928741455078125 9.90936279296875 9.533981323242188
        8.859519958496094 8.444473266601562 8.310187339782715 8.233894348144531 8.169807434082031 8.130134582519531
        8.0904541015625 8.0965576171875 8.243049621582031 8.429214477539062 8.560440063476562 8.688621520996094
        8.960235595703125 9.326454162597656 9.610275268554688 9.90936279296875 10.434280395507812 11.050750732421875
        11.474960327148438 11.670280456542969 11.627555847167969 11.337623596191406 11.053802490234375 10.943939208984375
        10.849327087402344 10.64791202545166 10.440383911132812 10.309150695800781 10.229804992675781 10.208442687988281
        10.394607543945312 10.940887451171875 11.737419128417969 12.341682434082031 12.378311157226562 11.911376953125
        11.340675354003906 11.038543701171875 11.127052307128906 11.368141174316406 11.236915588378906 10.437332153320312
        9.485153198242188 9.063995361328125 9.088409423828125 8.743553161621094 7.5807952880859375 6.7781596183776855
        7.779167175292969 9.277626037597656 8.990753173828125 8.1026611328125 9.616378784179688 11.984619140625
        11.059906005859375 7.150489807128906 4.0467529296875 3.1769793033599854 3.6774826049804688 4.266487121582031
        4.672386169433594 5.124061584472656 5.5818328857421875 5.89007568359375 6.161689758300781 6.302070617675781
        6.286811828613281 6.253242492675781 6.277656555175781 6.295967102050781 6.286811828613281 6.3814239501953125
        6.671348571777344 7.003997802734375 7.046722412109375 6.6042022705078125 6.01519775390625 5.648979187011719
        5.5024871826171875 5.5452117919921875 5.642875671386719 5.5574188232421875 5.246131896972656 4.873809814453125
        4.5106353759765625 4.132209777832031 3.994873046875 4.251228332519531 4.4251861572265625 4.214607238769531
        3.894164800643921 3.6805343627929688 3.5279388427734375 3.4424896240234375 3.4119720458984375 3.3204116821289062
        3.1708755493164062 3.118988037109375 3.1403579711914062 2.981658935546875 2.6215362548828125 2.4018096923828125
        2.4323272705078125 2.4201202392578125 2.1301958560943604 1.7212446928024292 1.5137176513671875 1.4557342529296875
        1.4496307373046875 1.5106658935546875 1.7120895385742188 1.88299560546875 1.95013427734375 2.09356689453125
        2.10272216796875 1.89215087890625 1.7120895385742188 1.7548141479492188 1.95318603515625 2.06304931640625
        1.97454833984375 1.7548141479492188 1.3763885498046875 1.001007080078125 0.7782211303710938 0.6225814819335938
        0.4272613823413849 0.32044219970703125 0.3753814697265625 0.15259552001953125 0.3784332275390625 0.7934799194335938
        1.2085342407226562 1.8341598510742188 2.6856307983398438 3.4211273193359375 3.7018966674804688 3.8422775268554688
        4.245124816894531 4.763938903808594 5.212562561035156 5.667289733886719 6.00299072265625 5.97247314453125
        5.703910827636719 5.5330047607421875 5.4780731201171875 5.4292449951171875 5.362098693847656 5.221717834472656
        4.931793212890625 4.5533599853515625 4.312263488769531 4.364143371582031 4.684593200683594 4.989776611328125
        5.069122314453125 4.904327392578125 9.91241455078125 9.790336608886719 9.295936584472656 8.871726989746094
        8.709983825683594 8.587905883789062 8.505508422851562 8.584854125976562 8.673362731933594 8.615371704101562
        8.529922485351562 8.590957641601562 8.810691833496094 9.076202392578125 9.286781311035156 9.454635620117188
        9.643852233886719 9.98260498046875 10.556350708007812 11.181983947753906 11.511581420898438 11.465805053710938
        11.249122619628906 11.053802490234375 10.968353271484375 11.026336669921875 11.178932189941406 11.301002502441406
        11.294898986816406 11.194190979003906 11.053802490234375 10.916473388671875 10.925628662109375 11.239967346191406
        11.841178894042969 12.427139282226562 12.643820762634277 12.417984008789062 11.9815673828125 11.542098999023438
        11.197242736816406 10.989715576171875 10.708946228027344 10.03143310546875 9.228797912597656 9.006011962890625
        9.335609436035156 9.207435607910156 8.0965576171875 7.324440002441406 8.557388305664062 10.434280395507812
        10.428176879882812 9.140296936035156 9.469894409179688 11.343727111816406 11.050750732421875 7.5899505615234375
        4.766990661621094 4.190193176269531 4.5564117431640625 4.815818786621094 4.870750427246094 5.038604736328125
        5.261390686035156 5.4292449951171875 5.645927429199219 5.792411804199219 5.816825866699219 5.816825866699219
        5.87786865234375 5.94805908203125 6.01214599609375 6.146430969238281 6.4546661376953125 6.891082763671875
        7.098602771759033 6.723228454589844 6.03045654296875 5.4994354248046875 5.191200256347656 5.096588134765625
        5.203407287597656 5.343788146972656 5.276649475097656 4.886016845703125 4.342781066894531 3.875854730606079
        3.7018966674804688 3.9033203125 4.0955810546875 4.0406494140625 3.9246826171875 3.8544845581054688
        3.7110519409179688 3.4699554443359375 3.2776870727539062 3.1525650024414062 3.006072998046875 2.923675537109375
        3.006072998046875 3.039642333984375 2.7893905639648438 2.4872589111328125 2.4811553955078125 2.5879669189453125
        2.3773956298828125 1.95013427734375 1.7059860229492188 1.6266402006149292 1.6022186279296875 1.7365036010742188
        1.94708251953125 2.07220458984375 2.10577392578125 2.1881790161132812 2.1332473754882812 1.89825439453125
        1.7548141479492188 1.89520263671875 2.1576614379882812 2.3010940551757812 2.3468704223632812 2.3346633911132812
        2.1454544067382812 1.7639694213867188 1.4008026123046875 1.107818603515625 0.881988525390625 0.6164703369140625
        0.4486236572265625 0.5066070556640625 0.881988525390625 1.3763885498046875 1.7487106323242188 2.1790237426757812
        2.8046493530273438 3.4760589599609375 3.8056564331054688 3.8361740112304688 3.9521484375 4.196296691894531
        4.5075836181640625 4.965362548828125 5.4109344482421875 5.5848846435546875 5.5635223388671875 5.5391082763671875
        5.5513153076171875 5.5726776123046875 5.6001434326171875 5.5574188232421875 5.362098693847656 4.971466064453125
        4.4129791259765625 4.1199951171875 4.3916168212890625 4.785301208496094 4.913482666015625 4.806663513183594
        9.90325927734375 10.071106910705566 9.90936279296875 9.540085792541504 9.289833068847656 9.045684814453125
        8.801536560058594 8.804588317871094 8.957183837890625 8.920562744140625 8.652000427246094 8.569595336914062
        8.893096923828125 9.314247131347656 9.497360229492188 9.488204956054688 9.540084838867188 9.808647155761719
        10.324409484863281 10.934783935546875 11.362037658691406 11.453598022460938 11.313209533691406 11.142312049865723
        11.081268310546875 11.188087463378906 11.447494506835938 11.737419128417969 11.862541198730469 11.758781433105469
        11.529891967773438 11.288795471191406 11.093475341796875 11.020233154296875 11.175880432128906 11.581771850585938
        12.070068359375 12.344734191894531 12.234870910644531 11.700798034667969 10.846275329589844 10.09857177734375
        9.701835632324219 9.488204956054688 9.393600463867188 9.579757690429688 9.854423522949219 9.640800476074219
        8.691673278808594 8.11181640625 9.250160217285156 10.785240173339844 10.785240173339844 9.472946166992188
        9.024322509765625 10.403762817382812 10.663169860839844 7.9439697265625 5.4384002685546875 4.910430908203125
        5.005035400390625 4.937896728515625 4.766990661621094 4.709007263183594 4.800559997558594 4.956207275390625
        5.145423889160156 5.267494201660156 5.328529357910156 5.368202209472656 5.4628143310546875 5.6001434326171875
        5.764945983886719 5.99993896484375 6.3753204345703125 6.891082763671875 7.184059143066406 6.8605570793151855
        6.180000305175781 5.5940399169921875 5.169837951660156 4.879913330078125 4.760887145996094 4.858543395996094
        5.066070556640625 4.977569580078125 4.4526519775390625 3.8544845581054688 3.6164400577545166 3.823967218399048
        3.994873046875 3.9002685546875 3.8483810424804688 3.9552001953125 3.9765625 3.7568283081054688
        3.4791107177734375 3.2868423461914062 3.1250991821289062 3.012176513671875 3.045745849609375 3.112884521484375
        2.984710693359375 2.7192001342773438 2.6368026733398438 2.7130966186523438 2.5849151611328125 2.2583694458007812
        2.05694580078125 2.026428461074829 2.09661865234375 2.2461624145507812 2.3590774536132812 2.3804473876953125
        2.4567413330078125 2.5727081298828125 2.4964141845703125 2.2919387817382812 2.2125930786132812 2.3682327270507812
        2.6001739501953125 2.7405624389648438 2.8229598999023438 2.911468505859375 2.905364990234375 2.7192001342773438
        2.4414825439453125 2.1973342895507812 2.00201416015625 1.7578659057617188 1.5198211669921875 1.5137176513671875
        1.8646774291992188 2.2980422973632812 2.5269317626953125 2.5757598876953125 2.6703720092773438 3.079315185546875
        3.6744308471679688 4.08642578125 4.260383605957031 4.354988098144531 4.4465484619140625 4.5808258056640625
        4.809715270996094 5.056915283203125 5.197303771972656 5.252235412597656 5.258338928222656 5.258338928222656
        5.294960021972656 5.316322326660156 5.252235412597656 5.029449462890625 4.5808258056640625 4.196296691894531
        4.242073059082031 4.5442047119140625 4.730369567871094 4.654075622558594 9.97039794921875 10.226753234863281
        10.370185852050781 10.156562805175781 9.753715515136719 9.292884826660156 8.874786376953125 8.746604919433594
        8.902252197265625 8.944976806640625 8.624534606933594 8.401748657226562 8.746604919433594 9.311195373535156
        9.552291870117188 9.491256713867188 9.482101440429688 9.698783874511719 10.09857177734375 10.596023559570312
        11.099578857421875 11.490219116210938 11.661125183105469 11.600082397460938 11.435287475585938 11.352882385253906
        11.456649780273438 11.676383972167969 11.804557800292969 11.734367370605469 11.557357788085938 11.365089416503906
        11.120941162109375 10.745567321777344 10.406814575195312 10.492263793945312 11.163673400878906 12.009033203125
        12.381362915039062 11.91748046875 10.715049743652344 9.430221557617188 8.807640075683594 9.097564697265625
        9.89410400390625 10.370185852050781 10.11993408203125 9.268470764160156 8.182014465332031 7.708976745605469
        8.404800415039062 9.344764709472656 9.283729553222656 8.252204895019531 8.130134582519531 9.88800048828125
        10.690635681152344 8.505508422851562 6.198310375213623 5.4628143310546875 5.194252014160156 4.867698669433594
        4.6204986572265625 4.4923248291015625 4.5777740478515625 4.776145935058594 4.956207275390625 5.038604736328125
        5.087432861328125 5.133216857910156 5.240028381347656 5.4078826904296875 5.5513153076171875 5.798515319824219
        6.283760070800781 6.854454040527344 7.119964599609375 6.836143493652344 6.265449523925781 5.771049499511719
        5.3956756591796875 5.017242431640625 4.666282653808594 4.4770660400390625 4.5960845947265625 4.815818786621094
        4.712059497833252 4.226814270019531 3.8361740112304688 3.933837890625 4.138313293457031 4.0650634765625
        3.921630859375 3.994873046875 4.147468566894531 4.104736328125 3.8605880737304688 3.6194915771484375
        3.4302828311920166 3.2410659790039062 3.1373062133789062 3.1403579711914062 3.115936279296875 3.027435302734375
        2.990814208984375 3.015228509902954 2.914520263671875 2.6642684936523438 2.5208282470703125 2.5116729736328125
        2.5360870361328125 2.5360870361328125 2.5299835205078125 2.6276473999023438 2.8321151733398438 2.929779052734375
        2.7924423217773438 2.6154327392578125 2.5391387939453125 2.6123809814453125 2.7741317749023438 2.966400146484375
        3.2136001586914062 3.4424896240234375 3.5126800537109375 3.4730072021484375 3.3936614990234375 3.2349624633789062
        3.079315185546875 2.935882568359375 2.7771835327148438 2.7649765014648438 2.948089599609375 3.1281509399414062
        3.1586685180664062 3.027435302734375 2.8382186889648438 2.8260116577148438 3.085418701171875 3.6622238159179688
        4.4007720947265625 4.913482666015625 5.050811767578125 4.977569580078125 4.895172119140625 4.992828369140625
        5.108795166015625 5.157630920410156 5.142372131347656 4.947052001953125 4.818870544433594 4.882965087890625
        4.913482666015625 4.770042419433594 4.4984283447265625 4.281745910644531 4.278694152832031 4.4404449462890625
        4.5442047119140625 4.4496002197265625 10.10162353515625 10.254219055175781 10.473953247070312 10.394607543945312
        9.93377685546875 9.329505920410156 8.829002380371094 8.645896911621094 8.752708435058594 8.822898864746094
        8.514663696289062 8.203376770019531 8.508560180664062 9.204383850097656 9.619430541992188 9.637748718261719
        9.637748718261719 9.796440124511719 10.05584716796875 10.370185852050781 10.791343688964844 11.319313049316406
        11.801506042480469 12.0059814453125 11.8778076171875 11.600082397460938 11.426132202148438 11.420028686523438
        11.468856811523438 11.490219116210938 11.493270874023438 11.468856811523438 11.304054260253906 10.831016540527344
        10.135200500488281 9.765922546386719 10.232856750488281 11.316261291503906 12.204353332519531 12.152473449707031
        10.971405029296875 9.384445190429688 8.590957641601562 9.259315490722656 10.757774353027344 11.453598022460938
        10.620437622070312 9.012115478515625 7.995849609375 8.197273254394531 8.688621520996094 8.676414489746094
        8.151496887207031 7.5685882568359375 8.0904541015625 9.823905944824219 10.513626098632812 8.890045166015625
        6.897186756134033 5.89007568359375 5.298011779785156 4.791404724121094 4.5167388916015625 4.4129791259765625
        4.5442047119140625 4.730369567871094 4.886016845703125 4.937896728515625 4.947052001953125 4.983673095703125
        5.121002197265625 5.304115295410156 5.4139862060546875 5.5940399169921875 6.04266357421875 6.646934509277344
        6.973480224609375 6.781211853027344 6.305122375488281 5.90838623046875 5.5848846435546875 5.212562561035156
        4.858543395996094 4.5686187744140625 4.4251861572265625 4.5686187744140625 4.763938903808594 4.5991363525390625
        4.196296691894531 4.0772705078125 4.257331848144531 4.327522277832031 4.220710754394531 4.202400207519531
        4.339729309082031 4.4221343994140625 4.309211730957031 4.0772705078125 3.8636398315429688 3.6713790893554688
        3.4974212646484375 3.4211273193359375 3.4089202880859375 3.3997650146484375 3.4058685302734375 3.3814544677734375
        3.2441177368164062 3.039642333984375 2.951141357421875 2.990814208984375 2.954193115234375 2.8382186889648438
        2.8229598999023438 2.902313232421875 2.969451904296875 3.045745849609375 3.115936279296875 3.1495132446289062
        3.118988037109375 3.1250991821289062 3.1891860961914062 3.3326187133789062 3.5920257568359375 3.8422775268554688
        4.0223388671875 4.177986145019531 4.229866027832031 4.168830871582031 4.147468566894531 4.104736328125
        4.0040283203125 3.9674072265625 3.9124755859375 3.7507247924804688 3.5920257568359375 3.4363858699798584
        3.2624282836914062 3.091522216796875 2.963348388671875 3.091522216796875 3.6561203002929688 4.4984283447265625
        5.111846923828125 5.209510803222656 5.032501220703125 4.980621337890625 5.063018798828125 5.108795166015625
        5.121002197265625 4.983673095703125 4.818870544433594 4.855491638183594 4.889068603515625 4.669334411621094
        4.3702473640441895 4.232917785644531 4.312263488769531 4.4434967041015625 4.4038238525390625 4.257331848144531
        10.132148742675781 10.08636474609375 10.257270812988281 10.275581359863281 9.94293212890625 9.405807495117188
        8.978546142578125 8.841209411621094 8.874786376953125 8.853416442871094 8.578750610351562 8.307136535644531
        8.542129516601562 9.201332092285156 9.744560241699219 9.96124267578125 10.03143310546875 10.11688232421875
        10.226753234863281 10.361030578613281 10.580764770507812 11.001922607421875 11.560409545898438 12.009033203125
        12.143318176269531 11.9388427734375 11.581771850585938 11.279640197753906 11.087371826171875 11.056854248046875
        11.221656799316406 11.450546264648438 11.471908569335938 11.056854248046875 10.260322570800781 9.537033081054688
        9.564498901367188 10.531936645507812 11.798454284667969 12.323372840881348 11.438339233398438 9.784233093261719
        8.862571716308594 9.616378784179688 11.355934143066406 11.94189453125 10.342720031738281 7.959228515625
        6.912445068359375 7.730339050292969 8.569595336914062 7.9287109375 6.653038024902344 5.96026611328125
        6.3997344970703125 7.721183776855469 8.578750610351562 8.133186340332031 7.016204833984375 6.02740478515625
        5.291908264160156 4.7669901847839355 4.5014801025390625 4.4343414306640625 4.5655670166015625 4.709007263183594
        4.828025817871094 4.901275634765625 4.980621337890625 5.059967041015625 5.1393208503723145 5.233924388885498
        5.322425842285156 5.4963836669921875 5.856498718261719 6.4058380126953125 6.869712829589844 6.903289794921875
        6.4882354736328125 6.01214599609375 5.664237976074219 5.359046936035156 5.105743408203125 4.907379150390625
        4.696800231933594 4.5869293212890625 4.690696716308594 4.803611755371094 4.709007263183594 4.5472564697265625
        4.5594635009765625 4.635765075683594 4.6143951416015625 4.5625152587890625 4.6143951416015625 4.693748474121094
        4.654075622558594 4.4740142822265625 4.290901184082031 4.177986145019531 4.019287109375 3.8117599487304688
        3.7385177612304688 3.7598800659179688 3.7110519409179688 3.5493011474609375 3.2898941040039062 3.1342544555664062
        3.2258071899414062 3.3478775024414062 3.3997650146484375 3.4180755615234375 3.3845062255859375 3.2319107055664062
        3.036590576171875 3.006072998046875 3.1464614868164062 3.2990493774414062 3.3753509521484375 3.4760589599609375
        3.6072845458984375 3.7629318237304688 3.9185791015625 4.0284423828125 4.187141418457031 4.4221343994140625
        4.5930328369140625 4.724266052246094 4.873809814453125 4.934844970703125 4.852439880371094 4.721214294433594
        4.5167388916015625 4.245124816894531 4.03759765625 3.872802734375 3.6744308471679688 3.4577484130859375
        3.2593765258789062 3.1617202758789062 3.1952896118164062 3.5462493896484375 4.269538879394531 4.754783630371094
        4.776145935058594 4.763938903808594 4.824974060058594 4.879913330078125 5.038604736328125 5.166786193847656
        5.127113342285156 5.136268615722656 5.142372131347656 4.840232849121094 4.3794097900390625 4.190193176269531
        4.342781066894531 4.4557037353515625 4.263435363769531 4.025390625 10.11383056640625 9.759819030761719
        9.814750671386719 9.93072509765625 9.839164733886719 9.579757690429688 9.393600463867188 9.375289916992188
        9.360023498535156 9.262367248535156 9.067046165466309 8.929718017578125 9.097564697265625 9.530929565429688
        9.97344970703125 10.290840148925781 10.467849731445312 10.522781372070312 10.513626098632812 10.495315551757812
        10.486160278320312 10.614334106445312 11.026336669921875 11.615341186523438 12.1219482421875 12.295906066894531
        12.0548095703125 11.542098999023438 11.011077880859375 10.760826110839844 10.977508544921875 11.490219116210938
        11.786247253417969 11.471908569335938 10.663169860839844 9.820854187011719 9.540084838867188 10.156562805175781
        11.316261291503906 12.082275390625 11.642814636230469 10.281684875488281 9.335609436035156 9.90631103515625
        11.484115600585938 12.0548095703125 10.296943664550781 7.5167083740234375 6.207466125488281 7.065032958984375
        8.246101379394531 7.5167083740234375 5.5360565185546875 4.367195129394531 4.5655670166015625 5.5207977294921875
        6.4729766845703125 6.848350524902344 6.469925403594971 5.728324890136719 5.175941467285156 4.806663513183594
        4.5838775634765625 4.5686187744140625 4.709007263183594 4.870750427246094 5.011138916015625 5.124061107635498
        5.319374084472656 5.5085906982421875 5.5604705810546875 5.5421600341796875 5.5787811279296875 5.749687194824219
        6.07012939453125 6.4912872314453125 6.936859607696533 7.165748596191406 6.869712829589844 6.317329406738281
        5.98162841796875 5.798515319824219 5.5757293701171875 5.352943420410156 5.200355529785156 5.072174072265625
        4.980621337890625 5.047760009765625 5.191200256347656 5.172889232635498 5.056915283203125 5.050811767578125
        5.090484619140625 5.050811767578125 5.020294189453125 5.020294189453125 4.919586181640625 4.745628356933594
        4.666282653808594 4.675437927246094 4.5167388916015625 4.190193176269531 4.123054504394531 4.293952941894531
        4.275642395019531 3.970458984375 3.5493011474609375 3.3265151977539062 3.4241790771484375 3.5615081787109375
        3.6988449096679688 3.8117599487304688 3.7354660034179688 3.4730072021484375 3.2258071899414062 3.2044448852539062
        3.3326187133789062 3.3936614990234375 3.3936614990234375 3.5187835693359375 3.7812423706054688 4.0284423828125
        4.138313293457031 4.123054504394531 4.123054504394531 4.254280090332031 4.4648590087890625 4.693748474121094
        4.925689697265625 5.108795166015625 5.172889709472656 5.105743408203125 4.931793212890625 4.715110778808594
        4.5228424072265625 4.333625793457031 4.11083984375 3.8422775268554688 3.5859222412109375 3.3906097412109375
        3.1556167602539062 2.932830572128296 3.033538818359375 3.6164398193359375 4.196296691894531 4.3763580322265625
        4.4709625244140625 4.657127380371094 4.980621337890625 5.252235412597656 5.252235412597656 5.127113342285156
        5.008087158203125 4.727317810058594 4.263435363769531 3.9674072265625 4.0345458984375 4.104736328125
        3.897216796875 3.6835861206054688 10.208442687988281 9.591964721679688 9.506515502929688 9.710990905761719
        9.87884521484375 9.95513916015625 10.03448486328125 10.07720947265625 10.03448486328125 9.94598388671875
        9.860527038574219 9.811698913574219 9.860527038574219 10.01617431640625 10.223701477050781 10.452590942382812
        10.660118103027344 10.769981384277344 10.736412048339844 10.623497009277344 10.458694458007812 10.309150695800781
        10.425125122070312 10.995819091796875 11.816764831542969 12.451553344726562 12.524794578552246 12.0303955078125
        11.331520080566406 10.913421630859375 11.026336669921875 11.462753295898438 11.722160339355469 11.459701538085938
        10.800498962402344 10.132148742675781 9.836112976074219 10.11383056640625 10.852378845214844 11.578720092773438
        11.722160339355469 11.151466369628906 10.370185852050781 10.318305969238281 11.426132202148438 12.421035766601562
        11.133155822753906 7.9866943359375 5.99688720703125 6.4516143798828125 7.931763172149658 7.885986328125
        5.731376647949219 3.836174249649048 3.6347579956054688 4.348884582519531 5.197303771972656 5.731376647949219
        5.627617359161377 5.206459045410156 5.020294189453125 4.855492115020752 4.730369567871094 4.800559997558594
        5.008087158203125 5.276649475097656 5.4811248779296875 5.5757293701171875 5.752738952636719 6.00299072265625
        6.164741516113281 6.167793273925781 6.155586242675781 6.253242492675781 6.4790802001953125 6.781211853027344
        7.135231018066406 7.3946380615234375 7.217628479003906 6.756797790527344 6.4668731689453125 6.302070617675781
        6.04266357421875 5.774101257324219 5.636772155761719 5.5665740966796875 5.4353485107421875 5.349891662597656
        5.4322967529296875 5.5269012451171875 5.4933319091796875 5.5024871826171875 5.627616882324219 5.645927429199219
        5.5696258544921875 5.4841766357421875 5.310218811035156 5.139320373535156 5.166786193847656 5.255287170410156
        4.980621337890625 4.4984283447265625 4.4404449462890625 4.660179138183594 4.5594635009765625 4.1199951171875
        3.6622238159179688 3.4424896240234375 3.5279388427734375 3.7080001831054688 3.8636398315429688 4.0040283203125
        3.9490966796875 3.7293624877929688 3.5767669677734375 3.6194915771484375 3.7446212768554688 3.7324142456054688
        3.6469650268554688 3.7171554565429688 4.0009765625 4.263435363769531 4.330574035644531 4.263435363769531
        4.159675598144531 4.147468566894531 4.281745910644531 4.4831695556640625 4.687644958496094 4.916534423828125
        5.160682678222656 5.282752990722656 5.240028381347656 5.084381103515625 4.879913330078125 4.699851989746094
        4.5289459228515625 4.281745910644531 4.007080078125 3.8056564331054688 3.6133880615234375 3.3326187133789062
        2.996917724609375 2.938934326171875 3.2929458618164062 3.6164398193359375 3.7354660034179688 3.958251953125
        4.3916168212890625 4.754783630371094 4.809715270996094 4.690696716308594 4.5594635009765625 4.370246887207031
        4.0040283203125 3.6866378784179688 3.6469650268554688 3.6286544799804688 3.4669036865234375 3.4211273193359375
        10.364082336425781 9.714042663574219 9.607223510742188 9.93377685546875 10.324409484863281 10.596023559570312
        10.757774353027344 10.782188415527344 10.705894470214844 10.580764770507812 10.483108520507812 10.400711059570312
        10.342720031738281 10.324409484863281 10.339668273925781 10.376296997070312 10.504470825195312 10.718101501464844
        10.864584922790527 10.837120056152344 10.635704040527344 10.324409484863281 10.11077880859375 10.382400512695312
        11.221656799316406 12.161628723144531 12.628562927246094 12.424087524414062 11.847282409667969 11.416976928710938
        11.365089416503906 11.499374389648438 11.450546264648438 11.130104064941406 10.769981384277344 10.599075317382812
        10.669273376464844 10.898162841796875 11.197242736816406 11.520736694335938 11.731315612792969 11.722160339355469
        11.304054260253906 10.666221618652344 10.788291931152344 11.597030639648438 11.246070861816406 8.917510986328125
        6.646934509277344 6.3966827392578125 7.672355651855469 8.05078125 6.320381164550781 4.257331848144531
        3.7049484252929688 4.150520324707031 4.7242655754089355 5.084381103515625 5.008087158203125 4.834129333496094
        4.889068603515625 4.879913330078125 4.904327392578125 5.078277587890625 5.3407368659973145 5.658134460449219
        5.88702392578125 5.99078369140625 6.08843994140625 6.302070617675781 6.5919952392578125 6.741539001464844
        6.723228454589844 6.689659118652344 6.811729431152344 7.077239990234375 7.376327037811279 7.5746917724609375
        7.4129486083984375 6.994843006134033 6.738487243652344 6.5980987548828125 6.357002258300781 6.10064697265625
        5.96636962890625 5.88702392578125 5.771049499511719 5.667289733886719 5.670341491699219 5.764945983886719
        5.844291687011719 5.96026611328125 6.152534484863281 6.222724914550781 6.155586242675781 6.01519775390625
        5.774101257324219 5.627616882324219 5.804618835449219 5.94805908203125 5.5299530029296875 4.965362548828125
        4.971466064453125 5.200355529785156 4.956207275390625 4.4007720947265625 3.9979248046875 3.8056564331054688
        3.8087081909179688 3.897216796875 3.970458984375 4.055908203125 4.0498046875 3.9552001953125
        3.8880615234375 3.921630859375 4.0223388671875 4.0040283203125 3.89111328125 3.9613037109375
        4.235969543457031 4.4587554931640625 4.5106353759765625 4.4709625244140625 4.3977203369140625 4.278694152832031
        4.220710754394531 4.248176574707031 4.269538879394531 4.4221343994140625 4.757835388183594 5.041656494140625
        5.178993225097656 5.163734436035156 5.050811767578125 4.962310791015625 4.886016845703125 4.727317810058594
        4.5319976806640625 4.3763580322265625 4.217658996582031 3.98876953125 3.7202072143554688 3.5248870849609375
        3.4669036865234375 3.5340423583984375 3.6652755737304688 3.8514328002929688 4.1016845703125 4.312263488769531
        4.333625793457031 4.190193176269531 4.0345458984375 3.9185791015625 3.7659835815429688 3.5950775146484375
        3.5950775146484375 3.5859222412109375 3.4852142333984375 3.4791107177734375 10.748619079589844 10.290840148925781
        10.205390930175781 10.480056762695312 10.821861267089844 11.090423583984375 11.301002502441406 11.380355834960938
        11.282691955566406 11.059906005859375 10.818809509277344 10.632652282714844 10.541091918945312 10.501419067382812
        10.434280395507812 10.315254211425781 10.260322570800781 10.425125122070312 10.730308532714844 10.895111083984375
        10.736412048339844 10.296943664550781 9.790336608886719 9.695732116699219 10.373245239257812 11.502426147460938
        12.427139282226562 12.738426208496094 12.540054321289062 12.201301574707031 11.9266357421875 11.676383972167969
        11.297950744628906 10.788291931152344 10.477005004882812 10.647911071777344 11.181983947753906 11.532943725585938
        11.410873413085938 11.081268310546875 10.885955810546875 11.062957763671875 11.236915588378906 10.580764770507812
        9.521774291992188 9.134193420410156 9.002960205078125 7.904296875 6.308174133300781 5.810722351074219
        6.686607360839844 7.4037933349609375 6.704917907714844 5.175941467285156 4.309211730957031 4.4190826416015625
        4.733421325683594 4.849388122558594 4.806663513183594 4.785301208496094 4.861595153808594 4.925689697265625
        5.050811767578125 5.279701232910156 5.5604705810546875 5.844291687011719 6.08233642578125 6.283760070800781
        6.3875274658203125 6.5065460205078125 6.811729431152344 7.144386291503906 7.242042541503906 7.135231018066406
        7.156593322753906 7.422104358673096 7.678459167480469 7.757804870605469 7.5472259521484375 7.113861083984375
        6.836143493652344 6.787315368652344 6.659142017364502 6.4333038330078125 6.289863586425781 6.186103820800781
        6.05487060546875 5.96942138671875 5.98162841796875 6.09454345703125 6.247138500213623 6.4180450439453125
        6.6011505126953125 6.674400329589844 6.6164093017578125 6.4394073486328125 6.198310375213623 6.180000305175781
        6.4577178955078125 6.5523223876953125 6.08843994140625 5.5696258544921875 5.5665740966796875 5.722221374511719
        5.4261932373046875 4.882965087890625 4.4831695556640625 4.214607238769531 4.0772705078125 4.0650634765625
        4.0650634765625 4.0498046875 4.043701171875 4.019287109375 3.9918212890625 4.0772705078125
        4.208503723144531 4.177986145019531 4.08642578125 4.153572082519531 4.3733062744140625 4.5258941650390625
        4.5106353759765625 4.4953765869140625 4.5045318603515625 4.3763580322265625 4.181037902832031 4.08642578125
        4.031494140625 4.0650634765625 4.309211730957031 4.6082916259765625 4.782249450683594 4.837181091308594
        4.861595153808594 4.931793212890625 4.962310791015625 4.867698669433594 4.760887145996094 4.733421325683594
        4.654075622558594 4.4434967041015625 4.193244934082031 3.9307861328125 3.6561203002929688 3.5065765380859375
        3.5493011474609375 3.6774826049804688 3.7629318237304688 3.7934494018554688 3.8483810424804688 3.8483810424804688
        3.7751388549804688 3.6835861206054688 3.6103363037109375 3.5950775146484375 3.6164398193359375 3.5615081787109375
        3.5065765380859375 3.4943695068359375 11.224708557128906 10.968353271484375 10.867637634277344 10.974456787109375
        11.197242736816406 11.468856811523438 11.700798034667969 11.792350769042969 11.655021667480469 11.337623596191406
        10.956146240234375 10.632652282714844 10.461746215820312 10.425125122070312 10.385452270507812 10.242012023925781
        10.02838134765625 9.96429443359375 10.205390930175781 10.559402465820312 10.638755798339844 10.263374328613281
        9.622489929199219 9.283729553222656 9.814750671386719 11.050750732421875 12.268440246582031 12.872711181640625
        12.854393005371094 12.616348266601562 12.302009582519531 11.822868347167969 11.154518127441406 10.394607543945312
        9.96734619140625 10.339668273925781 11.474960327148438 12.448501586914062 12.359992980957031 11.523788452148438
        10.879852294921875 11.270484924316406 12.482070922851562 12.887969970703125 11.447494506835938 9.137245178222656
        7.666252136230469 6.649986267089844 5.346839904785156 4.718162536621094 5.355995178222656 6.5767364501953125
        6.900238513946533 5.780204772949219 4.702903747558594 4.675437927246094 4.925689697265625 4.953155994415283
        4.925689697265625 4.977569580078125 5.001983642578125 5.035552978515625 5.151527404785156 5.4109344482421875
        5.731376647949219 6.012146472930908 6.244087219238281 6.4790802001953125 6.6286234855651855 6.704917907714844
        6.942962646484375 7.370216369628906 7.669303894042969 7.675407409667969 7.638786315917969 7.831047058105469
        8.069091796875 8.05078125 7.763908386230469 7.361061096191406 7.061981201171875 7.000946044921875
        6.973480224609375 6.826988220214844 6.704917907714844 6.6438822746276855 6.5584259033203125 6.4699249267578125
        6.4210968017578125 6.4821319580078125 6.6194610595703125 6.769004821777344 6.939910888671875 7.022308349609375
        6.955169677734375 6.750694274902344 6.5492706298828125 6.6103057861328125 6.805625915527344 6.738487243652344
        6.347846984863281 5.99993896484375 5.97247314453125 5.99688720703125 5.761894226074219 5.3773651123046875
        5.026397705078125 4.770042419433594 4.647972106933594 4.5930328369140625 4.4648590087890625 4.327522277832031
        4.303108215332031 4.254280090332031 4.168830871582031 4.248176574707031 4.370246887207031 4.315315246582031
        4.214607238769531 4.293952941894531 4.4801177978515625 4.5533599853515625 4.5319976806640625 4.5686187744140625
        4.635765075683594 4.5899810791015625 4.4007720947265625 4.208503723144531 4.104736328125 4.153572082519531
        4.330574035644531 4.4221343994140625 4.333625793457031 4.312263488769531 4.4709625244140625 4.657127380371094
        4.745628356933594 4.721214294433594 4.696800231933594 4.770042419433594 4.846336364746094 4.791404724121094
        4.6113433837890625 4.354988098144531 4.123054504394531 4.0101318359375 3.9979248046875 4.0345458984375
        4.0284423828125 3.958251953125 3.970458984375 4.0406494140625 3.9246826171875 3.6500167846679688
        3.5218353271484375 3.5859222412109375 3.6927413940429688 3.6988449096679688 3.5767669677734375 3.4546966552734375
        11.535995483398438 11.325416564941406 11.25827693939209 11.297950744628906 11.416976928710938 11.575668334960938
        11.713005065917969 11.761833190917969 11.688591003417969 11.444442749023438 11.041595458984375 10.635704040527344
        10.379348754882812 10.330513000488281 10.385452270507812 10.342720031738281 10.11077880859375 9.854423522949219
        9.89410400390625 10.287788391113281 10.657066345214844 10.550247192382812 9.97650146484375 9.515670776367188
        9.759819030761719 10.715049743652344 11.810661315917969 12.463760375976562 12.573623657226562 12.515640258789062
        12.491226196289062 12.240974426269531 11.575668334960938 10.693687438964844 10.187080383300781 10.647911071777344
        12.11279296875 13.675346374511719 14.00799560546875 12.985626220703125 11.682487487792969 11.243019104003906
        11.871696472167969 12.619400024414062 12.488174438476562 11.224708557128906 9.503463745117188 7.4465179443359375
        5.4017791748046875 4.278694152832031 4.632713317871094 6.363105773925781 7.5167083740234375 6.567580699920654
        5.111847400665283 4.763938903808594 5.029449462890625 5.243080139160156 5.273597717285156 5.304115295410156
        5.304114818572998 5.310218811035156 5.383468151092529 5.627617359161377 5.93585205078125 6.198310375213623
        6.4119415283203125 6.6438822746276855 6.863609313964844 6.991790771484375 7.165748596191406 7.5594329833984375
        7.9989013671875 8.246101379394531 8.307136535644531 8.413955688476562 8.581802368164062 8.514663696289062
        8.175910949707031 7.791374206542969 7.5167083740234375 7.4129486083984375 7.4282073974609375 7.3763275146484375
        7.287818908691406 7.248146057128906 7.196266174316406 7.065032958984375 6.900238037109375 6.878875255584717
        7.031463623046875 7.235939025878906 7.4800872802734375 7.6204681396484375 7.5106048583984375 7.260353088378906
        7.037567138671875 6.979583740234375 6.964324951171875 6.826988220214844 6.6194610595703125 6.4363555908203125
        6.323432922363281 6.164741516113281 5.94195556640625 5.710014343261719 5.4139862060546875 5.157630920410156
        5.081329345703125 4.998931884765625 4.785301208496094 4.638816833496094 4.632713317871094 4.5289459228515625
        4.354988098144531 4.351936340332031 4.4038238525390625 4.345832824707031 4.281745910644531 4.339728832244873
        4.4343414306640625 4.4526519775390625 4.4709625244140625 4.5289459228515625 4.5777740478515625 4.647972106933594
        4.6113433837890625 4.3824615478515625 4.245124816894531 4.4190826416015625 4.6021881103515625 4.4221343994140625
        4.1138916015625 4.150520324707031 4.318367004394531 4.345832824707031 4.4038238525390625 4.4526519775390625
        4.4129791259765625 4.5106353759765625 4.712059020996094 4.766990661621094 4.675437927246094 4.4801177978515625
        4.220710754394531 3.9857177734375 3.8239669799804688 3.7446212768554688 3.7598800659179688 3.8178634643554688
        3.8300704956054688 3.8178634643554688 3.7507247924804688 3.5401458740234375 3.3448257446289062 3.3478775024414062
        3.4852142333984375 3.5065765380859375 3.3143081665039062 3.048797607421875 11.642814636230469 11.328468322753906
        11.276588439941406 11.343727111816406 11.368141174316406 11.377304077148438 11.441390991210938 11.557357788085938
        11.661125183105469 11.624504089355469 11.362037658691406 10.968353271484375 10.657066345214844 10.559402465820312
        10.602127075195312 10.565505981445312 10.303047180175781 9.93682861328125 9.802543640136719 10.06500244140625
        10.467849731445312 10.531936645507812 10.06805419921875 9.515670776367188 9.482101440429688 10.09246826171875
        11.017181396484375 11.838127136230469 12.277595520019531 12.408828735351562 12.509536743164062 12.488174438476562
        12.06396484375 11.252174377441406 10.654014587402344 11.020233154296875 12.430191040039062 14.178901672363281
        15.033416748046875 14.465774536132812 13.064971923828125 11.334571838378906 9.98260498046875 10.08331298828125
        11.181983947753906 11.499374389648438 10.702842712402344 8.993804931640625 6.833091735839844 5.5940399169921875
        5.661186695098877 7.095550537109375 8.178962707519531 7.4343109130859375 5.87481689453125 4.992828369140625
        5.005035400390625 5.4292449951171875 5.7252726554870605 5.743583679199219 5.685600280761719 5.713066101074219
        5.795463562011719 5.96331787109375 6.183052062988281 6.3844757080078125 6.5706329345703125 6.857506275177002
        7.232887268066406 7.4648284912109375 7.5594329833984375 7.815788269042969 8.236946105957031 8.615371704101562
        8.868675231933594 9.015167236328125 9.091461181640625 8.966339111328125 8.584854125976562 8.154548645019531
        7.843254089355469 7.745597839355469 7.821891784667969 7.831047058105469 7.699821472167969 7.5746917724609375
        7.4678802490234375 7.339698791503906 7.174903869628906 7.104706287384033 7.315284729003906 7.696769714355469
        8.0782470703125 8.224739074707031 8.0050048828125 7.626579284667969 7.333595275878906 7.196266174316406
        7.135231018066406 7.061981201171875 6.964324951171875 6.808677673339844 6.631675720214844 6.4577178955078125
        6.274604797363281 6.07928466796875 5.810722351074219 5.5848846435546875 5.4963836669921875 5.371253967285156
        5.178993225097656 5.108795166015625 5.050811767578125 4.855491638183594 4.669334411621094 4.5777740478515625
        4.4862213134765625 4.4068756103515625 4.3824615478515625 4.4190826416015625 4.4434967041015625 4.4099273681640625
        4.4282379150390625 4.4740142822265625 4.4709625244140625 4.5777740478515625 4.693748474121094 4.5381011962890625
        4.4160308837890625 4.6052398681640625 4.651023864746094 4.248176574707031 3.921630859375 4.0467529296875
        4.104736328125 3.91552734375 3.9185791015625 4.043701171875 4.0650634765625 4.245124816894531
        4.5442047119140625 4.626609802246094 4.647972106933594 4.730369567871094 4.5930328369140625 4.260383605957031
        3.9674072265625 3.7690353393554688 3.7385177612304688 3.872802734375 3.946044921875 3.9002685546875
        3.8575363159179688 3.7324142456054688 3.4638519287109375 3.3478775024414062 3.3570327758789062 3.3173599243164062
        3.1769790649414062 2.8565292358398438 11.737419128417969 11.328468322753906 11.188087463378906 11.264381408691406
        11.291847229003906 11.239967346191406 11.307106018066406 11.539047241210938 11.783195495605469 11.8839111328125
        11.761833190917969 11.453598022460938 11.127052307128906 10.931732177734375 10.840171813964844 10.690634727478027
        10.330513000488281 9.848320960998535 9.570601463317871 9.695732116699219 10.052794456481934 10.205390930175781
        9.92462158203125 9.494308471679688 9.448531150817871 9.95513916015625 10.748619079589844 11.474960327148438
        11.868644714355469 11.859489440917969 11.691642761230469 11.636711120605469 11.670280456542969 11.697746276855469
        11.96630859375 12.720115661621094 13.605148315429688 14.06903076171875 14.410842895507812 14.569534301757812
        13.97442626953125 12.625511169433594 10.422073364257812 8.151496887207031 7.4556732177734375 8.301033020019531
        9.305091857910156 9.341712951660156 8.322395324707031 7.535018444061279 7.364112854003906 7.754753589630127
        8.0050048828125 7.623527526855469 6.662193775177002 5.5513153076171875 5.105743408203125 5.4811248779296875
        6.039611339569092 6.274604797363281 6.1494832038879395 6.09454345703125 6.207466125488281 6.335639953613281
        6.4729766845703125 6.640830993652344 6.842247009277344 7.168800354003906 7.626579284667969 7.96533203125
        8.03857421875 8.145393371582031 8.462783813476562 8.844261169433594 9.204383850097656 9.500411987304688
        9.634696960449219 9.451583862304688 8.963287353515625 8.441421508789062 8.151496887207031 8.133186340332031
        8.304084777832031 8.423110961914062 8.349861145019531 8.166755676269531 8.0172119140625 7.9805908203125
        7.9775390625 7.9989013671875 8.261360168457031 8.639793395996094 8.804588317871094 8.706932067871094
        8.398696899414062 7.995850086212158 7.635734558105469 7.3946380615234375 7.300025939941406 7.245093822479248
        7.141334533691406 7.028411865234375 6.939910888671875 6.790367126464844 6.5828399658203125 6.3844757080078125
        6.128120422363281 5.87786865234375 5.722221374511719 5.6001434326171875 5.5299530029296875 5.4811248779296875
        5.316322326660156 5.105743408203125 4.992828369140625 4.882965087890625 4.718162536621094 4.5991363525390625
        4.5564117431640625 4.5747222900390625 4.5655670166015625 4.5045318603515625 4.5136871337890625 4.5564117431640625
        4.5533599853515625 4.647972106933594 4.788352966308594 4.733421325683594 4.675437927246094 4.803611755371094
        4.763938903808594 4.367195129394531 4.1016845703125 4.229866027832031 4.266487121582031 3.982666015625
        3.8026046752929688 3.7965011596679688 3.8209152221679688 4.03759765625 4.297004699707031 4.342781066894531
        4.4862213134765625 4.785301208496094 4.712059020996094 4.303108215332031 3.9857177734375 3.7934494018554688
        3.6835861206054688 3.7812423706054688 3.933837890625 3.8880615234375 3.7903976440429688 3.7446212768554688
        3.5950775146484375 3.3875579833984375 3.2776870727539062 3.2013931274414062 2.999969482421875 2.6734237670898438
        11.865592956542969 11.435287475585938 11.166725158691406 11.181983947753906 11.279640197753906 11.313209533691406
        11.444442749023438 11.734367370605469 12.0059814453125 12.0914306640625 11.9449462890625 11.645866394042969
        11.337623596191406 11.142312049865723 10.986663818359375 10.733360290527344 10.315255165100098 9.802543640136719
        9.454635620117188 9.491256713867188 9.793388366699219 9.93377685546875 9.653007507324219 9.161659240722656
        8.966339111328125 9.350868225097656 10.11688232421875 10.803550720214844 11.069061279296875 10.937835693359375
        10.684532165527344 10.934783935546875 12.308113098144531 14.154487609863281 15.192115783691406 15.344703674316406
        14.896087646484375 14.08123779296875 13.870658874511719 14.191108703613281 14.09344482421875 13.461715698242188
        11.801506042480469 8.825950622558594 6.4058380126953125 5.89923095703125 7.3732757568359375 9.100616455078125
        9.454635620117188 9.009063720703125 8.459732055664062 8.154548645019531 8.020263671875 7.794425964355469
        7.300025939941406 6.363105773925781 5.6031951904296875 5.5940399169921875 6.10675048828125 6.634727478027344
        6.631675720214844 6.4668731689453125 6.5492706298828125 6.717124938964844 6.833091735839844 7.013152599334717
        7.269508361816406 7.5685882568359375 7.959228515625 8.365119934082031 8.572647094726562 8.627586364746094
        8.783226013183594 9.060944557189941 9.387496948242188 9.787284851074219 10.08941650390625 9.97344970703125
        9.396652221679688 8.771018981933594 8.517715454101562 8.648948669433594 8.938873291015625 9.085357666015625
        8.868675231933594 8.401748657226562 8.020263671875 7.898193359375 7.852409362792969 7.660148620605469
        7.6052093505859375 7.8890380859375 8.285774230957031 8.511611938476562 8.401748657226562 8.0965576171875
        7.760856628417969 7.4709320068359375 7.287818908691406 7.193214416503906 7.119964599609375 7.083343505859375
        7.077239990234375 6.997894287109375 6.836143493652344 6.668296813964844 6.4210968017578125 6.10369873046875
        5.880920886993408 5.816825866699219 5.822929382324219 5.706962585449219 5.4841766357421875 5.355995178222656
        5.288856506347656 5.105743408203125 4.910430908203125 4.882965087890625 4.919586181640625 4.879913330078125
        4.788352966308594 4.745628356933594 4.760887145996094 4.742576599121094 4.770042419433594 4.907379150390625
        4.971466064453125 4.834129333496094 4.687644958496094 4.684593200683594 4.675437927246094 4.4648590087890625
        4.235969543457031 4.239021301269531 4.266487121582031 4.068115711212158 3.7842941284179688 3.6042327880859375
        3.5767669677734375 3.6927413940429688 3.8056564331054688 3.87890625 4.126106262207031 4.4312896728515625
        4.4251861572265625 4.208503723144531 4.0894775390625 3.9246826171875 3.6835861206054688 3.6439132690429688
        3.7415695190429688 3.7446212768554688 3.6652755737304688 3.6591720581054688 3.5798187255859375 3.3997650146484375
        3.3509292602539062 3.2990493774414062 3.073211669921875 2.7771835327148438 12.06396484375 11.722160339355469
        11.429183959960938 11.368141174316406 11.465805053710938 11.557358741760254 11.706901550292969 11.96630859375
        12.176887512207031 12.164680480957031 11.9144287109375 11.581771850585938 11.358985900878906 11.346778869628906
        11.313209533691406 11.032440185546875 10.577713012695312 10.10772705078125 9.768974304199219 9.698783874511719
        9.857475280761719 9.94293212890625 9.677421569824219 9.128090858459473 8.703880310058594 8.829002380371094
        9.601119995117188 10.660118103027344 11.340675354003906 11.362037658691406 10.974456787109375 10.733360290527344
        11.508529663085938 13.180946350097656 14.584793090820312 15.335548400878906 15.280616760253906 14.462722778320312
        14.157539367675781 14.609207153320312 14.462722778320312 13.571578979492188 11.841178894042969 9.375289916992188
        7.5746917724609375 6.753746032714844 7.165748596191406 8.526870727539062 9.353919982910156 9.253211975097656
        8.825950622558594 8.529922485351562 8.496353149414062 8.316291809082031 7.849357604980469 7.196266174316406
        6.4851837158203125 6.03656005859375 6.189155578613281 6.735435962677002 6.973480224609375 6.888031005859375
        6.924652099609375 7.1504902839660645 7.327491760253906 7.4953460693359375 7.733390808105469 7.9989013671875
        8.285774230957031 8.636741638183594 8.935821533203125 9.039581298828125 9.060943603515625 9.155555725097656
        9.375289916992188 9.762870788574219 10.138252258300781 10.126045227050781 9.604171752929688 8.920562744140625
        8.554336547851562 8.587905883789062 8.734397888183594 8.758811950683594 8.548233032226562 8.160652160644531
        7.855461120605469 7.730339050292969 7.669303894042969 7.5106048583984375 7.3854827880859375 7.5624847412109375
        8.093505859375 8.609268188476562 8.587905883789062 8.178962707519531 7.806632995605469 7.5319671630859375
        7.354957580566406 7.296974182128906 7.272560119628906 7.205421447753906 7.135231018066406 7.095550537109375
        7.031463623046875 6.884979248046875 6.643882751464844 6.3783721923828125 6.210517883300781 6.198310852050781
        6.213569641113281 6.06097412109375 5.825981140136719 5.716117858886719 5.6031951904296875 5.313270568847656
        5.105743408203125 5.206459045410156 5.331581115722656 5.224769592285156 5.066070556640625 5.056915283203125
        5.050811767578125 4.928741455078125 5.001983642578125 5.255287170410156 5.255287170410156 4.998931884765625
        4.770042419433594 4.687644958496094 4.693748474121094 4.6204986572265625 4.4740142822265625 4.3733062744140625
        4.321418762207031 4.211555480957031 3.9613037109375 3.7110519409179688 3.6347579956054688 3.5889739990234375
        3.5157318115234375 3.5645599365234375 3.7629318237304688 3.9490966796875 3.98876953125 4.01318359375
        4.116943359375 4.0162353515625 3.7232589721679688 3.6011810302734375 3.6469650268554688 3.6927413940429688
        3.6957931518554688 3.5767669677734375 3.3082046508789062 3.1830825805664062 3.3478775024414062 3.3661880493164062
        3.1342544555664062 2.972503662109375 12.265388488769531 11.9815673828125 11.764884948730469 11.664176940917969
        11.645866394042969 11.673332214355469 11.795402526855469 11.9937744140625 12.167732238769531 12.164680480957031
        11.972412109375 11.691642761230469 11.505477905273438 11.535995483398438 11.551254272460938 11.224708557128906
        10.654014587402344 10.159614562988281 9.869682312011719 9.732352256774902 9.659111022949219 9.598068237304688
        9.442428588867188 9.137245178222656 8.731346130371094 8.447525024414062 8.716087341308594 9.772026062011719
        11.066009521484375 11.542098999023438 10.953094482421875 9.95513916015625 9.649955749511719 11.014129638671875
        13.473922729492188 15.237892150878906 15.668205261230469 14.975433349609375 13.95916748046875 14.130073547363281
        14.581741333007812 13.97137451171875 12.0120849609375 9.98870849609375 9.164710998535156 8.752708435058594
        8.127083778381348 8.221687316894531 8.590957641601562 8.685569763183594 8.850364685058594 8.941925048828125
        8.975494384765625 8.880889892578125 8.581802368164062 8.151496887207031 7.4495697021484375 6.762901306152344
        6.585891246795654 6.854454040527344 7.174903869628906 7.296973705291748 7.4098968505859375 7.644889831542969
        7.800529479980469 7.867668151855469 7.995849609375 8.194221496582031 8.392593383789062 8.636741638183594
        8.941925048828125 9.131141662597656 9.088409423828125 9.002960205078125 9.079254150390625 9.347816467285156
        9.662162780761719 9.735404968261719 9.439376831054688 8.951080322265625 8.600112915039062 8.481094360351562
        8.465835571289062 8.496353149414062 8.459732055664062 8.252204895019531 8.0233154296875 7.9134521484375
        7.834098815917969 7.654045104980469 7.4617767333984375 7.5197601318359375 7.971435546875 8.554336547851562
        8.694725036621094 8.294929504394531 7.846305847167969 7.5441741943359375 7.354957580566406 7.3763275146484375
        7.5014495849609375 7.4404144287109375 7.208473205566406 7.061981201171875 7.040618896484375 6.939910888671875
        6.738487243652344 6.5980987548828125 6.5675811767578125 6.5797882080078125 6.5279083251953125 6.317329406738281
        6.04571533203125 5.89007568359375 5.743583679199219 5.4658660888671875 5.294960021972656 5.4261932373046875
        5.5665740966796875 5.4567108154296875 5.313270568847656 5.340736389160156 5.285804748535156 5.078277587890625
        5.160682678222656 5.4536590576171875 5.3987274169921875 5.047760009765625 4.766990661621094 4.712059020996094
        4.776145935058594 4.727317810058594 4.5655670166015625 4.4465484619140625 4.3824615478515625 4.284797668457031
        4.08642578125 3.885009765625 3.7598800659179688 3.6408615112304688 3.5431976318359375 3.4852142333984375
        3.4577484130859375 3.4852142333984375 3.5431976318359375 3.6622238159179688 3.885009765625 3.927734375
        3.7263107299804688 3.6072845458984375 3.6225509643554688 3.6774826049804688 3.7018966674804688 3.5248870849609375
        3.1830825805664062 3.048797607421875 3.2288589477539062 3.2807388305664062 3.091522216796875 3.006072998046875
        12.369148254394531 12.146369934082031 11.9510498046875 11.749626159667969 11.563461303710938 11.459701538085938
        11.511581420898438 11.667228698730469 11.9022216796875 12.076171875 12.106689453125 11.9998779296875
        11.804557800292969 11.645866394042969 11.520736694335938 11.105682373046875 10.397659301757812 9.796440124511719
        9.500411987304688 9.323402404785156 9.048736572265625 8.767967224121094 8.627586364746094 8.554336547851562
        8.267463684082031 7.770011901855469 7.626579284667969 8.706932067871094 11.047698974609375 12.976470947265625
        13.104644775390625 12.11279296875 11.578720092773438 12.546157836914062 14.502395629882812 16.0863037109375
        16.32434844970703 15.243995666503906 13.470870971679688 12.118896484375 12.213508605957031 12.680442810058594
        12.009033203125 10.937835693359375 10.568557739257812 10.477005004882812 9.640800476074219 8.719139099121094
        8.346809387207031 8.343757629394531 8.792381286621094 9.268470764160156 9.475997924804688 9.469895362854004
        9.256263732910156 8.709983825683594 7.965331554412842 7.422104358673096 7.205421447753906 7.232887268066406
        7.434310436248779 7.650993824005127 7.800529479980469 7.876831531524658 7.827995300292969 7.760856628417969
        7.809685230255127 7.983642101287842 8.169807434082031 8.380386352539062 8.706932067871094 8.981597900390625
        8.926666259765625 8.725242614746094 8.709983825683594 8.914459228515625 9.213539123535156 9.433273315429688
        9.442428588867188 9.262367248535156 9.021270751953125 8.771018981933594 8.560440063476562 8.526870727539062
        8.584854125976562 8.481094360351562 8.279670715332031 8.194221496582031 8.145393371582031 7.9134521484375
        7.5899505615234375 7.4953460693359375 7.782218933105469 8.346809387207031 8.789329528808594 8.709983825683594
        8.233894348144531 7.742546081542969 7.5106048583984375 7.644889831542969 7.89208984375 7.815788269042969
        7.449570178985596 7.1779561042785645 7.095550537109375 7.000946044921875 6.875823974609375 6.836143493652344
        6.891082763671875 6.878875732421875 6.707969665527344 6.4577178955078125 6.241035461425781 6.09759521484375
        5.92974853515625 5.682548522949219 5.5452117919921875 5.630668640136719 5.722221374511719 5.630668640136719
        5.5146942138671875 5.4902801513671875 5.3804168701171875 5.264442443847656 5.4261932373046875 5.624565124511719
        5.4750213623046875 5.096588134765625 4.843284606933594 4.843284606933594 4.901275634765625 4.809715270996094
        4.5838775634765625 4.4068756103515625 4.367195129394531 4.318367004394531 4.147468566894531 4.0009765625
        3.921630859375 3.885009765625 3.8636398315429688 3.7812423706054688 3.6072845458984375 3.4608001708984375
        3.4028167724609375 3.4455413818359375 3.5828704833984375 3.6439132690429688 3.5737152099609375 3.5401458740234375
        3.6866378784179688 3.8361740112304688 3.7903976440429688 3.5370941162109375 3.2685317993164062 3.2410659790039062
        3.3478775024414062 3.2258071899414062 2.926727294921875 2.8626327514648438 12.387466430664062 12.143318176269531
        11.880859375 11.615341186523438 11.362038612365723 11.163673400878906 11.078216552734375 11.145362854003906
        11.404769897460938 11.774040222167969 12.128059387207031 12.317268371582031 12.158576965332031 11.798454284667969
        11.432235717773438 10.892059326171875 10.10772705078125 9.421066284179688 9.039581298828125 8.850364685058594
        8.600112915039062 8.261360168457031 8.05078125 8.1087646484375 8.209480285644531 8.282722473144531
        8.856468200683594 10.650962829589844 13.455612182617188 15.402694702148438 15.448471069335938 14.151435852050781
        13.074127197265625 13.718071937561035 15.396591186523438 16.794334411621094 17.371131896972656 16.507461547851562
        14.621414184570312 12.537002563476562 11.15451717376709 10.864585876464844 10.971405029296875 10.956146240234375
        11.081268310546875 11.261329650878906 10.727256774902344 9.607223510742188 8.999908447265625 8.752708435058594
        8.847312927246094 9.295936584472656 9.765922546386719 9.90936279296875 9.552291870117188 8.746604919433594
        8.0538330078125 7.760856628417969 7.644889831542969 7.654045104980469 7.678459167480469 7.6998209953308105
        7.638786315917969 7.5258636474609375 7.4221038818359375 7.406845569610596 7.5197601318359375 7.742546081542969
        8.056884765625 8.435317993164062 8.86562442779541 9.149452209472656 9.024322509765625 8.728294372558594
        8.670310974121094 8.850364685058594 9.170814514160156 9.524826049804688 9.729301452636719 9.668266296386719
        9.387496948242188 9.009064674377441 8.655052185058594 8.548233032226562 8.676414489746094 8.679466247558594
        8.478042602539062 8.349861145019531 8.325447082519531 8.11181640625 7.739494323730469 7.5197601318359375
        7.6113128662109375 8.05078125 8.661155700683594 8.932769775390625 8.572647094726562 7.959228515625
        7.654045104980469 7.803581237792969 8.032470703125 7.885986328125 7.5228118896484375 7.272560119628906
        7.107757568359375 6.991790771484375 7.010101795196533 7.101654052734375 7.092498779296875 6.921600341796875
        6.659141540527344 6.4485626220703125 6.341743469238281 6.216621398925781 5.98162841796875 5.731376647949219
        5.664237976074219 5.767997741699219 5.795464038848877 5.688652038574219 5.5909881591796875 5.5207977294921875
        5.4475555419921875 5.5177459716796875 5.731376647949219 5.786308288574219 5.5452117919921875 5.227821350097656
        5.145423889160156 5.252235412597656 5.243080139160156 5.099639892578125 4.867698669433594 4.5991363525390625
        4.5625152587890625 4.638816833496094 4.4679107666015625 4.205451965332031 4.06201171875 3.93994140625
        3.89111328125 3.8270187377929688 3.5584564208984375 3.3021011352539062 3.2593765258789062 3.2715835571289062
        3.2258071899414062 3.1525650024414062 3.061004638671875 3.106781005859375 3.4394378662109375 3.7629318237304688
        3.6469650268554688 3.2502212524414062 3.082366943359375 3.1952896118164062 3.2715835571289062 3.088470458984375
        2.8015975952148438 2.7375106811523438 12.402725219726562 12.143318176269531 11.795402526855469 11.474960327148438
        11.181983947753906 10.910369873046875 10.757774353027344 10.708946228027344 10.840171813964844 11.25827693939209
        11.859489440917969 12.381362915039062 12.427139282226562 12.0426025390625 11.481063842773438 10.769981384277344
        9.88189697265625 9.094512939453125 8.594009399414062 8.505508422851562 8.740501403808594 8.835105895996094
        8.590957641601562 8.453628540039062 8.719139099121094 9.305091857910156 10.284736633300781 11.9144287109375
        14.12091064453125 15.900145530700684 16.13819122314453 15.341651916503906 14.792320251464844 15.329444885253906
        16.20838165283203 16.415908813476562 15.808586120605469 15.164649963378906 14.636680603027344 13.245033264160156
        11.664176940917969 10.663169860839844 10.303047180175781 10.354927062988281 10.663169860839844 11.17893123626709
        11.136207580566406 10.324409484863281 9.799491882324219 9.411911010742188 9.149452209472656 9.375289916992188
        9.92462158203125 10.122993469238281 9.631645202636719 8.728294372558594 8.139289855957031 7.8951416015625
        7.770011901855469 7.715080261230469 7.507552623748779 7.251197338104248 7.110809326171875 7.171852111816406
        7.315284729003906 7.510604381561279 7.724236011505127 8.0050048828125 8.429214477539062 8.993804931640625
        9.543136596679688 9.765922546386719 9.439376831054688 8.902252197265625 8.642845153808594 8.737449645996094
        9.085357666015625 9.558395385742188 9.92156982421875 9.97344970703125 9.680473327636719 9.192176818847656
        8.694725036621094 8.438369750976562 8.587905883789062 8.816795349121094 8.716087341308594 8.456680297851562
        8.331550598144531 8.203376770019531 7.8890380859375 7.5685882568359375 7.5350189208984375 7.910400867462158
        8.514663696289062 8.868675231933594 8.667259216308594 8.197273254394531 7.943970203399658 8.0172119140625
        8.11181640625 7.9561767578125 7.666252136230469 7.4160003662109375 7.205421447753906 7.153541564941406
        7.345802307128906 7.5075531005859375 7.342750549316406 7.077239990234375 6.946014404296875 6.778160095214844
        6.5706329345703125 6.4149932861328125 6.195259094238281 5.92669677734375 5.838188171386719 5.91754150390625
        5.865653991699219 5.667289733886719 5.5116424560546875 5.4353485107421875 5.4750213623046875 5.655082702636719
        5.810722351074219 5.700859069824219 5.3987274169921875 5.200355529785156 5.276649475097656 5.4780731201171875
        5.4475555419921875 5.218666076660156 4.892120361328125 4.553360462188721 4.5930328369140625 4.892120361328125
        4.882965087890625 4.6082916259765625 4.315315246582031 4.06201171875 3.9857177734375 3.91552734375
        3.6866378784179688 3.4882659912109375 3.4333343505859375 3.3845062255859375 3.2410659790039062 3.045745849609375
        2.8046493530273438 2.6673202514648438 2.8168563842773438 3.1495132446289062 3.2105484008789062 2.981658935546875
        2.960296630859375 3.109832763671875 3.097625732421875 2.902313232421875 2.7802352905273438 2.8168563842773438
        12.347785949707031 12.207405090332031 11.801506042480469 11.316261291503906 10.940887451171875 10.727256774902344
        10.602127075195312 10.361030578613281 10.238960266113281 10.510575294494629 11.270484924316406 12.1005859375
        12.439346313476562 12.1219482421875 11.465805053710938 10.617385864257812 9.530929565429688 8.529922485351562
        7.8768310546875 7.766960144042969 8.252204895019531 8.652000427246094 8.188117980957031 7.303077697753906
        7.242042541503906 8.194221496582031 9.134193420410156 9.637748718261719 10.364082336425781 11.770988464355469
        13.177894592285156 13.745536804199219 13.92864990234375 14.200263977050781 14.413894653320312 14.395584106445312
        14.00189208984375 13.815727233886719 13.690604209899902 13.116851806640625 12.384414672851562 11.560409545898438
        10.681480407714844 9.89715576171875 9.631645202636719 10.263374328613281 11.093475341796875 11.059906005859375
        10.461746215820312 10.01007080078125 9.823905944824219 9.88800048828125 10.11077880859375 10.205389976501465
        9.820854187011719 8.978546142578125 8.380386352539062 8.020263671875 7.657096862792969 7.2756123542785645
        6.973480224609375 6.991790771484375 7.245093822479248 7.5350189208984375 7.827995300292969 8.133186340332031
        8.355964660644531 8.557388305664062 8.935821533203125 9.558395385742188 10.165718078613281 10.330513000488281
        9.88189697265625 9.118927001953125 8.529922485351562 8.395645141601562 8.725242614746094 9.314247131347656
        9.866630554199219 10.10772705078125 9.96429443359375 9.509567260742188 8.874786376953125 8.331550598144531
        8.282722473144531 8.700828552246094 8.923614501953125 8.670310974121094 8.380386352539062 8.243049621582031
        7.9561767578125 7.5685882568359375 7.5350189208984375 7.9500732421875 8.447525024414062 8.694725036621094
        8.664207458496094 8.566543579101562 8.493301391601562 8.383438110351562 8.270515441894531 8.136238098144531
        7.867668151855469 7.5045013427734375 7.290870666503906 7.4129486083984375 7.705924987792969 7.733390808105469
        7.3885345458984375 7.278663635253906 7.5868988037109375 7.4648284912109375 6.817832946777344 6.418045520782471
        6.250190734863281 6.01519775390625 5.88092041015625 5.90228271484375 5.844291687011719 5.6154022216796875
        5.4078826904296875 5.4109344482421875 5.5909881591796875 5.761894226074219 5.734428405761719 5.4597625732421875
        5.148475646972656 5.093536376953125 5.288856506347656 5.4567108154296875 5.340736389160156 5.008087158203125
        4.5960845947265625 4.248176574707031 4.300056457519531 4.702903747558594 4.858543395996094 4.6082916259765625
        4.165779113769531 3.885009765625 3.970458984375 4.0101318359375 3.8239669799804688 3.6988449096679688
        3.6469650268554688 3.5218353271484375 3.4028167724609375 3.2685317993164062 3.045745849609375 2.8290634155273438
        2.7710800170898438 2.8260116577148438 2.7741317749023438 2.6459579467773438 2.6429061889648438 2.7130966186523438
        2.7466659545898438 2.7405624389648438 2.7832870483398438 2.880950927734375 12.01513671875 12.0609130859375
        11.807609558105469 11.307106018066406 10.834068298339844 10.586868286132812 10.446486473083496 10.07720947265625
        9.653007507324219 9.671318054199219 10.477005004882812 11.575668334960938 12.173835754394531 11.960205078125
        11.374252319335938 10.669273376464844 9.674369812011719 8.572647094726562 7.766960144042969 7.5502777099609375
        8.191169738769531 9.231849670410156 9.616378784179688 9.076202392578125 8.938873291015625 10.287788391113281
        11.9022216796875 12.149421691894531 11.523788452148438 11.816764831542969 13.058868408203125 13.449508666992188
        12.848289489746094 12.323371887207031 12.448500633239746 12.881867408752441 12.958160400390625 12.839134216308594
        12.628562927246094 12.524795532226562 12.488174438476562 12.189094543457031 11.395614624023438 9.99176025390625
        8.679466247558594 8.661155700683594 10.327461242675781 11.569564819335938 11.151466369628906 10.522781372070312
        10.507521629333496 10.769981384277344 10.885955810546875 10.769981384277344 10.248115539550781 9.292884826660156
        8.523818969726562 7.934814929962158 7.330543518066406 6.894134521484375 7.003997802734375 7.5350189208984375
        7.995849609375 8.243050575256348 8.471939086914062 8.749656677246094 8.954132080078125 9.079254150390625
        9.341712951660156 9.88800048828125 10.443435668945312 10.592971801757812 10.184028625488281 9.390548706054688
        8.590957641601562 8.148445129394531 8.255256652832031 8.865623474121094 9.631645202636719 10.09552001953125
        10.11383056640625 9.826957702636719 9.262367248535156 8.536026000976562 8.166755676269531 8.484146118164062
        8.966339111328125 8.938873291015625 8.551284790039062 8.267463684082031 8.0050048828125 7.678459167480469
        7.681510925292969 8.133186340332031 8.566543579101562 8.670310974121094 8.636741638183594 8.709983825683594
        8.777122497558594 8.633689880371094 8.438369750976562 8.325447082519531 8.081298828125 7.693717956542969
        7.5380706787109375 7.785270690917969 8.157600402832031 8.230842590332031 7.910400390625 7.831047058105469
        8.239997863769531 8.175910949707031 7.3946380615234375 6.787315368652344 6.5095977783203125 6.286811828613281
        6.134223937988281 6.02130126953125 5.89312744140625 5.716117858886719 5.5848846435546875 5.700859069824219
        5.96026611328125 6.01824951171875 5.822929382324219 5.4841766357421875 5.236976623535156 5.337684631347656
        5.5848846435546875 5.6154022216796875 5.3743133544921875 5.017242431640625 4.638816833496094 4.3824615478515625
        4.4862213134765625 4.870750427246094 5.029449462890625 4.779197692871094 4.4129791259765625 4.287849426269531
        4.4557037353515625 4.5228424072265625 4.312263488769531 4.031494140625 3.7690353393554688 3.6286544799804688
        3.6011807918548584 3.5004730224609375 3.2715835571289062 3.051849365234375 2.969451904296875 2.914520263671875
        2.7863388061523438 2.6947860717773438 2.6612167358398438 2.6917343139648438 2.7130966186523438 2.6276473999023438
        2.5605010986328125 2.6184844970703125 11.337623596191406 11.499374389648438 11.520736694335938 11.239967346191406
        10.803550720214844 10.470901489257812 10.217597961425781 9.787284851074219 9.213539123535156 9.015167236328125
        9.750663757324219 11.004974365234375 11.835075378417969 11.9022216796875 11.636711120605469 11.319313049316406
        10.654014587402344 9.515670776367188 8.371223449707031 7.9683837890625 8.825950622558594 10.330513000488281
        11.188087463378906 11.041595458984375 10.892059326171875 12.057861328125 13.718070983886719 13.653984069824219
        12.228767395019531 11.752677917480469 12.854393005371094 13.638725280761719 12.921539306640625 11.850334167480469
        11.832023620605469 12.768943786621094 13.214515686035156 12.662132263183594 11.9205322265625 11.612289428710938
        11.761833190917969 12.01513671875 11.770988464355469 10.495315551757812 8.816795349121094 7.9989013671875
        9.173866271972656 10.849327087402344 11.215553283691406 10.730308532714844 10.666221618652344 11.270484924316406
        11.600082397460938 11.273536682128906 10.428176879882812 9.378341674804688 8.481094360351562 7.7822184562683105
        7.358009338378906 7.2908711433410645 7.644889831542969 8.169807434082031 8.536026000976562 8.719139099121094
        8.844261169433594 9.073150634765625 9.381393432617188 9.588912963867188 9.735404968261719 10.04669189453125
        10.473953247070312 10.663169860839844 10.306098937988281 9.533981323242188 8.716087341308594 8.124031066894531
        7.9989013671875 8.481094360351562 9.320350646972656 9.93988037109375 10.06500244140625 9.90936279296875
        9.579758644104004 8.993804931640625 8.429214477539062 8.392593383789062 8.813743591308594 9.060943603515625
        8.810691833496094 8.401748657226562 8.0843505859375 7.840202331542969 7.89208984375 8.380386352539062
        8.832054138183594 8.813743591308594 8.581802368164062 8.584854125976562 8.758811950683594 8.789329528808594
        8.658103942871094 8.505508422851562 8.282722473144531 8.0050048828125 7.91650390625 8.166755676269531
        8.609268188476562 8.713035583496094 8.145393371582031 7.5930023193359375 7.641838073730469 7.699821472167969
        7.4098968505859375 7.074188232421875 6.765953063964844 6.4821319580078125 6.299018859863281 6.131172180175781
        5.96026611328125 5.825981140136719 5.789360046386719 5.98773193359375 6.204414367675781 6.10064697265625
        5.783256530761719 5.4872283935546875 5.349891662597656 5.5146942138671875 5.761894226074219 5.716117858886719
        5.4384002685546875 5.154579162597656 4.873809814453125 4.721214294433594 4.889068603515625 5.172889709472656
        5.124061584472656 4.794456481933594 4.5594635009765625 4.5503082275390625 4.693748474121094 4.751731872558594
        4.5533599853515625 4.208503723144531 3.933837890625 3.8819580078125 3.8361740112304688 3.6225509643554688
        3.4180755615234375 3.2624282836914062 3.1342544555664062 3.091522216796875 3.067108154296875 2.957244873046875
        2.8351669311523438 2.8168563842773438 2.7771835327148438 2.5879669189453125 2.4292755126953125 2.4811553955078125
        10.544143676757812 10.727256774902344 10.931732177734375 10.879852294921875 10.559402465820312 10.174873352050781
        9.830009460449219 9.399703979492188 8.957183837890625 8.883941650390625 9.509567260742188 10.638755798339844
        11.630607604980469 12.173835754394531 12.433242797851562 12.482070922851562 11.96630859375 10.711997985839844
        9.317298889160156 8.835105895996094 9.90631103515625 11.603134155273438 12.372200012207031 12.390518188476562
        12.671287536621094 13.437301635742188 14.377273559570312 14.490188598632812 13.290809631347656 12.402725219726562
        13.220619201660156 14.10870361328125 13.406784057617188 11.719108581542969 11.056854248046875 12.424087524414062
        13.818778991699219 13.397628784179688 12.021240234375 11.099578857421875 10.879852294921875 11.163673400878906
        11.285743713378906 10.629600524902344 9.533981323242188 8.740501403808594 8.761863708496094 9.430221557617188
        10.266426086425781 10.580764770507812 10.705894470214844 11.255226135253906 11.847282409667969 11.764883995056152
        10.745567321777344 9.448532104492188 8.490249633789062 8.06298828125 8.008056640625 8.008056640625
        8.1087646484375 8.392593383789062 8.673362731933594 8.844261169433594 8.963287353515625 9.183021545410156
        9.558395385742188 9.866629600524902 9.99786376953125 10.156562805175781 10.470901489257812 10.650962829589844
        10.281684875488281 9.518722534179688 8.783226013183594 8.233894348144531 8.01416015625 8.294929504394531
        9.009063720703125 9.689628601074219 9.924622535705566 9.857475280761719 9.710990905761719 9.402755737304688
        8.908355712890625 8.569595336914062 8.697776794433594 9.076202392578125 9.137245178222656 8.734397888183594
        8.218635559082031 7.9073486328125 8.008056640625 8.499404907226562 8.914459228515625 8.838157653808594
        8.499404907226562 8.456680297851562 8.774070739746094 9.042633056640625 8.981597900390625 8.764915466308594
        8.560440063476562 8.383438110351562 8.389541625976562 8.691673278808594 9.042633056640625 8.883941650390625
        8.154548645019531 7.6082611083984375 7.5533294677734375 7.5472259521484375 7.3976898193359375 7.220680236816406
        6.991790771484375 6.717124938964844 6.5157012939453125 6.347846984863281 6.170845031738281 6.02130126953125
        6.01824951171875 6.247138977050781 6.369209289550781 6.08843994140625 5.688652038574219 5.5024871826171875
        5.5085906982421875 5.658134460449219 5.792411804199219 5.694755554199219 5.4414520263671875 5.233924865722656
        5.084381103515625 5.078277587890625 5.304115295410156 5.4139862060546875 5.160682678222656 4.840232849121094
        4.721214294433594 4.821922302246094 4.953155517578125 4.834129333496094 4.5136871337890625 4.309211730957031
        4.287849426269531 4.293952941894531 4.138313293457031 3.8178634643554688 3.5370941162109375 3.3936614990234375
        3.3570327758789062 3.3600845336914062 3.2776870727539062 3.122039794921875 2.972503662109375 2.880950927734375
        2.8382186889648438 2.7375106811523438 2.5666046142578125 2.5421905517578125 10.141304016113281 10.08331298828125
        10.193183898925781 10.190132141113281 9.97650146484375 9.756767272949219 9.720146179199219 9.710990905761719
        9.579757690429688 9.601119995117188 10.10467529296875 10.962249755859375 11.780143737792969 12.488174438476562
        13.074127197265625 13.290809631347656 12.799461364746094 11.587875366210938 10.214546203613281 9.396652221679688
        9.723197937011719 11.059906005859375 12.430191040039062 13.580734252929688 14.236885070800781 14.435256958007812
        14.691612243652344 14.471878051757812 13.147377014160156 11.624504089355469 11.603134155273438 12.689598083496094
        12.881867408752441 11.847282409667969 11.020233154296875 12.118896484375 14.09344482421875 14.313179016113281
        12.991729736328125 12.0517578125 11.587875366210938 11.355934143066406 11.529891967773438 11.676383018493652
        11.285743713378906 10.721153259277344 9.96734619140625 9.506515502929688 9.790336608886719 10.202339172363281
        10.547195434570312 11.191139221191406 11.886962890625 11.847282409667969 10.895111083984375 9.738456726074219
        8.984649658203125 8.713035583496094 8.572647094726562 8.362068176269531 8.258308410644531 8.432266235351562
        8.709983825683594 8.905303955078125 9.076202392578125 9.298988342285156 9.582809448242188 9.88189697265625
        10.11688232421875 10.330513000488281 10.577713012695312 10.644859313964844 10.214546203613281 9.482101440429688
        8.853416442871094 8.410903930664062 8.185066223144531 8.291877746582031 8.822898864746094 9.512619018554688
        9.830009460449219 9.802543640136719 9.723197937011719 9.579757690429688 9.295936584472656 8.926666259765625
        8.740501403808594 8.969390869140625 9.244056701660156 8.987701416015625 8.346809387207031 7.934814453125
        8.0660400390625 8.554336547851562 8.905303001403809 8.844261169433594 8.575698852539062 8.536026000976562
        8.856468200683594 9.198280334472656 9.210487365722656 8.981597900390625 8.740501403808594 8.554336547851562
        8.566543579101562 8.740501403808594 8.792381286621094 8.532975196838379 8.0965576171875 7.809684753417969
        7.782218933105469 7.760856628417969 7.5685882568359375 7.324440002441406 7.116912841796875 6.866661071777344
        6.622520446777344 6.5095977783203125 6.4790802001953125 6.4088897705078125 6.3814239501953125 6.4973907470703125
        6.4638214111328125 6.08538818359375 5.682548522949219 5.5909881591796875 5.752738952636719 5.862602233886719
        5.771049499511719 5.5879364013671875 5.4384002685546875 5.362098693847656 5.3926239013671875 5.5726776123046875
        5.761894226074219 5.642875671386719 5.310218811035156 5.136268615722656 5.136268615722656 5.124061584472656
        5.063018798828125 4.870750427246094 4.5503082275390625 4.4282379150390625 4.5167388916015625 4.5503082275390625
        4.4618072509765625 4.205451965332031 3.8148117065429688 3.5981292724609375 3.5737152099609375 3.4821624755859375
        3.3021011352539062 3.2105484008789062 3.118988037109375 2.884002685546875 2.8015975952148438 2.896209716796875
        2.8107528686523438 2.6917343139648438 10.242012023925781 9.826957702636719 9.552291870117188 9.360023498535156
        9.237953186035156 9.424118041992188 10.05889892578125 10.748619079589844 10.968353271484375 10.910369873046875
        11.185035705566406 11.743522644042969 12.08837890625 12.344734191894531 12.918487548828125 13.455612182617188
        13.241981506347656 12.125007629394531 10.592971801757812 9.213539123535156 8.584854125976562 9.500411987304688
        11.502426147460938 13.580734252929688 14.984588623046875 14.947967529296875 14.09954833984375 13.361000061035156
        12.268440246582031 10.577713012695312 10.00396728515625 11.517684936523438 13.055816650390625 12.961212158203125
        11.801506042480469 11.389511108398438 12.323371887207031 12.997833251953125 12.634666442871094 12.207405090332031
        11.9266357421875 11.685539245605469 11.816764831542969 12.0059814453125 11.746574401855469 11.502426147460938
        11.243019104003906 11.008026123046875 10.510574340820312 10.214546203613281 10.486160278320312 11.188087463378906
        11.636710166931152 11.374252319335938 10.791343688964844 10.217597961425781 9.710990905761719 9.176918983459473
        8.700828552246094 8.380386352539062 8.325447082519531 8.523818969726562 8.816795349121094 9.067046165466309
        9.302040100097656 9.488204956054688 9.631645202636719 9.842216491699219 10.180976867675781 10.544143676757812
        10.760826110839844 10.657066345214844 10.177925109863281 9.530929565429688 8.984649658203125 8.575698852539062
        8.319343566894531 8.328498840332031 8.728294372558594 9.375289916992188 9.738456726074219 9.741508483886719
        9.707939147949219 9.625541687011719 9.454635620117188 9.210487365722656 8.938873291015625 8.981597900390625
        9.277626037597656 9.204383850097656 8.636741638183594 8.194221496582031 8.291877746582031 8.725242614746094
        9.024322509765625 8.993804931640625 8.789329528808594 8.633689880371094 8.719139099121094 9.021270751953125
        9.234901428222656 9.170814514160156 8.987701416015625 8.890045166015625 8.917510986328125 8.883941650390625
        8.658103942871094 8.410903930664062 8.212532043457031 8.0721435546875 8.05078125 8.020263671875
        7.840202331542969 7.5868988037109375 7.358009338378906 7.098602294921875 6.845298767089844 6.781211853027344
        6.872772216796875 6.894134521484375 6.839195251464844 6.817832946777344 6.668296813964844 6.302070617675781
        5.98468017578125 5.95111083984375 6.07623291015625 6.03961181640625 5.798515319824219 5.5604705810546875
        5.3834686279296875 5.319374084472656 5.5085906982421875 5.832084655761719 5.90533447265625 5.642875671386719
        5.349891662597656 5.255287170410156 5.291908264160156 5.185096740722656 4.998931884765625 4.867698669433594
        4.672386169433594 4.5564117431640625 4.651023864746094 4.736473083496094 4.696800231933594 4.4404449462890625
        3.994873046875 3.6988449096679688 3.5828702449798584 3.4302825927734375 3.3326187133789062 3.3448259830474854
        3.234962224960327 2.975555419921875 2.896209716796875 2.993865966796875 2.929779052734375 2.8229596614837646
        10.303047180175781 9.89105224609375 9.335609436035156 8.993804931640625 9.060943603515625 9.781181335449219
        11.075165748596191 12.222663879394531 12.500381469726562 12.219612121582031 12.295906066894531 12.631614685058594
        12.543106079101562 12.140266418457031 12.375259399414062 13.180946350097656 13.443405151367188 12.417984008789062
        10.547195434570312 8.68557071685791 7.6204681396484375 8.450576782226562 10.245063781738281 11.478012084960938
        12.796409606933594 14.273506164550781 14.664146423339844 13.812675476074219 12.665184020996094 11.575668334960938
        11.584823608398438 13.431198120117188 14.755699157714844 14.03240966796875 12.268440246582031 10.968353271484375
        10.943939208984375 11.603134155273438 11.96630859375 12.0059814453125 11.911376953125 11.795401573181152
        11.780143737792969 11.603134155273438 11.365089416503906 11.420028686523438 11.713005065917969 11.99072265625
        11.615341186523438 10.983612060546875 10.623497009277344 10.858482360839844 11.139259338378906 11.020233154296875
        10.779136657714844 10.480056762695312 10.04058837890625 9.393600463867188 8.819847106933594 8.481094360351562
        8.481095314025879 8.709983825683594 9.033477783203125 9.338661193847656 9.588912963867188 9.701835632324219
        9.735404968261719 9.88189697265625 10.275581359863281 10.754722595214844 10.940887451171875 10.669273376464844
        10.147407531738281 9.598068237304688 9.149452209472656 8.777122497558594 8.459732055664062 8.355964660644531
        8.645896911621094 9.216591835021973 9.601119995117188 9.674369812011719 9.732353210449219 9.717094421386719
        9.546188354492188 9.378341674804688 9.213540077209473 9.210487365722656 9.430221557617188 9.414962768554688
        8.920562744140625 8.420059204101562 8.362068176269531 8.639793395996094 8.951080322265625 9.088409423828125
        8.975494384765625 8.706932067871094 8.590957641601562 8.813743591308594 9.167762756347656 9.311195373535156
        9.265419006347656 9.250160217285156 9.237953186035156 9.067047119140625 8.771018981933594 8.529922485351562
        8.377334594726562 8.273567199707031 8.215583801269531 8.142341613769531 8.0111083984375 7.837150573730469
        7.5991058349609375 7.309181213378906 7.080291748046875 7.031463623046875 7.116912841796875 7.150489807128906
        7.055877685546875 6.906341552734375 6.692710876464844 6.3905792236328125 6.173896789550781 6.137275695800781
        6.07318115234375 5.862602233886719 5.655082702636719 5.4841766357421875 5.307167053222656 5.264442443847656
        5.5879364013671875 5.99688720703125 5.99688720703125 5.667289733886719 5.4292449951171875 5.3834686279296875
        5.4017791748046875 5.313270568847656 5.145423889160156 5.075225830078125 5.001983642578125 4.919586181640625
        4.879913330078125 4.834129333496094 4.715110778808594 4.4373931884765625 4.092529296875 3.872802734375
        3.7446212768554688 3.6988449096679688 3.7507247924804688 3.6652755737304688 3.3722991943359375 3.1617202758789062
        3.1983413696289062 3.2776870727539062 3.1769790649414062 3.064056396484375 9.98260498046875 10.08636474609375
        9.87274169921875 9.775077819824219 9.97650146484375 10.544142723083496 11.438339233398438 12.350837707519531
        12.897125244140625 13.202308654785156 13.653984069824219 13.90728759765625 13.489181518554688 12.564468383789062
        12.076171875 12.411880493164062 12.817771911621094 12.289802551269531 10.916473388671875 9.466842651367188
        8.652000427246094 9.250160217285156 10.388504028320312 11.114838600158691 12.561416625976562 14.886932373046875
        16.04052734375 14.841148376464844 12.573623657226562 10.803550720214844 10.406814575195312 11.780143737792969
        13.031402587890625 12.640769958496094 11.499374389648438 10.458694458007812 10.391555786132812 11.124000549316406
        11.624504089355469 11.899169921875 11.935791015625 11.764885902404785 11.655021667480469 11.386459350585938
        11.178932189941406 11.246070861816406 11.658073425292969 12.146369934082031 12.320320129394531 12.0181884765625
        11.380355834960938 11.078216552734375 10.989715576171875 10.769981384277344 10.513626098632812 10.303047180175781
        10.00701904296875 9.506515502929688 9.015167236328125 8.737449645996094 8.758811950683594 8.972442626953125
        9.280677795410156 9.558395385742188 9.744560241699219 9.799491882324219 9.814750671386719 9.97955322265625
        10.415969848632812 10.925628662109375 11.056854248046875 10.690635681152344 10.122993469238281 9.595015525817871
        9.173866271972656 8.859519958496094 8.578750610351562 8.413955688476562 8.597061157226562 9.115875244140625
        9.518722534179688 9.631645202636719 9.747611999511719 9.823905944824219 9.680473327636719 9.521774291992188
        9.436325073242188 9.430221557617188 9.570602416992188 9.561447143554688 9.097564697265625 8.566543579101562
        8.444473266601562 8.697776794433594 9.045684814453125 9.234901428222656 9.134193420410156 8.853416442871094
        8.719139099121094 8.871726989746094 9.158607482910156 9.353919982910156 9.421066284179688 9.436325073242188
        9.399703979492188 9.241004943847656 8.984649658203125 8.755760192871094 8.581802368164062 8.423110961914062
        8.288825988769531 8.172859191894531 8.0782470703125 8.008056640625 7.861564636230469 7.6082611083984375
        7.3915863037109375 7.330543518066406 7.3824310302734375 7.367164611816406 7.159645080566406 6.878875732421875
        6.680503845214844 6.5126495361328125 6.366157531738281 6.250190734863281 6.06402587890625 5.835136413574219
        5.676445007324219 5.5757293701171875 5.4811248779296875 5.4994354248046875 5.822929382324219 6.210517883300781
        6.180000305175781 5.88702392578125 5.725273132324219 5.673393249511719 5.642875671386719 5.6184539794921875
        5.5421600341796875 5.4384002685546875 5.310218811035156 5.136268615722656 4.944000244140625 4.806663513183594
        4.623558044433594 4.330574035644531 4.0955810546875 4.0345458984375 4.0711669921875 4.0498046875
        3.98876953125 3.7659835815429688 3.4638519287109375 3.3417739868164062 3.4546968936920166 3.5859222412109375
        3.4913177490234375 3.3143081665039062 9.640800476074219 10.391555786132812 10.751670837402344 10.934783935546875
        11.047698974609375 11.075164794921875 11.227760314941406 11.828971862792969 12.829978942871094 13.852348327636719
        14.526809692382812 14.566482543945312 13.97137451171875 12.979522705078125 12.195198059082031 11.935791015625
        11.960205078125 11.679435729980469 10.998870849609375 10.269477844238281 9.570602416992188 8.978546142578125
        8.697776794433594 9.244056701660156 11.871696472167969 15.186012268066406 16.0374755859375 14.239936828613281
        11.456649780273438 9.344764709472656 8.658102989196777 9.524826049804688 10.904266357421875 11.462753295898438
        11.160621643066406 10.614334106445312 10.889007568359375 11.709953308105469 11.9693603515625 12.048705101013184
        12.179939270019531 12.021240234375 11.722160339355469 11.416976928710938 11.249122619628906 11.239967346191406
        11.554306030273438 11.9998779296875 12.314216613769531 12.369148254394531 12.125007629394531 11.755729675292969
        11.239967346191406 10.684532165527344 10.299995422363281 10.08941650390625 9.860527038574219 9.497360229492188
        9.15860652923584 9.009063720703125 9.060943603515625 9.213539123535156 9.463790893554688 9.698783874511719
        9.836112976074219 9.88189697265625 9.96124267578125 10.171821594238281 10.586868286132812 11.014129638671875
        11.059906005859375 10.663169860839844 10.10772705078125 9.610275268554688 9.195228576660156 8.856468200683594
        8.597061157226562 8.456680297851562 8.645896911621094 9.216590881347656 9.692680358886719 9.759819030761719
        9.814750671386719 9.97344970703125 9.90325927734375 9.656059265136719 9.497360229492188 9.500411987304688
        9.625541687011719 9.625541687011719 9.216590881347656 8.752708435058594 8.703880310058594 8.957183837890625
        9.164710998535156 9.204383850097656 9.103668212890625 8.981597900390625 8.984649658203125 9.109770774841309
        9.244056701660156 9.338661193847656 9.445480346679688 9.540084838867188 9.540084838867188 9.421066284179688
        9.213539123535156 9.006011962890625 8.841209411621094 8.642845153808594 8.423110961914062 8.258308410644531
        8.157600402832031 8.093505859375 7.9989013671875 7.800529479980469 7.5655364990234375 7.4648284912109375
        7.5075531005859375 7.4678802490234375 7.196266174316406 6.869712829589844 6.711021423339844 6.637779235839844
        6.4607696533203125 6.259346008300781 6.149482727050781 6.07623291015625 5.99078369140625 5.91448974609375
        5.89312744140625 6.00604248046875 6.283760070800781 6.4973907470703125 6.3936309814453125 6.180000305175781
        6.07623291015625 5.97247314453125 5.853446960449219 5.792411804199219 5.722221374511719 5.5421600341796875
        5.261390686035156 4.971466064453125 4.788352966308594 4.687644958496094 4.4923248291015625 4.223762512207031
        4.159675598144531 4.309211730957031 4.3885650634765625 4.272590637207031 4.0650634765625 3.7965011596679688
        3.5554046630859375 3.5554046630859375 3.7934494018554688 4.0284423828125 3.9368896484375 3.6072845458984375
        9.95819091796875 10.867637634277344 11.432235717773438 11.661125183105469 11.749626159667969 11.725212097167969
        11.694694519042969 12.033447265625 12.897125244140625 13.806571960449219 14.209419250488281 14.03546142578125
        13.672294616699219 13.272499084472656 12.875762939453125 12.393569946289062 11.9052734375 11.270484924316406
        10.519729614257812 10.013123512268066 9.515670776367188 8.441421508789062 7.748649597167969 9.762870788574219
        14.407791137695312 17.68242645263672 17.477951049804688 14.590896606445312 10.940887451171875 8.462783813476562
        7.947021484375 9.051788330078125 10.562454223632812 11.282691955566406 11.020233154296875 10.489212036132812
        10.635704040527344 11.481063842773438 12.0364990234375 12.237922668457031 12.530899047851562 12.457656860351562
        11.9998779296875 11.554306030273438 11.307106018066406 11.261329650878906 11.529891967773438 11.9083251953125
        12.173835754394531 12.305061340332031 12.350837707519531 12.253181457519531 11.770988464355469 11.020233154296875
        10.455642700195312 10.144354820251465 9.92462158203125 9.643852233886719 9.372238159179688 9.253211975097656
        9.298988342285156 9.433274269104004 9.625541687011719 9.796440124511719 9.88494873046875 9.96734619140625
        10.171821594238281 10.449539184570312 10.736412048339844 10.998870849609375 11.011077880859375 10.660118103027344
        10.147407531738281 9.689628601074219 9.314247131347656 8.954132080078125 8.633689880371094 8.499404907226562
        8.728294372558594 9.369178771972656 9.95819091796875 10.01007080078125 9.92462158203125 10.11688232421875
        10.165718078613281 9.799491882324219 9.439376831054688 9.430221557617188 9.625541687011719 9.634696960449219
        9.283729553222656 8.999908447265625 9.118927955627441 9.338661193847656 9.338661193847656 9.216590881347656
        9.146400451660156 9.198280334472656 9.341712951660156 9.475997924804688 9.497360229492188 9.460739135742188
        9.533981323242188 9.695732116699219 9.747611999511719 9.646903991699219 9.472946166992188 9.305091857910156
        9.155555725097656 8.938873291015625 8.624534606933594 8.371223449707031 8.267463684082031 8.191169738769531
        8.008056640625 7.730339050292969 7.5258636474609375 7.5014495849609375 7.5716400146484375 7.5868988037109375
        7.4526214599609375 7.214576721191406 7.049774169921875 6.949066162109375 6.756797790527344 6.5462188720703125
        6.4729766845703125 6.4668731689453125 6.411942005157471 6.335639953613281 6.350898742675781 6.4577178955078125
        6.5767364501953125 6.622520446777344 6.4729766845703125 6.256294250488281 6.164741516113281 6.08233642578125
        5.93890380859375 5.780204772949219 5.6154022216796875 5.3956756591796875 5.096588134765625 4.834129333496094
        4.748680114746094 4.730369567871094 4.5594635009765625 4.312263488769531 4.254280090332031 4.4129791259765625
        4.5319976806640625 4.4801177978515625 4.297004699707031 4.06201171875 3.9490966796875 4.0406494140625
        4.11083984375 4.080322265625 3.9796142578125 3.708000421524048 10.672325134277344 11.264381408691406
        11.682487487792969 11.780143737792969 11.752677917480469 11.716056823730469 11.597030639648438 11.648918151855469
        12.259284973144531 13.019195556640625 13.382369995117188 13.330482482910156 13.559371948242188 13.94696044921875
        13.88897705078125 13.165687561035156 12.326423645019531 11.267433166503906 9.91851806640625 8.999908447265625
        8.819847106933594 8.636741638183594 8.630638122558594 10.892059326171875 15.448471069335938 19.339576721191406
        20.36804962158203 17.84111785888672 12.771995544433594 8.859519958496094 7.904296875 9.137245178222656
        10.834068298339844 11.734367370605469 11.462753295898438 10.632652282714844 10.357978820800781 10.931732177734375
        11.734367370605469 12.228767395019531 12.646873474121094 12.710960388183594 12.366096496582031 11.94189453125
        11.655021667480469 11.505477905273438 11.627555847167969 11.856437683105469 12.0914306640625 12.234870910644531
        12.222663879394531 12.207405090332031 11.99072265625 11.328468322753906 10.654014587402344 10.321357727050781
        10.190132141113281 9.95208740234375 9.610275268554688 9.445480346679688 9.540084838867188 9.717094421386719
        9.793388366699219 9.765922546386719 9.772026062011719 9.96124267578125 10.345771789550781 10.681480407714844
        10.803550720214844 10.901214599609375 10.998870849609375 10.831016540527344 10.367134094238281 9.854424476623535
        9.451583862304688 9.118927001953125 8.795433044433594 8.612319946289062 8.780174255371094 9.390548706054688
        10.07415771484375 10.235908508300781 10.04669189453125 10.122993469238281 10.290840148925781 10.01007080078125
        9.533981323242188 9.436325073242188 9.619430541992188 9.585861206054688 9.289833068847656 9.228797912597656
        9.537033081054688 9.704887390136719 9.537033081054688 9.317298889160156 9.265419006347656 9.414962768554688
        9.622489929199219 9.741508483886719 9.738456726074219 9.656059265136719 9.619430541992188 9.680473327636719
        9.723197937011719 9.698783874511719 9.634696960449219 9.518722534179688 9.350868225097656 9.094512939453125
        8.752708435058594 8.456680297851562 8.340705871582031 8.249153137207031 7.9561767578125 7.5777435302734375
        7.4251556396484375 7.5350189208984375 7.705924987792969 7.8768310546875 7.953125 7.779167175292969
        7.4983978271484375 7.300025939941406 7.123023986816406 6.979583740234375 6.909393310546875 6.869712829589844
        6.769004821777344 6.674400329589844 6.714073181152344 6.775108337402344 6.714073181152344 6.646934509277344
        6.5279083251953125 6.292915344238281 6.11895751953125 6.02740478515625 5.88702392578125 5.661186218261719
        5.4414520263671875 5.310218811035156 5.191200256347656 5.038604736328125 4.983673095703125 4.974517822265625
        4.785301208496094 4.5014801025390625 4.4312896728515625 4.5899810791015625 4.721214294433594 4.702903747558594
        4.5625152587890625 4.3794097900390625 4.3733062744140625 4.4618072509765625 4.284797668457031 3.9796142578125
        3.8300704956054688 3.6622238159179688 10.998870849609375 11.191139221191406 11.572616577148438 11.694694519042969
        11.410873413085938 11.047698974609375 10.864585876464844 11.096527099609375 12.021240234375 13.211463928222656
        13.95306396484375 13.95001220703125 14.142280578613281 14.389480590820312 13.98968505859375 13.104644775390625
        12.567520141601562 11.89306640625 10.510574340820312 9.094512939453125 8.627586364746094 8.520767211914062
        7.9805908203125 8.813743591308594 13.840141296386719 19.611190795898438 21.84209442138672 20.624412536621094
        15.9276123046875 10.983612060546875 8.813743591308594 9.436324119567871 11.011077880859375 12.244026184082031
        12.326423645019531 11.615341186523438 11.212501525878906 11.255226135253906 11.539047241210938 11.89306640625
        12.366096496582031 12.628562927246094 12.598037719726562 12.457656860351562 12.182991027832031 11.719108581542969
        11.587875366210938 11.960205078125 12.506484985351562 12.637718200683594 12.283699035644531 12.021240234375
        11.9022216796875 11.471908569335938 10.898162841796875 10.626548767089844 10.513626098632812 10.217597961425781
        9.790336608886719 9.607223510742188 9.768974304199219 9.98870849609375 9.99176025390625 9.775077819824219
        9.689628601074219 9.97039794921875 10.470901489257812 10.821861267089844 10.855430603027344 10.867637634277344
        11.059906005859375 11.111785888671875 10.776084899902344 10.211494445800781 9.680473327636719 9.283729553222656
        8.941925048828125 8.688621520996094 8.728294372558594 9.234901428222656 9.98565673828125 10.400711059570312
        10.278633117675781 10.141304016113281 10.254219055175781 10.190132141113281 9.839164733886719 9.634696960449219
        9.656059265136719 9.555343627929688 9.347816467285156 9.454635620117188 9.811698913574219 9.88494873046875
        9.643852233886719 9.457687377929688 9.463790893554688 9.591964721679688 9.710990905761719 9.778129577636719
        9.839165687561035 9.845268249511719 9.778129577636719 9.698783874511719 9.646903991699219 9.646903991699219
        9.683525085449219 9.653007507324219 9.472946166992188 9.170814514160156 8.825950622558594 8.551284790039062
        8.432266235351562 8.337654113769531 8.044677734375 7.672355651855469 7.5594329833984375 7.779167175292969
        8.105712890625 8.343757629394531 8.362068176269531 8.117919921875 7.797477722167969 7.5716400146484375
        7.4068450927734375 7.293922424316406 7.266456604003906 7.254249572753906 7.156593322753906 7.019256591796875
        6.970428466796875 6.924652099609375 6.765953063964844 6.6103057861328125 6.5004425048828125 6.326484680175781
        6.128120422363281 5.97552490234375 5.850395202636719 5.706962585449219 5.5299530029296875 5.4109344482421875
        5.365150451660156 5.313270568847656 5.267494201660156 5.175941467285156 4.947052001953125 4.745628356933594
        4.776145935058594 4.919586181640625 4.928741455078125 4.794456481933594 4.635765075683594 4.5625152587890625
        4.5838775634765625 4.5411529541015625 4.278694152832031 3.927734375 3.7354660034179688 3.7049484252929688
        11.020233154296875 11.178932189941406 11.743522644042969 12.0242919921875 11.532943725585938 10.721153259277344
        10.315254211425781 10.538040161132812 11.301002502441406 12.350837707519531 13.388473510742188 13.98052978515625
        14.352851867675781 14.316230773925781 13.644827842712402 12.872711181640625 12.897125244140625 12.836082458496094
        11.685539245605469 10.04669189453125 8.935821533203125 8.0538330078125 7.034515380859375 7.5991058349609375
        12.741477966308594 18.02728271484375 20.31922149658203 20.426040649414062 17.99066162109375 13.93780517578125
        10.928680419921875 10.205389976501465 10.885955810546875 12.02734375 12.564468383789062 12.482070922851562
        12.268440246582031 11.9510498046875 11.774040222167969 11.841178894042969 12.131111145019531 12.384414672851562
        12.512588500976562 12.564468383789062 12.479019165039062 12.219612121582031 12.237922668457031 12.729270935058594
        13.101593017578125 12.762840270996094 12.1219482421875 11.798454284667969 11.746573448181152 11.569564819335938
        11.212501525878906 10.968353271484375 10.745567321777344 10.367134094238281 9.92462158203125 9.729301452636719
        9.89715576171875 10.162666320800781 10.217597961425781 10.01922607421875 9.89105224609375 10.144355773925781
        10.577713012695312 10.809654235839844 10.782188415527344 10.803550720214844 11.047698974609375 11.246071815490723
        11.084320068359375 10.580764770507812 9.96429443359375 9.430221557617188 8.996856689453125 8.676414489746094
        8.621475219726562 9.054840087890625 9.87579345703125 10.553298950195312 10.614334106445312 10.339668273925781
        10.263374328613281 10.321357727050781 10.184028625488281 9.92767333984375 9.765922546386719 9.604171752929688
        9.460739135742188 9.604171752929688 9.851371765136719 9.830009460449219 9.683525085449219 9.640800476074219
        9.665214538574219 9.710990905761719 9.741508483886719 9.738456726074219 9.799491882324219 9.91851806640625
        9.95208740234375 9.848320007324219 9.704887390136719 9.656059265136719 9.750663757324219 9.851371765136719
        9.714042663574219 9.335609436035156 8.948028564453125 8.691673278808594 8.609268188476562 8.575697898864746
        8.313240051269531 7.904296875 7.797477722167969 8.1026611328125 8.468887329101562 8.615372657775879
        8.523818969726562 8.291877746582031 8.0416259765625 7.831047058105469 7.626579284667969 7.4678802490234375
        7.4129486083984375 7.4373626708984375 7.4465179443359375 7.327491760253906 7.074188232421875 6.851402282714844
        6.717124938964844 6.5828399658203125 6.4790802001953125 6.3814239501953125 6.271553039550781 6.195259094238281
        6.11895751953125 5.99993896484375 5.813774108886719 5.633720397949219 5.5604705810546875 5.5787811279296875
        5.5635223388671875 5.4139862060546875 5.206459045410156 5.102691650390625 5.163734436035156 5.255287170410156
        5.160682678222656 4.873809814453125 4.663230895996094 4.644920349121094 4.638816833496094 4.4953765869140625
        4.242073059082031 4.007080078125 3.894164800643921 3.927734375 10.901214599609375 10.895111083984375
        11.243019104003906 11.551254272460938 11.316261291503906 10.544143676757812 9.89105224609375 9.92156982421875
        10.641807556152344 11.651969909667969 12.555313110351562 13.162635803222656 13.562423706054688 13.776054382324219
        13.574630737304688 13.113800048828125 13.315223693847656 13.309120178222656 12.247077941894531 10.962249755859375
        9.512619018554688 7.589950084686279 6.5279083251953125 8.816795349121094 13.422042846679688 16.15955352783203
        17.505416870117188 18.14936065673828 17.80755043029785 15.8818359375 13.034454345703125 11.163673400878906
        10.870689392089844 11.627555847167969 12.546157836914062 13.049713134765625 13.000885009765625 12.668235778808594
        12.405776977539062 12.253181457519531 12.213508605957031 12.182991027832031 12.186042785644531 12.262336730957031
        12.414932250976562 12.540054321289062 12.558364868164062 12.503433227539062 12.347785949707031 12.0426025390625
        11.725212097167969 11.621444702148438 11.694694519042969 11.673332214355469 11.392562866210938 11.111785888671875
        10.840171813964844 10.504470825195312 10.122993469238281 9.91851806640625 10.00701904296875 10.254219055175781
        10.428176879882812 10.403762817382812 10.330513000488281 10.437332153320312 10.617385864257812 10.647911071777344
        10.596023559570312 10.715049743652344 11.062957763671875 11.322364807128906 11.206398010253906 10.785240173339844
        10.248115539550781 9.692680358886719 9.173866271972656 8.777122497558594 8.633689880371094 8.975494384765625
        9.814750671386719 10.669273376464844 10.913421630859375 10.611282348632812 10.361030578613281 10.367134094238281
        10.327461242675781 10.08941650390625 9.848320007324219 9.656059265136719 9.515670776367188 9.610275268554688
        9.735404968261719 9.677421569824219 9.662162780761719 9.772026062011719 9.823905944824219 9.811698913574219
        9.808646202087402 9.768974304199219 9.790336608886719 9.94598388671875 10.06500244140625 10.010069847106934
        9.860527038574219 9.808646202087402 9.94598388671875 10.09857177734375 9.98260498046875 9.585861206054688
        9.207435607910156 9.006011962890625 8.920562744140625 8.829002380371094 8.542129516601562 8.175910949707031
        8.188117980957031 8.529922485351562 8.737449645996094 8.697776794433594 8.551284790039062 8.340705871582031
        8.1087646484375 7.898193359375 7.684562683105469 7.4861907958984375 7.3763275146484375 7.4007415771484375
        7.5258636474609375 7.5563812255859375 7.278663635253906 6.906341552734375 6.735435485839844 6.695762634277344
        6.689659118652344 6.622520446777344 6.5034942626953125 6.4363555908203125 6.317329406738281 6.1281208992004395
        5.97247314453125 5.859550476074219 5.819877624511719 5.844291687011719 5.819877624511719 5.648979187011719
        5.4750213623046875 5.4231414794921875 5.365150451660156 5.307167053222656 5.270545959472656 5.096588134765625
        4.849388122558594 4.687644958496094 4.6113433837890625 4.5808258056640625 4.4526519775390625 4.300056457519531
        4.254280090332031 4.272590637207031 10.864584922790527 10.531936645507812 10.589920043945312 10.821861267089844
        10.849327087402344 10.571609497070312 10.385452270507812 10.64791202545166 11.175880432128906 11.575668334960938
        11.664176940917969 11.627555847167969 12.0548095703125 13.016143798828125 13.803520202636719 13.800467491149902
        13.834038734436035 13.733329772949219 12.793357849121094 11.841178894042969 10.422073364257812 8.465835571289062
        8.539077758789062 11.911376953125 15.149391174316406 16.30298614501953 16.422012329101562 16.513565063476562
        17.004913330078125 16.711936950683594 14.984588623046875 13.119903564453125 12.152473449707031 12.344734191894531
        13.183998107910156 13.531906127929688 13.339637756347656 13.150428771972656 12.976470947265625 12.756736755371094
        12.579727172851562 12.359992980957031 12.149421691894531 12.057861328125 12.158576965332031 12.311164855957031
        12.268440246582031 11.96630859375 11.633659362792969 11.447494506835938 11.398666381835938 11.453598022460938
        11.587875366210938 11.612289428710938 11.349830627441406 11.038543701171875 10.782188415527344 10.574661254882812
        10.284736633300781 10.08941650390625 10.159614562988281 10.415969848632812 10.657066345214844 10.745567321777344
        10.699790954589844 10.669273376464844 10.592971801757812 10.452591896057129 10.422073364257812 10.638755798339844
        11.075164794921875 11.386459350585938 11.252174377441406 10.867637634277344 10.501419067382812 10.09552001953125
        9.567550659179688 9.042633056640625 8.725242614746094 8.893096923828125 9.665214538574219 10.626548767089844
        11.075164794921875 10.852378845214844 10.483108520507812 10.336616516113281 10.257270812988281 10.09246826171875
        9.91851806640625 9.775077819824219 9.631645202636719 9.601119995117188 9.613327026367188 9.595016479492188
        9.707939147949219 9.91241455078125 9.99481201171875 9.94598388671875 9.89410400390625 9.860527038574219
        9.869682312011719 9.95819091796875 10.08026123046875 10.132148742675781 10.08941650390625 10.07415771484375
        10.211494445800781 10.357978820800781 10.254219055175781 9.88800048828125 9.567550659179688 9.451583862304688
        9.329505920410156 9.021270751953125 8.624534606933594 8.420059204101562 8.590957641601562 8.847312927246094
        8.847312927246094 8.706932067871094 8.545181274414062 8.304084777832031 8.0416259765625 7.837150573730469
        7.650993824005127 7.4831390380859375 7.367164611816406 7.330543518066406 7.4007415771484375 7.4709320068359375
        7.300025939941406 6.946014404296875 6.723228454589844 6.714073181152344 6.759849548339844 6.714073181152344
        6.5980987548828125 6.4729766845703125 6.338691234588623 6.210517883300781 6.12200927734375 6.131172180175781
        6.201362609863281 6.210517883300781 6.06707763671875 5.841239929199219 5.694755554199219 5.652030944824219
        5.5299530029296875 5.307167053222656 5.212562561035156 5.243080139160156 5.127113342285156 4.831077575683594
        4.669334411621094 4.760887145996094 4.785301208496094 4.654075622558594 4.6021881103515625 4.5960845947265625
        10.992767333984375 10.406814575195312 10.254219055175781 10.226753234863281 10.08636474609375 9.97955322265625
        10.159614562988281 10.498367309570312 10.501419067382812 10.190132141113281 10.07415771484375 10.290840148925781
        11.011077880859375 12.314216613769531 13.376266479492188 13.385421752929688 13.074127197265625 12.854393005371094
        12.485122680664062 12.323370933532715 11.9449462890625 11.142311096191406 11.011077880859375 12.570571899414062
        15.128028869628906 17.114776611328125 17.596969604492188 17.069000244140625 16.382339477539062 15.875732421875
        14.951019287109375 13.599044799804688 12.521743774414062 12.582778930664062 13.672294616699219 14.288765907287598
        13.99884033203125 13.821830749511719 13.745536804199219 13.406784057617188 12.979522705078125 12.613296508789062
        12.308113098144531 12.0029296875 11.828971862792969 11.789299011230469 11.764884948730469 11.645866394042969
        11.450546264648438 11.249122619628906 11.175880432128906 11.252174377441406 11.374252319335938 11.365089416503906
        11.181983947753906 10.940887451171875 10.779136657714844 10.711997985839844 10.541091918945312 10.379348754882812
        10.415969848632812 10.654014587402344 10.876800537109375 10.928680419921875 10.852378845214844 10.760826110839844
        10.577713012695312 10.339668273925781 10.281684875488281 10.519729614257812 11.011077880859375 11.438339233398438
        11.395614624023438 11.038543701171875 10.773033142089844 10.534988403320312 10.04669189453125 9.381393432617188
        8.871726989746094 8.822898864746094 9.396652221679688 10.336616516113281 11.008026123046875 11.023284912109375
        10.660118103027344 10.364082336425781 10.208442687988281 10.09552001953125 10.00396728515625 9.89410400390625
        9.704887390136719 9.546188354492188 9.521774291992188 9.643852233886719 9.87884521484375 10.04669189453125
        10.06195068359375 10.02227783203125 10.01312255859375 9.99786376953125 9.90325927734375 9.845268249511719
        9.98260498046875 10.217597961425781 10.299995422363281 10.254219055175781 10.315254211425781 10.443435668945312
        10.412918090820312 10.180976867675781 9.94903564453125 9.866630554199219 9.698783874511719 9.234901428222656
        8.731346130371094 8.597061157226562 8.822898864746094 8.978546142578125 8.862571716308594 8.703880310058594
        8.545182228088379 8.261360168457031 7.959228515625 7.727287292480469 7.5197601318359375 7.339698791503906
        7.232887268066406 7.223731994628906 7.287818908691406 7.342750549316406 7.254249572753906 7.019256591796875
        6.817832946777344 6.753746032714844 6.787315368652344 6.839195251464844 6.759849548339844 6.576736927032471
        6.4973907470703125 6.4912872314453125 6.3875274658203125 6.329536437988281 6.4333038330078125 6.454666614532471
        6.219673156738281 5.88092041015625 5.676445007324219 5.648979187011719 5.5787811279296875 5.307166576385498
        5.081329345703125 5.160682678222656 5.255287170410156 5.090484619140625 4.928741455078125 4.977569580078125
        4.986724853515625 4.879913330078125 4.834129333496094 4.828025817871094 11.102630615234375 10.214546203613281
        9.729301452636719 9.387496948242188 9.091461181640625 9.100616455078125 9.683525085449219 10.586868286132812
        10.773033142089844 9.92462158203125 9.280677795410156 9.463790893554688 10.07720947265625 10.824913024902344
        11.401718139648438 11.563461303710938 11.539047241210938 11.496322631835938 11.758781433105469 12.485122680664062
        13.174842834472656 13.229774475097656 12.573623657226562 12.631614685058594 14.529861450195312 16.837059020996094
        18.00592041015625 17.95709228515625 16.898101806640625 15.848258972167969 14.825889587402344 13.696708679199219
        12.918487548828125 13.022247314453125 14.163641929626465 15.250099182128906 15.280616760253906 14.957122802734375
        14.578689575195312 14.04766845703125 13.431198120117188 12.875762939453125 12.445449829101562 12.009033203125
        11.636711120605469 11.420028686523438 11.389511108398438 11.447494506835938 11.478012084960938 11.349830627441406
        11.124000549316406 10.998870849609375 11.032440185546875 11.041595458984375 11.011077880859375 10.953094482421875
        10.901214599609375 10.840171813964844 10.684532165527344 10.504470825195312 10.495315551757812 10.708946228027344
        10.937835693359375 10.962249755859375 10.824913024902344 10.733360290527344 10.623497009277344 10.397659301757812
        10.242012023925781 10.388504028320312 10.889007568359375 11.438339233398438 11.557357788085938 11.243019104003906
        10.943939208984375 10.766929626464844 10.406814575195312 9.768974304199219 9.112823486328125 8.816795349121094
        9.128089904785156 9.93377685546875 10.742515563964844 11.050750732421875 10.834068298339844 10.492263793945312
        10.306098937988281 10.232856750488281 10.135200500488281 9.95513916015625 9.729301452636719 9.607223510742188
        9.671318054199219 9.845268249511719 10.01312255859375 10.08636474609375 10.09552001953125 10.141304016113281
        10.205390930175781 10.144355773925781 9.96124267578125 9.88189697265625 10.08941650390625 10.434280395507812
        10.577713012695312 10.510575294494629 10.489212036132812 10.541091918945312 10.522781372070312 10.415969848632812
        10.318305969238281 10.235908508300781 9.98260498046875 9.457687377929688 8.929718017578125 8.743553161621094
        8.841209411621094 8.877838134765625 8.767967224121094 8.642845153808594 8.453628540039062 8.124031066894531
        7.788322448730469 7.5228118896484375 7.284767150878906 7.101654052734375 7.046722412109375 7.110809326171875
        7.211524963378906 7.303077697753906 7.342750549316406 7.254249572753906 7.086395263671875 6.982635498046875
        7.028411865234375 7.116912841796875 7.022308349609375 6.826988220214844 6.817832946777344 6.823936462402344
        6.5950469970703125 6.3905792236328125 6.4302520751953125 6.506545543670654 6.308174133300781 5.89923095703125
        5.6001434326171875 5.5177459716796875 5.4322967529296875 5.218666076660156 5.053863525390625 5.163734436035156
        5.343788146972656 5.340736389160156 5.240028381347656 5.185096740722656 5.111846923828125 4.998931884765625
        4.910430908203125 4.843284606933594 11.206398010253906 10.177925109863281 9.320350646972656 8.709983825683594
        8.374282836914062 8.426162719726562 9.176918029785156 10.486160278320312 11.056854248046875 9.97039794921875
        8.413955688476562 7.727287292480469 7.855461120605469 8.365119934082031 9.048735618591309 9.738456726074219
        10.428176879882812 11.096527099609375 11.862541198730469 12.631614685058594 13.116851806640625 13.238929748535156
        13.257240295410156 13.623466491699219 14.566482543945312 15.698722839355469 16.519668579101562 16.861473083496094
        16.711936950683594 16.28772735595703 15.478988647460938 14.435256958007812 13.635673522949219 13.464767456054688
        13.98052978515625 14.822837829589844 15.292823791503906 15.176857948303223 14.734336853027344 14.438308715820312
        14.08123779296875 13.425095558166504 12.768943786621094 12.176887512207031 11.700798034667969 11.410873413085938
        11.340675354003906 11.377304077148438 11.441390991210938 11.426132202148438 11.249122619628906 11.029388427734375
        10.962249755859375 10.922576904296875 10.898162841796875 10.943939208984375 11.023284912109375 11.017181396484375
        10.904266357421875 10.748619079589844 10.702842712402344 10.858482360839844 11.023284912109375 10.950042724609375
        10.718101501464844 10.611282348632812 10.644859313964844 10.559402465820312 10.354927062988281 10.351875305175781
        10.773033142089844 11.374252319335938 11.639762878417969 11.383407592773438 10.980560302734375 10.763877868652344
        10.559402465820312 10.07720947265625 9.390548706054688 8.908355712890625 8.996856689453125 9.631645202636719
        10.403762817382812 10.864585876464844 10.873748779296875 10.687583923339844 10.574661254882812 10.477005004882812
        10.257270812988281 9.92767333984375 9.689628601074219 9.695732116699219 9.799491882324219 9.836112976074219
        9.88189697265625 10.04058837890625 10.229804992675781 10.345771789550781 10.327461242675781 10.159614562988281
        9.98870849609375 10.01007080078125 10.232856750488281 10.501419067382812 10.638755798339844 10.605178833007812
        10.528884887695312 10.480056762695312 10.443435668945312 10.431228637695312 10.449539184570312 10.397659301757812
        10.11077880859375 9.576705932617188 9.070098876953125 8.777122497558594 8.627586364746094 8.542129516601562
        8.560440063476562 8.563491821289062 8.325447082519531 7.9439697265625 7.681510925292969 7.507553577423096
        7.330543518066406 7.235939025878906 7.263404846191406 7.318336486816406 7.4037933349609375 7.5716400146484375
        7.748649597167969 7.705924987792969 7.4648284912109375 7.315284729003906 7.321388244628906 7.324440002441406
        7.162696838378906 6.933807373046875 6.857505798339844 6.781211853027344 6.5340118408203125 6.295967102050781
        6.250190734863281 6.323432922363281 6.253242492675781 5.95721435546875 5.652030944824219 5.4902801513671875
        5.368202209472656 5.218666076660156 5.172889709472656 5.349891662597656 5.5726776123046875 5.5818328857421875
        5.4048309326171875 5.267494201660156 5.175941467285156 5.038604736328125 4.913482666015625 4.8158183097839355
        11.194190979003906 10.07415771484375 8.993804931640625 8.06298828125 7.4495697021484375 7.196266174316406
        7.5777435302734375 8.548233032226562 9.088409423828125 8.380386352539062 7.077239990234375 6.347846984863281
        6.5279083251953125 7.4343109130859375 8.685569763183594 9.851370811462402 10.827964782714844 11.658073425292969
        12.237922668457031 12.509536743164062 12.649925231933594 13.049713134765625 13.98663330078125 14.734336853027344
        14.685508728027344 14.731285095214844 15.424057006835938 16.388442993164062 17.062896728515625 17.166664123535156
        16.629539489746094 15.515609741210938 14.285713195800781 13.629570007324219 13.788261413574219 14.505446434020996
        15.082244873046875 15.115814208984375 14.850303649902344 14.603103637695312 14.313179016113281 13.846244812011719
        13.260292053222656 12.598037719726562 11.978515625 11.514633178710938 11.282692909240723 11.200294494628906
        11.197242736816406 11.252174377441406 11.307106018066406 11.218605041503906 11.069061279296875 10.937835693359375
        10.840171813964844 10.827964782714844 10.943939208984375 11.017181396484375 10.934783935546875 10.757774353027344
        10.681480407714844 10.788291931152344 10.901214599609375 10.837120056152344 10.678428649902344 10.614334106445312
        10.684532165527344 10.721153259277344 10.568557739257812 10.464797973632812 10.736412048339844 11.239967346191406
        11.542098999023438 11.352882385253906 10.904266357421875 10.638755798339844 10.534988403320312 10.226753234863281
        9.637748718261719 9.115875244140625 9.054840087890625 9.491256713867188 10.09246826171875 10.538040161132812
        10.745567321777344 10.831016540527344 10.876800537109375 10.754721641540527 10.379348754882812 9.91851806640625
        9.653007507324219 9.701835632324219 9.842216491699219 9.857475280761719 9.93682861328125 10.251167297363281
        10.580764770507812 10.641807556152344 10.446487426757812 10.214546203613281 10.144355773925781 10.281684875488281
        10.473953247070312 10.605178833007812 10.672325134277344 10.660117149353027 10.568557739257812 10.446487426757812
        10.367134094238281 10.364082336425781 10.373245239257812 10.284736633300781 10.04058837890625 9.613327026367188
        9.131141662597656 8.728294372558594 8.420059204101562 8.316291809082031 8.481094360351562 8.676414489746094
        8.560440063476562 8.221687316894531 7.9805908203125 7.849357604980469 7.727287292480469 7.669303894042969
        7.657096862792969 7.635734558105469 7.684562683105469 7.861564636230469 8.0172119140625 7.9256591796875
        7.5899505615234375 7.318336486816406 7.303077697753906 7.354957580566406 7.184059143066406 6.891082763671875
        6.762901306152344 6.701866149902344 6.5279083251953125 6.308174133300781 6.149482727050781 6.137275695800781
        6.170845031738281 6.03656005859375 5.771049499511719 5.6062469482421875 5.5421600341796875 5.4200897216796875
        5.352943420410156 5.5055389404296875 5.749687194824219 5.783256530761719 5.5421600341796875 5.310218811035156
        5.182044982910156 5.029449462890625 4.886016845703125 4.870750427246094 11.813713073730469 10.513626098632812
        9.393600463867188 8.362068176269531 7.5319671630859375 7.1840596199035645 7.4037933349609375 8.0477294921875
        8.554336547851562 8.487197875976562 8.0355224609375 7.794425964355469 8.1026611328125 8.896148681640625
        9.94598388671875 10.907318115234375 11.569564819335938 11.996826171875 12.237922668457031 12.390518188476562
        12.677391052246094 13.284706115722656 14.212471008300781 14.975433349609375 14.960174560546875 14.716026306152344
        15.106658935546875 16.0252685546875 16.998809814453125 17.63970184326172 17.407760620117188 16.19312286376953
        14.627525329589844 13.577682495117188 13.681449890136719 14.554275512695312 15.152442932128906 15.198219299316406
        14.938812255859375 14.578689575195312 14.291816711425781 14.00799560546875 13.586837768554688 13.019195556640625
        12.353889465332031 11.667228698730469 11.221656799316406 11.066009521484375 11.072113037109375 11.212501525878906
        11.459701538085938 11.502426147460938 11.236915588378906 10.931732177734375 10.748619079589844 10.647911071777344
        10.690635681152344 10.827964782714844 10.946990966796875 10.977508544921875 10.998870849609375 11.035491943359375
        11.014129638671875 10.934783935546875 10.855430603027344 10.769981384277344 10.727256774902344 10.718101501464844
        10.599075317382812 10.464797973632812 10.617385864257812 11.047698974609375 11.346778869628906 11.227760314941406
        10.849327087402344 10.580764770507812 10.492263793945312 10.296943664550781 9.869682312011719 9.414962768554688
        9.225746154785156 9.399703979492188 9.775077819824219 10.153511047363281 10.486160278320312 10.797447204589844
        11.026336669921875 10.980560302734375 10.611282348632812 10.147407531738281 9.836112976074219 9.796440124511719
        9.93988037109375 10.08026123046875 10.281684875488281 10.629600524902344 10.885955810546875 10.773033142089844
        10.446487426757812 10.232856750488281 10.263374328613281 10.425125122070312 10.513626098632812 10.501419067382812
        10.501419067382812 10.522781372070312 10.504470825195312 10.428176879882812 10.327461242675781 10.208442687988281
        10.04364013671875 9.90631103515625 9.842216491699219 9.714042663574219 9.387496948242188 8.954132080078125
        8.594009399414062 8.435317993164062 8.560440063476562 8.844261169433594 8.899200439453125 8.551284790039062
        8.139289855957031 7.904296875 7.821891784667969 7.779167175292969 7.687614440917969 7.644889831542969
        7.803581237792969 8.0477294921875 8.124031066894531 7.96533203125 7.660148620605469 7.3915863037109375
        7.3976898193359375 7.5319671630859375 7.3854827880859375 7.000946044921875 6.769004821777344 6.735435485839844
        6.649986267089844 6.4210968017578125 6.152534484863281 6.06402587890625 6.164741516113281 6.146430969238281
        5.95416259765625 5.816825866699219 5.792411804199219 5.719169616699219 5.6062469482421875 5.6184539794921875
        5.795463562011719 5.91448974609375 5.706962585449219 5.368202209472656 5.185096740722656 5.075225830078125
        5.032501220703125 5.096588134765625 13.303016662597656 11.716056823730469 10.385452270507812 9.512619018554688
        8.804588317871094 8.502456665039062 8.72524356842041 9.289833068847656 9.87884521484375 10.190132141113281
        10.10772705078125 9.90020751953125 9.95819091796875 10.330513000488281 10.867637634277344 11.395614624023438
        11.752677917480469 12.0242919921875 12.326423645019531 12.659080505371094 13.086334228515625 13.663139343261719
        14.352851867675781 14.996795654296875 15.164649963378906 14.947967529296875 15.167701721191406 16.01611328125
        17.133094787597656 18.02728271484375 17.91741943359375 16.571548461914062 14.868614196777344 13.727226257324219
        13.742485046386719 14.621414184570312 15.323341369628906 15.329444885253906 14.896087646484375 14.416946411132812
        14.11785888671875 13.867607116699219 13.525802612304688 13.101593017578125 12.555313110351562 11.835075378417969
        11.279640197753906 11.114838600158691 11.203346252441406 11.368141174316406 11.584823608398438 11.636711120605469
        11.343727111816406 10.919525146484375 10.647911071777344 10.544142723083496 10.577713012695312 10.727256774902344
        10.931732177734375 11.099578857421875 11.166725158691406 11.142311096191406 11.087371826171875 10.986663818359375
        10.861534118652344 10.708946228027344 10.589920043945312 10.544143676757812 10.458694458007812 10.299995422363281
        10.361030578613281 10.745567321777344 11.108734130859375 11.120941162109375 10.849327087402344 10.586868286132812
        10.458694458007812 10.333564758300781 10.04364013671875 9.656059265136719 9.360023498535156 9.277626037597656
        9.421066284179688 9.768974304199219 10.254219055175781 10.739463806152344 11.075164794921875 11.133155822753906
        10.913421630859375 10.596024513244629 10.293891906738281 10.09246826171875 10.141304016113281 10.391555786132812
        10.678428649902344 10.922576904296875 10.940887451171875 10.65706729888916 10.342720031738281 10.266426086425781
        10.397659301757812 10.513626098632812 10.464797973632812 10.336616516113281 10.284736633300781 10.357978820800781
        10.495315551757812 10.589920043945312 10.544143676757812 10.299995422363281 9.93682861328125 9.692680358886719
        9.680473327636719 9.753715515136719 9.659110069274902 9.277626037597656 8.807640075683594 8.554336547851562
        8.661155700683594 8.999908447265625 9.112823486328125 8.743553161621094 8.236946105957031 7.9775390625
        7.9439697265625 7.9439697265625 7.910400390625 7.995849609375 8.291877746582031 8.542129516601562
        8.468887329101562 8.145393371582031 7.779167175292969 7.5228118896484375 7.5136566162109375 7.6021575927734375
        7.4434661865234375 7.025360584259033 6.723228454589844 6.701866149902344 6.738487243652344 6.6133575439453125
        6.353950500488281 6.231880187988281 6.311225891113281 6.338691711425781 6.204414367675781 6.04571533203125
        5.97552490234375 5.91754150390625 5.731376647949219 5.5696258544921875 5.682548522949219 5.91143798828125
        5.844291687011719 5.5085906982421875 5.273597717285156 5.212562561035156 5.218666076660156 5.209510803222656
        14.679405212402344 13.165687561035156 11.648918151855469 10.861534118652344 10.364082336425781 10.03143310546875
        10.06195068359375 10.388504028320312 10.821861267089844 11.227760314941406 11.377304077148438 11.145362854003906
        10.892059326171875 10.895111083984375 11.084320068359375 11.365089416503906 11.694694519042969 12.0914306640625
        12.561416625976562 12.994781494140625 13.364051818847656 13.815727233886719 14.343696594238281 14.792320251464844
        15.036468505859375 15.213478088378906 15.717033386230469 16.632591247558594 17.70684051513672 18.433181762695312
        18.16156768798828 16.800437927246094 15.091400146484375 13.867608070373535 13.623466491699219 14.310127258300781
        15.164649963378906 15.289772033691406 14.737388610839844 14.127021789550781 13.797416687011719 13.611251831054688
        13.379318237304688 13.000885009765625 12.521743774414062 11.947998046875 11.474960327148438 11.288795471191406
        11.322364807128906 11.401718139648438 11.529891967773438 11.609237670898438 11.435287475585938 11.084320068359375
        10.843223571777344 10.776084899902344 10.733360290527344 10.702842712402344 10.745567321777344 10.852378845214844
        10.962249755859375 11.059906005859375 11.127052307128906 11.056854248046875 10.846275329589844 10.605178833007812
        10.422073364257812 10.345771789550781 10.287788391113281 10.132148742675781 10.092469215393066 10.376296997070312
        10.782188415527344 10.971405029296875 10.855430603027344 10.596023559570312 10.415969848632812 10.315254211425781
        10.129096984863281 9.787284851074219 9.427169799804688 9.216590881347656 9.256263732910156 9.616378784179688
        10.205390930175781 10.782188415527344 11.160621643066406 11.276588439941406 11.166725158691406 10.928680419921875
        10.611282348632812 10.330513000488281 10.333564758300781 10.623497009277344 10.928680419921875 11.014129638671875
        10.806602478027344 10.470901489257812 10.287788391113281 10.330513000488281 10.446487426757812 10.443435668945312
        10.309150695800781 10.147407531738281 10.04974365234375 10.11383056640625 10.357978820800781 10.623497009277344
        10.687583923339844 10.470901489257812 10.07415771484375 9.753715515136719 9.720146179199219 9.854423522949219
        9.87274169921875 9.567550659179688 9.048736572265625 8.734397888183594 8.86562442779541 9.222694396972656
        9.311195373535156 8.957183837890625 8.484146118164062 8.209480285644531 8.130134582519531 8.081298828125
        8.0294189453125 8.099609375 8.352912902832031 8.587905883789062 8.471939086914062 7.9805908203125
        7.4465179443359375 7.223731994628906 7.3946380615234375 7.632682800292969 7.5411224365234375 7.181007385253906
        6.930755615234375 6.939910888671875 7.003997802734375 6.921600341796875 6.701866149902344 6.5401153564453125
        6.4790802001953125 6.3905792236328125 6.250190734863281 6.11590576171875 6.02435302734375 5.94805908203125
        5.767997741699219 5.557419300079346 5.6123504638671875 5.91754150390625 6.05181884765625 5.810722351074219
        5.5024871826171875 5.365150451660156 5.279701232910156 5.215614318847656 15.482040405273438 14.545120239257812
        13.229774475097656 12.170783996582031 11.505477905273438 11.038543701171875 10.803550720214844 10.742515563964844
        10.800498962402344 11.105682373046875 11.496322631835938 11.535995483398438 11.291847229003906 11.133155822753906
        11.130104064941406 11.285743713378906 11.633659362792969 12.158576965332031 12.756736755371094 13.275551795959473
        13.657035827636719 14.05072021484375 14.490188598632812 14.810630798339844 15.060882568359375 15.478988647460938
        16.1015625 16.913360595703125 17.77092742919922 18.25312042236328 17.94793701171875 16.815696716308594
        15.243995666503906 13.89202880859375 13.394577026367188 13.94390869140625 14.947967529296875 15.329444885253906
        14.816734313964844 14.09649658203125 13.663140296936035 13.428146362304688 13.232826232910156 12.869651794433594
        12.381362915039062 11.886962890625 11.551254272460938 11.426132202148438 11.407821655273438 11.401718139648438
        11.468856811523438 11.551254272460938 11.511581420898438 11.294898986816406 11.066009521484375 10.934783935546875
        10.840171813964844 10.754722595214844 10.711997985839844 10.736412048339844 10.834068298339844 11.001922607421875
        11.148414611816406 11.120941162109375 10.885955810546875 10.568557739257812 10.296942710876465 10.168769836425781
        10.159614562988281 10.07415771484375 9.97955322265625 10.126045227050781 10.455642700195312 10.696739196777344
        10.699790954589844 10.501419067382812 10.327461242675781 10.278633117675781 10.199287414550781 9.93682861328125
        9.570602416992188 9.323402404785156 9.329505920410156 9.637748718261719 10.174873352050781 10.757774353027344
        11.203346252441406 11.386459350585938 11.264381408691406 10.919525146484375 10.531936645507812 10.336616516113281
        10.498367309570312 10.864585876464844 11.093475341796875 10.995819091796875 10.702842712402344 10.483108520507812
        10.443435668945312 10.461746215820312 10.412918090820312 10.324409484863281 10.254219055175781 10.184028625488281
        10.06805419921875 10.02838134765625 10.263374328613281 10.669273376464844 10.882904052734375 10.751670837402344
        10.431228637695312 10.165718078613281 10.11077880859375 10.168769836425781 10.122993469238281 9.811698913574219
        9.250160217285156 8.829002380371094 8.886993408203125 9.225746154785156 9.323402404785156 8.975494384765625
        8.490249633789062 8.194221496582031 8.1026611328125 8.06298828125 8.0050048828125 8.0233154296875
        8.285774230957031 8.685569763183594 8.728294372558594 8.243049621582031 7.708976745605469 7.5502777099609375
        7.708976745605469 7.867668151855469 7.733390808105469 7.354957580566406 7.095550537109375 7.110809803009033
        7.184059143066406 7.092499256134033 6.857505798339844 6.683555603027344 6.5645294189453125 6.3783721923828125
        6.192207336425781 6.10980224609375 6.05792236328125 5.94500732421875 5.780204772949219 5.5848846435546875
        5.5452117919921875 5.829032897949219 6.10369873046875 6.00604248046875 5.645927429199219 5.371253967285156
        5.298011779785156 5.3804168701171875 16.31214141845703 15.939818382263184 14.908294677734375 13.534957885742188
        12.457656860351562 11.716056823730469 11.221656799316406 10.898162841796875 10.687583923339844 10.727256774902344
        11.078216552734375 11.432235717773438 11.535995483398438 11.432235717773438 11.30405330657959 11.316261291503906
        11.618392944335938 12.274543762207031 13.083282470703125 13.739433288574219 14.172798156738281 14.511550903320312
        14.807579040527344 14.987640380859375 15.109710693359375 15.414901733398438 15.9764404296875 16.788230895996094
        17.67021942138672 18.13715362548828 17.85942840576172 16.837059020996094 15.369117736816406 14.02325439453125
        13.394577026367188 13.718070983886719 14.694664001464844 15.305030822753906 14.993743896484375 14.215522766113281
        13.583786010742188 13.235877990722656 13.055816650390625 12.771995544433594 12.323371887207031 11.859489440917969
        11.560409545898438 11.496322631835938 11.505477905273438 11.502426147460938 11.514633178710938 11.511581420898438
        11.471908569335938 11.307106018066406 11.154518127441406 11.185035705566406 11.267433166503906 11.233863830566406
        11.099578857421875 10.977508544921875 10.953094482421875 11.041595458984375 11.181983947753906 11.185035705566406
        10.974456787109375 10.635704040527344 10.278633117675781 10.09552001953125 10.135200500488281 10.11993408203125
        9.99481201171875 10.02227783203125 10.232856750488281 10.391555786132812 10.394607543945312 10.290840148925781
        10.226753234863281 10.290840148925781 10.333564758300781 10.162666320800781 9.796440124511719 9.488204956054688
        9.418014526367188 9.601119995117188 9.98260498046875 10.504470825195312 11.035491943359375 11.325416564941406
        11.181983947753906 10.693687438964844 10.254219055175781 10.248115539550781 10.678428649902344 11.127052307128906
        11.206398010253906 10.986663818359375 10.769981384277344 10.715049743652344 10.727256774902344 10.617385864257812
        10.406814575195312 10.296943664550781 10.330513000488281 10.327461242675781 10.184028625488281 10.02532958984375
        10.132148742675781 10.525833129882812 10.864585876464844 10.867637634277344 10.657066345214844 10.504470825195312
        10.464797973632812 10.452590942382812 10.327461242675781 9.95819091796875 9.363075256347656 8.859519958496094
        8.798484802246094 9.100616455078125 9.262367248535156 8.993804931640625 8.572647094726562 8.352912902832031
        8.349861145019531 8.362068176269531 8.252204895019531 8.160652160644531 8.368171691894531 8.795433044433594
        8.886993408203125 8.441421508789062 7.953125 7.773063659667969 7.821891784667969 7.898193359375
        7.766960144042969 7.4129486083984375 7.141334533691406 7.168800354003906 7.312232971191406 7.242042541503906
        6.942962646484375 6.732383728027344 6.634727478027344 6.3997344970703125 6.10980224609375 6.02130126953125
        6.04571533203125 5.91143798828125 5.679496765136719 5.5024871826171875 5.4261932373046875 5.6184539794921875
        5.97552490234375 6.10369873046875 5.850395202636719 5.5360565185546875 5.5696258544921875 5.771049499511719
        16.27246856689453 16.18091583251953 15.533920288085938 14.569534301757812 13.568528175354004 12.567520141601562
        11.728263854980469 11.188087463378906 10.861534118652344 10.675376892089844 10.739463806152344 11.075165748596191
        11.426132202148438 11.535995483398438 11.487167358398438 11.542098999023438 11.8839111328125 12.656028747558594
        13.617355346679688 14.288764953613281 14.606155395507812 14.767906188964844 14.841148376464844 14.86251163482666
        14.883880615234375 15.073089599609375 15.619369506835938 16.577651977539062 17.615280151367188 18.13410186767578
        17.874696731567383 16.885894775390625 15.540023803710938 14.355903625488281 13.672294616699219 13.644828796386719
        14.374221801757812 15.076142311096191 15.021209716796875 14.319282531738281 13.638725280761719 13.278602600097656
        13.080230712890625 12.775047302246094 12.305061340332031 11.798454284667969 11.423080444335938 11.304054260253906
        11.392562866210938 11.587875366210938 11.749626159667969 11.774040222167969 11.694694519042969 11.569564819335938
        11.511581420898438 11.615341186523438 11.722160339355469 11.651969909667969 11.426132202148438 11.178932189941406
        11.047698974609375 11.066009521484375 11.197242736816406 11.243019104003906 11.072113037109375 10.754721641540527
        10.373245239257812 10.135200500488281 10.184028625488281 10.229804992675781 10.08331298828125 9.99786376953125
        10.11993408203125 10.229804992675781 10.208442687988281 10.153511047363281 10.196235656738281 10.385452270507812
        10.538040161132812 10.434280395507812 10.05584716796875 9.640800476074219 9.436325073242188 9.469894409179688
        9.686576843261719 10.11688232421875 10.708946228027344 11.124000549316406 11.044647216796875 10.586868286132812
        10.205390930175781 10.318305969238281 10.849327087402344 11.230812072753906 11.227760314941406 11.093475341796875
        11.053802490234375 11.078216552734375 10.986663818359375 10.702842712402344 10.422073364257812 10.348823547363281
        10.452590942382812 10.498367309570312 10.367134094238281 10.211494445800781 10.296943664550781 10.696739196777344
        11.090423583984375 11.157569885253906 10.940887451171875 10.693687438964844 10.586868286132812 10.596023559570312
        10.513626098632812 10.159614562988281 9.601119995117188 9.100616455078125 8.932769775390625 9.082305908203125
        9.207435607910156 9.045684814453125 8.749656677246094 8.590957641601562 8.563491821289062 8.496353149414062
        8.313240051269531 8.194221496582031 8.401748657226562 8.795433044433594 8.859519958496094 8.456680297851562
        8.0477294921875 7.9195556640625 7.9622802734375 8.0233154296875 7.9195556640625 7.5624847412109375
        7.202369689941406 7.132179260253906 7.238990783691406 7.184059143066406 6.909393310546875 6.683555603027344
        6.640830993652344 6.4912872314453125 6.131172180175781 5.95111083984375 6.04571533203125 6.05487060546875
        5.87786865234375 5.682548522949219 5.5604705810546875 5.6184539794921875 5.99383544921875 6.295967102050781
        6.08843994140625 5.743583679199219 5.749687194824219 5.91143798828125 15.863517761230469 16.0679931640625
        15.741447448730469 15.155494689941406 14.477981567382812 13.614303588867188 12.588882446289062 11.767936706542969
        11.258277893066406 10.968353271484375 10.895111083984375 11.102630615234375 11.520736694335938 11.856437683105469
        11.9937744140625 12.0853271484375 12.350837707519531 13.006988525390625 13.87371826171875 14.447463989257812
        14.670249938964844 14.755699157714844 14.75264835357666 14.752647399902344 14.844200134277344 15.088348388671875
        15.613265991210938 16.519668579101562 17.505416870117188 17.978452682495117 17.74040985107422 16.843162536621094
        15.659049987792969 14.691612243652344 14.00189208984375 13.663139343261719 14.06292724609375 14.731285095214844
        14.941864013671875 14.481033325195312 13.834037780761719 13.385421752929688 13.046661376953125 12.659080505371094
        12.201301574707031 11.725212097167969 11.316261291503906 11.130104064941406 11.294898986816406 11.713005065917969
        12.08837890625 12.179939270019531 12.045654296875 11.9052734375 11.865592956542969 11.923583984375
        11.984619140625 11.8961181640625 11.633659362792969 11.331520080566406 11.139259338378906 11.096527099609375
        11.188087463378906 11.239967346191406 11.090423583984375 10.785240173339844 10.422073364257812 10.171821594238281
        10.232856750488281 10.357978820800781 10.251167297363281 10.09552001953125 10.135200500488281 10.248115539550781
        10.242012023925781 10.171821594238281 10.214546203613281 10.425125122070312 10.635704040527344 10.602127075195312
        10.263374328613281 9.802543640136719 9.472946166992188 9.375289916992188 9.497360229492188 9.87274169921875
        10.501419067382812 11.023284912109375 11.053802490234375 10.721153259277344 10.452590942382812 10.550247192382812
        10.919525146484375 11.169776916503906 11.224708557128906 11.291847229003906 11.420028686523438 11.453598022460938
        11.230812072753906 10.824913024902344 10.522781372070312 10.480056762695312 10.592971801757812 10.660118103027344
        10.605178833007812 10.541091918945312 10.632652282714844 10.885955810546875 11.142311096191406 11.233863830566406
        11.111785888671875 10.867637634277344 10.675376892089844 10.599075317382812 10.516677856445312 10.242012023925781
        9.802543640136719 9.378341674804688 9.134193420410156 9.094512939453125 9.088409423828125 8.966339111328125
        8.786277770996094 8.685569763183594 8.658103942871094 8.548233032226562 8.346809387207031 8.316291809082031
        8.630638122558594 9.015167236328125 8.975494384765625 8.548233032226562 8.203376770019531 8.1148681640625
        8.136238098144531 8.142341613769531 7.98974609375 7.5594329833984375 7.052825927734375 6.848350524902344
        6.927703857421875 6.952117919921875 6.817832946777344 6.683555603027344 6.711021423339844 6.711021423339844
        6.4058380126953125 6.05487060546875 6.05792236328125 6.256294250488281 6.213569641113281 5.93585205078125
        5.716117858886719 5.6092987060546875 5.737480163574219 5.96026611328125 5.88702392578125 5.780204772949219
        5.871757507324219 5.90838623046875 15.427108764648438 15.695671081542969 15.613265991210938 15.277565002441406
        14.957122802734375 14.520706176757812 13.693656921386719 12.720115661621094 11.9449462890625 11.481063842773438
        11.325416564941406 11.502426147460938 11.9296875 12.329475402832031 12.512588500976562 12.530899047851562
        12.628562927246094 13.077178955078125 13.791313171386719 14.349800109863281 14.645835876464844 14.780113220214844
        14.795372009277344 14.770956993103027 14.886932373046875 15.155494689941406 15.598007202148438 16.35486602783203
        17.200233459472656 17.609176635742188 17.423019409179688 16.763816833496094 15.854362487792969 15.042572021484375
        14.374221801757812 13.89813232421875 13.96527099609375 14.447463989257812 14.792320251464844 14.581742286682129
        14.02630615234375 13.470870971679688 13.031402587890625 12.631614685058594 12.237922668457031 11.899169921875
        11.581771850585938 11.365089416503906 11.481063842773438 11.8839111328125 12.250129699707031 12.329475402832031
        12.213508605957031 12.143318176269531 12.179939270019531 12.219612121582031 12.167732238769531 11.9327392578125
        11.557357788085938 11.236915588378906 11.069061279296875 11.026336669921875 11.111785888671875 11.212501525878906
        11.127052307128906 10.873748779296875 10.571609497070312 10.327461242675781 10.333564758300781 10.486160278320312
        10.458694458007812 10.293891906738281 10.281684875488281 10.376296997070312 10.351875305175781 10.226753234863281
        10.196235656738281 10.361030578613281 10.574661254882812 10.611282348632812 10.397659301757812 10.01617431640625
        9.656059265136719 9.460739135742188 9.479049682617188 9.781181335449219 10.391555786132812 11.001922607421875
        11.154518127441406 10.889007568359375 10.672325134277344 10.809654235839844 11.169776916503906 11.398666381835938
        11.496322631835938 11.612289428710938 11.734367370605469 11.719108581542969 11.453598022460938 11.041595458984375
        10.699790954589844 10.565505981445312 10.608230590820312 10.681480407714844 10.708946228027344 10.736412048339844
        10.791343688964844 10.852378845214844 10.983612060546875 11.209449768066406 11.325416564941406 11.181983947753906
        10.901214599609375 10.654014587402344 10.449539184570312 10.190132141113281 9.87274169921875 9.591964721679688
        9.381393432617188 9.244056701660156 9.118927001953125 8.969390869140625 8.859519958496094 8.838157653808594
        8.825950622558594 8.682518005371094 8.465835571289062 8.499404907226562 8.859519958496094 9.128089904785156
        8.957183837890625 8.557388305664062 8.258308410644531 8.11181640625 8.0416259765625 8.0416259765625
        7.9744873046875 7.632682800292969 7.104705810546875 6.772056579589844 6.787315368652344 6.884979248046875
        6.842247009277344 6.732383728027344 6.741539001464844 6.820884704589844 6.689659118652344 6.311225891113281
        6.08538818359375 6.219673156738281 6.341743469238281 6.201362609863281 5.99993896484375 5.804618835449219
        5.700859069824219 5.713066101074219 5.682548522949219 5.813774108886719 6.00604248046875 5.96942138671875
        15.115813255310059 15.308082580566406 15.460678100585938 15.430160522460938 15.301979064941406 15.076141357421875
        14.587844848632812 13.760795593261719 12.851341247558594 12.198249816894531 11.856437683105469 11.865592956542969
        12.155525207519531 12.500381469726562 12.701805114746094 12.781150817871094 12.869651794433594 13.174842834472656
        13.748588562011719 14.331489562988281 14.722129821777344 14.914398193359375 14.920501708984375 14.831993103027344
        14.877777099609375 15.152442932128906 15.643791198730469 16.36096954345703 17.108673095703125 17.444381713867188
        17.242958068847656 16.736351013183594 16.0374755859375 15.292823791503906 14.682456970214844 14.249092102050781
        14.08734130859375 14.282661437988281 14.517654418945312 14.407791137695312 13.98052978515625 13.473922729492188
        13.074127197265625 12.796409606933594 12.515640258789062 12.222663879394531 11.9571533203125 11.755729675292969
        11.795402526855469 12.070068359375 12.289802551269531 12.335578918457031 12.353889465332031 12.417984008789062
        12.479019165039062 12.466812133789062 12.283699989318848 11.89306640625 11.398666381835938 11.011077880859375
        10.831016540527344 10.834068298339844 10.992767333984375 11.169776916503906 11.15451717376709 10.953094482421875
        10.721153259277344 10.519729614257812 10.446486473083496 10.541091918945312 10.556350708007812 10.455642700195312
        10.467848777770996 10.519729614257812 10.400711059570312 10.187080383300781 10.11993408203125 10.266426086425781
        10.458694458007812 10.516677856445312 10.400711059570312 10.147407531738281 9.830009460449219 9.543136596679688
        9.405807495117188 9.588912963867188 10.144355773925781 10.760826110839844 11.023284912109375 10.879852294921875
        10.748619079589844 11.032440185546875 11.593978881835938 11.960205078125 12.0364990234375 11.984619140625
        11.886962890625 11.731315612792969 11.471908569335938 11.142311096191406 10.824913024902344 10.635704040527344
        10.657066345214844 10.779136657714844 10.834068298339844 10.831016540527344 10.824913024902344 10.858482360839844
        11.008026123046875 11.282691955566406 11.484115600585938 11.404769897460938 11.099578857421875 10.766929626464844
        10.473953247070312 10.202339172363281 9.93377685546875 9.683525085449219 9.475997924804688 9.314247131347656
        9.155555725097656 8.978546142578125 8.850364685058594 8.789329528808594 8.749656677246094 8.661155700683594
        8.542129516601562 8.621475219726562 8.917510986328125 9.021270751953125 8.761863708496094 8.426163673400879
        8.172859191894531 7.934814453125 7.760856628417969 7.782218933105469 7.861564636230469 7.715080261230469
        7.306129455566406 6.964324951171875 6.967376708984375 7.126075744628906 7.077239990234375 6.869712829589844
        6.753746032714844 6.759849548339844 6.762901306152344 6.634727478027344 6.4607696533203125 6.5370635986328125
        6.799522399902344 6.811729431152344 6.479080677032471 6.128120422363281 5.94805908203125 5.737480163574219
        5.5207977294921875 5.5726776123046875 5.734428405761719 5.774101257324219 15.057830810546875 15.189064025878906
        15.414901733398438 15.509506225585938 15.417953491210938 15.286720275878906 15.082243919372559 14.517653465270996
        13.632620811462402 12.820823669433594 12.280647277832031 12.0517578125 12.134162902832031 12.393569946289062
        12.671287536621094 12.924591064453125 13.153480529785156 13.428146362304688 13.90118408203125 14.447463989257812
        14.871665954589844 15.137184143066406 15.155494689941406 14.999847412109375 14.908294677734375 15.112762451171875
        15.692619323730469 16.467788696289062 17.093414306640625 17.279579162597656 17.001861572265625 16.525772094726562
        16.01611328125 15.451522827148438 14.889984130859375 14.413894653320312 14.123969078063965 14.11480712890625
        14.145332336425781 14.00494384765625 13.736381530761719 13.470870971679688 13.321327209472656 13.293861389160156
        13.068023681640625 12.543106079101562 12.0914306640625 11.9205322265625 11.978515625 12.152473449707031
        12.210456848144531 12.155525207519531 12.247077941894531 12.509536743164062 12.689598083496094 12.616348266601562
        12.295906066894531 11.828971862792969 11.334571838378906 10.919525146484375 10.666221618652344 10.629600524902344
        10.785240173339844 10.995819091796875 11.056854248046875 10.934783935546875 10.794395446777344 10.678428649902344
        10.550247192382812 10.525833129882812 10.547195434570312 10.531936645507812 10.605178833007812 10.638755798339844
        10.415969848632812 10.11077880859375 10.04669189453125 10.266426086425781 10.516677856445312 10.580764770507812
        10.464797973632812 10.260322570800781 9.97344970703125 9.625541687011719 9.369178771972656 9.421066284179688
        9.860527038574219 10.373245239257812 10.599075317382812 10.599075317382812 10.736412048339844 11.243019104003906
        11.9388427734375 12.393569946289062 12.482070922851562 12.314216613769531 11.9754638671875 11.618392944335938
        11.337623596191406 11.072113037109375 10.824913024902344 10.745567321777344 10.885955810546875 11.056854248046875
        11.047698974609375 10.882904052734375 10.766929626464844 10.858482360839844 11.090423583984375 11.334571838378906
        11.496322631835938 11.456649780273438 11.185035705566406 10.818809509277344 10.504470825195312 10.266426086425781
        10.01922607421875 9.710990905761719 9.442428588867188 9.289833068847656 9.140296936035156 8.911407470703125
        8.697776794433594 8.590957641601562 8.612319946289062 8.749656677246094 8.883941650390625 8.972442626953125
        9.070098876953125 9.036529541015625 8.777122497558594 8.468887329101562 8.197273254394531 7.89208984375
        7.678459167480469 7.776115417480469 8.0416259765625 8.06298828125 7.751701354980469 7.4465179443359375
        7.4495697021484375 7.5624847412109375 7.3915863037109375 7.034515380859375 6.802574157714844 6.698814392089844
        6.640830993652344 6.5889434814453125 6.5126495361328125 6.5157012939453125 6.686607360839844 6.830039978027344
        6.784263610839844 6.653038024902344 6.4058380126953125 5.98162841796875 5.658134460449219 5.5726776123046875
        5.5696258544921875 5.5909881591796875 15.228736877441406 15.195167541503906 15.378280639648438 15.585800170898438
        15.652946472167969 15.585800170898438 15.396591186523438 14.957122802734375 14.154487609863281 13.205361366271973
        12.430191040039062 11.972412109375 11.9266357421875 12.192146301269531 12.543106079101562 12.884918212890625
        13.214515686035156 13.531906127929688 13.974427223205566 14.499343872070312 15.009002685546875 15.387435913085938
        15.408797264099121 15.143287658691406 14.874725341796875 14.926606178283691 15.482040405273438 16.37012481689453
        17.056793212890625 17.172767639160156 16.818748474121094 16.31824493408203 15.863517761230469 15.405746459960938
        14.856407165527344 14.300971984863281 13.98663330078125 13.98358154296875 13.95611572265625 13.794364929199219
        13.690604209899902 13.711967468261719 13.815726280212402 13.837089538574219 13.480026245117188 12.771995544433594
        12.158576965332031 11.911376953125 11.96630859375 12.1097412109375 12.128059387207031 12.0792236328125
        12.207405090332031 12.567520141601562 12.869651794433594 12.805564880371094 12.344734191894531 11.789299011230469
        11.368141174316406 11.072113990783691 10.837120056152344 10.718101501464844 10.763877868652344 10.882904052734375
        10.885955810546875 10.754722595214844 10.675376892089844 10.693687438964844 10.623497009277344 10.531936645507812
        10.516677856445312 10.568557739257812 10.730308532714844 10.788291931152344 10.507522583007812 10.129096984863281
        10.05889892578125 10.361030578613281 10.705894470214844 10.791343688964844 10.638755798339844 10.382401466369629
        10.05279541015625 9.662162780761719 9.326454162597656 9.231849670410156 9.497360229492188 9.90631103515625
        10.10162353515625 10.205389976501465 10.611282348632812 11.343727111816406 12.070068359375 12.515640258789062
        12.674338340759277 12.576675415039062 12.158576965332031 11.606185913085938 11.230812072753906 10.989715576171875
        10.818809509277344 10.889007568359375 11.175880432128906 11.362037658691406 11.236915588378906 10.889007568359375
        10.617385864257812 10.727256774902344 11.108734130859375 11.432235717773438 11.551254272460938 11.478012084960938
        11.212501525878906 10.855430603027344 10.553298950195312 10.339668273925781 10.122993469238281 9.839164733886719
        9.582809448242188 9.399703979492188 9.155555725097656 8.825950622558594 8.575698852539062 8.532974243164062
        8.694725036621094 9.012114524841309 9.314247131347656 9.326454162597656 9.167762756347656 9.063995361328125
        8.917510986328125 8.648948669433594 8.273567199707031 7.843254089355469 7.654045104980469 7.8768310546875
        8.227790832519531 8.276618957519531 7.9012451171875 7.4465179443359375 7.354957580566406 7.4983978271484375
        7.4098968505859375 7.107757568359375 6.939910888671875 6.866661071777344 6.753746032714844 6.646934509277344
        6.5675811767578125 6.5767364501953125 6.732383728027344 6.845298767089844 6.772056579589844 6.5767364501953125
        6.302070617675781 6.00604248046875 5.813774108886719 5.667289733886719 5.5024871826171875 5.4353485107421875
        15.363014221191406 15.140235900878906 15.219581604003906 15.506454467773438 15.732292175292969 15.738395690917969
        15.558334350585938 15.149391174316406 14.438308715820312 13.507492065429688 12.671287536621094 12.057861328125
        11.780143737792969 11.89306640625 12.256233215332031 12.756736755371094 13.324378967285156 13.864555358886719
        14.398635864257812 14.889984130859375 15.335548400878906 15.655998229980469 15.680412292480469 15.393539428710938
        15.036468505859375 14.975433349609375 15.427108764648438 16.27857208251953 16.974395751953125 17.075103759765625
        16.702781677246094 16.12903594970703 15.601058959960938 15.253150939941406 14.941864013671875 14.554275512695312
        14.212471008300781 14.06597900390625 13.96221923828125 13.812675476074219 13.742485046386719 13.809623718261719
        13.88287353515625 13.791313171386719 13.449508666992188 12.894073486328125 12.311164855957031 11.899169921875
        11.795402526855469 11.880859375 11.96630859375 12.0517578125 12.228767395019531 12.503433227539062
        12.781150817871094 12.829978942871094 12.445449829101562 11.835075378417969 11.392562866210938 11.206398010253906
        11.078216552734375 10.943939208984375 10.858482360839844 10.815757751464844 10.678428649902344 10.443435668945312
        10.336616516113281 10.440383911132812 10.528884887695312 10.510574340820312 10.504470825195312 10.614334106445312
        10.861534118652344 10.959197998046875 10.654014587402344 10.220648765563965 10.129096984863281 10.483108520507812
        10.922576904296875 11.081268310546875 10.922576904296875 10.580764770507812 10.141304016113281 9.674369812011719
        9.289833068847656 9.097564697265625 9.204383850097656 9.521774291992188 9.756767272949219 9.94598388671875
        10.467849731445312 11.349830627441406 12.192146301269531 12.652976989746094 12.793357849121094 12.732322692871094
        12.344734191894531 11.676383972167969 11.120941162109375 10.879852294921875 10.879852294921875 11.124000549316406
        11.444442749023438 11.496322631835938 11.209449768066406 10.754722595214844 10.437332153320312 10.574661254882812
        11.084320068359375 11.517684936523438 11.624504089355469 11.505477905273438 11.233863830566406 10.892059326171875
        10.605178833007812 10.403762817382812 10.238960266113281 10.06500244140625 9.860527038574219 9.570602416992188
        9.170814514160156 8.783226013183594 8.572647094726562 8.630638122558594 8.85952091217041 9.183021545410156
        9.518722534179688 9.506515502929688 9.173866271972656 8.999908447265625 9.027374267578125 8.911407470703125
        8.493301391601562 7.9866943359375 7.815788269042969 8.148445129394531 8.587905883789062 8.618423461914062
        8.172859191894531 7.6143646240234375 7.4190521240234375 7.5868988037109375 7.626579284667969 7.4129486083984375
        7.290870666503906 7.245094299316406 7.110809803009033 6.930755615234375 6.759849548339844 6.659141540527344
        6.695762634277344 6.765953063964844 6.732383728027344 6.5767364501953125 6.4058380126953125 6.299018859863281
        6.204414367675781 6.02740478515625 5.798515319824219 5.664237976074219 15.338600158691406 15.112762451171875
        15.161598205566406 15.433212280273438 15.683464050292969 15.735343933105469 15.594955444335938 15.213478088378906
        14.609207153320312 13.870658874511719 13.119903564453125 12.353889465332031 11.770988464355469 11.651969909667969
        12.033447265625 12.701805114746094 13.455612182617188 14.181953430175781 14.798423767089844 15.225685119628906
        15.503402709960938 15.704826354980469 15.768913269042969 15.546127319335938 15.121917724609375 14.841148376464844
        15.042572021484375 15.726188659667969 16.406753540039062 16.660057067871094 16.568496704101562 16.18396759033203
        15.655998229980469 15.356910705566406 15.186012268066406 14.899139404296875 14.581741333007812 14.246040344238281
        13.90118408203125 13.708915710449219 13.644828796386719 13.678398132324219 13.724174499511719 13.660087585449219
        13.434249877929688 13.086334228515625 12.671287536621094 12.253181457519531 11.978515625 11.89306640625
        11.9510498046875 12.152473449707031 12.421035766601562 12.582778930664062 12.622459411621094 12.512587547302246
        12.195198059082031 11.752677917480469 11.371192932128906 11.218605041503906 11.212501525878906 11.197242736816406
        11.069061279296875 10.837120056152344 10.516677856445312 10.177925109863281 10.04058837890625 10.184028625488281
        10.397659301757812 10.470901489257812 10.492263793945312 10.641807556152344 10.937835693359375 11.069061279296875
        10.748619079589844 10.266426086425781 10.150459289550781 10.547195434570312 11.099578857421875 11.377304077148438
        11.276588439941406 10.919525146484375 10.388504028320312 9.802543640136719 9.311195373535156 9.002960205078125
        8.966339111328125 9.173866271972656 9.375289916992188 9.546188354492188 10.04669189453125 11.053802490234375
        12.173835754394531 12.811668395996094 12.863548278808594 12.677391052246094 12.350837707519531 11.746574401855469
        11.069061279296875 10.779136657714844 11.029388427734375 11.532943725585938 11.761833190917969 11.484115600585938
        11.011077880859375 10.617385864257812 10.431228637695312 10.620437622070312 11.102630615234375 11.502426147460938
        11.615341186523438 11.545150756835938 11.349830627441406 11.029388427734375 10.690635681152344 10.455642700195312
        10.339668273925781 10.214546203613281 9.96124267578125 9.543136596679688 9.048736572265625 8.615371704101562
        8.398696899414062 8.502456665039062 8.804588317871094 9.131141662597656 9.497360229492188 9.631645202636719
        9.356971740722656 9.143348693847656 9.213539123535156 9.192176818847656 8.832054138183594 8.340705871582031
        8.178962707519531 8.493301391601562 8.859519958496094 8.761863708496094 8.294929504394531 7.824943542480469
        7.5991058349609375 7.6021575927734375 7.5716400146484375 7.437363147735596 7.358009338378906 7.309181213378906
        7.214576721191406 7.071136474609375 6.891082763671875 6.778160095214844 6.769004821777344 6.793418884277344
        6.750694274902344 6.634727478027344 6.5401153564453125 6.4912872314453125 6.3783721923828125 6.146430969238281
        5.89007568359375 5.679496765136719 15.439315795898438 15.283669471740723 15.265357971191406 15.390488624572754
        15.591903686523438 15.692619323730469 15.616317749023438 15.350807189941406 14.923553466796875 14.368110656738281
        13.699760437011719 12.918487548828125 12.207405090332031 11.871696472167969 12.0181884765625 12.512588500976562
        13.229774475097656 14.123970031738281 14.987640380859375 15.509506225585938 15.646842956542969 15.659049987792969
        15.692619323730469 15.573593139648438 15.207374572753906 14.838096618652344 14.883880615234375 15.402694702148438
        16.095458984375 16.586807250976562 16.718040466308594 16.519668579101562 16.095458984375 15.695671081542969
        15.359962463378906 15.060882568359375 14.728233337402344 14.203315734863281 13.638725280761719 13.400680541992188
        13.443406105041504 13.544114112854004 13.617355346679688 13.599044799804688 13.486129760742188 13.336585998535156
        13.126014709472656 12.778099060058594 12.378311157226562 12.0426025390625 11.868644714355469 11.960205078125
        12.274543762207031 12.561416625976562 12.637718200683594 12.451553344726562 12.106689453125 11.740470886230469
        11.410873413085938 11.227760314941406 11.227760314941406 11.337623596191406 11.319313049316406 11.041595458984375
        10.553298950195312 10.09857177734375 9.90936279296875 10.06805419921875 10.327461242675781 10.391555786132812
        10.364082336425781 10.544143676757812 10.904266357421875 11.056854248046875 10.751670837402344 10.272529602050781
        10.165718078613281 10.620437622070312 11.276588439941406 11.667228698730469 11.651969909667969 11.328468322753906
        10.754722595214844 10.04364013671875 9.402755737304688 8.926666259765625 8.703880310058594 8.792381286621094
        9.006011962890625 9.265419006347656 9.854423522949219 10.965301513671875 12.256233215332031 13.086334228515625
        13.156532287597656 12.765892028808594 12.317268371582031 11.801506042480469 11.172828674316406 10.858482360839844
        11.233863830566406 11.871696472167969 11.9571533203125 11.365089416503906 10.757774353027344 10.495315551757812
        10.486160278320312 10.650962829589844 10.956146240234375 11.285743713378906 11.508529663085938 11.603134155273438
        11.514633178710938 11.166725158691406 10.690635681152344 10.354927062988281 10.263374328613281 10.184028625488281
        9.848320007324219 9.341712951660156 8.859519958496094 8.487197875976562 8.349861145019531 8.536026000976562
        8.954132080078125 9.353919982910156 9.643852233886719 9.768974304199219 9.588912963867188 9.347816467285156
        9.323402404785156 9.295936584472656 9.054840087890625 8.713035583496094 8.584854125976562 8.767967224121094
        8.914459228515625 8.679466247558594 8.273567199707031 7.9775390625 7.806632995605469 7.678459167480469
        7.5106048583984375 7.309181213378906 7.181007385253906 7.129127025604248 7.095550060272217 7.010101318359375
        6.875823974609375 6.820884704589844 6.823936462402344 6.750694274902344 6.628623962402344 6.5706329345703125
        6.6133575439453125 6.680503845214844 6.5919952392578125 6.295967102050781 5.96026611328125 5.703910827636719
        15.546127319335938 15.369117736816406 15.271461486816406 15.286720275878906 15.475936889648438 15.710929870605469
        15.802482604980469 15.686515808105469 15.378280639648438 14.902191162109375 14.279609680175781 13.541060447692871
        12.793357849121094 12.244026184082031 12.070068359375 12.262336730957031 12.854393005371094 13.849296569824219
        14.938811302185059 15.640739440917969 15.829948425292969 15.753654479980469 15.735343933105469 15.778068542480469
        15.677360534667969 15.411849975585938 15.247047424316406 15.393539428710938 15.91845703125 16.580703735351562
        16.913360595703125 16.834007263183594 16.605117797851562 16.23279571533203 15.759757995605469 15.387435913085938
        14.944915771484375 14.288764953613281 13.705863952636719 13.544113159179688 13.623466491699219 13.644828796386719
        13.550216674804688 13.406784057617188 13.290809631347656 13.318275451660156 13.370155334472656 13.196205139160156
        12.817771911621094 12.396621704101562 12.082275390625 12.0731201171875 12.427138328552246 12.878814697265625
        13.019196510314941 12.750633239746094 12.277595520019531 11.810661315917969 11.432235717773438 11.206398010253906
        11.154518127441406 11.273536682128906 11.401718139648438 11.291847229003906 10.818809509277344 10.232856750488281
        9.92156982421875 10.02838134765625 10.309150695800781 10.385452270507812 10.321357727050781 10.483108520507812
        10.831016540527344 10.953094482421875 10.684532165527344 10.315254211425781 10.281684875488281 10.760826110839844
        11.447494506835938 11.859489440917969 11.853385925292969 11.575668334960938 11.087372779846191 10.370185852050781
        9.616377830505371 9.002960205078125 8.652000427246094 8.676414489746094 8.966339111328125 9.356971740722656
        9.98260498046875 11.008026123046875 12.201301574707031 13.049713134765625 13.190101623535156 12.677391052246094
        12.0120849609375 11.523788452148438 11.160621643066406 11.084320068359375 11.496322631835938 11.978515625
        11.9083251953125 11.322364807128906 10.831016540527344 10.718101501464844 10.754722595214844 10.776084899902344
        10.953094482421875 11.395614624023438 11.847282409667969 11.9632568359375 11.651969909667969 11.069061279296875
        10.458694458007812 10.10467529296875 10.11077880859375 10.174873352050781 9.87579345703125 9.292884826660156
        8.801536560058594 8.557388305664062 8.557388305664062 8.774070739746094 9.121978759765625 9.460739135742188
        9.677421569824219 9.738456726074219 9.634696960449219 9.433273315429688 9.302040100097656 9.210487365722656
        9.063995361328125 8.890045166015625 8.816795349121094 8.880889892578125 8.859519958496094 8.566543579101562
        8.182014465332031 7.9256591796875 7.766960144042969 7.6021575927734375 7.4007415771484375 7.162696838378906
        6.973480224609375 6.909393310546875 6.927703857421875 6.924652099609375 6.869712829589844 6.875823974609375
        6.881927967071533 6.732383728027344 6.5675811767578125 6.5401153564453125 6.625572204589844 6.741539001464844
        6.747642517089844 6.5462188720703125 6.2349324226379395 6.018249034881592 15.448472023010254 15.271461486816406
        15.237892150878906 15.359962463378906 15.659049987792969 15.9794921875 16.17176055908203 16.16565704345703
        15.89404296875 15.366065979003906 14.722129821777344 14.07818603515625 13.36710262298584 12.601089477539062
        12.0670166015625 11.9449462890625 12.378311157226562 13.385421752929688 14.606155395507812 15.546127319335938
        16.0069580078125 16.071044921875 16.071044921875 16.22974395751953 16.34876251220703 16.15955352783203
        15.759757995605469 15.497299194335938 15.704826354980469 16.32740020751953 16.879791259765625 17.014068603515625
        16.901153564453125 16.696678161621094 16.31824493408203 15.808586120605469 15.131081581115723 14.349800109863281
        13.773002624511719 13.635673522949219 13.699760437011719 13.660087585449219 13.458663940429688 13.205360412597656
        13.028350830078125 13.104644775390625 13.379318237304688 13.449508666992188 13.165687561035156 12.735374450683594
        12.387466430664062 12.323371887207031 12.616348266601562 13.049713134765625 13.229774475097656 12.967315673828125
        12.448501586914062 11.96630859375 11.566513061523438 11.273536682128906 11.133155822753906 11.111785888671875
        11.212501525878906 11.30405330657959 11.093475341796875 10.553298950195312 10.08636474609375 10.04974365234375
        10.321357727050781 10.483108520507812 10.428176879882812 10.480056762695312 10.718101501464844 10.791343688964844
        10.568557739257812 10.342720031738281 10.409866333007812 10.834068298339844 11.444442749023438 11.871696472167969
        11.91748046875 11.734367370605469 11.368141174316406 10.705894470214844 9.92156982421875 9.265419006347656
        8.877838134765625 8.856468200683594 9.146400451660156 9.588912963867188 10.193183898925781 11.072113037109375
        12.057861328125 12.775047302246094 12.900177001953125 12.411880493164062 11.719108581542969 11.285743713378906
        11.185035705566406 11.362037658691406 11.697746276855469 11.874755859375 11.645866394042969 11.203346252441406
        10.922576904296875 10.889007568359375 10.876800537109375 10.788291931152344 10.895111083984375 11.416976928710938
        12.0670166015625 12.277595520019531 11.835075378417969 11.078216552734375 10.437332153320312 10.11993408203125
        10.138252258300781 10.229804992675781 9.98260498046875 9.399703979492188 8.874786376953125 8.658103942871094
        8.716087341308594 8.929718017578125 9.189125061035156 9.457687377929688 9.683525085449219 9.772026062011719
        9.704887390136719 9.537033081054688 9.356971740722656 9.222694396972656 9.115875244140625 9.051788330078125
        9.048736572265625 9.060943603515625 8.938873291015625 8.581801414489746 8.142341613769531 7.843254566192627
        7.687614440917969 7.5624847412109375 7.4312591552734375 7.263404846191406 7.055877685546875 6.903289794921875
        6.888031005859375 6.961273193359375 6.994842529296875 6.985687255859375 6.994842529296875 6.909393310546875
        6.775108337402344 6.769004821777344 6.848350524902344 6.860557556152344 6.796470642089844 6.704917907714844
        6.5462188720703125 6.366157531738281 15.622421264648438 15.369117736816406 15.384384155273438 15.591903686523438
        15.8970947265625 16.16565704345703 16.33655548095703 16.449478149414062 16.36402130126953 15.8970947265625
        15.170753479003906 14.444412231445312 13.739433288574219 12.952056884765625 12.274543762207031 11.972412109375
        12.298957824707031 13.336585998535156 14.664145469665527 15.634635925292969 16.15039825439453 16.394546508789062
        16.495254516601562 16.629539489746094 16.714988708496094 16.507461547851562 16.0069580078125 15.518661499023438
        15.417953491210938 15.771965026855469 16.373184204101562 16.922515869140625 17.212440490722656 17.184974670410156
        16.791282653808594 16.12293243408203 15.335548400878906 14.551223754882812 13.93780517578125 13.748588562011719
        13.843193054199219 13.89508056640625 13.699760437011719 13.412887573242188 13.20535945892334 13.187049865722656
        13.412887573242188 13.608200073242188 13.464767456054688 13.083282470703125 12.762840270996094 12.686546325683594
        12.860496520996094 13.165687561035156 13.354896545410156 13.147377014160156 12.604141235351562 12.0609130859375
        11.651969909667969 11.362037658691406 11.145362854003906 10.971405029296875 10.916473388671875 11.044647216796875
        11.145362854003906 10.904266357421875 10.409866333007812 10.11383056640625 10.217597961425781 10.480056762695312
        10.562454223632812 10.516677856445312 10.534988403320312 10.513626098632812 10.351875305175781 10.257269859313965
        10.422073364257812 10.800498962402344 11.252174377441406 11.630607604980469 11.835075378417969 11.871696472167969
        11.621444702148438 10.940887451171875 10.129096984863281 9.497360229492188 9.091461181640625 8.981597900390625
        9.241004943847656 9.781181335449219 10.464797973632812 11.194190979003906 11.865592956542969 12.350837707519531
        12.475967407226562 12.182991027832031 11.679435729980469 11.30405330657959 11.255226135253906 11.493270874023438
        11.801506042480469 11.835075378417969 11.526840209960938 11.175880432128906 11.041595458984375 11.075164794921875
        11.072113037109375 11.008026123046875 11.145362854003906 11.694694519042969 12.390518188476562 12.659080505371094
        12.204353332519531 11.349830627441406 10.641807556152344 10.321357727050781 10.272529602050781 10.202339172363281
        9.866630554199219 9.344764709472656 8.917510986328125 8.761863708496094 8.82900333404541 8.972442626953125
        9.134193420410156 9.356971740722656 9.607223510742188 9.765922546386719 9.756767272949219 9.610275268554688
        9.408859252929688 9.231849670410156 9.137245178222656 9.146400451660156 9.207435607910156 9.213539123535156
        9.076202392578125 8.786277770996094 8.398696899414062 8.0355224609375 7.815788269042969 7.751701354980469
        7.705924987792969 7.5258636474609375 7.202369689941406 6.930755615234375 6.869712829589844 6.942962646484375
        6.961273193359375 6.912445068359375 6.955169677734375 7.028411865234375 6.982635498046875 6.994842529296875
        7.104705810546875 7.052825927734375 6.836143493652344 6.659141540527344 6.5126495361328125 6.366157531738281
        15.89404296875 15.533920288085938 15.497298240661621 15.680412292480469 15.91845703125 16.1015625
        16.20532989501953 16.422012329101562 16.571548461914062 16.26026153564453 15.540023803710938 14.749595642089844
        14.07513427734375 13.528854370117188 13.058868408203125 12.735374450683594 12.845237731933594 13.620407104492188
        14.752647399902344 15.610213279724121 16.034423828125 16.31214141845703 16.519668579101562 16.629539489746094
        16.653953552246094 16.455581665039062 15.961181640625 15.460678100585938 15.326393127441406 15.613266944885254
        16.23279571533203 16.992706298828125 17.493209838867188 17.459640502929688 16.986602783203125 16.28162384033203
        15.567489624023438 14.917449951171875 14.313179016113281 13.96832275390625 14.02935791015625 14.175849914550781
        13.98052978515625 13.580734252929688 13.293861389160156 13.171791076660156 13.309120178222656 13.586837768554688
        13.614303588867188 13.345741271972656 13.055816650390625 12.942901611328125 13.022247314453125 13.248085021972656
        13.461715698242188 13.336585998535156 12.753684997558594 12.0853271484375 11.639762878417969 11.413925170898438
        11.258277893066406 11.047698974609375 10.797447204589844 10.705894470214844 10.879852294921875 11.020233154296875
        10.773033142089844 10.324409484863281 10.126045227050781 10.278633117675781 10.486160278320312 10.480056762695312
        10.330513000488281 10.214546203613281 10.187080383300781 10.281684875488281 10.541091918945312 10.849327087402344
        11.072113037109375 11.294898986816406 11.621444702148438 11.9510498046875 11.960205078125 11.371192932128906
        10.501419067382812 9.814750671386719 9.360023498535156 9.137245178222656 9.262367248535156 9.762870788574219
        10.470901489257812 11.157569885253906 11.658073425292969 11.9388427734375 12.0426025390625 11.9510498046875
        11.700798034667969 11.438339233398438 11.368141174316406 11.563461303710938 11.810661315917969 11.804557800292969
        11.514633178710938 11.224708557128906 11.139259338378906 11.175880432128906 11.163673400878906 11.130104064941406
        11.316261291503906 11.868644714355469 12.540054321289062 12.836082458496094 12.451553344726562 11.618392944335938
        10.843223571777344 10.428176879882812 10.309150695800781 10.180976867675781 9.860527038574219 9.442428588867188
        9.143348693847656 9.042633056640625 9.036529541015625 9.018218994140625 9.021270751953125 9.143348693847656
        9.375289916992188 9.579757690429688 9.659111022949219 9.588912963867188 9.396652221679688 9.176918029785156
        9.033477783203125 9.018218994140625 9.076202392578125 9.079254150390625 8.984649658203125 8.838157653808594
        8.621475219726562 8.255256652832031 7.8798828125 7.770011901855469 7.779167175292969 7.5685882568359375
        7.168800354003906 6.921600341796875 6.939910888671875 7.034515380859375 6.988739013671875 6.863609313964844
        6.903289794921875 7.052825927734375 7.113861083984375 7.147438049316406 7.242042541503906 7.211524963378906
        6.952117443084717 6.665245056152344 6.4790802001953125 6.332588195800781 16.00390625 15.649893760681152
        15.573593139648438 15.680412292480469 15.793327331542969 15.799430847167969 15.839103698730469 16.19007110595703
        16.644798278808594 16.608169555664062 16.0374755859375 15.359962463378906 14.774009704589844 14.355902671813965
        14.03546142578125 13.687553405761719 13.483078002929688 13.763847351074219 14.529861450195312 15.286720275878906
        15.634635925292969 15.775016784667969 15.955078125 16.12598419189453 16.25720977783203 16.30908966064453
        16.12903594970703 15.839103698730469 15.790275573730469 16.058837890625 16.537979125976562 17.072052001953125
        17.404708862304688 17.343666076660156 16.943878173828125 16.437271118164062 15.924560546875 15.411849975585938
        14.822837829589844 14.304023742675781 14.209419250488281 14.368110656738281 14.233833312988281 13.779106140136719
        13.403732299804688 13.272499084472656 13.418991088867188 13.696708679199219 13.797416687011719 13.629570007324219
        13.400680541992188 13.235877990722656 13.183998107910156 13.235877990722656 13.354896545410156 13.333534240722656
        12.903228759765625 12.247077941894531 11.780143737792969 11.563461303710938 11.426132202148438 11.203346252441406
        10.858482360839844 10.556350708007812 10.531936645507812 10.757774353027344 10.864585876464844 10.623497009277344
        10.245063781738281 10.06500244140625 10.122993469238281 10.205390930175781 10.153511047363281 10.10162353515625
        10.251167297363281 10.559403419494629 10.840171813964844 10.965301513671875 10.959197998046875 11.038543701171875
        11.398666381835938 11.9205322265625 12.213508605957031 11.880859375 11.069061279296875 10.303047180175781
        9.762870788574219 9.430221557617188 9.356971740722656 9.659111022949219 10.306098937988281 11.059906005859375
        11.575668334960938 11.746574401855469 11.746574401855469 11.691642761230469 11.578720092773438 11.441390991210938
        11.398666381835938 11.514633178710938 11.655021667480469 11.639762878417969 11.438339233398438 11.200294494628906
        11.066009521484375 11.059906005859375 11.163673400878906 11.371192932128906 11.713005065917969 12.192146301269531
        12.662132263183594 12.863548278808594 12.659080505371094 12.0975341796875 11.407821655273438 10.846275329589844
        10.531936645507812 10.327461242675781 10.04669189453125 9.692680358886719 9.421066284179688 9.286781311035156
        9.176918029785156 8.981597900390625 8.825950622558594 8.865623474121094 9.060943603515625 9.274574279785156
        9.390548706054688 9.384445190429688 9.265419006347656 9.076202392578125 8.926666259765625 8.877838134765625
        8.893096923828125 8.899200439453125 8.865623474121094 8.801536560058594 8.648948669433594 8.297981262207031
        7.873779296875 7.681510925292969 7.644889831542969 7.4007415771484375 7.031463623046875 6.918548583984375
        7.089447021484375 7.238990783691406 7.141334533691406 6.982635498046875 6.988739013671875 7.061981201171875
        7.086395263671875 7.083343505859375 7.119964599609375 7.132179260253906 6.970428466796875 6.689659118652344
        6.4729766845703125 6.308174133300781 16.071043014526367 15.808586120605469 15.683464050292969 15.619369506835938
        15.527816772460938 15.405746459960938 15.463729858398438 15.9276123046875 16.657005310058594 17.029327392578125
        16.760765075683594 16.20838165283203 15.640739440917969 15.140235900878906 14.722128868103027 14.261299133300781
        13.757743835449219 13.568527221679688 14.00189208984375 14.731284141540527 15.112762451171875 15.128028869628906
        15.204322814941406 15.482040405273438 15.863517761230469 16.28467559814453 16.568496704101562 16.605117797851562
        16.629539489746094 16.782127380371094 16.925567626953125 16.968292236328125 16.949981689453125 16.873687744140625
        16.690574645996094 16.443374633789062 16.1015625 15.625480651855469 15.106658935546875 14.670249938964844
        14.459671020507812 14.499343872070312 14.477981567382812 14.130073547363281 13.644828796386719 13.330482482910156
        13.312171936035156 13.507492065429688 13.666191101074219 13.632620811462402 13.504440307617188 13.376266479492188
        13.202308654785156 13.019195556640625 12.964263916015625 12.988677978515625 12.820823669433594 12.414932250976562
        12.03955078125 11.798454284667969 11.600082397460938 11.322364807128906 10.956146240234375 10.596024513244629
        10.382400512695312 10.388503074645996 10.547195434570312 10.596023559570312 10.425125122070312 10.184028625488281
        10.05279541015625 10.05889892578125 10.159614562988281 10.324409484863281 10.611282348632812 10.989715576171875
        11.246070861816406 11.273536682128906 11.133155822753906 11.069061279296875 11.331520080566406 11.868644714355469
        12.317268371582031 12.237922668457031 11.618392944335938 10.876800537109375 10.266426086425781 9.830009460449219
        9.628593444824219 9.781181335449219 10.296943664550781 11.014129638671875 11.575668334960938 11.740470886230469
        11.670280456542969 11.560409545898438 11.471908569335938 11.438339233398438 11.468856811523438 11.584823608398438
        11.709953308105469 11.740470886230469 11.639762878417969 11.429183959960938 11.221656799316406 11.194190979003906
        11.420028686523438 11.804557800292969 12.143318176269531 12.375259399414062 12.573623657226562 12.759788513183594
        12.817770957946777 12.576675415039062 11.96630859375 11.221656799316406 10.672325134277344 10.379348754882812
        10.187080383300781 9.97039794921875 9.744560241699219 9.564498901367188 9.387496948242188 9.125038146972656
        8.871726989746094 8.774070739746094 8.853416442871094 8.987701416015625 9.033477783203125 9.060943603515625
        9.112823486328125 9.082305908203125 8.984649658203125 8.902252197265625 8.847312927246094 8.816795349121094
        8.767967224121094 8.667259216308594 8.505508422851562 8.273567199707031 8.056884765625 8.001953125
        7.9866943359375 7.702873229980469 7.339698791503906 7.333595275878906 7.5655364990234375 7.632682800292969
        7.4404144287109375 7.284767150878906 7.245094299316406 7.138282775878906 7.022308349609375 6.964324951171875
        6.958221912384033 6.991790771484375 6.958221435546875 6.796471118927002 6.5950469970703125 6.4210968017578125
        16.1015625 15.8726806640625 15.765861511230469 15.598007202148438 15.311134338378906 15.158546447753906
        15.347755432128906 15.8818359375 16.614273071289062 17.188026428222656 17.285682678222656 16.879791259765625
        16.21448516845703 15.570541381835938 15.079193115234375 14.612258911132812 14.07513427734375 13.666191101074219
        13.745536804199219 14.288764953613281 14.752647399902344 14.844200134277344 14.871665954589844 15.158546447753906
        15.677360534667969 16.24500274658203 16.754661560058594 17.093414306640625 17.184974670410156 17.126991271972656
        16.992706298828125 16.757713317871094 16.605117797851562 16.629539489746094 16.611221313476562 16.431167602539062
        16.16260528564453 15.793327331542969 15.378280639648438 14.999847412109375 14.688560485839844 14.523757934570312
        14.462722778320312 14.246040344238281 13.754692077636719 13.211463928222656 12.906280517578125 12.945953369140625
        13.193153381347656 13.388473510742188 13.446456909179688 13.394577026367188 13.174842834472656 12.869651794433594
        12.735374450683594 12.741477966308594 12.634666442871094 12.366096496582031 12.1036376953125 11.8961181640625
        11.719108581542969 11.508529663085938 11.236915588378906 10.892059326171875 10.562454223632812 10.336616516113281
        10.287788391113281 10.364082336425781 10.437332153320312 10.473953247070312 10.458694458007812 10.373245239257812
        10.394607543945312 10.626548767089844 10.965301513671875 11.294898986816406 11.484115600585938 11.490219116210938
        11.325416564941406 11.142311096191406 11.246071815490723 11.673332214355469 12.143318176269531 12.289802551269531
        11.960205078125 11.325416564941406 10.675376892089844 10.196235656738281 9.95208740234375 9.98565673828125
        10.306098937988281 10.885955810546875 11.444442749023438 11.664176940917969 11.600082397460938 11.481063842773438
        11.444442749023438 11.490219116210938 11.587875366210938 11.743522644042969 11.91748046875 12.0059814453125
        11.935791015625 11.719108581542969 11.462753295898438 11.352882385253906 11.496322631835938 11.795402526855469
        12.021240234375 12.03955078125 12.03955078125 12.207405090332031 12.485122680664062 12.552261352539062
        12.149421691894531 11.420028686523438 10.708946228027344 10.260322570800781 10.03753662109375 9.87579345703125
        9.698783874511719 9.527877807617188 9.344764709472656 9.137245178222656 8.917510986328125 8.706932067871094
        8.584854125976562 8.581802368164062 8.557388305664062 8.536026000976562 8.652000427246094 8.789329528808594
        8.789329528808594 8.731346130371094 8.706932067871094 8.691673278808594 8.655052185058594 8.557388305664062
        8.423110961914062 8.328498840332031 8.301033020019531 8.313240051269531 8.209480285644531 7.812736511230469
        7.3732757568359375 7.333595275878906 7.596054553985596 7.687614440917969 7.5167083740234375 7.351905822753906
        7.254249572753906 7.119964599609375 6.970428466796875 6.820884704589844 6.704917907714844 6.750694751739502
        6.866661071777344 6.860557556152344 6.732383728027344 6.6133575439453125 16.22669219970703 15.9703369140625
        15.829947471618652 15.662102699279785 15.363014221191406 15.228736877441406 15.469833374023438 15.973388671875
        16.556289672851562 17.053743362426758 17.322303771972656 17.123939514160156 16.443374633789062 15.686515808105469
        15.179908752441406 14.880828857421875 14.587845802307129 14.288764953613281 14.130074501037598 14.221626281738281
        14.474929809570312 14.624473571777344 14.645834922790527 14.789267539978027 15.182961463928223 15.655998229980469
        16.16260528564453 16.742454528808594 17.047637939453125 17.032379150390625 16.974395751953125 16.800437927246094
        16.592910766601562 16.534927368164062 16.467788696289062 16.26941680908203 16.0496826171875 15.814689636230469
        15.521713256835938 15.155494689941406 14.783164978027344 14.496292114257812 14.307075500488281 14.11175537109375
        13.696708679199219 13.104644775390625 12.707908630371094 12.701805114746094 12.961212158203125 13.257240295410156
        13.431198120117188 13.452560424804688 13.266395568847656 12.949004173278809 12.738425254821777 12.646873474121094
        12.451553344726562 12.137214660644531 11.899169921875 11.767936706542969 11.691642761230469 11.651969909667969
        11.612289428710938 11.395614624023438 11.008026123046875 10.675376892089844 10.501419067382812 10.446487426757812
        10.440383911132812 10.501419067382812 10.669273376464844 10.736412048339844 10.666221618652344 10.757774353027344
        11.059906005859375 11.368141174316406 11.505477905273438 11.514633178710938 11.441390991210938 11.316261291503906
        11.337623596191406 11.615341186523438 12.009033203125 12.234870910644531 12.094482421875 11.590927124023438
        10.943939208984375 10.412918090820312 10.126045227050781 10.08636474609375 10.306098937988281 10.809654235839844
        11.355934143066406 11.618392944335938 11.593978881835938 11.468856811523438 11.377304077148438 11.368141174316406
        11.468856811523438 11.694694519042969 11.960205078125 12.11279296875 12.070068359375 11.850334167480469
        11.551254272460938 11.322364807128906 11.297950744628906 11.447494506835938 11.572616577148438 11.511581420898438
        11.453598022460938 11.661125183105469 12.0731201171875 12.295906066894531 12.0029296875 11.294898986816406
        10.528884887695312 10.01922607421875 9.817802429199219 9.750663757324219 9.695733070373535 9.622489929199219
        9.509567260742188 9.356971740722656 9.179969787597656 8.957183837890625 8.673362731933594 8.401748657226562
        8.209480285644531 8.1148681640625 8.154548645019531 8.267463684082031 8.355964660644531 8.398696899414062
        8.468887329101562 8.569595336914062 8.597061157226562 8.453628540039062 8.203376770019531 8.105712890625
        8.178962707519531 8.169807434082031 7.94091796875 7.5167083740234375 7.150489807128906 7.177955627441406
        7.4800872802734375 7.5807952880859375 7.3946380615234375 7.229835510253906 7.150489807128906 7.049774169921875
        6.942962646484375 6.802574157714844 6.637779235839844 6.634727478027344 6.805625915527344 6.912445068359375
        6.884979248046875 6.817832946777344 16.409805297851562 16.16870880126953 15.970337867736816 15.842155456542969
        15.652946472167969 15.521713256835938 15.643791198730469 15.9764404296875 16.400650024414062 16.791282653808594
        17.062896728515625 17.035430908203125 16.556289672851562 15.866569519042969 15.356910705566406 15.128028869628906
        14.969329833984375 14.734336853027344 14.484085083007812 14.264350891113281 14.160591125488281 14.151436805725098
        14.154488563537598 14.267402648925781 14.630577087402344 15.097503662109375 15.509506225585938 16.0618896484375
        16.702781677246094 17.126991271972656 17.316200256347656 17.267372131347656 17.023223876953125 16.840110778808594
        16.675315856933594 16.391494750976562 16.0618896484375 15.805534362792969 15.604110717773438 15.359962463378906
        15.070037841796875 14.816734313964844 14.575637817382812 14.291816711425781 13.89202880859375 13.388473510742188
        13.031402587890625 12.997833251953125 13.193153381347656 13.452560424804688 13.632621765136719 13.638725280761719
        13.428146362304688 13.022247314453125 12.591934204101562 12.305060386657715 12.0731201171875 11.822868347167969
        11.670280456542969 11.691642761230469 11.755729675292969 11.749626159667969 11.734367370605469 11.667228698730469
        11.471908569335938 11.236915588378906 11.004974365234375 10.776084899902344 10.586868286132812 10.501419067382812
        10.654014587402344 10.885955810546875 10.901214599609375 10.879852294921875 11.093475341796875 11.362037658691406
        11.441390991210938 11.429183959960938 11.429183959960938 11.413925170898438 11.471908569335938 11.676383972167969
        11.9296875 12.0731201171875 11.9937744140625 11.700798034667969 11.239967346191406 10.742515563964844
        10.434280395507812 10.357978820800781 10.480056762695312 10.849327087402344 11.346778869628906 11.639762878417969
        11.624504089355469 11.444442749023438 11.243019104003906 11.148414611816406 11.236915588378906 11.474960327148438
        11.770988464355469 11.9876708984375 11.9998779296875 11.752677917480469 11.334571838378906 10.904266357421875
        10.71505069732666 10.895111083984375 11.218605041503906 11.328468322753906 11.279640197753906 11.444442749023438
        11.874755859375 12.173835754394531 11.9144287109375 11.243019104003906 10.592971801757812 10.168769836425781
        9.99786376953125 9.92767333984375 9.805595397949219 9.622489929199219 9.469894409179688 9.375289916992188
        9.222694396972656 8.957183837890625 8.609268188476562 8.264411926269531 8.0599365234375 8.05078125
        8.0965576171875 8.069091796875 8.0538330078125 8.151496887207031 8.331550598144531 8.536026000976562
        8.639793395996094 8.505508422851562 8.224739074707031 8.178962707519531 8.423110961914062 8.520767211914062
        8.267463684082031 7.840202331542969 7.5960540771484375 7.730339050292969 7.9622802734375 7.91650390625
        7.684562683105469 7.5472259521484375 7.4556732177734375 7.257301330566406 7.089447021484375 7.007049560546875
        6.851402282714844 6.723228454589844 6.784263610839844 6.897186279296875 6.933807373046875 6.942962646484375
        16.461685180664062 16.23279571533203 16.0435791015625 15.9886474609375 15.9031982421875 15.732292175292969
        15.671257019042969 15.836051940917969 16.18396759033203 16.568496704101562 16.843162536621094 16.891998291015625
        16.632591247558594 16.19617462158203 15.747550964355469 15.375227928161621 15.079193115234375 14.783164978027344
        14.481033325195312 14.194160461425781 13.92254638671875 13.718070983886719 13.653984069824219 13.843193054199219
        14.310127258300781 14.920501708984375 15.323341369628906 15.506454467773438 15.765862464904785 16.18396759033203
        16.708885192871094 17.197181701660156 17.361976623535156 17.258216857910156 17.072052001953125 16.711936950683594
        16.21143341064453 15.842155456542969 15.686515808105469 15.552230834960938 15.341651916503906 15.106658935546875
        14.871665954589844 14.615310668945312 14.224678039550781 13.715019226074219 13.306068420410156 13.180946350097656
        13.309120178222656 13.516647338867188 13.657035827636719 13.629570007324219 13.449508666992188 13.116852760314941
        12.646873474121094 12.182991027832031 11.847282409667969 11.651969909667969 11.651969909667969 11.804557800292969
        11.9052734375 11.755729675292969 11.520736694335938 11.435287475585938 11.502426147460938 11.554306030273438
        11.413925170898438 11.096527099609375 10.815757751464844 10.626548767089844 10.602127075195312 10.782188415527344
        10.922576904296875 11.011077880859375 11.203346252441406 11.365089416503906 11.328468322753906 11.243019104003906
        11.273536682128906 11.395614624023438 11.609237670898438 11.850334167480469 11.9754638671875 11.978515625
        11.911376953125 11.819816589355469 11.630607604980469 11.243019104003906 10.827964782714844 10.611282348632812
        10.617385864257812 10.879852294921875 11.313209533691406 11.587875366210938 11.508529663085938 11.246070861816406
        10.983612060546875 10.834068298339844 10.898162841796875 11.175880432128906 11.575668334960938 11.91748046875
        11.960205078125 11.658073425292969 11.172828674316406 10.702842712402344 10.547195434570312 10.837120056152344
        11.346778869628906 11.651969909667969 11.676383972167969 11.740470886230469 12.0181884765625 12.244026184082031
        12.0303955078125 11.420028686523438 10.818809509277344 10.425125122070312 10.208442687988281 10.03753662109375
        9.765922546386719 9.451583862304688 9.280677795410156 9.225746154785156 9.094512939453125 8.838157653808594
        8.548233032226562 8.325447082519531 8.221687316894531 8.261360168457031 8.291877746582031 8.1209716796875
        7.885986328125 7.849357604980469 8.0050048828125 8.243049621582031 8.410903930664062 8.340705871582031
        8.133186340332031 8.160652160644531 8.520767211914062 8.764915466308594 8.511611938476562 8.01416015625
        7.751701354980469 7.827995300292969 7.9287109375 7.806632995605469 7.5930023193359375 7.4678802490234375
        7.370216369628906 7.214576721191406 7.098602294921875 7.003997802734375 6.820884704589844 6.628623962402344
        6.6164093017578125 6.689659118652344 6.741539001464844 6.772056579589844 16.36096954345703 16.1046142578125
        15.936767578125 15.9306640625 15.94287109375 15.826896667480469 15.698722839355469 15.768913269042969
        16.083251953125 16.489151000976562 16.760765075683594 16.794334411621094 16.620376586914062 16.373184204101562
        16.0496826171875 15.518661499023438 14.926605224609375 14.468826293945312 14.123970031738281 13.89813232421875
        13.815727233886719 13.760795593261719 13.794364929199219 14.09039306640625 14.636680603027344 15.344703674316406
        15.936767578125 16.19922637939453 16.21753692626953 16.22669219970703 16.571548461914062 17.191078186035156
        17.587814331054688 17.609176635742188 17.551193237304688 17.374191284179688 16.888946533203125 16.29993438720703
        15.9520263671875 15.756706237792969 15.533920288085938 15.277565002441406 15.082244873046875 14.975433349609375
        14.624473571777344 14.00494384765625 13.498336791992188 13.296913146972656 13.403732299804688 13.620407104492188
        13.721122741699219 13.657035827636719 13.513595581054688 13.306068420410156 12.921539306640625 12.353889465332031
        11.798454284667969 11.481063842773438 11.511581420898438 11.731315612792969 11.8778076171875 11.740470886230469
        11.420028686523438 11.203346252441406 11.236915588378906 11.435287475585938 11.542098999023438 11.377304077148438
        11.062957763671875 10.773033142089844 10.602127075195312 10.647911071777344 10.827964782714844 11.059906005859375
        11.346778869628906 11.474960327148438 11.337623596191406 11.172828674316406 11.236915588378906 11.505477905273438
        11.810661315917969 12.0120849609375 12.03955078125 11.9571533203125 11.8839111328125 11.8839111328125
        11.850334167480469 11.560409545898438 11.062957763671875 10.690635681152344 10.602127075195312 10.788291931152344
        11.133155822753906 11.340675354003906 11.203346252441406 10.870689392089844 10.592971801757812 10.495315551757812
        10.690635681152344 11.157569885253906 11.709953308105469 12.094482421875 12.106689453125 11.786247253417969
        11.383407592773438 11.078216552734375 10.986663818359375 11.163673400878906 11.514633178710938 11.828971862792969
        11.9327392578125 11.9083251953125 11.9693603515625 12.0914306640625 12.0029296875 11.603134155273438
        11.124000549316406 10.821861267089844 10.626548767089844 10.318305969238281 9.814750671386719 9.356971740722656
        9.125038146972656 8.990753173828125 8.774070739746094 8.481094360351562 8.270515441894531 8.200325012207031
        8.212532043457031 8.252204895019531 8.249153137207031 8.093505859375 7.815788269042969 7.647941589355469
        7.773063659667969 8.081298828125 8.343757629394531 8.377334594726562 8.224739074707031 8.224739074707031
        8.545181274414062 8.847312927246094 8.706932067871094 8.209480285644531 7.910400390625 7.98974609375
        8.06298828125 7.8951416015625 7.678459167480469 7.5411224365234375 7.4587249755859375 7.4037933349609375
        7.309181213378906 7.077239990234375 6.747642517089844 6.5370635986328125 6.5218048095703125 6.5614776611328125
        6.5828399658203125 6.6011505126953125 16.16565704345703 15.863517761230469 15.747550964355469 15.805534362792969
        15.869621276855469 15.814689636230469 15.680412292480469 15.695671081542969 15.994751930236816 16.428115844726562
        16.711936950683594 16.748558044433594 16.571548461914062 16.34571075439453 16.107666015625 15.582748413085938
        14.789268493652344 14.139228820800781 13.769950866699219 13.638725280761719 13.782157897949219 14.032410621643066
        14.261299133300781 14.624473571777344 15.066986083984375 15.442367553710938 15.756706237792969 16.0924072265625
        16.30908966064453 16.29993438720703 16.30908966064453 16.544082641601562 16.895050048828125 17.297889709472656
        17.73735809326172 17.97235107421875 17.76177215576172 17.172767639160156 16.608169555664062 16.20532989501953
        15.848258972167969 15.512557983398438 15.329444885253906 15.289772033691406 14.996795654296875 14.426101684570312
        13.93475341796875 13.657035827636719 13.678398132324219 13.840141296386719 13.89202880859375 13.849296569824219
        13.794364929199219 13.660087585449219 13.278602600097656 12.591934204101562 11.9052734375 11.508529663085938
        11.450546264648438 11.597030639648438 11.755729675292969 11.755729675292969 11.569564819335938 11.294898986816406
        11.081268310546875 11.102630615234375 11.343727111816406 11.493270874023438 11.355934143066406 11.047698974609375
        10.739463806152344 10.574661254882812 10.660117149353027 10.974456787109375 11.401718139648438 11.645866394042969
        11.529891967773438 11.328468322753906 11.377304077148438 11.639762878417969 11.8778076171875 11.996826171875
        12.0059814453125 11.9052734375 11.786247253417969 11.798454284667969 11.850334167480469 11.661125183105469
        11.197242736816406 10.745567321777344 10.559402465820312 10.669273376464844 10.940887451171875 11.072113037109375
        10.892059326171875 10.553298950195312 10.364082336425781 10.492263793945312 10.959197998046875 11.563461303710938
        12.045654296875 12.253181457519531 12.1158447265625 11.719108581542969 11.297950744628906 11.044647216796875
        10.986663818359375 11.087371826171875 11.297950744628906 11.572616577148438 11.761833190917969 11.801506042480469
        11.832022666931152 11.9327392578125 11.96630859375 11.728263854980469 11.276588439941406 10.904266357421875
        10.696739196777344 10.354927062988281 9.747611999511719 9.192176818847656 8.941925048828125 8.835105895996094
        8.679466247558594 8.465835571289062 8.319343566894531 8.297981262207031 8.337654113769531 8.346809387207031
        8.328498840332031 8.261360168457031 8.0965576171875 7.9500732421875 8.0263671875 8.285774230957031
        8.514663696289062 8.572647094726562 8.481094360351562 8.459732055664062 8.655052185058594 8.905303955078125
        8.807640075683594 8.301033020019531 7.9287109375 7.96533203125 7.983642578125 7.715080261230469
        7.4007415771484375 7.220680236816406 7.138282775878906 7.092498779296875 6.967376708984375 6.683555603027344
        6.3966827392578125 6.2959675788879395 6.347846984863281 6.3722686767578125 6.341743469238281 6.350898742675781
        15.9154052734375 15.723136901855469 15.698722839355469 15.802482604980469 15.89404296875 15.857414245605469
        15.729240417480469 15.723136901855469 15.961181640625 16.33045196533203 16.623435974121094 16.684471130371094
        16.483047485351562 16.24195098876953 16.01611328125 15.555282592773438 14.740440368652344 13.94696044921875
        13.492233276367188 13.400680541992188 13.705863952636719 14.319282531738281 14.935760498046875 15.466781616210938
        15.848258972167969 15.997802734375 16.0069580078125 16.01611328125 16.04052734375 16.0924072265625
        16.22974395751953 16.425064086914062 16.708885192871094 17.151405334472656 17.65190887451172 18.05474853515625
        18.21344757080078 17.89605712890625 17.139198303222656 16.440322875976562 16.010009765625 15.695671081542969
        15.573593139648438 15.576644897460938 15.289772033691406 14.691612243652344 14.178901672363281 13.95001220703125
        13.97137451171875 14.07818603515625 14.11785888671875 14.127021789550781 14.154487609863281 14.023253440856934
        13.534957885742188 12.768943786621094 12.0853271484375 11.688591003417969 11.535995483398438 11.542098999023438
        11.624504089355469 11.676383972167969 11.633659362792969 11.435287475585938 11.099578857421875 10.885955810546875
        11.020233154296875 11.328468322753906 11.450546264648438 11.322364807128906 11.078216552734375 10.815757751464844
        10.702842712402344 10.867637634277344 11.282691955566406 11.661125183105469 11.676383972167969 11.517684936523438
        11.517684936523438 11.639762878417969 11.786247253417969 11.94189453125 12.0426025390625 11.9571533203125
        11.725212097167969 11.630607604980469 11.682487487792969 11.615341186523438 11.297950744628906 10.864585876464844
        10.565505981445312 10.547195434570312 10.702842712402344 10.745567321777344 10.550247192382812 10.303046226501465
        10.278633117675781 10.571609497070312 11.072113037109375 11.578720092773438 11.9052734375 11.9296875
        11.639762878417969 11.224708557128906 10.919525146484375 10.861534118652344 11.001922607421875 11.212501525878906
        11.374252319335938 11.514633178710938 11.688591003417969 11.9205322265625 12.216560363769531 12.512588500976562
        12.631614685058594 12.369148254394531 11.734366416931152 11.148414611816406 10.931732177734375 10.773033142089844
        10.342720031738281 9.826957702636719 9.564498901367188 9.546188354492188 9.488204956054688 9.283729553222656
        9.048736572265625 8.972442626953125 9.039581298828125 9.082305908203125 8.972442626953125 8.771018981933594
        8.560440063476562 8.371223449707031 8.307136535644531 8.371223449707031 8.462783813476562 8.474990844726562
        8.401748657226562 8.395645141601562 8.590957641601562 8.813743591308594 8.719139099121094 8.276618957519531
        7.9622802734375 8.03857421875 8.0538330078125 7.702873229980469 7.330543518066406 7.1443867683410645
        7.031463623046875 6.909393310546875 6.698814392089844 6.4119415283203125 6.219673156738281 6.256294250488281
        6.3783721923828125 6.4027862548828125 6.317329406738281 6.259346008300781 15.936767578125 15.820793151855469
        15.829948425292969 15.9337158203125 16.0313720703125 15.96728515625 15.802482604980469 15.744499206542969
        15.866569519042969 16.1107177734375 16.33960723876953 16.379287719726562 16.21448516845703 16.0313720703125
        15.839103698730469 15.436264038085938 14.728233337402344 13.931702613830566 13.440353393554688 13.437301635742188
        13.92254638671875 14.758750915527344 15.594955444335938 16.18701934814453 16.495254516601562 16.541030883789062
        16.382339477539062 16.14734649658203 15.9947509765625 16.0283203125 16.24805450439453 16.458633422851562
        16.635643005371094 16.910308837890625 17.197181701660156 17.374191284179688 17.529830932617188 17.67021942138672
        17.62749481201172 17.398605346679688 17.007965087890625 16.449478149414062 16.0985107421875 15.99169921875
        15.637687683105469 14.944915771484375 14.407791137695312 14.242988586425781 14.270454406738281 14.304023742675781
        14.282661437988281 14.291816711425781 14.328437805175781 14.175849914550781 13.660087585449219 12.869651794433594
        12.207405090332031 11.850334167480469 11.676383972167969 11.597030639648438 11.593978881835938 11.612289428710938
        11.587875366210938 11.453598022460938 11.169776916503906 10.879852294921875 10.834068298339844 11.014129638671875
        11.191139221191406 11.255226135253906 11.236915588378906 11.096527099609375 10.873748779296875 10.794395446777344
        11.056854248046875 11.459701538085938 11.627555847167969 11.603134155273438 11.590927124023438 11.600082397460938
        11.703849792480469 11.9510498046875 12.131111145019531 12.0059814453125 11.630607604980469 11.340675354003906
        11.297950744628906 11.368141174316406 11.325416564941406 11.041595458984375 10.696739196777344 10.525833129882812
        10.553298950195312 10.589920043945312 10.507522583007812 10.415969848632812 10.486160278320312 10.763877868652344
        11.243019104003906 11.752677917480469 12.0059814453125 11.865592956542969 11.456649780273438 11.078216552734375
        10.965301513671875 11.157569885253906 11.468856811523438 11.636711120605469 11.609237670898438 11.548202514648438
        11.655021667480469 11.9937744140625 12.421035766601562 12.714012145996094 12.710960388183594 12.311164855957031
        11.630607604980469 11.047698974609375 10.855430603027344 10.913421630859375 10.812705993652344 10.446487426757812
        10.08636474609375 9.92156982421875 9.765922546386719 9.463790893554688 9.140296936035156 8.996856689453125
        9.033477783203125 9.042633056640625 8.911407470703125 8.670310974121094 8.429214477539062 8.243049621582031
        8.0751953125 7.94091796875 7.867668151855469 7.827995300292969 7.754753112792969 7.867668151855469
        8.325447082519531 8.697776794433594 8.606216430664062 8.221687316894531 8.020263671875 8.157600402832031
        8.276618957519531 8.0416259765625 7.650993347167969 7.370216369628906 7.132179260253906 6.878875732421875
        6.634727478027344 6.4241485595703125 6.326484680175781 6.3875274658203125 6.4638214111328125 6.3783721923828125
        6.192207336425781 6.152534484863281 16.13513946533203 16.022216796875 16.0191650390625 16.071044921875
        16.1015625 16.0069580078125 15.808586120605469 15.662101745605469 15.634635925292969 15.726188659667969
        15.829948425292969 15.854362487792969 15.817741394042969 15.814689636230469 15.738395690917969 15.408798217773438
        14.841148376464844 14.160591125488281 13.708914756774902 13.803520202636719 14.392532348632812 15.176856994628906
        15.89404296875 16.443374633789062 16.760765075683594 16.812644958496094 16.599014282226562 16.22974395751953
        15.948974609375 15.91845703125 16.0618896484375 16.19617462158203 16.27246856689453 16.391494750976562
        16.580703735351562 16.751609802246094 16.925567626953125 17.166664123535156 17.252113342285156 17.053741455078125
        16.727195739746094 16.412857055664062 16.22058868408203 16.11376953125 15.750602722167969 15.066986083984375
        14.490188598632812 14.261299133300781 14.261299133300781 14.325386047363281 14.392532348632812 14.471878051757812
        14.493240356445312 14.288764953613281 13.760795593261719 12.991729736328125 12.372200012207031 12.094482421875
        11.9510498046875 11.798454284667969 11.743522644042969 11.743522644042969 11.658073425292969 11.447494506835938
        11.151466369628906 10.873748779296875 10.711997985839844 10.675376892089844 10.708946228027344 10.797447204589844
        10.959197998046875 11.084320068359375 11.029388427734375 10.864585876464844 10.928680419921875 11.230812072753906
        11.478012084960938 11.603134155273438 11.642814636230469 11.633659362792969 11.740470886230469 12.0029296875
        12.125007629394531 11.911376953125 11.487167358398438 11.157569885253906 11.111785888671875 11.294898986816406
        11.468856811523438 11.371192932128906 11.026336669921875 10.727256774902344 10.629600524902344 10.635704040527344
        10.617385864257812 10.608230590820312 10.721153259277344 11.038543701171875 11.551254272460938 12.0303955078125
        12.167732238769531 11.9052734375 11.471908569335938 11.172828674316406 11.163673400878906 11.380355834960938
        11.633659362792969 11.734367370605469 11.642814636230469 11.539047241210938 11.700798034667969 12.237922668457031
        12.900177001953125 13.284706115722656 13.156532287597656 12.570571899414062 11.862541198730469 11.362037658691406
        11.203346252441406 11.313209533691406 11.423080444335938 11.243019104003906 10.788291931152344 10.327461242675781
        9.96734619140625 9.610275268554688 9.262368202209473 9.060943603515625 8.993804931640625 8.932769775390625
        8.804588317871094 8.642845153808594 8.532974243164062 8.438369750976562 8.288825988769531 8.151496887207031
        8.1209716796875 8.227790832519531 8.447525024414062 8.810691833496094 9.323402404785156 9.576705932617188
        9.216590881347656 8.627586364746094 8.410903930664062 8.551284790039062 8.648948669433594 8.523818969726562
        8.194221496582031 7.818840026855469 7.4221038818359375 7.046722412109375 6.772056579589844 6.5462188720703125
        6.4180450439453125 6.5004425048828125 6.659141540527344 6.5950469970703125 6.289863586425781 6.11285400390625
        16.36707305908203 16.21143341064453 16.0771484375 15.9459228515625 15.845207214355469 15.707878112792969
        15.512557983398438 15.335548400878906 15.268409729003906 15.344703674316406 15.457626342773438 15.579696655273438
        15.717033386230469 15.836051940917969 15.765861511230469 15.466780662536621 15.048675537109375 14.618362426757812
        14.337593078613281 14.453567504882812 14.902191162109375 15.402694702148438 15.9093017578125 16.443374633789062
        16.794334411621094 16.852317810058594 16.663108825683594 16.29688262939453 15.9794921875 15.8909912109375
        15.89404296875 15.848258972167969 15.802482604980469 15.842155456542969 16.0374755859375 16.31214141845703
        16.550186157226562 16.705833435058594 16.669212341308594 16.397598266601562 16.12293243408203 16.058837890625
        16.12903594970703 16.15039825439453 15.9093017578125 15.378280639648438 14.838096618652344 14.499343872070312
        14.362007141113281 14.401687622070312 14.545120239257812 14.682456970214844 14.639731407165527 14.334541320800781
        13.788261413574219 13.101593017578125 12.549209594726562 12.308113098144531 12.247077941894531 12.11279296875
        11.972412109375 11.911376953125 11.810661315917969 11.551254272460938 11.224708557128906 10.928680419921875
        10.690635681152344 10.504470825195312 10.388504028320312 10.379348754882812 10.553298950195312 10.831016540527344
        11.004974365234375 10.959197998046875 10.889007568359375 10.965301513671875 11.139259338378906 11.343727111816406
        11.560409545898438 11.758781433105469 11.9296875 12.02734375 11.9296875 11.661125183105469
        11.362037658691406 11.175881385803223 11.218605041503906 11.413925170898438 11.532943725585938 11.401718139648438
        11.078216552734375 10.797447204589844 10.739463806152344 10.837120056152344 10.898162841796875 10.962249755859375
        11.203346252441406 11.624504089355469 12.06396484375 12.356941223144531 12.356941223144531 12.0426025390625
        11.636711120605469 11.395614624023438 11.383407592773438 11.535995483398438 11.728263854980469 11.801506042480469
        11.706901550292969 11.639762878417969 11.865592956542969 12.430191040039062 13.086334228515625 13.440353393554688
        13.211463928222656 12.518692016601562 11.713005065917969 11.056854248046875 10.696739196777344 10.675376892089844
        10.876800537109375 10.928680419921875 10.528884887695312 9.857475280761719 9.338661193847656 9.051788330078125
        8.856468200683594 8.694725036621094 8.569595336914062 8.487197875976562 8.459732055664062 8.447525024414062
        8.389541625976562 8.276618957519531 8.151496887207031 8.0965576171875 8.145393371582031 8.279670715332031
        8.441421508789062 8.633689880371094 8.920562744140625 9.030426025390625 8.688621520996094 8.261360168457031
        8.206428527832031 8.395645141601562 8.484146118164062 8.404800415039062 8.236946105957031 7.9927978515625
        7.5563812255859375 7.095550537109375 6.814781188964844 6.659141540527344 6.6133575439453125 6.823936462402344
        7.092498779296875 6.912445068359375 6.332588195800781 5.93585205078125 16.425065994262695 16.1168212890625
        15.793327331542969 15.506454467773438 15.341651916503906 15.262306213378906 15.207374572753906 15.207374572753906
        15.311134338378906 15.494247436523438 15.683464050292969 15.9093017578125 16.0924072265625 16.06494140625
        15.787223815917969 15.439315795898438 15.210426330566406 15.128028869628906 15.182960510253906 15.396591186523438
        15.625480651855469 15.726188659667969 15.8787841796875 16.26026153564453 16.638694763183594 16.727195739746094
        16.534927368164062 16.20227813720703 15.9276123046875 15.817741394042969 15.738395690917969 15.585800170898438
        15.475936889648438 15.503402709960938 15.652946472167969 15.845207214355469 16.00390625 16.13513946533203
        16.29077911376953 16.394546508789062 16.26636505126953 16.095458984375 16.119873046875 16.14429473876953
        15.973388671875 15.628532409667969 15.213478088378906 14.831993103027344 14.630577087402344 14.636680603027344
        14.789267539978027 14.932708740234375 14.810630798339844 14.389479637145996 13.763847351074219 13.092437744140625
        12.567520141601562 12.302009582519531 12.289802551269531 12.292854309082031 12.186042785644531 12.0914306640625
        12.033447265625 11.859489440917969 11.539047241210938 11.194190979003906 10.898162841796875 10.657066345214844
        10.431228637695312 10.275581359863281 10.299995422363281 10.492263793945312 10.736412048339844 10.879852294921875
        10.876800537109375 10.852378845214844 10.946990966796875 11.197242736816406 11.560409545898438 11.9876708984375
        12.240974426269531 12.1158447265625 11.731315612792969 11.413925170898438 11.285743713378906 11.316261291503906
        11.487167358398438 11.676383972167969 11.661125183105469 11.450546264648438 11.209449768066406 11.062957763671875
        11.130104064941406 11.331520080566406 11.413925170898438 11.441390991210938 11.673332214355469 12.021240234375
        12.244026184082031 12.298957824707031 12.167732238769531 11.844230651855469 11.478012084960938 11.267433166503906
        11.276588439941406 11.423080444335938 11.569564819335938 11.575668334960938 11.474960327148438 11.514633178710938
        11.847282409667969 12.402725219726562 12.964263916015625 13.263343811035156 13.061920166015625 12.381362915039062
        11.566513061523438 10.959197998046875 10.672325134277344 10.693687438964844 10.980560302734375 11.209449768066406
        11.029388427734375 10.495315551757812 9.99786376953125 9.717094421386719 9.585861206054688 9.469894409179688
        9.323402404785156 9.189125061035156 9.103668212890625 9.012115478515625 8.853416442871094 8.670310974121094
        8.563491821289062 8.563491821289062 8.597061157226562 8.603164672851562 8.572647094726562 8.618423461914062
        8.789329528808594 8.700828552246094 8.301033020019531 8.1087646484375 8.334602355957031 8.587905883789062
        8.542129516601562 8.398696899414062 8.389541625976562 8.365119934082031 8.081298828125 7.638786315917969
        7.324440002441406 7.208473205566406 7.168800354003906 7.205421447753906 7.275611877441406 7.083343505859375
        6.683555603027344 6.320381164550781 16.24195098876953 15.833000183105469 15.478988647460938 15.247048377990723
        15.152442932128906 15.167701721191406 15.228736877441406 15.393539428710938 15.668205261230469 15.9093017578125
        16.04052734375 16.16565704345703 16.18091583251953 15.9398193359375 15.546127319335938 15.271461486816406
        15.268409729003906 15.512557029724121 15.936767578125 16.35486602783203 16.498306274414062 16.30603790283203
        16.0374755859375 16.0771484375 16.35791778564453 16.492202758789062 16.36096954345703 16.0985107421875
        15.881834983825684 15.762809753417969 15.659049987792969 15.543076515197754 15.500350952148438 15.585800170898438
        15.768913269042969 15.9459228515625 16.15345001220703 16.437271118164062 16.818748474121094 17.130043029785156
        16.919464111328125 16.33960723876953 16.0557861328125 15.948974609375 15.747550964355469 15.506454467773438
        15.295875549316406 15.124978065490723 15.076141357421875 15.140235900878906 15.262306213378906 15.265357971191406
        14.969329833984375 14.395584106445312 13.678398132324219 13.034454345703125 12.631614685058594 12.433242797851562
        12.375259399414062 12.347785949707031 12.265388488769531 12.182991027832031 12.198249816894531 12.164680480957031
        11.91748046875 11.560409545898438 11.249122619628906 10.974456787109375 10.666221618652344 10.415969848632812
        10.312202453613281 10.357978820800781 10.531936645507812 10.763877868652344 10.910369873046875 10.913421630859375
        10.968353271484375 11.252174377441406 11.716056823730469 12.219612121582031 12.500381469726562 12.329475402832031
        11.880859375 11.535995483398438 11.438339233398438 11.590927124023438 11.8839111328125 12.0242919921875
        11.816764831542969 11.478012084960938 11.252174377441406 11.151466369628906 11.163673400878906 11.285743713378906
        11.377304077148438 11.395614624023438 11.496322631835938 11.709953308105469 11.886962890625 11.9296875
        11.847282409667969 11.673332214355469 11.465805053710938 11.337623596191406 11.380355834960938 11.545150756835938
        11.700797080993652 11.734367370605469 11.703849792480469 11.780143737792969 12.0181884765625 12.353889465332031
        12.689598083496094 12.875762939453125 12.717063903808594 12.186042785644531 11.584823608398438 11.212501525878906
        11.011077880859375 10.885955810546875 10.873748779296875 10.870689392089844 10.730308532714844 10.403762817382812
        9.95513916015625 9.497360229492188 9.149452209472656 8.929718017578125 8.795433044433594 8.725242614746094
        8.670310974121094 8.587905883789062 8.447525024414062 8.285774230957031 8.191169738769531 8.236946105957031
        8.398696899414062 8.557388305664062 8.630638122558594 8.709983825683594 8.746604919433594 8.532974243164062
        8.191169738769531 8.145393371582031 8.401748657226562 8.462783813476562 8.297981262207031 8.294929504394531
        8.627586364746094 8.853416442871094 8.459732055664062 7.724235534667969 7.229835510253906 7.010101318359375
        6.964324951171875 7.010101318359375 7.016204833984375 6.906341552734375 6.674400329589844 6.363105773925781
        15.9215087890625 15.652946472167969 15.402694702148438 15.271461486816406 15.271461486816406 15.356910705566406
        15.436264038085938 15.576644897460938 15.866569519042969 16.14124298095703 16.19617462158203 16.0985107421875
        15.9276123046875 15.686515808105469 15.448472023010254 15.359962463378906 15.503402709960938 15.8818359375
        16.36707305908203 16.751609802246094 16.885894775390625 16.681419372558594 16.26636505126953 16.0130615234375
        16.071044921875 16.19007110595703 16.16260528564453 16.0313720703125 15.9459228515625 15.96728515625
        16.022216796875 16.0191650390625 16.0008544921875 16.1046142578125 16.32129669189453 16.495254516601562
        16.614273071289062 16.745506286621094 16.824851989746094 16.843162536621094 16.733299255371094 16.455581665039062
        16.16260528564453 15.854362487792969 15.485092163085938 15.167701721191406 15.024262428283691 15.100555419921875
        15.301979064941406 15.460678100585938 15.512557029724121 15.347755432128906 14.932708740234375 14.316230773925781
        13.577682495117188 12.988677978515625 12.762840270996094 12.720115661621094 12.659080505371094 12.509536743164062
        12.286750793457031 12.118896484375 12.143318176269531 12.213508605957031 12.0914306640625 11.774040222167969
        11.462753295898438 11.209449768066406 10.919525146484375 10.687583923339844 10.580764770507812 10.592971801757812
        10.708946228027344 10.870689392089844 10.989715576171875 11.026336669921875 11.136207580566406 11.514633178710938
        12.021240234375 12.411880493164062 12.585830688476562 12.506484985351562 12.234870910644531 11.9327392578125
        11.734367370605469 11.804557800292969 12.076171875 12.1219482421875 11.770988464355469 11.392562866210938
        11.243019104003906 11.249122619628906 11.322364807128906 11.447494506835938 11.572616577148438 11.645866394042969
        11.676383972167969 11.783195495605469 11.9876708984375 12.152473449707031 12.195198059082031 12.131111145019531
        11.9754638671875 11.832023620605469 11.838128089904785 11.9754638671875 12.0792236328125 12.0517578125
        11.9693603515625 11.9754638671875 12.152473449707031 12.469863891601562 12.729270935058594 12.759788513183594
        12.579727172851562 12.228767395019531 11.847282409667969 11.597030639648438 11.444442749023438 11.331520080566406
        11.285743713378906 11.291847229003906 11.313209533691406 11.252174377441406 10.992767333984375 10.574661254882812
        10.196235656738281 9.95513916015625 9.802543640136719 9.659111022949219 9.500411987304688 9.335609436035156
        9.131141662597656 8.865623474121094 8.658103942871094 8.645896911621094 8.847312927246094 9.134193420410156
        9.335609436035156 9.347816467285156 9.152503967285156 8.752708435058594 8.319343566894531 8.08740234375
        7.983642578125 7.834098815917969 7.690666198730469 7.898193359375 8.606216430664062 9.112823486328125
        8.658103942871094 7.773063659667969 7.260353088378906 7.104705810546875 7.153541564941406 7.220680236816406
        7.113861083984375 6.946014404296875 6.698814392089844 6.271553039550781 15.817741394042969 15.726188659667969
        15.625480651855469 15.613265991210938 15.689567565917969 15.735343933105469 15.698722839355469 15.726188659667969
        15.9886474609375 16.32434844970703 16.33960723876953 15.997802734375 15.643791198730469 15.482040405273438
        15.445419311523438 15.533920288085938 15.863517761230469 16.409805297851562 16.986602783203125 17.398605346679688
        17.551193237304688 17.419967651367188 16.998809814453125 16.537979125976562 16.409805297851562 16.483047485351562
        16.434219360351562 16.32129669189453 16.30298614501953 16.400650024414062 16.534927368164062 16.537979125976562
        16.464736938476562 16.541030883789062 16.730247497558594 16.830955505371094 16.843162536621094 16.818748474121094
        16.653953552246094 16.397598266601562 16.21448516845703 16.071044921875 15.857414245605469 15.530868530273438
        15.170753479003906 14.902190208435059 14.856407165527344 15.063934326171875 15.363014221191406 15.543075561523438
        15.524764060974121 15.298927307128906 14.871665954589844 14.270454406738281 13.531906127929688 12.897125244140625
        12.640769958496094 12.683494567871094 12.802513122558594 12.793357849121094 12.594985961914062 12.298957824707031
        12.137214660644531 12.137214660644531 12.0792236328125 11.810661315917969 11.487167358398438 11.261329650878906
        11.059906005859375 10.925628662109375 10.907318115234375 10.962249755859375 11.004974365234375 11.017181396484375
        11.047698974609375 11.154518127441406 11.416976928710938 11.8839111328125 12.317268371582031 12.485122680664062
        12.500381469726562 12.497329711914062 12.460708618164062 12.295906066894531 12.0181884765625 11.874755859375
        11.9632568359375 11.960205078125 11.709953308105469 11.493270874023438 11.499374389648438 11.569564819335938
        11.600082397460938 11.664176940917969 11.804557800292969 11.935791015625 11.9998779296875 12.1005859375
        12.302009582519531 12.491226196289062 12.561416625976562 12.482070922851562 12.317268371582031 12.164680480957031
        12.140266418457031 12.204353332519531 12.228767395019531 12.189094543457031 12.134162902832031 12.1097412109375
        12.228767395019531 12.512588500976562 12.747581481933594 12.826926231384277 12.799461364746094 12.610244750976562
        12.274543762207031 12.0059814453125 11.8961181640625 11.8839111328125 11.886962890625 11.856437683105469
        11.795402526855469 11.651969909667969 11.358985900878906 10.922576904296875 10.467849731445312 10.11993408203125
        9.93072509765625 9.860527038574219 9.781181335449219 9.579757690429688 9.234901428222656 8.856468200683594
        8.673362731933594 8.771018981933594 9.015167236328125 9.228797912597656 9.289833068847656 9.262367248535156
        9.131141662597656 8.725242614746094 8.175910949707031 7.818840026855469 7.6021575927734375 7.330543518066406
        7.168800354003906 7.4739837646484375 8.11181640625 8.487197875976562 8.212532043457031 7.806632995605469
        7.657096862792969 7.4739837646484375 7.367164611816406 7.312232971191406 6.988739013671875 6.631675720214844
        6.4577178955078125 6.167793273925781 15.8787841796875 15.924560546875 15.8787841796875 15.829948425292969
        15.826896667480469 15.762809753417969 15.646842956542969 15.604110717773438 15.805534362792969 16.18091583251953
        16.27246856689453 15.854362487792969 15.36606502532959 15.222633361816406 15.411849975585938 15.851310729980469
        16.479995727539062 17.126991271972656 17.62444305419922 17.86553192138672 17.81670379638672 17.618331909179688
        17.310096740722656 16.962188720703125 16.785179138183594 16.748558044433594 16.641746520996094 16.495254516601562
        16.425064086914062 16.492202758789062 16.653953552246094 16.739402770996094 16.745506286621094 16.824851989746094
        16.913360595703125 16.876739501953125 16.791282653808594 16.684471130371094 16.479995727539062 16.20838165283203
        15.96728515625 15.793327331542969 15.643791198730469 15.417953491210938 15.103607177734375 14.868614196777344
        14.865562438964844 15.103607177734375 15.421005249023438 15.607162475585938 15.591903686523438 15.353858947753906
        14.920501708984375 14.300971984863281 13.541061401367188 12.869651794433594 12.564468383789062 12.625511169433594
        12.839134216308594 12.955108642578125 12.918487548828125 12.695701599121094 12.384414672851562 12.189094543457031
        12.125007629394531 11.9266357421875 11.606185913085938 11.352882385253906 11.200294494628906 11.151466369628906
        11.194190979003906 11.246070861816406 11.209449768066406 11.078216552734375 11.020233154296875 11.172828674316406
        11.505477905273438 11.947998046875 12.274543762207031 12.311164855957031 12.228767395019531 12.237922668457031
        12.353889465332031 12.363044738769531 12.131111145019531 11.8778076171875 11.841178894042969 11.8839111328125
        11.844230651855469 11.822868347167969 11.8900146484375 11.9266357421875 11.911376953125 12.01513671875
        12.240974426269531 12.442398071289062 12.558364868164062 12.683494567871094 12.860496520996094 12.985626220703125
        12.933746337890625 12.732322692871094 12.564468383789062 12.527847290039062 12.610244750976562 12.717063903808594
        12.750633239746094 12.695701599121094 12.582778930664062 12.543106079101562 12.704856872558594 12.991729736328125
        13.196205139160156 13.229774475097656 13.132118225097656 12.897125244140625 12.537002563476562 12.213508605957031
        12.02734375 11.899169921875 11.755729675292969 11.600082397460938 11.413925170898438 11.166725158691406
        10.867637634277344 10.550247192382812 10.220649719238281 9.91241455078125 9.710990905761719 9.622489929199219
        9.491256713867188 9.189125061035156 8.807640075683594 8.563491821289062 8.557388305664062 8.691673278808594
        8.813743591308594 8.929718017578125 9.121978759765625 9.372238159179688 9.500411987304688 9.250160217285156
        8.673362731933594 8.230842590332031 8.03857421875 7.754753112792969 7.4251556396484375 7.4678802490234375
        7.827995300292969 7.971435546875 7.794425964355469 7.745597839355469 7.840202331542969 7.727287292480469
        7.6204681396484375 7.507553577423096 7.052825927734375 6.5706329345703125 6.353950500488281 6.195259094238281
        15.9947509765625 15.96728515625 15.802482604980469 15.686515808105469 15.689567565917969 15.698723793029785
        15.628532409667969 15.521713256835938 15.628532409667969 15.9947509765625 16.20838165283203 15.96728515625
        15.631584167480469 15.655998229980469 16.01611328125 16.522720336914062 17.062896728515625 17.542037963867188
        17.84416961669922 17.90826416015625 17.80754852294922 17.63359832763672 17.398605346679688 17.154457092285156
        16.986602783203125 16.891998291015625 16.809593200683594 16.693626403808594 16.617324829101562 16.684471130371094
        16.867576599121094 17.032379150390625 17.114776611328125 17.087310791015625 16.974395751953125 16.830955505371094
        16.678367614746094 16.525772094726562 16.418960571289062 16.29688262939453 16.1046142578125 15.900146484375
        15.723136901855469 15.527816772460938 15.277565002441406 15.082244873046875 15.076141357421875 15.271461486816406
        15.524765014648438 15.674308776855469 15.665153503417969 15.433212280273438 14.987640380859375 14.349801063537598
        13.626518249511719 13.055816650390625 12.762840270996094 12.695701599121094 12.750633239746094 12.836082458496094
        12.912384033203125 12.906280517578125 12.732322692871094 12.488174438476562 12.390518188476562 12.259284973144531
        11.9510498046875 11.645866394042969 11.435287475585938 11.328468322753906 11.291847229003906 11.236915588378906
        11.136207580566406 11.004974365234375 10.928680419921875 11.081268310546875 11.404769897460938 11.746574401855469
        12.009033203125 12.134162902832031 12.134162902832031 12.128059387207031 12.213508605957031 12.280647277832031
        12.161628723144531 11.972412109375 11.9144287109375 11.9876708984375 12.1158447265625 12.271492004394531
        12.424087524414062 12.506484985351562 12.518692016601562 12.558364868164062 12.692649841308594 12.881866455078125
        13.052764892578125 13.126014709472656 13.095489501953125 12.988677978515625 12.817771911621094 12.671287536621094
        12.637718200683594 12.689598083496094 12.756736755371094 12.802513122558594 12.759788513183594 12.582778930664062
        12.338630676269531 12.228767395019531 12.353889465332031 12.601089477539062 12.823875427246094 12.894073486328125
        12.738426208496094 12.421035766601562 12.0853271484375 11.804557800292969 11.551254272460938 11.288795471191406
        11.062958717346191 10.934783935546875 10.910369873046875 10.940887451171875 10.861534118652344 10.580764770507812
        10.229804992675781 9.91851806640625 9.668266296386719 9.433273315429688 9.207435607910156 8.975494384765625
        8.734397888183594 8.532974243164062 8.392593383789062 8.294929504394531 8.307136535644531 8.627586364746094
        9.210487365722656 9.619430541992188 9.585861206054688 9.225746154785156 8.764915466308594 8.508560180664062
        8.499404907226562 8.334602355957031 7.995849609375 7.91650390625 8.05078125 7.9775390625
        7.727287292480469 7.757804870605469 8.0843505859375 8.285774230957031 8.246101379394531 8.020263671875
        7.5838470458984375 7.086395263671875 6.677452087402344 6.360054016113281 15.762809753417969 15.646842956542969
        15.445419311523438 15.359962463378906 15.466781616210938 15.707879066467285 15.863517761230469 15.887940406799316
        16.0130615234375 16.36707305908203 16.666160583496094 16.583755493164062 16.376235961914062 16.428115844726562
        16.708885192871094 17.014068603515625 17.334510803222656 17.69158172607422 17.96319580078125 17.99066162109375
        17.85637664794922 17.71599578857422 17.532882690429688 17.288734436035156 17.093414306640625 17.026275634765625
        17.072052001953125 17.194129943847656 17.322303771972656 17.413864135742188 17.471847534179688 17.554244995117188
        17.67327117919922 17.71294403076172 17.532882690429688 17.227699279785156 16.943878173828125 16.711936950683594
        16.568496704101562 16.495254516601562 16.33350372314453 16.071044921875 15.799430847167969 15.558334350585938
        15.341651916503906 15.189064025878906 15.164649963378906 15.295875549316406 15.509506225585938 15.674308776855469
        15.713981628417969 15.558334350585938 15.173805236816406 14.557327270507812 13.846244812011719 13.260292053222656
        12.894073486328125 12.729270935058594 12.747581481933594 12.878814697265625 12.927642822265625 12.933746337890625
        12.952056884765625 12.872711181640625 12.759788513183594 12.634666442871094 12.417984008789062 12.158576965332031
        11.89306640625 11.633659362792969 11.416976928710938 11.188087463378906 10.989715576171875 10.892059326171875
        10.885955810546875 11.041595458984375 11.325416564941406 11.609237670898438 11.856437683105469 12.0975341796875
        12.207406044006348 12.164680480957031 12.155525207519531 12.271492004394531 12.353889465332031 12.326423645019531
        12.262336730957031 12.256234169006348 12.372200965881348 12.543106079101562 12.689598083496094 12.790306091308594
        12.775047302246094 12.649925231933594 12.616348266601562 12.814720153808594 13.104644775390625 13.196205139160156
        13.022247314453125 12.735374450683594 12.482070922851562 12.350838661193848 12.369148254394531 12.482070922851562
        12.598037719726562 12.619400024414062 12.485122680664062 12.250129699707031 12.0426025390625 11.9876708984375
        12.125007629394531 12.405776977539062 12.668235778808594 12.686546325683594 12.378311157226562 11.9327392578125
        11.590927124023438 11.401718139648438 11.233863830566406 11.050750732421875 10.977508544921875 11.056854248046875
        11.194190979003906 11.273536682128906 11.102630615234375 10.635704040527344 10.126045227050781 9.759819030761719
        9.482101440429688 9.198280334472656 8.954132080078125 8.807640075683594 8.645896911621094 8.374282836914062
        8.0721435546875 7.995849609375 8.365119934082031 9.094512939453125 9.756767272949219 9.839164733886719
        9.402755737304688 8.899200439453125 8.642845153808594 8.624534606933594 8.441421508789062 7.9256591796875
        7.4770355224609375 7.4343109130859375 7.623527526855469 7.5991058349609375 7.3976898193359375 7.5350189208984375
        8.105712890625 8.478042602539062 8.404800415039062 8.157600402832031 7.751701354980469 7.312232971191406
        6.949066162109375 6.637779235839844 15.396591186523438 15.390487670898438 15.421005249023438 15.549179077148438
        15.790275573730469 16.0618896484375 16.25110626220703 16.31824493408203 16.34876251220703 16.571548461914062
        16.888946533203125 16.971343994140625 16.965240478515625 17.139198303222656 17.377243041992188 17.548141479492188
        17.71294403076172 17.98760986328125 18.28058624267578 18.424026489257812 18.375198364257812 18.21649932861328
        18.015073776245117 17.79228973388672 17.606124877929688 17.548141479492188 17.63359832763672 17.79534149169922
        17.94183349609375 18.00897216796875 18.03338623046875 18.04254150390625 18.11883544921875 18.21955108642578
        18.10052490234375 17.70073699951172 17.291786193847656 17.004913330078125 16.757713317871094 16.510513305664062
        16.25415802001953 15.9459228515625 15.649895668029785 15.430160522460938 15.250099182128906 15.143287658691406
        15.173806190490723 15.326393127441406 15.509506225585938 15.646842956542969 15.640739440917969 15.466780662536621
        15.106658935546875 14.551223754882812 13.88287353515625 13.293861389160156 12.936798095703125 12.814720153808594
        12.939849853515625 13.162635803222656 13.199256896972656 13.092437744140625 13.046661376953125 13.006988525390625
        12.887969970703125 12.720115661621094 12.540054321289062 12.390518188476562 12.268440246582031 12.0426025390625
        11.667228698730469 11.246070861816406 10.931732177734375 10.776084899902344 10.791343688964844 10.989715576171875
        11.322364807128906 11.624504089355469 11.8839111328125 12.167732238769531 12.347785949707031 12.335579872131348
        12.262336730957031 12.332527160644531 12.488174438476562 12.515640258789062 12.387466430664062 12.234870910644531
        12.216560363769531 12.308113098144531 12.433242797851562 12.546157836914062 12.549209594726562 12.430191040039062
        12.417984008789062 12.643821716308594 12.945953369140625 13.019195556640625 12.787254333496094 12.454605102539062
        12.222663879394531 12.161628723144531 12.280647277832031 12.512588500976562 12.683494567871094 12.665184020996094
        12.530899047851562 12.427139282226562 12.366096496582031 12.338630676269531 12.427139282226562 12.689598083496094
        12.955108642578125 12.988677978515625 12.732322692871094 12.347785949707031 12.03955078125 11.856438636779785
        11.706901550292969 11.569564819335938 11.535995483398438 11.627555847167969 11.743522644042969 11.749626159667969
        11.514633178710938 11.041595458984375 10.528884887695312 10.129096984863281 9.860527038574219 9.674369812011719
        9.497360229492188 9.366127014160156 9.231849670410156 9.033477783203125 8.871726989746094 8.975494384765625
        9.503463745117188 10.150459289550781 10.400711059570312 10.132148742675781 9.732353210449219 9.503463745117188
        9.430221557617188 9.277626037597656 8.697776794433594 7.953125 7.626579284667969 7.6021575927734375
        7.4556732177734375 7.190162658691406 6.939910888671875 6.924652099609375 7.4221038818359375 8.03857421875
        8.276618957519531 8.200325012207031 7.904296875 7.641838073730469 7.5197601318359375 7.220680236816406
        15.665153503417969 15.775016784667969 15.826896667480469 15.9154052734375 16.04052734375 16.15039825439453
        16.27857208251953 16.455581665039062 16.550186157226562 16.684471130371094 16.983551025390625 17.255165100097656
        17.459640502929688 17.73735809326172 18.02728271484375 18.24396514892578 18.399612426757812 18.491165161132812
        18.546096801757812 18.607131958007812 18.616287231445312 18.506423950195312 18.34467315673828 18.17377471923828
        17.96319580078125 17.79839324951172 17.84111785888672 17.99676513671875 18.10968017578125 18.17377471923828
        18.22565460205078 18.23786163330078 18.21649932861328 18.21955108642578 18.17377471923828 17.90521240234375
        17.496261596679688 17.163612365722656 16.898101806640625 16.608169555664062 16.28772735595703 15.96728515625
        15.686515808105469 15.442367553710938 15.222633361816406 15.103607177734375 15.146339416503906 15.292823791503906
        15.439315795898438 15.536972999572754 15.521713256835938 15.350807189941406 15.033416748046875 14.584793090820312
        14.03851318359375 13.519699096679688 13.174842834472656 13.071075439453125 13.205360412597656 13.418991088867188
        13.510543823242188 13.376266479492188 13.107696533203125 12.863548278808594 12.665184020996094 12.506484985351562
        12.433242797851562 12.485122680664062 12.549209594726562 12.390518188476562 11.9510498046875 11.453598022460938
        11.133155822753906 10.950042724609375 10.931732177734375 11.099578857421875 11.407821655273438 11.725212097167969
        12.021240234375 12.311164855957031 12.479019165039062 12.442398071289062 12.323371887207031 12.277595520019531
        12.305062294006348 12.289802551269531 12.268440246582031 12.292854309082031 12.323371887207031 12.363044738769531
        12.436294555664062 12.518692016601562 12.521743774414062 12.463761329650879 12.497329711914062 12.665184020996094
        12.83913516998291 12.866600036621094 12.686546325683594 12.396621704101562 12.228767395019531 12.244026184082031
        12.387466430664062 12.555313110351562 12.628562927246094 12.616348266601562 12.643821716308594 12.689598083496094
        12.625511169433594 12.506484985351562 12.515640258789062 12.680441856384277 12.866600036621094 12.915435791015625
        12.787254333496094 12.491226196289062 12.134162902832031 11.810661315917969 11.563461303710938 11.423080444335938
        11.398666381835938 11.462753295898438 11.532943725585938 11.423080444335938 11.044647216796875 10.522781372070312
        10.02532958984375 9.628593444824219 9.347816467285156 9.179969787597656 9.067047119140625 8.932769775390625
        8.694725036621094 8.487197875976562 8.517715454101562 8.844261169433594 9.353919982910156 9.741508483886719
        9.768974304199219 9.588912963867188 9.616378784179688 9.790336608886719 9.634696960449219 8.990753173828125
        8.261360168457031 7.9744873046875 7.953125 7.693717956542969 7.235939025878906 6.958221435546875
        6.778160095214844 6.5858917236328125 6.787315368652344 7.4495697021484375 7.9683837890625 8.0599365234375
        7.873779296875 7.702873229980469 7.635734558105469 7.3763275146484375
      </DataArray>
    </PointData>
    <CellData>
    </CellData>
  </Piece>
  </ImageData>
</VTKFile>
