<?xml version="1.0"?>
<VTKFile type="ImageData" version="0.1" byte_order="LittleEndian" header_type="UInt32" compressor="vtkZLibDataCompressor">
  <ImageData WholeExtent="0 159 0 159 0 0" Origin="0 0 0" Spacing="1 1 1" Direction="1 0 0 0 1 0 0 0 1">
  <Piece Extent="0 159 0 159 0 0">
    <PointData Scalars="wind_speed">
      <DataArray type="Float32" Name="wind_speed" format="ascii" RangeMin="0.18921661376953125" RangeMax="27.83592987060547">
        14.86861515045166 15.524765968322754 16.476943969726562 17.74651336669922 18.521682739257812 17.337562561035156
        15.9154052734375 16.425064086914062 18.31720733642578 20.28260040283203 21.610153198242188 22.028257369995117
        21.97637939453125 21.68340301513672 21.15238380432129 19.84923553466797 17.92657470703125 17.481002807617188
        19.000823974609375 20.28565216064453 21.143226623535156 20.728172302246094 19.949951171875 20.282602310180664
        20.737329483032227 19.99267578125 18.20734405517578 15.268409729003906 12.973419189453125 13.431198120117188
        15.521713256835938 17.001861572265625 17.88690185546875 19.293800354003906 20.618301391601562 20.24903106689453
        19.150367736816406 18.35993194580078 17.398605346679688 14.172799110412598 7.9378662109375 3.8422775268554688
        5.157630920410156 8.722190856933594 11.267434120178223 11.474960327148438 9.082305908203125 4.3855133056640625
        2.1424026489257812 3.100677490234375 3.8483810424804688 6.262397766113281 11.587875366210938 14.383377075195312
        16.678367614746094 19.602033615112305 20.670188903808594 19.284645080566406 16.19617462158203 11.310157775878906
        7.6082611083984375 7.815788269042969 9.253211975097656 10.260322570800781 10.916473388671875 11.682487487792969
        13.028350830078125 14.432205200195312 14.932708740234375 14.795371055603027 14.569534301757812 13.046661376953125
        11.163673400878906 10.739463806152344 11.307106018066406 12.0975341796875 12.903228759765625 13.721121788024902
        14.627524375915527 15.088348388671875 13.785209655761719 11.270484924316406 10.547195434570312 11.786247253417969
        13.144325256347656 13.159584045410156 12.765891075134277 12.643821716308594 12.451554298400879 12.991729736328125
        13.162635803222656 10.147407531738281 8.670310974121094 10.278633117675781 11.841178894042969 12.225715637207031
        13.678398132324219 15.518661499023438 16.470840454101562 16.24195098876953 16.537979125976562 18.02117919921875
        19.009979248046875 18.875699996948242 18.979461669921875 19.116788864135742 18.521682739257812 17.011016845703125
        15.225685119628906 15.558333396911621 18.33551788330078 20.935699462890625 21.82988739013672 22.25714874267578
        21.95806884765625 20.761741638183594 19.68444061279297 19.43113899230957 19.483016967773438 18.875701904296875
        17.401657104492188 16.0130615234375 15.079194068908691 14.169746398925781 13.211463928222656 13.068022727966309
        14.05377197265625 15.259254455566406 15.442367553710938 15.088348388671875 15.033415794372559 14.856406211853027
        14.606155395507812 15.140235900878906 16.0557861328125 16.21753692626953 15.530868530273438 14.731285095214844
        14.00189208984375 13.501389503479004 13.605148315429688 14.163641929626465 14.807578086853027 15.491195678710938
        15.9306640625 15.649893760681152 15.033416748046875 14.816734313964844 14.865562438964844 14.792320251464844
        14.865561485290527 14.972380638122559 15.195167541503906 15.637687683105469 16.0557861328125 16.17176055908203
        16.15345001220703 16.19922637939453 16.31824493408203 16.666160583496094 14.725181579589844 15.353858947753906
        15.726188659667969 16.479995727539062 15.112762451171875 12.106688499450684 12.723167419433594 16.733299255371094
        20.496231079101562 22.07098388671875 22.867515563964844 23.538925170898438 23.328346252441406 22.34870147705078
        21.021148681640625 17.75566864013672 14.413894653320312 14.65194034576416 17.203285217285156 19.67223358154297
        21.46367073059082 22.440261840820312 21.99163818359375 21.005889892578125 20.3161678314209 19.82176971435547
        18.018129348754883 13.571579933166504 9.570602416992188 8.865623474121094 10.547194480895996 13.110748291015625
        15.433212280273438 17.133094787597656 18.390457153320312 18.741418838500977 18.25311851501465 17.76177406311035
        17.502365112304688 16.913360595703125 14.987640380859375 10.07110595703125 4.980621337890625 3.9063720703125
        4.922637939453125 5.8503947257995605 5.908386707305908 5.536056995391846 3.958251953125 3.5431976318359375
        4.510635852813721 5.288856506347656 10.315255165100098 13.87677001953125 15.073089599609375 16.431167602539062
        16.937774658203125 14.862510681152344 12.949005126953125 12.347784996032715 12.094483375549316 12.283699035644531
        12.469863891601562 12.332527160644531 11.700797080993652 11.36203670501709 12.439347267150879 13.96221923828125
        14.398635864257812 14.346748352050781 14.603103637695312 13.861503601074219 11.947999000549316 11.023285865783691
        11.658073425292969 12.836082458496094 14.03851318359375 14.828941345214844 15.137184143066406 13.96527099609375
        11.056854248046875 9.869682312011719 11.108734130859375 12.939849853515625 13.88592529296875 13.846244812011719
        13.834036827087402 13.815727233886719 13.751641273498535 14.065978050231934 12.973419189453125 9.93072509765625
        9.198280334472656 10.437332153320312 12.045654296875 12.726219177246094 13.559371948242188 14.163643836975098
        14.853355407714844 15.875732421875 17.221595764160156 19.080169677734375 20.648826599121094 20.2856502532959
        19.101531982421875 18.655967712402344 18.463699340820312 17.86858367919922 17.66106414794922 18.25922203063965
        19.620346069335938 20.691551208496094 21.005889892578125 21.546066284179688 21.417892456054688 20.273447036743164
        19.214454650878906 19.037445068359375 19.394515991210938 19.159523010253906 18.06085205078125 16.75771141052246
        15.048675537109375 13.303016662597656 13.064971923828125 13.733329772949219 13.89202880859375 13.760794639587402
        13.95306396484375 14.386428833007812 14.676353454589844 14.914399147033691 15.472885131835938 16.30298614501953
        16.815696716308594 16.635643005371094 15.851311683654785 14.676353454589844 13.568527221679688 12.836082458496094
        12.576675415039062 12.881866455078125 13.693656921386719 14.807579040527344 15.698722839355469 15.823844909667969
        15.445419311523438 15.079193115234375 14.893035888671875 15.076141357421875 15.555283546447754 15.99169921875
        16.30908966064453 16.745506286621094 17.163612365722656 17.331457138061523 17.166662216186523 16.898101806640625
        16.913360595703125 17.148353576660156 15.94287109375 16.669212341308594 16.647850036621094 15.060882568359375
        11.270484924316406 10.205389976501465 13.724174499511719 18.921478271484375 22.30292510986328 22.531814575195312
        22.348703384399414 22.669153213500977 22.25714874267578 21.008941650390625 19.064910888671875 16.1168212890625
        14.505446434020996 14.395584106445312 15.396592140197754 18.09442138671875 21.146276473999023 23.270362854003906
        24.015012741088867 23.40464973449707 21.436203002929688 19.339576721191406 14.529861450195312 7.217628479003906
        4.0711669921875 3.7324142456054688 3.8514328002929688 6.4302520751953125 10.635704040527344 14.03546142578125
        16.01611328125 17.401657104492188 18.793296813964844 19.77294158935547 19.98046875 19.65087127685547
        18.576614379882812 16.30603790283203 12.408828735351562 6.6652445793151855 4.0986328125 6.323432922363281
        9.555343627929688 11.529891967773438 7.998900890350342 3.9063720703125 2.884002685546875 4.4190826416015625
        6.466873645782471 10.187080383300781 11.719107627868652 11.255226135253906 10.769981384277344 11.136207580566406
        12.378311157226562 14.072081565856934 14.874725341796875 14.374221801757812 14.502395629882812 15.002899169921875
        14.380325317382812 13.330482482910156 12.918487548828125 12.875762939453125 12.863548278808594 13.199256896972656
        14.02935791015625 14.194160461425781 12.735374450683594 11.471908569335938 11.844231605529785 12.961212158203125
        13.90118408203125 14.127020835876465 13.27554988861084 10.892059326171875 9.695732116699219 11.041595458984375
        13.080230712890625 14.502395629882812 14.535964965820312 14.597000122070312 15.234840393066406 15.176856994628906
        14.645835876464844 13.812675476074219 11.600082397460938 10.129096984863281 10.946991920471191 11.807608604431152
        12.854393005371094 13.87371826171875 13.92864990234375 12.942902565002441 13.849296569824219 16.626487731933594
        18.848228454589844 19.583724975585938 19.592880249023438 18.311105728149414 16.785179138183594 16.727195739746094
        17.621381759643555 18.539993286132812 19.321266174316406 19.168678283691406 19.052703857421875 19.544052124023438
        20.28260040283203 20.926544189453125 20.79836082458496 20.34973907470703 19.998779296875 19.98046875
        20.380264282226562 20.105588912963867 18.597978591918945 16.962190628051758 15.695671081542969 14.383377075195312
        13.519699096679688 13.440353393554688 13.580734252929688 13.577681541442871 13.89202880859375 14.569534301757812
        15.106657981872559 15.576645851135254 16.16260528564453 16.550186157226562 16.437271118164062 16.15039825439453
        15.732293128967285 15.002899169921875 14.435256004333496 13.92559814453125 13.107696533203125 12.717063903808594
        13.153480529785156 14.209419250488281 15.445419311523438 16.13208770751953 15.875732421875 15.237892150878906
        15.173805236816406 15.924560546875 16.70277976989746 17.078153610229492 17.285682678222656 17.523727416992188
        17.72209930419922 17.78008270263672 17.548141479492188 17.120880126953125 16.599014282226562 16.14734649658203
        15.649895668029785 16.18396759033203 15.527816772460938 12.158576965332031 9.768974304199219 10.831015586853027
        13.91949462890625 17.85332489013672 20.499282836914062 20.789209365844727 20.697654724121094 20.902130126953125
        20.33753204345703 17.83501434326172 15.713980674743652 15.848258972167969 16.443374633789062 15.472885131835938
        14.593947410583496 16.20532989501953 19.595930099487305 22.754600524902344 24.539932250976562 25.086212158203125
        23.7830753326416 21.115753173828125 16.0283203125 7.010101795196533 1.2482070922851562 1.016265869140625
        2.935882568359375 5.740531921386719 8.551284790039062 11.783195495605469 14.71297550201416 17.12394142150879
        19.525741577148438 21.414840698242188 22.19000816345215 21.95501708984375 20.972320556640625 19.62645721435547
        17.84416961669922 14.969329833984375 9.799492835998535 8.597060203552246 11.655021667480469 14.163641929626465
        11.062957763671875 5.047760009765625 2.166816473007202 2.963348627090454 3.7476727962493896 4.715110778808594
        6.811729431152344 7.5289154052734375 9.076202392578125 11.416976928710938 12.988677978515625 14.03851318359375
        14.944915771484375 14.880829811096191 14.914398193359375 15.240943908691406 15.070038795471191 14.621414184570312
        13.809623718261719 12.936798095703125 12.991729736328125 13.718071937561035 14.423050880432129 14.67635440826416
        14.191108703613281 13.211463928222656 12.598036766052246 12.695701599121094 12.134162902832031 11.041595458984375
        9.97344970703125 9.360024452209473 10.681480407714844 12.836082458496094 14.847250938415527 15.732292175292969
        15.399642944335938 15.860466003417969 16.834007263183594 16.35181427001953 14.786216735839844 12.402724266052246
        9.860527038574219 10.177925109863281 12.311164855957031 13.428146362304688 13.91949462890625 14.984588623046875
        15.500351905822754 14.255195617675781 14.575638771057129 16.898101806640625 18.41792106628418 18.05169677734375
        17.355873107910156 16.13513946533203 14.993743896484375 15.601058959960938 17.65801239013672 19.055755615234375
        18.762781143188477 18.482009887695312 19.431137084960938 19.67223358154297 18.878751754760742 18.713951110839844
        19.412826538085938 20.322275161743164 20.688499450683594 20.667137145996094 20.709861755371094 20.21851348876953
        19.211402893066406 18.472856521606445 17.621381759643555 16.391494750976562 15.308082580566406 14.801475524902344
        14.67940616607666 14.828941345214844 15.027313232421875 15.240943908691406 15.445419311523438 15.598007202148438
        15.729241371154785 15.677360534667969 15.509507179260254 15.488143920898438 15.591903686523438 15.686515808105469
        16.052734375 16.046630859375 14.923553466796875 13.797416687011719 13.705863952636719 14.291816711425781
        15.128028869628906 15.729241371154785 15.717033386230469 15.515609741210938 15.89404296875 16.730247497558594
        17.285682678222656 17.493209838867188 17.575607299804688 17.578659057617188 17.413864135742188 17.188026428222656
        17.007963180541992 16.44947624206543 15.271461486816406 14.215521812438965 11.615340232849121 12.741477012634277
        10.425125122070312 7.123023986816406 7.953125 10.394607543945312 13.049712181091309 15.967284202575684
        18.24396514892578 19.66613006591797 20.3192195892334 19.78514862060547 16.675317764282227 12.976470947265625
        13.141274452209473 15.094451904296875 15.881834983825684 14.774009704589844 14.130073547363281 15.414901733398438
        17.81670379638672 20.456558227539062 22.717979431152344 23.9906005859375 23.575546264648438 21.48808479309082
        18.814661026000977 13.025299072265625 7.068084716796875 6.140327453613281 7.345802307128906 8.722190856933594
        10.904266357421875 13.90728759765625 16.821800231933594 18.805505752563477 20.117799758911133 21.543014526367188
        22.68135643005371 22.81258201599121 22.17169952392578 21.58268928527832 20.636621475219727 19.306007385253906
        15.243995666503906 9.097563743591309 6.4882354736328125 6.900238037109375 7.147437572479248 3.1250991821289062
        1.2146377563476562 2.4903106689453125 3.030487060546875 1.3153456449508667 1.93792724609375 5.87481689453125
        9.216590881347656 11.484115600585938 13.226723670959473 14.697715759277344 16.0771484375 16.653953552246094
        16.617324829101562 16.495254516601562 16.629539489746094 16.748558044433594 16.617324829101562 16.434219360351562
        16.507461547851562 16.397598266601562 16.095458984375 15.91845703125 15.561386108398438 14.917449951171875
        14.316231727600098 13.96221923828125 12.115843772888184 9.851370811462402 9.262368202209473 10.272529602050781
        12.021240234375 13.650932312011719 15.103607177734375 15.723136901855469 16.14429473876953 17.337562561035156
        17.93572998046875 16.425064086914062 14.09649658203125 11.255226135253906 9.482101440429688 10.538040161132812
        12.750633239746094 14.178901672363281 15.002899169921875 15.921509742736816 16.19617462158203 15.622421264648438
        16.20227813720703 17.74346160888672 17.935728073120117 16.864524841308594 15.9093017578125 14.987640380859375
        14.792320251464844 16.14429473876953 18.35993194580078 19.052703857421875 17.74651336669922 17.86248016357422
        19.73021697998047 19.83092498779297 18.866539001464844 19.113739013671875 20.14832305908203 20.596939086914062
        19.7210636138916 18.814659118652344 18.717002868652344 18.973358154296875 19.595932006835938 19.7759952545166
        18.536941528320312 17.285682678222656 16.949981689453125 16.534927368164062 15.768913269042969 15.802483558654785
        16.28467559814453 16.226694107055664 15.659049987792969 15.219581604003906 15.085296630859375 15.124977111816406
        15.375228881835938 15.811637878417969 16.24195098876953 16.705833435058594 17.282630920410156 17.325355529785156
        16.33045196533203 15.002900123596191 14.209418296813965 13.93780517578125 13.97442626953125 14.404739379882812
        15.057830810546875 15.814689636230469 16.525772094726562 16.953033447265625 17.123939514160156 17.24295997619629
        17.096466064453125 16.714988708496094 16.26026153564453 15.744499206542969 15.262306213378906 14.371162414550781
        13.287757873535156 12.805564880371094 6.518753528594971 6.772056579589844 3.7293624877929688 3.042694091796875
        3.8575363159179688 6.1464314460754395 10.202339172363281 14.902191162109375 18.13715362548828 19.605085372924805
        20.218515396118164 17.70684051513672 11.719108581542969 10.138252258300781 12.363044738769531 14.127021789550781
        14.496293067932129 13.748588562011719 13.773002624511719 15.106658935546875 16.553237915039062 17.84111785888672
        19.312110900878906 20.673240661621094 21.335487365722656 21.16764259338379 19.9652099609375 18.05780029296875
        17.145299911499023 14.154487609863281 9.95208740234375 11.105682373046875 14.093443870544434 17.69463348388672
        20.364999771118164 21.164588928222656 20.618301391601562 20.18189239501953 20.838035583496094 22.016054153442383
        22.55012321472168 23.023162841796875 23.230690002441406 22.736289978027344 18.720054626464844 7.959228515625
        3.9490966796875 5.3346333503723145 6.289863586425781 4.858543395996094 2.5452423095703125 1.007110595703125
        2.6306991577148438 1.98065185546875 3.326514959335327 6.869712829589844 9.759819030761719 11.984619140625
        13.760796546936035 15.460678100585938 17.102569580078125 17.505416870117188 17.072052001953125 16.599014282226562
        16.696678161621094 17.374191284179688 18.29584503173828 18.720054626464844 18.811607360839844 18.613235473632812
        18.03948974609375 17.471847534179688 17.154457092285156 16.971345901489258 16.617324829101562 15.799430847167969
        13.379318237304688 11.139259338378906 10.666221618652344 11.682488441467285 12.964263916015625 14.212471008300781
        15.472884178161621 16.476943969726562 17.426071166992188 18.30194664001465 17.90521240234375 15.707877159118652
        13.403732299804688 10.855430603027344 9.466842651367188 10.452591896057129 12.613296508789062 14.426101684570312
        15.732292175292969 16.681419372558594 16.998809814453125 17.126991271972656 17.648855209350586 17.88385009765625
        16.687522888183594 15.012055397033691 14.04461669921875 13.87677001953125 14.395584106445312 15.866570472717285
        17.825857162475586 18.21344757080078 16.953033447265625 17.282630920410156 19.37315559387207 20.404678344726562
        20.493179321289062 20.13306427001953 19.193092346191406 18.10357666015625 17.032379150390625 16.739402770996094
        17.377243041992188 18.22565460205078 18.964202880859375 18.790245056152344 17.981504440307617 17.371131896972656
        16.696678161621094 16.12293243408203 16.16565704345703 16.885894775390625 17.441328048706055 17.224645614624023
        16.385391235351562 15.775016784667969 15.820793151855469 16.20227813720703 16.559341430664062 16.956085205078125
        17.398603439331055 17.71294403076172 17.88995361328125 17.90521240234375 17.374191284179688 16.0313720703125
        14.505446434020996 13.568526268005371 13.391525268554688 13.605148315429688 14.267402648925781 15.396591186523438
        16.14429473876953 16.13513946533203 16.0374755859375 16.00390625 15.820793151855469 15.472885131835938
        14.883881568908691 14.212471008300781 13.339637756347656 12.244026184082031 11.825921058654785 12.436294555664062
        3.079315185546875 2.2858352661132812 1.3122941255569458 2.02032470703125 1.5991668701171875 1.3367080688476562
        5.548264026641846 11.871696472167969 16.26941680908203 17.212440490722656 16.599014282226562 13.052765846252441
        8.905303955078125 9.274574279785156 11.676383972167969 13.754692077636719 14.957122802734375 15.393539428710938
        16.034423828125 17.200233459472656 18.07611083984375 18.491165161132812 19.345680236816406 20.682395935058594
        21.67119598388672 22.21137237548828 21.89093017578125 20.786155700683594 16.806541442871094 9.94598388671875
        9.387496948242188 12.353889465332031 15.485092163085938 19.391464233398438 22.07708740234375 22.13202667236328
        20.14527130126953 18.573562622070312 19.367042541503906 21.787160873413086 23.340551376342773 24.2133846282959
        24.912260055541992 24.17371368408203 21.86345672607422 12.1097412109375 4.4740142822265625 5.175941467285156
        5.887024402618408 5.059967041015625 4.196296691894531 1.97149658203125 0.5310211181640625 2.2400588989257812
        5.249183654785156 7.971435546875 9.701835632324219 11.770988464355469 13.800468444824219 15.243996620178223
        16.461685180664062 16.818748474121094 16.498306274414062 16.452529907226562 16.855369567871094 17.92962646484375
        19.379257202148438 19.998781204223633 19.962158203125 19.84923553466797 19.327367782592773 18.747520446777344
        18.903167724609375 18.857383728027344 17.73430633544922 15.457627296447754 12.0059814453125 10.946991920471191
        12.335578918457031 13.684501647949219 14.059874534606934 15.082243919372559 16.33350372314453 17.136146545410156
        17.441329956054688 17.419967651367188 16.995758056640625 15.619370460510254 13.306068420410156 10.190131187438965
        8.810691833496094 9.701835632324219 11.947998046875 14.322334289550781 16.1015625 17.148353576660156
        17.73125648498535 18.07916259765625 17.734304428100586 16.15345001220703 14.114806175231934 12.881866455078125
        12.549209594726562 12.601090431213379 13.104644775390625 14.358955383300781 16.12293243408203 16.470840454101562
        15.359962463378906 16.0008544921875 18.369089126586914 19.73021697998047 19.6417179107666 18.979461669921875
        18.41792106628418 18.604080200195312 18.796348571777344 18.396560668945312 17.98455810546875 17.88079833984375
        17.87163543701172 17.63359832763672 17.603073120117188 17.523727416992188 16.989654541015625 16.910308837890625
        17.551193237304688 17.86248016357422 17.545087814331055 17.444381713867188 17.50236701965332 17.441328048706055
        17.575607299804688 17.93878173828125 17.92047119140625 17.85332489013672 17.90216064453125 17.78923797607422
        17.65496063232422 17.66106414794922 17.319252014160156 16.29077911376953 15.021208763122559 14.206367492675781
        13.773001670837402 13.467819213867188 13.492233276367188 14.02630615234375 14.407791137695312 14.297920227050781
        14.246039390563965 14.419998168945312 14.63668155670166 14.539016723632812 13.98663330078125 13.327430725097656
        12.479018211364746 11.447495460510254 11.197242736816406 11.951050758361816 1.8341598510742188 0.3906402587890625
        0.3997955322265625 1.3306045532226562 1.3245010375976562 0.860618531703949 2.02947998046875 6.6438822746276855
        10.702842712402344 12.918487548828125 13.858452796936035 13.321327209472656 11.209449768066406 10.092467308044434
        11.819816589355469 14.648887634277344 17.035430908203125 18.753623962402344 20.108642578125 20.651878356933594
        20.532852172851562 20.654930114746094 21.39042854309082 21.93670654296875 22.04656982421875 22.037416458129883
        21.97332763671875 19.534896850585938 12.189094543457031 8.957183837890625 11.340675354003906 12.387467384338379
        13.745536804199219 16.733299255371094 18.945892333984375 18.14936065673828 17.407758712768555 18.34467315673828
        20.444351196289062 23.294776916503906 25.174720764160156 25.418867111206055 25.455490112304688 24.982450485229492
        24.002809524536133 18.848228454589844 8.301033973693848 4.4648590087890625 5.294959545135498 3.3509292602539062
        2.6490097045898438 3.3722991943359375 4.0955810546875 5.175941467285156 7.214576721191406 8.804588317871094
        8.575698852539062 10.129096984863281 13.058869361877441 14.755699157714844 15.097504615783691 15.842155456542969
        16.745506286621094 17.383346557617188 17.96624755859375 18.436233520507812 19.174781799316406 20.13916778564453
        20.715965270996094 20.777000427246094 20.526748657226562 19.9102783203125 19.031341552734375 17.474899291992188
        14.944915771484375 11.984619140625 10.528884887695312 12.213508605957031 14.590897560119629 15.353858947753906
        15.063934326171875 15.958130836486816 17.017120361328125 17.465744018554688 17.404708862304688 17.014068603515625
        16.898101806640625 16.489151000976562 13.818778991699219 9.665214538574219 8.621475219726562 9.704887390136719
        11.288795471191406 13.361000061035156 15.576645851135254 16.959136962890625 17.426071166992188 17.81975555419922
        17.74651336669922 16.20838165283203 14.459671020507812 13.711967468261719 13.141273498535156 12.75368595123291
        13.220619201660156 14.01715087890625 14.11785888671875 12.921539306640625 12.436293601989746 14.587844848632812
        17.108673095703125 16.916412353515625 15.582748413085938 16.34265899658203 18.680381774902344 20.621353149414062
        20.590835571289062 19.531845092773438 18.765830993652344 18.15546417236328 17.81365203857422 17.77703094482422
        17.68242835998535 17.71599578857422 18.03948974609375 18.16156768798828 17.73125457763672 16.882843017578125
        16.724143981933594 17.71294403076172 18.60407829284668 18.674278259277344 18.387405395507812 18.18292999267578
        17.94488525390625 17.69158172607422 17.383346557617188 16.959136962890625 16.708885192871094 16.635643005371094
        16.409805297851562 15.854361534118652 15.066986083984375 14.227729797363281 13.336585998535156 12.546156883239746
        12.186042785644531 12.244026184082031 12.421035766601562 12.723167419433594 13.183998107910156 13.666191101074219
        13.90728759765625 13.687553405761719 13.281654357910156 12.875762939453125 12.216560363769531 11.670281410217285
        11.682487487792969 12.179940223693848 1.025421142578125 0.854515016078949 0.796531617641449 1.580856204032898
        1.98370361328125 1.6663131713867188 0.7080307006835938 1.3641738891601562 4.980621337890625 9.595015525817871
        13.254188537597656 14.728233337402344 14.00494384765625 12.793357849121094 13.113800048828125 14.954071044921875
        17.114776611328125 18.768882751464844 19.354835510253906 18.726158142089844 18.561355590820312 19.6325626373291
        21.204261779785156 21.86650848388672 21.66814422607422 20.627464294433594 18.524734497070312 12.213508605957031
        7.736442565917969 10.10162353515625 12.259284973144531 12.082275390625 12.1158447265625 13.415939331054688
        13.052764892578125 13.000884056091309 16.0802001953125 20.06591796875 22.406692504882812 23.6762638092041
        24.924470901489258 25.257116317749023 25.522628784179688 26.12689971923828 25.522628784179688 23.62743377685547
        13.748588562011719 3.3875579833984375 2.2095413208007812 2.05694580078125 4.217658996582031 6.891082763671875
        8.609268188476562 9.466842651367188 10.617385864257812 10.333564758300781 7.5594329833984375 7.4861907958984375
        9.817802429199219 12.1158447265625 13.183998107910156 15.012053489685059 17.514572143554688 18.927581787109375
        19.473861694335938 19.418928146362305 19.223609924316406 19.989625930786133 21.137123107910156 21.420944213867188
        21.393476486206055 21.039459228515625 18.991668701171875 15.488143920898438 12.479019165039062 10.843223571777344
        11.456649780273438 13.473922729492188 15.243995666503906 15.460677146911621 15.305031776428223 16.034423828125
        16.846214294433594 17.142250061035156 17.126991271972656 16.974395751953125 17.065948486328125 16.840110778808594
        14.337594032287598 10.425125122070312 9.387496948242188 9.97650146484375 10.760826110839844 12.070068359375
        13.876769065856934 15.408798217773438 16.22974395751953 16.946929931640625 17.355873107910156 16.623435974121094
        15.408797264099121 14.410843849182129 13.437301635742188 13.104644775390625 13.290809631347656 12.518692970275879
        11.343728065490723 11.313209533691406 12.77199649810791 15.277565002441406 16.727195739746094 15.720085144042969
        15.057830810546875 16.727195739746094 18.82991600036621 19.41588020324707 18.857383728027344 18.924530029296875
        19.421981811523438 18.863487243652344 18.00897216796875 18.12799835205078 18.555252075195312 18.823814392089844
        19.269386291503906 19.281593322753906 18.31415557861328 17.423019409179688 17.612228393554688 18.506423950195312
        18.854331970214844 18.604080200195312 18.30194854736328 18.11273193359375 17.94183349609375 17.462692260742188
        16.687522888183594 16.010009765625 15.601058959960938 15.37216854095459 15.265357971191406 14.871665954589844
        13.943907737731934 13.031402587890625 12.308113098144531 11.569565773010254 11.313209533691406 11.603134155273438
        11.8778076171875 12.155525207519531 12.665184020996094 13.043609619140625 12.930694580078125 12.695701599121094
        12.576675415039062 12.411879539489746 12.430191040039062 12.805564880371094 13.235877990722656 13.354896545410156
        1.7731246948242188 1.095611572265625 1.5625457763671875 2.1362991333007812 2.07220458984375 2.1515579223632812
        2.09356689453125 1.3031387329101562 3.045745849609375 7.809685230255127 12.454605102539062 15.216530799865723
        15.869620323181152 14.554275512695312 12.866600036621094 12.735374450683594 13.739432334899902 14.145332336425781
        12.775047302246094 11.606185913085938 13.345741271972656 16.394546508789062 19.165626525878906 21.524703979492188
        23.14219093322754 22.888887405395508 20.28565216064453 13.147377014160156 7.959228515625 9.161659240722656
        11.081268310546875 11.166725158691406 10.75777530670166 9.485153198242188 8.282722473144531 10.968354225158691
        15.372170448303223 20.27954864501953 22.513505935668945 22.553176879882812 23.85936737060547 25.821706771850586
        26.999727249145508 27.457504272460938 27.137062072753906 25.72405242919922 22.33954620361328 14.465774536132812
        5.3804168701171875 1.94097900390625 4.6052398681640625 9.390548706054688 12.952056884765625 14.215522766113281
        14.429154396057129 11.728262901306152 6.955170154571533 5.331581115722656 5.5452117919921875 8.322395324707031
        11.008026123046875 13.861503601074219 17.221595764160156 19.70275115966797 20.426042556762695 20.24292755126953
        19.553207397460938 19.29075050354004 19.962158203125 20.48402214050293 20.551162719726562 20.410783767700195
        18.784141540527344 15.985595703125 13.754692077636719 12.619400024414062 13.14127254486084 14.496292114257812
        15.9031982421875 16.23889923095703 15.802482604980469 15.631584167480469 16.0802001953125 16.394546508789062
        16.751609802246094 17.453536987304688 17.75261688232422 17.004913330078125 15.005950927734375 12.0242919921875
        10.028382301330566 9.671318054199219 10.663169860839844 12.01513671875 12.836081504821777 13.708915710449219
        15.137184143066406 16.531875610351562 16.895050048828125 16.28772735595703 15.176856994628906 13.864554405212402
        12.887969970703125 12.656028747558594 12.442398071289062 11.236915588378906 11.151466369628906 12.979522705078125
        15.082244873046875 16.818748474121094 17.151405334472656 16.19922637939453 16.0283203125 16.876739501953125
        16.681419372558594 16.01611328125 16.797386169433594 18.30805206298828 18.903167724609375 18.460647583007812
        17.98455810546875 18.38129997253418 19.248022079467773 19.617294311523438 19.62950897216797 19.495223999023438
        18.80855369567871 18.103578567504883 17.86248016357422 17.92657470703125 17.85637664794922 17.618331909179688
        17.416915893554688 17.419967651367188 17.407760620117188 16.928619384765625 16.16870880126953 15.530868530273438
        14.914398193359375 14.023253440856934 13.122962951660156 12.631614685058594 12.347785949707031 12.231819152832031
        12.421035766601562 12.665184020996094 12.836082458496094 13.019195556640625 12.973418235778809 12.738426208496094
        12.643821716308594 12.552262306213379 12.274543762207031 12.140266418457031 12.265387535095215 12.729270935058594
        13.660088539123535 14.627525329589844 14.972381591796875 14.645835876464844 2.908416748046875 4.153572082519531
        4.361091613769531 2.3071975708007812 1.8768919706344604 1.7090377807617188 1.7487105131149292 2.2156448364257812
        2.987762451171875 5.948058605194092 10.769981384277344 14.395584106445312 15.298927307128906 13.284706115722656
        10.489212036132812 9.622489929199219 10.263374328613281 10.397659301757812 9.051788330078125 8.493301391601562
        10.983612060546875 15.234840393066406 19.125953674316406 22.57758903503418 24.985504150390625 24.72304344177246
        22.23578643798828 13.849296569824219 5.5909881591796875 6.186103820800781 7.6021575927734375 7.873778820037842
        8.444473266601562 7.293922424316406 7.318336009979248 9.714042663574219 12.912384033203125 17.258216857910156
        20.383316040039062 21.378217697143555 23.416852951049805 26.465654373168945 27.71385955810547 27.130958557128906
        26.404617309570312 25.189979553222656 23.404647827148438 20.16358184814453 14.160591125488281 8.465835571289062
        8.056884765625 11.236915588378906 14.972380638122559 17.041534423828125 16.583755493164062 12.308113098144531
        7.8707194328308105 5.829032897949219 5.218666076660156 7.763908386230469 9.668266296386719 13.303016662597656
        16.815696716308594 19.595932006835938 20.621353149414062 20.612197875976562 20.19104766845703 19.553207397460938
        19.116790771484375 18.759727478027344 18.518630981445312 18.497268676757812 18.015073776245117 16.895050048828125
        15.366065979003906 14.374221801757812 14.896087646484375 16.1046142578125 17.227699279785156 17.398605346679688
        16.837059020996094 16.0618896484375 16.0008544921875 16.431167602539062 17.166664123535156 17.93878173828125
        18.22870635986328 17.77703094482422 16.513565063476562 14.038512229919434 11.502426147460938 10.409866333007812
        10.492263793945312 11.600082397460938 12.588882446289062 13.415939331054688 14.600052833557129 15.732292175292969
        16.0069580078125 15.540024757385254 14.780113220214844 14.056824684143066 13.489181518554688 13.19620418548584
        12.796409606933594 11.716055870056152 11.597030639648438 12.747581481933594 14.233833312988281 15.552230834960938
        15.796379089355469 15.659049987792969 16.23889923095703 16.476943969726562 15.448471069335938 15.320289611816406
        16.690574645996094 18.16766929626465 18.832969665527344 19.107635498046875 19.190040588378906 19.043548583984375
        18.713951110839844 18.28668975830078 18.060850143432617 18.20429229736328 17.74346160888672 17.175819396972656
        17.242958068847656 17.49015998840332 17.438278198242188 17.014066696166992 16.553237915039062 16.33655548095703
        16.15345001220703 15.845207214355469 15.469833374023438 15.002899169921875 14.130073547363281 12.808616638183594
        11.600082397460938 11.420028686523438 12.042603492736816 12.918487548828125 13.837089538574219 14.545120239257812
        14.77401065826416 14.645835876464844 14.355903625488281 13.919495582580566 13.498336791992188 13.220619201660156
        12.967315673828125 12.842185974121094 13.165687561035156 13.96832275390625 15.057830810546875 15.857415199279785
        16.1503963470459 15.948974609375 2.6001739501953125 3.3936614990234375 3.6194915771484375 1.6632614135742188
        1.019317626953125 0.5859527587890625 1.065093994140625 2.7558212280273438 3.8666915893554688 5.774101257324219
        9.424118041992188 12.094483375549316 12.506484985351562 11.069061279296875 9.097564697265625 8.316291809082031
        8.813743591308594 9.573654174804688 9.674369812011719 8.944977760314941 9.613326072692871 13.138221740722656
        17.206336975097656 19.83702850341797 21.34159278869629 22.18085479736328 22.18390655517578 18.717002868652344
        10.09552001953125 4.333625793457031 3.6530685424804688 5.4200897216796875 8.612319946289062 7.8340983390808105
        6.769005298614502 7.7272868156433105 10.02227783203125 14.191109657287598 18.686485290527344 21.78411102294922
        24.18592071533203 26.19403839111328 26.29474449157715 25.131996154785156 24.604019165039062 24.34156036376953
        23.41075325012207 21.71392059326172 19.132057189941406 16.434219360351562 14.11175537109375 13.083282470703125
        14.395584106445312 16.17786407470703 15.265358924865723 11.514633178710938 8.734397888183594 6.5675811767578125
        6.207466125488281 8.682518005371094 9.546188354492188 13.809622764587402 17.313148498535156 19.162574768066406
        20.17884063720703 20.606094360351562 20.905181884765625 21.048614501953125 20.700706481933594 20.01708984375
        19.287696838378906 18.63460350036621 17.63054656982422 16.3457088470459 15.497299194335938 15.622421264648438
        16.321298599243164 17.426071166992188 18.31415557861328 17.84416961669922 17.117828369140625 16.888946533203125
        17.096466064453125 17.62749481201172 18.32941436767578 18.399612426757812 18.46064567565918 18.655967712402344
        18.28974151611328 16.949981689453125 15.637687683105469 14.267403602600098 11.133155822753906 9.115875244140625
        9.91546630859375 11.91748046875 13.830985069274902 15.445419311523438 16.464736938476562 16.592910766601562
        16.19922637939453 15.604110717773438 14.926606178283691 14.194161415100098 13.101593017578125 11.493270874023438
        10.461746215820312 10.391556739807129 11.169776916503906 12.704856872558594 14.02630615234375 15.036467552185059
        16.17481231689453 16.36402130126953 16.13208770751953 17.462692260742188 19.425033569335938 20.86244773864746
        21.65898895263672 22.16559600830078 21.77495574951172 20.1391658782959 17.85943031311035 16.15345001220703
        15.259254455566406 15.073089599609375 15.411849021911621 16.19007110595703 17.001861572265625 17.511518478393555
        17.49015998840332 17.172767639160156 16.812644958496094 16.492202758789062 16.1015625 15.466781616210938
        14.453566551208496 13.379318237304688 12.784202575683594 12.433243751525879 12.298957824707031 12.665184020996094
        13.437301635742188 14.389480590820312 15.201272010803223 15.564436912536621 15.619369506835938 15.347755432128906
        14.816734313964844 14.276557922363281 14.206368446350098 14.636680603027344 15.039520263671875 15.115815162658691
        15.204322814941406 15.497299194335938 15.851310729980469 16.25415802001953 16.599014282226562 16.57765007019043
        3.6652753353118896 3.4638516902923584 2.7924423217773438 1.7761764526367188 1.1749649047851562 1.025421142578125
        2.09661865234375 3.906372308731079 5.023345947265625 6.225776195526123 8.273567199707031 10.10162353515625
        11.215553283691406 11.264381408691406 10.193184852600098 9.271522521972656 9.482101440429688 10.434280395507812
        10.962249755859375 9.570602416992188 8.276618957519531 9.619430541992188 12.857443809509277 15.9825439453125
        18.723106384277344 22.07708740234375 24.515520095825195 24.478897094726562 18.16767120361328 4.5625152587890625
        4.806663513183594 5.365149974822998 9.128089904785156 8.548233032226562 6.634727478027344 6.982635498046875
        8.600112915039062 12.466811180114746 17.79839324951172 22.32123374938965 24.109619140625 24.77187156677246
        25.27543067932129 25.263221740722656 24.735254287719727 24.030271530151367 23.139137268066406 21.65899085998535
        19.83092498779297 18.906219482421875 18.09136962890625 16.983551025390625 16.373184204101562 15.793326377868652
        13.26639461517334 9.591964721679688 6.634727478027344 5.383468151092529 6.5553741455078125 9.167762756347656
        9.753715515136719 13.669242858886719 17.97845458984375 19.962158203125 20.34363555908203 20.15137481689453
        20.816673278808594 21.97332763671875 22.04962158203125 21.332435607910156 20.374160766601562 19.080169677734375
        16.852317810058594 14.526809692382812 14.288764953613281 15.707879066467285 16.821800231933594 17.529830932617188
        17.92962646484375 17.514572143554688 17.239906311035156 18.03643798828125 18.887907028198242 18.958099365234375
        18.982513427734375 18.784141540527344 18.839073181152344 19.306007385253906 19.9591064453125 19.84923553466797
        18.915374755859375 17.447433471679688 13.89202880859375 9.207435607910156 8.584854125976562 11.185035705566406
        13.858451843261719 15.652945518493652 16.803489685058594 17.517623901367188 17.514572143554688 16.782127380371094
        15.799430847167969 14.603104591369629 13.187049865722656 12.0181884765625 11.346778869628906 11.322364807128906
        12.167732238769531 13.773002624511719 14.877778053283691 15.292823791503906 15.692619323730469 15.509506225585938
        15.8848876953125 18.12494659423828 20.722068786621094 22.00079345703125 22.910247802734375 24.01806640625
        23.480941772460938 21.317176818847656 18.903167724609375 17.233802795410156 15.9581298828125 15.13718318939209
        15.643791198730469 16.904205322265625 17.355873107910156 17.313148498535156 17.169715881347656 16.995756149291992
        16.925565719604492 16.754661560058594 16.0679931640625 14.69771671295166 12.854393005371094 11.777091979980469
        12.06396484375 12.689598083496094 13.211463928222656 14.04156494140625 15.036467552185059 15.732293128967285
        16.0557861328125 16.0985107421875 15.842155456542969 15.308082580566406 14.899139404296875 14.947968482971191
        15.372169494628906 16.08935546875 16.644798278808594 16.632593154907227 16.51661491394043 16.470840454101562
        16.33960723876953 16.30603790283203 16.33045196533203 15.979491233825684 3.6866378784179688 3.302100896835327
        2.990814208984375 2.7649765014648438 2.5116729736328125 2.6825790405273438 3.3906097412109375 4.190193176269531
        4.3733062744140625 4.641868591308594 6.4180450439453125 9.253211975097656 11.606185913085938 12.0792236328125
        10.898162841796875 10.04669189453125 10.446487426757812 11.310157775878906 11.584823608398438 10.06805419921875
        7.904296875 7.873779296875 10.861533164978027 15.274514198303223 19.348730087280273 22.666099548339844
        24.674217224121094 24.75661277770996 19.937744140625 7.116912364959717 4.675438404083252 4.986724376678467
        7.654045581817627 7.641838073730469 6.5370635986328125 7.220679759979248 8.603164672851562 11.264381408691406
        15.549178123474121 19.553207397460938 21.512496948242188 23.023162841796875 24.997711181640625 26.12384796142578
        25.312049865722656 23.493148803710938 21.59489631652832 19.9530029296875 19.235816955566406 19.85228729248047
        20.459609985351562 20.21851348876953 19.318214416503906 17.377243041992188 13.837089538574219 9.353919982910156
        5.301063537597656 5.4231414794921875 6.769004821777344 9.170814514160156 10.242012023925781 13.101593017578125
        16.470840454101562 18.390457153320312 18.875701904296875 18.396560668945312 18.622390747070312 20.13611602783203
        21.219520568847656 20.691551208496094 19.888916015625 18.713951110839844 15.488143920898438 12.598037719726562
        12.949005126953125 14.792320251464844 16.17481231689453 16.550186157226562 16.803489685058594 17.249061584472656
        17.83196258544922 18.909271240234375 19.70275115966797 19.428085327148438 19.052703857421875 18.860437393188477
        18.81770896911621 19.302955627441406 20.441299438476562 20.71901512145996 19.79735565185547 18.607133865356445
        17.233802795410156 15.509507179260254 15.079192161560059 15.262306213378906 15.741446495056152 16.35181427001953
        16.931671142578125 17.535934448242188 17.68852996826172 16.916412353515625 15.594955444335938 14.542069435119629
        14.273506164550781 14.581741333007812 14.835044860839844 14.856407165527344 15.176856994628906 15.775016784667969
        15.259255409240723 14.432205200195312 14.679405212402344 15.405746459960938 16.498306274414062 18.16156578063965
        19.9072265625 21.008941650390625 21.85430335998535 22.36395835876465 21.286659240722656 19.84313201904297
        19.29380226135254 19.550155639648438 19.116790771484375 17.79839324951172 17.047637939453125 17.001861572265625
        16.562393188476562 16.26636505126953 16.403701782226562 16.400650024414062 16.36707305908203 16.0283203125
        14.923552513122559 13.629570007324219 13.092438697814941 13.382369995117188 13.99578857421875 14.200264930725098
        14.136177062988281 14.557327270507812 15.268409729003906 15.512557029724121 15.582747459411621 15.598008155822754
        15.274513244628906 15.057830810546875 15.478989601135254 16.12293243408203 16.473894119262695 16.696678161621094
        16.879791259765625 16.776023864746094 16.730249404907227 16.705833435058594 16.449478149414062 16.092409133911133
        15.591903686523438 14.792320251464844 3.2837905883789062 3.039642572402954 3.2563247680664062 3.5554049015045166
        4.162727355957031 4.217658996582031 3.872802734375 3.5126800537109375 2.2370071411132812 2.00506591796875
        4.4068756103515625 8.328498840332031 11.090423583984375 10.748618125915527 8.0751953125 6.897185802459717
        8.670310974121094 10.943939208984375 12.222664833068848 11.731315612792969 10.138251304626465 9.585861206054688
        11.703849792480469 15.585799217224121 18.933685302734375 20.438249588012695 21.185951232910156 21.372108459472656
        18.610183715820312 10.635704040527344 4.3824615478515625 4.0223388671875 5.328529357910156 5.883971691131592
        5.276649475097656 6.707969665527344 8.597062110900879 10.351875305175781 12.683494567871094 16.0924072265625
        19.75768280029297 22.25104331970215 23.618270874023438 24.16455841064453 23.230690002441406 20.880767822265625
        18.753623962402344 18.35993194580078 19.62950897216797 21.127967834472656 21.893980026245117 21.71697235107422
        20.804466247558594 19.025236129760742 16.592912673950195 11.478012084960938 6.286811828613281 7.092498779296875
        7.9378662109375 9.283729553222656 10.373245239257812 12.259284973144531 13.046661376953125 13.620408058166504
        15.643791198730469 17.291786193847656 17.81975555419922 18.695640563964844 19.931640625 19.75463104248047
        19.193092346191406 17.79534149169922 14.07818603515625 12.1219482421875 13.101593017578125 14.465775489807129
        15.085297584533691 14.871665954589844 14.618361473083496 14.990692138671875 16.23279571533203 17.68547821044922
        18.25922393798828 18.558303833007812 18.784141540527344 18.25006866455078 18.10052490234375 18.765830993652344
        19.78514862060547 20.19715118408203 19.96826171875 19.443344116210938 18.796348571777344 18.23175811767578
        18.23786163330078 17.89605712890625 17.444381713867188 17.542037963867188 17.74040985107422 17.767873764038086
        17.526779174804688 16.28772735595703 14.432205200195312 13.901185035705566 14.874726295471191 16.13208770751953
        16.663108825683594 16.32740020751953 15.500349998474121 14.520705223083496 13.303016662597656 13.12601375579834
        14.523757934570312 16.479995727539062 18.31415557861328 19.6813907623291 20.36499786376953 20.575576782226562
        20.572525024414062 19.925537109375 18.76582908630371 18.564407348632812 19.6234073638916 20.740379333496094
        20.1025390625 18.32025909423828 17.331457138061523 17.46879768371582 17.63970184326172 17.502365112304688
        17.590866088867188 17.508468627929688 16.809593200683594 15.671257019042969 14.664146423339844 14.661094665527344
        15.723136901855469 16.803489685058594 17.197181701660156 16.800437927246094 15.96728515625 15.140235900878906
        14.261299133300781 13.440353393554688 13.281654357910156 13.681449890136719 14.130072593688965 14.856407165527344
        15.857414245605469 16.501358032226562 16.672264099121094 16.830955505371094 17.011016845703125 17.038480758666992
        16.809593200683594 16.415908813476562 15.869621276855469 15.329444885253906 14.76485538482666 14.279609680175781
        3.3784027099609375 2.981658935546875 3.3204119205474854 3.680534601211548 3.8178632259368896 3.3753509521484375
        3.5523531436920166 3.5828704833984375 2.4658966064453125 2.04779052734375 3.2868423461914062 6.344795227050781
        8.221687316894531 6.781211853027344 3.5065762996673584 3.173927068710327 6.8178324699401855 10.742515563964844
        13.061920166015625 13.379318237304688 11.584823608398438 9.640800476074219 10.061949729919434 12.231818199157715
        14.661093711853027 16.635644912719727 17.874692916870117 18.506423950195312 18.10357666015625 15.729240417480469
        11.542098999023438 5.847343444824219 4.657127380371094 5.4078826904296875 5.233924865722656 6.393630504608154
        7.730339050292969 8.188117980957031 9.707939147949219 13.760795593261719 18.424028396606445 21.008941650390625
        22.10455322265625 22.656944274902344 22.06488037109375 20.410781860351562 19.086273193359375 19.232765197753906
        20.764793395996094 22.01910400390625 22.605056762695312 22.589799880981445 21.73833465576172 20.1055908203125
        17.538986206054688 11.392562866210938 7.708977222442627 9.247108459472656 10.361030578613281 10.364082336425781
        10.147406578063965 10.434280395507812 10.199287414550781 10.458694458007812 12.991729736328125 16.14734649658203
        17.51152229309082 17.72820281982422 18.424026489257812 19.095428466796875 18.539993286132812 15.9520263671875
        13.272499084472656 13.116850852966309 14.136177062988281 14.947967529296875 14.886932373046875 13.971375465393066
        12.567520141601562 11.938843727111816 12.869650840759277 14.340644836425781 15.478988647460938 16.36707305908203
        16.33045196533203 15.918456077575684 16.910308837890625 18.543045043945312 19.76378631591797 20.32227325439453
        20.654930114746094 20.496231079101562 20.16358184814453 19.507431030273438 18.869590759277344 18.631553649902344
        18.640708923339844 18.848228454589844 18.942840576171875 18.753623962402344 18.01812744140625 16.0802001953125
        13.89202880859375 13.403732299804688 14.423049926757812 15.692619323730469 16.29993438720703 15.854361534118652
        14.404739379882812 12.900176048278809 12.402725219726562 13.272499084472656 14.893035888671875 16.846214294433594
        18.915374755859375 20.599990844726562 21.533859252929688 22.18390655517578 22.30597686767578 20.883819580078125
        18.75362205505371 17.88079833984375 18.414871215820312 18.564407348632812 17.87774658203125 17.200233459472656
        17.358924865722656 18.24091339111328 19.12290382385254 19.272438049316406 18.918428421020508 18.243967056274414
        17.209386825561523 16.20227813720703 16.26941680908203 17.316200256347656 18.44538688659668 19.104583740234375
        19.183937072753906 18.820762634277344 18.03948974609375 16.605117797851562 14.682456970214844 13.046662330627441
        12.356941223144531 12.527847290039062 13.251136779785156 14.300971984863281 15.31723690032959 16.08935546875
        16.574602127075195 16.949981689453125 17.139198303222656 17.047637939453125 16.580703735351562 15.845207214355469
        14.889984130859375 14.185006141662598 14.130073547363281 14.166693687438965 3.1525650024414062 2.923675537109375
        2.908416986465454 3.070159912109375 2.7466659545898438 3.6317062377929688 4.327522277832031 4.129158020019531
        2.969451904296875 3.027435302734375 3.1830825805664062 4.156623840332031 4.849388122558594 3.952148199081421
        2.1912307739257812 3.039642095565796 6.814781665802002 11.444443702697754 14.154487609863281 14.758750915527344
        11.636711120605469 7.702873229980469 8.0477294921875 10.733360290527344 13.299964904785156 15.533920288085938
        16.885894775390625 17.79228973388672 19.211402893066406 19.733266830444336 16.898101806640625 9.543136596679688
        5.755790710449219 6.042664051055908 6.143378734588623 6.170845031738281 6.283760070800781 5.722221374511719
        7.2176289558410645 11.130104064941406 14.993743896484375 17.023225784301758 18.35077667236328 19.513534545898438
        20.102537155151367 19.864492416381836 18.927581787109375 18.564409255981445 19.74242401123047 21.50944709777832
        22.919403076171875 23.54503059387207 22.940765380859375 20.804466247558594 15.924560546875 9.607223510742188
        9.183021545410156 11.432235717773438 12.949005126953125 12.671287536621094 10.602127075195312 9.445480346679688
        9.921568870544434 11.020233154296875 12.671286582946777 15.408798217773438 17.68547821044922 17.95098876953125
        17.221595764160156 16.907257080078125 15.524764060974121 12.897125244140625 12.424087524414062 13.763848304748535
        14.792320251464844 15.536972045898438 15.598007202148438 14.444412231445312 12.83303165435791 11.9449462890625
        12.0364990234375 12.704856872558594 13.733329772949219 13.196205139160156 11.694694519042969 12.546158790588379
        15.286721229553223 17.615280151367188 18.488113403320312 18.832969665527344 19.72106170654297 20.30396270751953
        20.584732055664062 20.438247680664062 20.0079345703125 19.959104537963867 20.010986328125 19.86754608154297
        19.67528533935547 19.370094299316406 18.375198364257812 16.751609802246094 14.951018333435059 13.91033935546875
        14.05072021484375 14.920502662658691 15.411849975585938 15.076141357421875 14.346748352050781 13.91033935546875
        14.178901672363281 14.850303649902344 15.671257019042969 16.898101806640625 18.399612426757812 19.76683807373047
        21.027250289916992 22.27851104736328 22.458572387695312 20.618301391601562 17.76177215576172 16.22974395751953
        16.635643005371094 17.087310791015625 17.16971778869629 17.496261596679688 18.06085205078125 18.06695556640625
        17.520675659179688 17.273475646972656 17.075103759765625 16.620376586914062 16.815696716308594 17.538986206054688
        18.662071228027344 19.64171600341797 20.0323486328125 20.16663360595703 20.0018310546875 19.498275756835938
        18.848228454589844 17.886899948120117 16.733299255371094 15.747550964355469 14.75875186920166 13.87982177734375
        13.489181518554688 13.531906127929688 14.02630615234375 14.938812255859375 15.796379089355469 16.17481231689453
        16.0802001953125 15.811637878417969 15.536971092224121 15.024261474609375 14.337594032287598 14.157539367675781
        14.352851867675781 14.00189208984375 2.4079132080078125 3.3875579833984375 3.973510503768921 3.4669036865234375
        3.3661880493164062 4.126106262207031 4.776145935058594 4.187141418457031 3.8056564331054688 3.6164398193359375
        3.048797369003296 2.6184844970703125 2.8077011108398438 2.871788263320923 3.1525650024414062 5.142372131347656
        8.478042602539062 12.347785949707031 14.700767517089844 15.482040405273438 13.330482482910156 10.550247192382812
        10.602126121520996 12.295906066894531 13.97442626953125 15.9154052734375 17.221595764160156 17.70684051513672
        18.472856521606445 18.573562622070312 15.347755432128906 9.91241455078125 7.483138561248779 6.765953063964844
        6.219673156738281 5.856498718261719 4.959259033203125 3.7293622493743896 4.971466064453125 7.678459167480469
        10.489212036132812 12.332527160644531 14.11785888671875 16.77602195739746 19.431137084960938 20.450454711914062
        19.806509017944336 19.034393310546875 19.522689819335938 21.292762756347656 23.12388038635254 23.8593692779541
        23.117767333984375 20.947906494140625 15.793327331542969 8.328498840332031 8.545181274414062 11.664176940917969
        14.06597900390625 14.551223754882812 13.403732299804688 12.244026184082031 12.131111145019531 13.098540306091309
        14.209419250488281 16.16565704345703 18.10662841796875 18.29889678955078 17.133094787597656 15.778068542480469
        14.10565185546875 12.958160400390625 12.955108642578125 13.91644287109375 14.853355407714844 15.729240417480469
        16.0374755859375 15.286720275878906 14.166694641113281 13.605148315429688 13.290809631347656 13.345742225646973
        13.16873836517334 10.238959312438965 8.093505859375 9.710990905761719 12.582778930664062 14.545120239257812
        14.996795654296875 15.616317749023438 17.215492248535156 18.646812438964844 19.483016967773438 20.13306427001953
        20.499282836914062 20.752586364746094 20.926544189453125 20.706809997558594 20.23377227783203 19.498275756835938
        18.405715942382812 17.578659057617188 16.498306274414062 15.131080627441406 14.398635864257812 14.407791137695312
        14.151436805725098 13.99884033203125 14.68550968170166 15.601058959960938 16.32129669189453 16.821800231933594
        17.023223876953125 17.368080139160156 18.04864501953125 18.918428421020508 19.7210636138916 20.0201416015625
        19.437240600585938 18.04864501953125 16.415908813476562 15.683464050292969 16.486099243164062 17.551191329956055
        18.118837356567383 18.436233520507812 18.472854614257812 17.545089721679688 15.588851928710938 14.236886024475098
        14.288764953613281 15.369117736816406 17.288734436035156 19.156471252441406 20.21851348876953 20.441299438476562
        20.3619441986084 20.29480743408203 19.80651092529297 18.964202880859375 18.31415557861328 17.94183349609375
        17.67632293701172 17.242958068847656 16.415908813476562 15.518661499023438 14.557327270507812 13.455612182617188
        13.122962951660156 13.812675476074219 14.496292114257812 14.487137794494629 14.148385047912598 13.94696044921875
        13.92559814453125 13.965270042419434 14.133125305175781 14.749595642089844 14.926606178283691 14.282660484313965
        1.5167694091796875 2.990814208984375 4.0894775390625 4.663230895996094 4.736473083496094 4.660179138183594
        3.906372308731079 3.5523529052734375 3.8392257690429688 4.116943359375 3.2380142211914062 2.02032470703125
        2.09967041015625 2.4231719970703125 4.306159973144531 6.5309600830078125 9.244056701660156 12.765892028808594
        15.121917724609375 15.747550964355469 13.885926246643066 10.602127075195312 9.369178771972656 10.315255165100098
        12.182991027832031 14.575637817382812 16.23889923095703 16.15955352783203 15.436263084411621 14.941864013671875
        13.773002624511719 11.874755859375 9.796440124511719 7.644889831542969 5.96636962890625 4.602187633514404
        4.0406494140625 3.939941167831421 4.6143951416015625 6.12200927734375 7.6143646240234375 8.954132080078125
        11.526840209960938 15.329445838928223 18.659019470214844 20.29175567626953 20.377214431762695 19.550155639648438
        18.774988174438477 19.104581832885742 20.35889434814453 21.372108459472656 21.222572326660156 19.83702850341797
        15.195167541503906 7.5655364990234375 7.4465179443359375 9.582809448242188 12.454604148864746 14.505447387695312
        15.030365943908691 14.520706176757812 13.696708679199219 13.510543823242188 14.276557922363281 16.071044921875
        17.590866088867188 17.92047119140625 17.279579162597656 15.936767578125 14.908294677734375 14.743492126464844
        14.00494384765625 14.127021789550781 15.097504615783691 15.695671081542969 15.683464050292969 15.344703674316406
        14.899139404296875 14.859458923339844 14.700767517089844 14.719078063964844 13.431198120117188 8.468887329101562
        6.067077159881592 7.5533294677734375 9.421066284179688 9.89105224609375 10.403762817382812 12.152473449707031
        14.447463989257812 16.418960571289062 17.69158172607422 18.851280212402344 19.85228729248047 20.593887329101562
        21.042510986328125 20.883821487426758 20.206308364868164 19.180885314941406 18.28974151611328 18.14020538330078
        18.10968017578125 17.596969604492188 16.623435974121094 15.228736877441406 13.525803565979004 12.765892028808594
        13.657035827636719 15.29892635345459 16.769920349121094 17.81975555419922 18.14936065673828 18.18598175048828
        18.488113403320312 18.909271240234375 18.723106384277344 17.98760986328125 17.484054565429688 17.227699279785156
        17.020172119140625 17.209388732910156 17.877748489379883 18.811607360839844 19.534896850585938 19.63866424560547
        19.345680236816406 18.478958129882812 16.376235961914062 14.551223754882812 15.033416748046875 16.782127380371094
        18.32025909423828 19.486068725585938 19.946901321411133 19.8980712890625 19.8919677734375 19.79125213623047
        19.193092346191406 18.460649490356445 18.06695556640625 17.99676513671875 17.85332489013672 17.331457138061523
        16.589859008789062 16.04052734375 15.268409729003906 14.04156494140625 13.324378967285156 13.425094604492188
        13.586837768554688 13.550215721130371 13.473922729492188 13.431198120117188 13.367103576660156 13.437301635742188
        13.88592529296875 14.603103637695312 14.767906188964844 14.429154396057129 2.4842071533203125 3.6164398193359375
        4.171882629394531 4.5808258056640625 5.783256530761719 5.4017791748046875 3.5920257568359375 3.91552734375
        4.4221343994140625 3.2746353149414062 3.3387224674224854 2.4567415714263916 2.7130966186523438 2.990814208984375
        4.681541442871094 5.88092041015625 7.797478199005127 10.797447204589844 13.663139343261719 14.975433349609375
        14.416947364807129 11.9327392578125 9.781181335449219 9.491256713867188 10.751670837402344 12.439347267150879
        13.489181518554688 13.528853416442871 13.498336791992188 14.288765907287598 14.893035888671875 14.697715759277344
        11.838127136230469 6.796471118927002 4.3733062744140625 3.7446212768554688 3.8178634643554688 4.715110778808594
        6.00909423828125 7.007049560546875 7.181007385253906 7.98974609375 10.409865379333496 13.019195556640625
        15.631584167480469 18.665122985839844 20.715965270996094 20.966218948364258 19.83397674560547 18.549148559570312
        18.35382843017578 18.903167724609375 18.848228454589844 17.68852996826172 14.572586059570312 10.162666320800781
        7.760856628417969 7.205421447753906 8.545181274414062 11.529891967773438 14.239936828613281 15.579696655273438
        15.393540382385254 14.731285095214844 15.009002685546875 16.583755493164062 17.96624755859375 17.85942840576172
        16.916412353515625 15.457626342773438 14.331489562988281 14.154486656188965 13.87982177734375 14.258247375488281
        15.363014221191406 15.677359580993652 15.192116737365723 14.880828857421875 14.954071044921875 15.536972045898438
        15.765862464904785 15.982544898986816 13.797416687011719 6.5889434814453125 4.861595153808594 6.817832946777344
        7.904297351837158 7.4190521240234375 8.069091796875 9.524826049804688 11.624504089355469 13.97137451171875
        16.0252685546875 17.557296752929688 18.671226501464844 19.574569702148438 20.072021484375 19.888916015625
        19.205299377441406 18.457595825195312 18.07000732421875 18.30194854736328 19.046600341796875 19.85533905029297
        20.087278366088867 18.958099365234375 15.9947509765625 12.768943786621094 12.201301574707031 14.07818603515625
        16.33045196533203 18.09442138671875 18.933685302734375 19.086273193359375 19.071014404296875 18.509475708007812
        16.809593200683594 15.814689636230469 16.605117797851562 17.76787567138672 18.533889770507812 19.217506408691406
        19.812612533569336 20.34668731689453 20.72817039489746 20.572525024414062 20.25818634033203 19.50438117980957
        17.76787567138672 16.17786407470703 16.34571075439453 17.58476448059082 18.482009887695312 19.116790771484375
        19.467758178710938 19.544052124023438 19.525741577148438 19.403671264648438 19.025238037109375 18.646812438964844
        18.491165161132812 18.411819458007812 18.05169677734375 17.462692260742188 17.047637939453125 16.736351013183594
        16.13513946533203 15.137184143066406 14.09039306640625 13.263343811035156 13.046661376953125 13.519700050354004
        14.03851318359375 14.215521812438965 13.821830749511719 13.373214721679688 13.495285034179688 13.660087585449219
        13.516647338867188 13.562423706054688 2.987762689590454 3.1800308227539062 3.689689874649048 4.782249450683594
        3.9857177734375 4.412979602813721 4.07421875 4.0650634765625 4.782249450683594 3.079315185546875
        1.7059860229492188 1.6846237182617188 3.1647720336914062 4.205451965332031 4.983673095703125 4.718162536621094
        5.072174072265625 6.701866626739502 9.549240112304688 12.656028747558594 14.645835876464844 14.477982521057129
        12.424087524414062 10.196235656738281 9.826957702636719 11.117889404296875 12.558364868164062 13.150428771972656
        13.455612182617188 14.175849914550781 14.688560485839844 14.795371055603027 12.247076988220215 6.817832946777344
        4.269538402557373 3.9521484375 4.052856922149658 4.672386169433594 6.195259094238281 7.867668151855469
        8.343757629394531 8.435317993164062 8.80153751373291 9.295936584472656 12.0914306640625 17.099515914916992
        20.920442581176758 22.122873306274414 21.475875854492188 19.394515991210938 16.971343994140625 15.295876502990723
        14.401687622070312 13.98358154296875 13.452560424804688 12.717063903808594 10.672325134277344 7.7486491203308105
        7.760856628417969 9.573654174804688 12.234869956970215 14.590897560119629 15.515610694885254 15.448471069335938
        15.436264038085938 15.9337158203125 16.425064086914062 16.30603790283203 16.010009765625 15.558335304260254
        14.435256958007812 13.324378967285156 13.251136779785156 13.928650856018066 14.780113220214844 15.213479042053223
        14.774009704589844 14.047669410705566 14.218573570251465 15.619369506835938 16.483047485351562 16.953033447265625
        14.300971984863281 6.05181884765625 4.712059020996094 6.6042022705078125 7.321387767791748 6.994842052459717
        7.2054219245910645 7.867668151855469 10.10467529296875 12.921539306640625 15.326393127441406 16.565446853637695
        17.197181701660156 17.79839324951172 18.19513702392578 18.13105010986328 17.82280731201172 17.66411590576172
        17.63970184326172 17.79534149169922 18.506423950195312 19.9591064453125 21.323280334472656 20.905183792114258
        18.24701690673828 15.433212280273438 15.060882568359375 15.906249046325684 17.389450073242188 19.150367736816406
        20.16053009033203 20.15137481689453 19.431137084960938 17.88690185546875 16.31519317626953 16.830955505371094
        18.613235473632812 19.507431030273438 19.60508918762207 19.9224853515625 20.380264282226562 20.780052185058594
        20.981477737426758 20.657981872558594 20.0445556640625 19.241920471191406 18.34162139892578 17.258216857910156
        16.513565063476562 16.840110778808594 17.85332489013672 18.701744079589844 19.165626525878906 19.577621459960938
        19.8980712890625 19.8461856842041 19.284645080566406 18.82076072692871 18.805503845214844 18.668174743652344
        18.390457153320312 18.33856964111328 18.35382652282715 17.96929931640625 17.261268615722656 16.26331329345703
        14.874725341796875 13.29386043548584 12.698753356933594 13.324378967285156 14.03546142578125 14.197212219238281
        13.571578979492188 12.829978942871094 12.598037719726562 12.286750793457031 12.0792236328125 12.530899047851562
        4.1016845703125 3.4394376277923584 2.960296630859375 4.165779113769531 4.4953765869140625 4.3763580322265625
        5.661186218261719 5.197303771972656 4.4953765869140625 3.4760587215423584 3.2013931274414062 3.5889737606048584
        4.123054504394531 4.892120361328125 4.965362548828125 3.4089205265045166 3.2227554321289062 4.306159973144531
        6.4699249267578125 10.281684875488281 13.89508056640625 15.118865966796875 13.513596534729004 10.953094482421875
        10.177925109863281 11.575669288635254 13.577682495117188 14.609207153320312 14.273505210876465 13.385421752929688
        12.912384033203125 13.312171936035156 12.68654727935791 8.444473266601562 4.861595153808594 4.08642578125
        3.6713790893554688 3.161720037460327 4.0955810546875 6.5218048095703125 8.838157653808594 9.95819091796875
        9.772026062011719 9.537033081054688 11.655021667480469 15.91845703125 19.60814094543457 21.051668167114258
        20.984527587890625 19.333471298217773 16.36402130126953 13.541061401367188 12.0242919921875 12.0517578125
        13.138222694396973 13.89508056640625 12.607193946838379 10.135200500488281 9.787284851074219 10.333564758300781
        11.169776916503906 12.799461364746094 14.407790184020996 15.582747459411621 16.083251953125 15.485091209411621
        15.076140403747559 15.921509742736816 16.986602783203125 17.392499923706055 16.647850036621094 14.795371055603027
        13.464767456054688 13.385421752929688 13.684501647949219 13.739434242248535 13.458663940429688 12.964262962341309
        13.391524314880371 15.210426330566406 16.617324829101562 17.175817489624023 14.746542930603027 6.912445068359375
        4.855491638183594 5.948058605194092 6.711021423339844 6.826988220214844 6.796470642089844 6.982635498046875
        8.990753173828125 11.923583984375 14.319282531738281 15.231788635253906 15.756706237792969 16.385391235351562
        16.687522888183594 16.565444946289062 16.592910766601562 16.904205322265625 17.096466064453125 17.059844970703125
        17.523727416992188 18.942840576171875 20.023193359375 19.50132942199707 18.619338989257812 18.637657165527344
        19.79430389404297 19.9163818359375 20.480972290039062 21.921449661254883 22.739341735839844 22.67525291442871
        22.397537231445312 21.65288734436035 20.783103942871094 20.752586364746094 20.621353149414062 19.9285888671875
        19.34568214416504 19.483016967773438 19.949953079223633 20.30701446533203 20.33448028564453 19.949951171875
        19.406723022460938 18.933685302734375 18.738367080688477 18.427078247070312 17.84416961669922 17.596969604492188
        17.99676513671875 18.555253982543945 18.927581787109375 19.507431030273438 20.22461700439453 20.34363555908203
        19.467758178710938 18.680383682250977 18.662071228027344 18.820762634277344 19.009977340698242 19.330421447753906
        19.302955627441406 18.906219482421875 18.49421501159668 17.62749481201172 16.0557861328125 13.791312217712402
        11.743522644042969 11.133155822753906 11.655021667480469 12.427139282226562 12.576675415039062 12.414932250976562
        12.207405090332031 11.874755859375 11.822868347167969 11.673332214355469 7.080291748046875 5.658134460449219
        3.8514328002929688 3.4730069637298584 4.4434967041015625 3.6927413940429688 4.4038238525390625 5.5787811279296875
        5.4841766357421875 4.916534423828125 4.5350494384765625 4.712059497833252 4.5411529541015625 5.087432861328125
        4.5472564697265625 3.1830825805664062 4.080322265625 5.209510326385498 5.975525379180908 8.554336547851562
        12.079222679138184 13.87982177734375 12.640769958496094 10.306098937988281 9.88494873046875 11.679435729980469
        14.03851318359375 15.259254455566406 14.871665954589844 13.794364929199219 13.162635803222656 13.418991088867188
        13.97137451171875 11.609238624572754 7.4709320068359375 5.233924865722656 3.5737149715423584 3.091522216796875
        4.0650634765625 6.289863586425781 9.387497901916504 11.9693603515625 13.071076393127441 12.820822715759277
        12.961213111877441 14.896087646484375 17.67327117919922 19.278541564941406 19.574569702148438 18.811607360839844
        16.815696716308594 14.249092102050781 12.1158447265625 11.343727111816406 12.472915649414062 13.745536804199219
        12.793357849121094 10.904266357421875 10.696739196777344 11.023284912109375 11.081267356872559 12.234870910644531
        13.96832275390625 15.268409729003906 15.927611351013184 15.9703369140625 15.445418357849121 15.607162475585938
        16.461685180664062 16.565444946289062 16.17786407470703 15.900147438049316 14.966278076171875 14.203315734863281
        13.724173545837402 12.366096496582031 11.389511108398438 12.0181884765625 13.348793983459473 14.761801719665527
        15.89404296875 16.34876251220703 15.137184143066406 9.234901428222656 4.916534423828125 4.721214294433594
        5.89312744140625 6.631675720214844 6.921600341796875 6.366157531738281 7.187110900878906 9.512619018554688
        11.874755859375 13.095489501953125 13.92864990234375 14.557327270507812 14.73433780670166 14.819785118103027
        15.512557983398438 16.446426391601562 17.004913330078125 17.047637939453125 17.191078186035156 17.79839324951172
        18.22260284423828 18.21039581298828 18.33246612548828 18.793296813964844 20.12696075439453 20.651878356933594
        21.472824096679688 22.968231201171875 24.1126708984375 24.384292602539062 24.13709259033203 23.099454879760742
        21.91534423828125 21.088287353515625 19.8919677734375 19.000823974609375 18.832971572875977 19.226659774780273
        19.77599334716797 20.0872802734375 20.0933837890625 19.876708984375 19.562362670898438 19.208351135253906
        18.890960693359375 18.597976684570312 18.29889678955078 18.04559326171875 17.90826416015625 18.17377471923828
        18.753623962402344 19.455551147460938 19.9560546875 19.876708984375 19.327369689941406 19.019134521484375
        19.162574768066406 19.476913452148438 19.65392303466797 19.516584396362305 19.324317932128906 19.486068725585938
        19.483016967773438 18.68343162536621 17.496261596679688 15.271462440490723 10.330513000488281 6.4821319580078125
        7.806632995605469 10.69063663482666 12.210456848144531 12.643821716308594 12.723167419433594 12.613296508789062
        11.880859375 9.97650146484375 8.053833961486816 8.615371704101562 7.217628479003906 4.0345458984375
        3.5981292724609375 2.917572021484375 2.890106201171875 4.739524841308594 5.078277587890625 5.072174072265625
        5.215613842010498 5.066070556640625 4.5564117431640625 4.791404724121094 4.3031086921691895 4.263434886932373
        4.944000244140625 4.272590637207031 4.5747222900390625 5.91448974609375 8.0263671875 9.518722534179688
        8.731346130371094 7.159645080566406 7.910400390625 10.885955810546875 13.934752464294434 15.112763404846191
        14.920501708984375 14.297920227050781 13.733329772949219 13.88592529296875 14.322334289550781 13.336585998535156
        10.281684875488281 6.3905792236328125 3.8056564331054688 3.4974215030670166 3.979614496231079 5.4902801513671875
        8.86257266998291 13.342689514160156 16.739402770996094 17.368080139160156 15.936767578125 14.877778053283691
        15.778068542480469 17.459640502929688 18.29279327392578 18.26227569580078 17.365028381347656 15.546128273010254
        13.415940284729004 12.176887512207031 12.442398071289062 12.741477012634277 11.603134155273438 10.290840148925781
        10.217597961425781 10.635704040527344 11.252174377441406 12.631614685058594 14.00189208984375 14.774009704589844
        15.204322814941406 15.961181640625 16.043577194213867 15.512557983398438 14.856407165527344 14.10565185546875
        14.227729797363281 15.552230834960938 16.119873046875 15.265357971191406 13.882872581481934 11.627554893493652
        10.296943664550781 11.490219116210938 13.516647338867188 14.850303649902344 15.750602722167969 16.28467559814453
        16.22974395751953 13.321327209472656 7.4892425537109375 4.965362548828125 5.658134460449219 5.97247314453125
        6.4729766845703125 5.856498718261719 5.5177459716796875 6.909393310546875 9.384446144104004 11.004974365234375
        11.404769897460938 11.471908569335938 12.0517578125 13.150428771972656 14.654991149902344 15.9794921875
        16.818748474121094 17.13614845275879 17.386398315429688 17.82280731201172 18.616287231445312 18.683433532714844
        17.81670379638672 17.120882034301758 17.493209838867188 18.393508911132812 19.8980712890625 21.488082885742188
        22.556228637695312 22.736289978027344 22.27851104736328 21.143226623535156 20.053709030151367 19.275489807128906
        18.625450134277344 18.500320434570312 18.909271240234375 19.425033569335938 19.83092498779297 20.20935821533203
        20.590835571289062 20.706809997558594 20.44129753112793 19.962158203125 19.223609924316406 18.375198364257812
        17.94183349609375 17.76482391357422 17.633596420288086 17.899110794067383 18.512527465820312 19.129005432128906
        19.489120483398438 19.63256072998047 20.023193359375 20.621353149414062 20.868553161621094 20.685447692871094
        20.36804962158203 20.01708984375 19.9591064453125 20.14221954345703 19.66918182373047 18.738365173339844
        18.05780029296875 17.508468627929688 14.618362426757812 9.27457332611084 6.830039978027344 8.548233032226562
        10.824913024902344 12.533950805664062 13.489181518554688 13.202309608459473 11.9205322265625 10.641807556152344
        6.656090259552002 7.983642578125 9.259315490722656 6.915496826171875 2.5757598876953125 1.8829954862594604
        1.95013427734375 3.1617205142974854 4.995880126953125 5.832084655761719 5.4719696044921875 5.2125630378723145
        5.035553455352783 4.6143951416015625 3.8880615234375 4.3641438484191895 4.596085071563721 3.878906011581421
        4.104736328125 3.4394378662109375 2.920623779296875 3.6835858821868896 4.654075622558594 5.6978068351745605
        7.4587249755859375 10.486160278320312 13.440353393554688 14.340644836425781 14.404739379882812 14.297920227050781
        14.175849914550781 14.548171997070312 15.198219299316406 15.781121253967285 14.11785888671875 7.9317626953125
        4.330574035644531 4.1596760749816895 3.878906011581421 5.4017791748046875 8.743553161621094 13.91339111328125
        17.91436767578125 18.912324905395508 17.401655197143555 15.118866920471191 14.554276466369629 16.1046142578125
        17.490158081054688 17.84417152404785 17.456588745117188 16.382339477539062 14.951018333435059 13.724174499511719
        12.421035766601562 10.666221618652344 9.701835632324219 10.01922607421875 10.895111083984375 11.038543701171875
        11.154518127441406 12.195197105407715 13.702812194824219 14.73738956451416 15.088348388671875 15.390488624572754
        15.579696655273438 15.390486717224121 15.066986083984375 15.179908752441406 15.494247436523438 15.988648414611816
        16.31824493408203 15.19821834564209 13.397628784179688 11.935791015625 11.316261291503906 11.841178894042969
        13.382369995117188 14.645835876464844 15.457626342773438 16.12903594970703 16.29688262939453 15.567489624023438
        12.237923622131348 8.532974243164062 6.717124938964844 5.4902801513671875 5.6154022216796875 5.194251537322998
        4.4312896728515625 5.4536590576171875 7.919555187225342 9.500411987304688 8.890045166015625 8.117919921875
        9.271522521972656 11.346778869628906 13.449508666992188 15.164649963378906 16.24805450439453 16.684471130371094
        16.907257080078125 17.361976623535156 18.32025909423828 18.14325714111328 17.041534423828125 16.885894775390625
        17.184974670410156 17.395553588867188 18.37213897705078 19.052703857421875 19.141212463378906 19.12290382385254
        19.174781799316406 19.028289794921875 18.686485290527344 18.396560668945312 18.34467315673828 18.613235473632812
        19.18088722229004 19.68444061279297 20.035400390625 20.490127563476562 20.975374221801758 21.185951232910156
        20.947906494140625 20.432144165039062 19.64171600341797 18.799400329589844 18.23480987548828 17.79839515686035
        17.453536987304688 17.276527404785156 17.175819396972656 17.404708862304688 18.25922393798828 19.507431030273438
        20.865501403808594 21.81462860107422 22.02520751953125 21.81157875061035 21.588790893554688 21.372106552124023
        21.060821533203125 20.377212524414062 19.394514083862305 18.60102653503418 18.384353637695312 18.34772491455078
        17.85637664794922 16.476943969726562 13.818778038024902 11.200294494628906 10.669273376464844 11.886962890625
        12.579728126525879 12.1219482421875 12.0364990234375 12.640769004821777 6.656089782714844 7.135231018066406
        7.821891784667969 8.679466247558594 5.163734436035156 2.3255081176757812 1.98065185546875 3.4546966552734375
        3.2074966430664062 5.310218811035156 5.5604705810546875 5.5726776123046875 5.5146942138671875 4.831077575683594
        4.187141418457031 3.7629318237304688 3.2197036743164062 3.6072845458984375 4.116942882537842 2.6337509155273438
        1.8097457885742188 2.1790237426757812 3.6317062377929688 5.273597717285156 7.074188232421875 9.344764709472656
        11.749626159667969 12.860495567321777 13.376266479492188 13.849296569824219 14.523757934570312 15.430160522460938
        16.525772094726562 17.242958068847656 16.632591247558594 11.340675354003906 4.4312896728515625 2.2431106567382812
        3.7965009212493896 5.755790710449219 8.798484802246094 13.312171936035156 16.983551025390625 18.558303833007812
        17.517623901367188 15.033416748046875 14.03851318359375 15.161598205566406 16.25110626220703 16.541030883789062
        16.669212341308594 16.409805297851562 15.768913269042969 14.609207153320312 11.713004112243652 8.999908447265625
        9.329505920410156 10.943938255310059 12.213508605957031 11.243019104003906 9.472946166992188 10.01617431640625
        12.82387638092041 15.317237854003906 16.437271118164062 16.28772735595703 15.442368507385254 14.609207153320312
        14.535964965820312 15.665153503417969 16.888946533203125 17.322303771972656 17.105621337890625 15.811637878417969
        13.577682495117188 12.433241844177246 12.186042785644531 11.832023620605469 12.665184020996094 14.218573570251465
        15.417953491210938 15.997801780700684 16.22058868408203 15.295875549316406 12.811668395996094 10.925628662109375
        9.378341674804688 8.0660400390625 6.6194610595703125 4.199347972869873 3.3295669555664062 4.962311267852783
        7.232887268066406 7.983642101287842 7.321388244628906 7.223731994628906 8.603164672851562 10.10467529296875
        11.856437683105469 14.148384094238281 15.8970947265625 16.27857208251953 15.588851928710938 14.722129821777344
        14.456618309020996 14.444412231445312 14.859458923339844 16.425064086914062 17.554244995117188 17.239906311035156
        17.233802795410156 16.946929931640625 16.959136962890625 17.72820281982422 18.402664184570312 18.518630981445312
        18.594924926757812 18.912322998046875 19.244972229003906 19.589828491210938 19.986572265625 20.36499786376953
        20.783103942871094 21.219520568847656 21.500289916992188 21.478927612304688 21.210365295410156 20.755638122558594
        20.15442657470703 19.455551147460938 18.753623962402344 18.09136962890625 17.575607299804688 17.090362548828125
        16.751609802246094 16.885894775390625 17.600021362304688 19.104583740234375 20.75258445739746 21.481979370117188
        21.79937171936035 22.24799346923828 22.27545928955078 21.72917938232422 21.045562744140625 20.374160766601562
        19.81566619873047 19.394515991210938 19.138160705566406 18.884855270385742 18.25922393798828 17.014068603515625
        15.463729858398438 13.791314125061035 12.457656860351562 11.798454284667969 11.15451717376709 11.093475341796875
        12.231820106506348 13.409835815429688 7.190162658691406 7.196266174316406 7.296974182128906 8.145393371582031
        9.073150634765625 7.727287292480469 3.756828546524048 2.7283551692962646 3.1983413696289062 3.6500167846679688
        5.151527404785156 5.706962585449219 5.676445007324219 5.221717834472656 4.925689697265625 4.3763580322265625
        3.3997652530670166 3.988769769668579 3.7873458862304688 1.8829954862594604 1.3092422485351562 1.8311080932617188
        3.3875579833984375 4.660179138183594 6.308173656463623 8.984649658203125 11.819816589355469 13.037506103515625
        13.135169982910156 13.568527221679688 14.944916725158691 16.760765075683594 18.219552993774414 18.631553649902344
        17.941835403442383 12.414932250976562 4.2237629890441895 2.911468505859375 4.5136871337890625 6.039611339569092
        8.276618957519531 12.033447265625 14.798423767089844 15.9520263671875 15.414902687072754 14.11175537109375
        13.672295570373535 14.04461669921875 14.603103637695312 15.466781616210938 16.501358032226562 16.714988708496094
        16.486099243164062 15.051727294921875 11.682487487792969 9.799491882324219 10.672325134277344 12.03955078125
        12.872712135314941 11.093475341796875 8.001953125 8.0233154296875 11.243019104003906 15.243996620178223
        17.587814331054688 17.465744018554688 16.15345001220703 14.477981567382812 13.144325256347656 13.299965858459473
        14.703819274902344 16.1046142578125 16.971345901489258 17.242958068847656 15.796379089355469 14.11785888671875
        13.016144752502441 11.9754638671875 12.326424598693848 14.111754417419434 15.585800170898438 16.23279571533203
        16.34876251220703 14.774009704589844 12.65908145904541 12.759788513183594 14.358954429626465 14.343696594238281
        10.202339172363281 6.04266357421875 5.322425842285156 6.4210968017578125 6.3814239501953125 5.459762096405029
        6.10675048828125 8.124031066894531 9.692680358886719 9.674368858337402 10.132148742675781 12.610244750976562
        14.990692138671875 15.170753479003906 13.330483436584473 11.090422630310059 9.308143615722656 8.975494384765625
        10.742515563964844 13.440353393554688 15.326393127441406 15.387434959411621 15.784172058105469 16.434219360351562
        17.059844970703125 17.83806800842285 18.17377471923828 18.12494659423828 18.607131958007812 19.418930053710938
        19.9468994140625 20.31616973876953 20.664085388183594 21.164588928222656 21.77495765686035 22.205270767211914
        22.15949249267578 21.77190399169922 21.344642639160156 20.892976760864258 20.30396270751953 19.577621459960938
        18.991668701171875 18.61628532409668 18.37213897705078 18.060850143432617 17.92352294921875 17.914369583129883
        17.77092742919922 18.05169677734375 18.955047607421875 19.85228729248047 20.825828552246094 21.61931037902832
        21.362951278686523 20.468765258789062 20.17884063720703 20.419937133789062 20.389419555664062 20.029296875
        19.62950897216797 19.174781799316406 18.475906372070312 17.377243041992188 16.263315200805664 15.317238807678223
        14.496292114257812 13.739433288574219 13.147377014160156 13.119903564453125 13.821830749511719 14.590896606445312
        7.031463623046875 7.3335957527160645 7.345801830291748 7.776115417480469 9.878844261169434 11.597030639648438
        9.039580345153809 2.932831048965454 3.1342544555664062 3.2654802799224854 4.242073059082031 4.922637939453125
        4.632713317871094 4.5960845947265625 4.702903747558594 5.093536376953125 4.705955505371094 4.092529296875
        3.5218353271484375 2.7039413452148438 2.5330352783203125 2.8077011108398438 4.007080078125 4.962310791015625
        6.07012939453125 8.667259216308594 11.847282409667969 13.35489559173584 13.193154335021973 13.428146362304688
        15.268409729003906 18.20734405517578 20.28260040283203 20.34058380126953 19.394515991210938 12.768943786621094
        4.184089660644531 4.190193176269531 5.069122314453125 6.1647419929504395 7.654045104980469 11.20944881439209
        14.648887634277344 16.43421745300293 16.507461547851562 15.625480651855469 13.812676429748535 12.533950805664062
        13.730278968811035 16.13208770751953 17.481002807617188 17.288732528686523 16.727195739746094 14.532912254333496
        12.0914306640625 11.880859375 12.750633239746094 13.223670959472656 13.245033264160156 10.837120056152344
        7.4678802490234375 7.315284729003906 9.671318054199219 13.486129760742188 16.449478149414062 17.041534423828125
        16.35791778564453 15.396592140197754 13.895079612731934 12.256232261657715 12.027342796325684 13.132119178771973
        14.593948364257812 15.9520263671875 16.1107177734375 15.500351905822754 15.253150939941406 14.954071044921875
        14.539016723632812 15.024261474609375 15.713981628417969 15.9215087890625 15.451523780822754 14.014100074768066
        13.382369995117188 14.239937782287598 14.722128868103027 12.997833251953125 10.711997985839844 10.193183898925781
        10.330513000488281 10.327460289001465 8.117919921875 5.4963836669921875 5.468917369842529 7.89208984375
        9.720146179199219 9.121978759765625 8.331550598144531 10.03448486328125 12.237921714782715 12.207406044006348
        10.388504028320312 8.310187339782715 5.883971691131592 5.359046936035156 7.193214416503906 9.350868225097656
        11.340676307678223 12.601089477539062 14.346748352050781 16.33655548095703 17.313148498535156 17.65496063232422
        17.78618621826172 17.92657470703125 18.579666137695312 19.293800354003906 19.580673217773438 19.70580291748047
        20.17884063720703 21.301916122436523 22.31208038330078 22.67830467224121 22.35175323486328 21.811574935913086
        21.411788940429688 20.984527587890625 20.413833618164062 19.962158203125 19.876708984375 19.80956268310547
        19.608139038085938 19.327369689941406 19.17783546447754 19.125953674316406 18.756675720214844 18.573562622070312
        18.961149215698242 19.64781951904297 20.2520809173584 20.383316040039062 19.81566619873047 19.56541633605957
        20.1940975189209 20.819725036621094 20.725120544433594 20.25818634033203 19.849233627319336 19.67223358154297
        19.483015060424805 18.604080200195312 17.267372131347656 16.28162384033203 15.607163429260254 15.088349342346191
        14.789268493652344 14.505448341369629 14.584793090820312 15.173805236816406 5.5604705810546875 5.92669677734375
        5.98773193359375 6.628623962402344 8.297981262207031 10.05889892578125 10.748619079589844 6.381423473358154
        2.801597833633423 3.045745611190796 2.874847412109375 4.272590637207031 4.724266052246094 4.861595630645752
        4.965362548828125 5.203407287597656 5.740531921386719 5.035552978515625 3.7965011596679688 3.9490966796875
        4.840232849121094 5.001983642578125 5.200355529785156 5.178992748260498 5.4872283935546875 7.074187755584717
        9.585861206054688 11.612289428710938 12.302009582519531 13.126014709472656 15.283668518066406 18.390457153320312
        20.908233642578125 21.301918029785156 20.926544189453125 15.106657981872559 4.904327392578125 4.840233325958252
        4.977569103240967 6.149482727050781 7.458725452423096 10.565505027770996 14.835044860839844 17.267372131347656
        16.913360595703125 15.234840393066406 12.610244750976562 11.551254272460938 13.467818260192871 16.455581665039062
        17.584762573242188 17.035430908203125 15.118865013122559 11.673332214355469 11.252174377441406 13.235877990722656
        14.816734313964844 14.914398193359375 14.270454406738281 10.544144630432129 6.936859130859375 7.4495697021484375
        9.430221557617188 11.551254272460938 13.830986976623535 15.640739440917969 16.0069580078125 15.99169921875
        15.601058959960938 13.776054382324219 11.709953308105469 10.687583923339844 11.175880432128906 12.976470947265625
        14.593948364257812 15.363014221191406 16.837059020996094 18.37213897705078 17.97540283203125 16.702781677246094
        15.411849975585938 14.05682373046875 12.982575416564941 12.787254333496094 13.476974487304688 13.583786010742188
        12.283699035644531 10.168768882751465 9.472946166992188 10.071106910705566 10.998870849609375 12.009033203125
        12.173835754394531 10.916473388671875 7.370216369628906 6.317329406738281 7.141334533691406 6.775108337402344
        6.286811828613281 7.5014495849609375 9.042633056640625 8.926665306091309 8.545181274414062 6.820884704589844
        3.872802734375 4.367195129394531 6.643882751464844 8.0416259765625 9.454635620117188 11.053801536560059
        12.915435791015625 15.100555419921875 16.31824493408203 16.644798278808594 16.864524841308594 17.392501831054688
        18.26532745361328 18.72615623474121 18.799400329589844 18.707847595214844 19.168678283691406 20.715965270996094
        21.75359344482422 21.84209442138672 21.68340301513672 21.67729949951172 21.64983367919922 21.320228576660156
        20.914337158203125 20.764793395996094 20.847192764282227 20.621353149414062 20.15442657470703 19.73937225341797
        19.6661319732666 19.696645736694336 19.190040588378906 18.485061645507812 18.414873123168945 18.985565185546875
        19.464706420898438 19.85839080810547 20.17578887939453 20.578628540039062 21.176795959472656 21.417892456054688
        21.192054748535156 20.981475830078125 20.938751220703125 20.880767822265625 20.499284744262695 19.467758178710938
        18.356882095336914 17.462690353393555 16.50745964050293 15.482040405273438 14.737388610839844 14.230781555175781
        14.090392112731934 14.792320251464844 4.821922302246094 5.099639892578125 5.078277587890625 5.697807788848877
        6.140327453613281 7.309181213378906 9.253211975097656 9.567550659179688 4.4709625244140625 2.761924982070923
        3.6988449096679688 4.583878040313721 5.4719696044921875 5.4048309326171875 5.133216857910156 5.255286693572998
        5.4414520263671875 5.066070079803467 4.199348449707031 4.818870544433594 5.786308765411377 5.4109344482421875
        4.666282653808594 4.718162536621094 4.834129333496094 5.334632873535156 6.131172180175781 7.3213887214660645
        8.743553161621094 11.13925838470459 13.864555358886719 16.397598266601562 18.894012451171875 20.722068786621094
        21.088287353515625 18.692588806152344 10.306098937988281 4.315315246582031 4.315315246582031 6.4516143798828125
        7.730339050292969 9.106720924377441 12.0975341796875 14.477981567382812 14.212471961975098 13.006988525390625
        11.9937744140625 11.761832237243652 13.000885009765625 15.216529846191406 16.409805297851562 16.33960723876953
        12.472915649414062 8.215583801269531 9.93377685546875 13.745536804199219 16.391494750976562 16.745506286621094
        15.9276123046875 10.574661254882812 6.173896789550781 7.144385814666748 9.790336608886719 11.163673400878906
        12.234870910644531 14.11175537109375 15.204323768615723 15.283668518066406 15.35690975189209 14.679405212402344
        12.634665489196777 10.165718078613281 9.079254150390625 10.08941650390625 11.954102516174316 13.480026245117188
        15.778068542480469 18.36298370361328 18.67732810974121 17.297887802124023 15.753654479980469 14.03851318359375
        12.945953369140625 12.884918212890625 12.671287536621094 11.523787498474121 10.553297996520996 9.323402404785156
        8.581802368164062 8.926666259765625 9.710990905761719 10.986663818359375 12.323370933532715 12.793357849121094
        10.150459289550781 7.181007385253906 4.577773571014404 3.073211669921875 3.96435546875 5.813774108886719
        7.2725605964660645 7.9256591796875 9.857475280761719 6.997894287109375 2.3224563598632812 3.7018966674804688
        6.854454040527344 8.767967224121094 9.637748718261719 10.827964782714844 12.131112098693848 13.574631690979004
        14.502394676208496 14.780113220214844 15.066986083984375 15.912352561950684 16.904205322265625 17.593917846679688
        18.414871215820312 18.887908935546875 19.306007385253906 20.16968536376953 20.416885375976562 20.453506469726562
        21.091339111328125 21.75664520263672 21.81768226623535 21.57658576965332 21.411788940429688 21.326332092285156
        21.271400451660156 20.841087341308594 20.13001251220703 19.66002655029297 19.75463104248047 19.595932006835938
        18.573562622070312 17.307044982910156 17.017122268676758 17.74651336669922 18.387405395507812 19.266334533691406
        20.548110961914062 21.256141662597656 21.375167846679688 21.585739135742188 21.84209442138672 21.958066940307617
        22.05877685546875 21.68950653076172 20.844139099121094 20.18189239501953 19.6386661529541 18.909271240234375
        17.90521240234375 16.492202758789062 15.436264991760254 14.822837829589844 14.212470054626465 14.633628845214844
        6.808677673339844 5.975525379180908 5.053863525390625 4.846336364746094 4.953155517578125 5.304115295410156
        7.361061096191406 9.573654174804688 8.767967224121094 2.7649765014648438 2.7405624389648438 3.6011810302734375
        4.678489685058594 5.786308288574219 5.4963836669921875 5.4445037841796875 5.218666076660156 4.760887145996094
        4.641868591308594 5.5177459716796875 5.343788146972656 4.6143951416015625 4.5167388916015625 4.7151103019714355
        4.5381011962890625 3.8148117065429688 3.4394381046295166 3.6286544799804688 4.5594635009765625 7.742546081542969
        11.91748046875 14.630577087402344 16.748558044433594 19.275489807128906 20.587783813476562 20.047607421875
        14.178901672363281 5.5238494873046875 4.3763580322265625 5.5970916748046875 7.263404369354248 8.456680297851562
        10.168769836425781 11.89306640625 12.256234169006348 11.9937744140625 11.590927124023438 11.413925170898438
        12.619400024414062 14.981537818908691 16.663108825683594 16.968292236328125 12.430191040039062 7.831047534942627
        9.558395385742188 13.721121788024902 17.041534423828125 17.64885711669922 16.840110778808594 11.026336669921875
        5.627616882324219 6.338691234588623 9.515670776367188 11.139259338378906 11.282691955566406 12.338629722595215
        13.96221923828125 14.563431739807129 14.828941345214844 15.100555419921875 13.90728759765625 11.249122619628906
        9.195228576660156 9.472946166992188 11.270484924316406 12.912384033203125 14.584793090820312 16.721092224121094
        17.737356185913086 17.041534423828125 16.31824493408203 15.860466957092285 16.19617462158203 15.887939453125
        12.900177001953125 9.93072509765625 9.784233093261719 9.677421569824219 9.009063720703125 9.195228576660156
        9.472946166992188 10.00701904296875 10.837120056152344 11.386459350585938 11.227761268615723 9.772026062011719
        5.310218811035156 1.6998826265335083 3.3997650146484375 6.125068664550781 8.761863708496094 11.133155822753906
        12.771995544433594 6.796470642089844 2.8534774780273438 3.4028167724609375 5.838188171386719 8.676414489746094
        10.06195068359375 11.413925170898438 12.674338340759277 13.571578979492188 13.934754371643066 13.492234230041504
        13.27249813079834 13.840141296386719 14.557327270507812 15.9947509765625 18.08831787109375 19.65392303466797
        20.529800415039062 20.871604919433594 20.572525024414062 20.496231079101562 21.192054748535156 21.423995971679688
        20.81667137145996 20.795310974121094 21.326332092285156 21.70781707763672 21.87872314453125 21.460617065429688
        20.39246940612793 19.71495819091797 19.595932006835938 18.631553649902344 17.007963180541992 15.997802734375
        16.0252685546875 16.937774658203125 18.14936065673828 19.66613006591797 21.088287353515625 21.509445190429688
        21.399581909179688 21.89398193359375 22.516555786132812 22.296823501586914 21.84819984436035 21.22867774963379
        20.728172302246094 20.84718894958496 20.838035583496094 20.19715118408203 19.351783752441406 18.07611083984375
        16.522720336914062 15.543076515197754 15.216529846191406 15.430160522460938 9.402755737304688 7.5685882568359375
        5.670341968536377 4.4648590087890625 4.6174468994140625 5.349891662597656 6.979583740234375 9.079253196716309
        10.904266357421875 9.225746154785156 3.7690353393554688 3.1464617252349854 4.0162353515625 5.4414520263671875
        5.96942138671875 5.825981140136719 5.4353485107421875 5.087432861328125 5.294960021972656 5.529953479766846
        5.029449939727783 4.324470520019531 4.776145935058594 5.288856506347656 4.11083984375 2.5574493408203125
        2.6856307983398438 2.8443222045898438 3.643913507461548 6.216620922088623 10.953094482421875 14.166695594787598
        15.912353515625 17.264320373535156 18.06390380859375 17.88995361328125 15.485093116760254 9.067047119140625
        4.864646911621094 5.4750213623046875 7.4800872802734375 9.631646156311035 10.986664772033691 11.27048397064209
        11.090423583984375 10.211494445800781 9.225746154785156 10.01617431640625 12.64077091217041 15.475937843322754
        17.175819396972656 17.569503784179688 14.307075500488281 9.765923500061035 9.653007507324219 12.414932250976562
        15.573593139648438 16.873687744140625 16.962188720703125 12.390518188476562 5.319374084472656 5.316322326660156
        8.224739074707031 10.571609497070312 10.202339172363281 9.704886436462402 11.053802490234375 12.820823669433594
        13.617355346679688 14.00799560546875 13.504440307617188 11.661125183105469 10.480056762695312 11.478012084960938
        13.385421752929688 14.862510681152344 15.469833374023438 16.034423828125 16.690574645996094 16.434219360351562
        16.0557861328125 16.31519317626953 16.791282653808594 14.883880615234375 11.758780479431152 10.739463806152344
        11.169776916503906 10.589920043945312 8.868675231933594 8.810691833496094 9.494308471679688 10.394607543945312
        10.962249755859375 10.800498962402344 10.10162353515625 9.018218994140625 6.274604797363281 3.875854969024658
        5.011138916015625 7.5045013427734375 10.098572731018066 12.0609130859375 11.709953308105469 6.720176696777344
        3.4638519287109375 2.905365228652954 4.663230895996094 8.0263671875 9.674368858337402 11.203346252441406
        12.640769958496094 13.754692077636719 14.441361427307129 13.96832275390625 13.495285987854004 13.147377014160156
        13.071076393127441 14.627525329589844 17.264320373535156 19.62950897216797 21.301916122436523 21.89398193359375
        21.567428588867188 20.902130126953125 20.3649959564209 19.64171600341797 19.052703857421875 19.565414428710938
        20.770896911621094 21.64067840576172 21.89703369140625 21.38127326965332 20.21240997314453 19.046600341796875
        17.88079833984375 16.391494750976562 15.521713256835938 15.820793151855469 16.675315856933594 17.85027313232422
        19.208351135253906 20.477922439575195 21.234779357910156 21.503341674804688 21.75969696044922 22.058778762817383
        21.85735321044922 21.179847717285156 20.789207458496094 20.57252311706543 20.578628540039062 21.030303955078125
        21.057767868041992 20.0384521484375 19.196144104003906 18.393508911132812 16.870628356933594 15.973388671875
        16.26331329345703 16.37012481689453 9.250160217285156 7.4922943115234375 6.265449523925781 5.154579162597656
        5.291908264160156 6.347846984863281 7.6143646240234375 9.195228576660156 10.858482360839844 11.804556846618652
        7.205420970916748 2.2217485904693604 3.9796142578125 4.873809814453125 5.98162841796875 5.804618835449219
        5.4689178466796875 5.163734436035156 5.3773651123046875 5.093536376953125 4.815818786621094 4.821922302246094
        4.965362548828125 4.953155517578125 4.260383129119873 3.103729248046875 2.6825790405273438 3.1647720336914062
        4.290901184082031 5.954162120819092 9.95513916015625 13.373214721679688 15.570541381835938 17.126991271972656
        17.377243041992188 16.995758056640625 15.796379089355469 10.928679466247559 6.701866149902344 7.364112854003906
        9.070098876953125 10.788291931152344 10.992767333984375 9.530929565429688 8.209480285644531 7.3763275146484375
        7.9561767578125 10.419021606445312 13.528854370117188 15.677360534667969 16.919464111328125 17.368080139160156
        15.808586120605469 12.305062294006348 10.03448486328125 11.032440185546875 13.89813232421875 16.22669219970703
        17.249059677124023 13.840141296386719 5.4048309326171875 4.3977203369140625 5.819878101348877 8.850364685058594
        9.463790893554688 8.0782470703125 7.763908386230469 9.830009460449219 12.210456848144531 13.443404197692871
        13.565475463867188 12.372200012207031 11.722160339355469 13.061920166015625 15.222633361816406 17.395553588867188
        18.646812438964844 18.497268676757812 18.33246612548828 17.908266067504883 16.37012481689453 15.045622825622559
        13.93170166015625 11.575669288635254 10.788291931152344 11.658073425292969 12.314216613769531 11.847282409667969
        9.042633056640625 6.344795227050781 7.187110900878906 9.796440124511719 11.566513061523438 11.511581420898438
        8.230842590332031 6.628623962402344 7.104706287384033 6.192207336425781 5.352943420410156 6.5004425048828125
        8.737448692321777 10.742515563964844 11.426132202148438 9.585861206054688 5.166786193847656 3.1434097290039062
        4.788352966308594 7.8463053703308105 8.944977760314941 10.266427040100098 11.392562866210938 12.244026184082031
        13.211463928222656 13.965271949768066 14.865562438964844 14.511551856994629 13.742485046386719 14.603103637695312
        16.690574645996094 18.942840576171875 20.813621520996094 21.460617065429688 21.301918029785156 20.929597854614258
        20.554214477539062 20.1055908203125 19.7729434967041 19.71190643310547 20.0811767578125 20.654930114746094
        20.770896911621094 20.053712844848633 18.939790725708008 17.84111785888672 16.830955505371094 16.24500274658203
        16.443374633789062 17.123939514160156 17.85637664794922 18.802452087402344 19.86449432373047 20.545059204101562
        20.896026611328125 21.417892456054688 21.903139114379883 21.92144775390625 21.77190399169922 21.604049682617188
        21.265296936035156 20.883819580078125 20.682395935058594 20.087282180786133 18.717004776000977 17.618331909179688
        17.615280151367188 17.712942123413086 17.096466064453125 16.617324829101562 16.504409790039062 16.0008544921875
        7.3824310302734375 6.637779235839844 6.4882354736328125 6.170845031738281 6.137275695800781 6.6164093017578125
        7.260352611541748 8.529922485351562 10.309150695800781 11.108734130859375 8.438369750976562 1.428268551826477
        3.4089202880859375 4.876861572265625 6.08538818359375 5.98773193359375 5.801567554473877 5.4841766357421875
        5.258338928222656 5.243080139160156 5.3773651123046875 5.282752990722656 4.837181091308594 4.5258941650390625
        4.794456481933594 4.303108215332031 1.91046142578125 3.1525650024414062 4.638816833496094 5.319374084472656
        8.0294189453125 11.871695518493652 15.118866920471191 17.554244995117188 18.03033447265625 16.791284561157227
        14.041563987731934 10.08026123046875 8.560440063476562 9.475997924804688 10.327461242675781 10.898162841796875
        9.231849670410156 6.500442028045654 5.89923095703125 6.967376232147217 8.694725036621094 10.943939208984375
        13.367103576660156 14.917449951171875 16.14429473876953 17.151405334472656 16.736351013183594 14.11785888671875
        10.470901489257812 9.96429443359375 12.112792015075684 14.386427879333496 15.463729858398438 12.387465476989746
        5.157630920410156 3.7385177612304688 3.8758544921875 6.5187530517578125 8.297981262207031 7.306129455566406
        6.134223461151123 7.739494323730469 10.922576904296875 12.887969970703125 13.126014709472656 12.176887512207031
        11.569565773010254 12.439346313476562 14.627525329589844 18.01507568359375 21.140174865722656 21.417892456054688
        19.98046875 18.21344757080078 15.909300804138184 14.215522766113281 13.873719215393066 12.286750793457031
        10.348824501037598 10.711997985839844 12.527847290039062 13.708916664123535 12.155525207519531 5.825981616973877
        4.5167388916015625 7.101654052734375 8.893096923828125 9.347816467285156 6.167793273925781 5.014190673828125
        4.657127380371094 4.0589599609375 4.141365051269531 5.2797017097473145 7.174903869628906 9.247108459472656
        11.481063842773438 12.619400024414062 11.792349815368652 8.648948669433594 7.800529479980469 7.770012378692627
        7.733390808105469 9.222694396972656 10.251167297363281 10.516678810119629 11.227760314941406 12.74453067779541
        14.532913208007812 14.581741333007812 14.413894653320312 15.436263084411621 16.995758056640625 18.384353637695312
        19.57457160949707 20.23987579345703 20.590835571289062 20.935699462890625 21.17374610900879 21.103546142578125
        20.920440673828125 20.786155700683594 20.374160766601562 19.80345916748047 19.302955627441406 18.613235473632812
        17.86248016357422 17.502365112304688 17.410812377929688 17.380294799804688 17.474897384643555 17.66106414794922
        17.932676315307617 18.573562622070312 19.470809936523438 20.34058380126953 20.981475830078125 21.591842651367188
        21.84819793701172 21.66204071044922 21.597946166992188 21.521652221679688 21.106595993041992 20.831932067871094
        20.474868774414062 19.379255294799805 18.26837730407715 17.79839324951172 17.64275550842285 17.419967651367188
        17.007963180541992 16.519668579101562 16.13513946533203 15.973388671875 6.598099231719971 6.692710876464844
        7.4251556396484375 7.641838073730469 7.318336009979248 6.714073181152344 6.5980987548828125 7.809684753417969
        9.601119041442871 11.072112083435059 10.876800537109375 5.96026611328125 1.492355227470398 3.6042327880859375
        5.676445007324219 6.11895751953125 5.92669677734375 5.5299530029296875 5.252235412597656 5.4689178466796875
        5.5269012451171875 5.121002197265625 4.229866027832031 3.9185791015625 4.992828369140625 5.032501220703125
        3.4638519287109375 3.048797607421875 4.898223876953125 5.89923095703125 8.03857421875 11.767936706542969
        15.509507179260254 17.98455810546875 18.631553649902344 16.550186157226562 12.384414672851562 9.945982933044434
        10.238960266113281 11.13315486907959 11.835075378417969 11.96630859375 10.293891906738281 8.294929504394531
        7.873779296875 8.371223449707031 9.225746154785156 10.507523536682129 12.219611167907715 13.788261413574219
        15.182960510253906 16.21448516845703 15.741447448730469 12.906280517578125 9.762870788574219 9.671318054199219
        10.892059326171875 11.883912086486816 11.761833190917969 8.661155700683594 4.699851989746094 3.909423828125
        4.4160308837890625 5.96331787109375 6.982635974884033 6.915496826171875 6.854454040527344 7.950072765350342
        10.251167297363281 12.0975341796875 12.204352378845215 11.523788452148438 11.124000549316406 10.644859313964844
        12.155525207519531 16.35181427001953 20.822776794433594 22.52876091003418 20.908233642578125 17.456588745117188
        14.319283485412598 13.418992042541504 13.351844787597656 12.906280517578125 12.244026184082031 12.695701599121094
        13.815727233886719 14.679405212402344 14.600051879882812 10.214546203613281 6.265449523925781 4.6113433837890625
        4.852439880371094 6.018249034881592 5.099639892578125 4.2237629890441895 3.030487060546875 3.6713790893554688
        3.7232589721679688 4.1077880859375 4.956207275390625 6.591995716094971 9.503463745117188 12.216560363769531
        13.88592529296875 13.241981506347656 12.167732238769531 8.145393371582031 6.4210968017578125 8.243049621582031
        9.848320960998535 10.361030578613281 10.522780418395996 11.108734130859375 11.944947242736816 12.295906066894531
        13.437301635742188 15.021209716796875 16.599014282226562 17.87774658203125 19.013031005859375 19.83702850341797
        20.465713500976562 21.091339111328125 21.64373016357422 21.796316146850586 21.73833465576172 21.65288543701172
        21.134071350097656 20.31922149658203 19.82176971435547 19.367042541503906 18.939788818359375 18.921478271484375
        18.985565185546875 18.704795837402344 18.08831787109375 17.606124877929688 17.69158172607422 18.13409996032715
        18.723106384277344 19.589828491210938 20.496231079101562 21.106597900390625 21.417892456054688 21.533859252929688
        21.524703979492188 21.356849670410156 21.304969787597656 21.347694396972656 20.642723083496094 19.64171600341797
        19.028287887573242 18.19208526611328 17.313148498535156 17.023223876953125 16.724143981933594 16.0771484375
        16.046630859375 16.675315856933594 7.061981678009033 7.4434661865234375 8.304084777832031 8.868675231933594
        8.734397888183594 7.724235534667969 6.863609313964844 6.866661071777344 8.337654113769531 10.834068298339844
        12.649925231933594 12.524795532226562 8.398696899414062 2.4445343017578125 4.678489685058594 5.4353485107421875
        5.4017791748046875 5.4933319091796875 5.5024871826171875 5.905333995819092 5.673393249511719 5.029449462890625
        4.043701171875 3.5126800537109375 4.6143951416015625 5.001983165740967 5.063018798828125 3.4058685302734375
        5.087432861328125 6.997893810272217 9.311195373535156 12.62551212310791 16.0130615234375 18.06695556640625
        18.509475708007812 16.602067947387695 12.894072532653809 10.861534118652344 11.053802490234375 11.9541015625
        12.720115661621094 12.817770957946777 11.484115600585938 9.653007507324219 8.87172794342041 8.990753173828125
        9.466842651367188 10.174873352050781 11.246070861816406 12.686546325683594 14.01715087890625 14.502395629882812
        12.720115661621094 9.564498901367188 8.474990844726562 9.204383850097656 9.765923500061035 9.393600463867188
        7.4617767333984375 5.148475646972656 5.053864002227783 5.877868175506592 6.781211853027344 6.4790802001953125
        4.8524394035339355 5.240028381347656 7.3732757568359375 9.134193420410156 10.357978820800781 11.374252319335938
        11.645867347717285 11.682487487792969 11.267433166503906 8.801536560058594 8.951080322265625 13.241981506347656
        18.881805419921875 22.464675903320312 21.890928268432617 18.25312042236328 14.621414184570312 13.153480529785156
        12.649925231933594 13.608200073242188 14.719078063964844 15.060882568359375 14.703818321228027 14.597000122070312
        14.02020263671875 11.239967346191406 6.4180450439453125 4.141365051269531 4.235969543457031 4.7547831535339355
        4.5075836181640625 3.030487060546875 2.673424005508423 3.1800308227539062 3.6652753353118896 3.7202072143554688
        3.997925043106079 4.821922302246094 6.167793273925781 8.728294372558594 12.0914306640625 13.824882507324219
        13.635674476623535 8.877838134765625 6.250190258026123 7.8768310546875 9.750663757324219 10.504471778869629
        10.04058837890625 9.512619018554688 9.616378784179688 10.531936645507812 12.186042785644531 13.751640319824219
        15.027313232421875 16.0863037109375 17.291786193847656 18.732261657714844 20.33448028564453 21.561325073242188
        22.29376983642578 22.504350662231445 22.36090850830078 21.96112060546875 21.304969787597656 20.697654724121094
        20.126962661743164 19.589828491210938 19.73021697998047 20.27954864501953 20.447402954101562 20.13916778564453
        19.568466186523438 19.208351135253906 19.293800354003906 19.431137084960938 19.394515991210938 19.528793334960938
        19.75157928466797 19.876708984375 20.23987579345703 20.822776794433594 21.259193420410156 21.585737228393555
        21.94586181640625 22.03436279296875 21.326332092285156 20.203256607055664 19.290748596191406 18.21649932861328
        17.160560607910156 16.953033447265625 17.203285217285156 17.007965087890625 17.19108009338379 18.076112747192383
        7.708976745605469 7.727287292480469 7.9287109375 8.185066223144531 8.487197875976562 8.261360168457031
        7.5014495849609375 6.167793273925781 6.720176696777344 8.978546142578125 11.828970909118652 12.979522705078125
        12.475967407226562 8.63369083404541 4.770042419433594 4.4038238525390625 4.913482666015625 5.5116424560546875
        5.5757293701171875 5.813774585723877 5.5970916748046875 4.901275634765625 3.7263107299804688 3.109832763671875
        4.0528564453125 4.416031360626221 4.663230895996094 5.5330047607421875 7.4648284912109375 9.402755737304688
        11.264381408691406 13.245033264160156 15.018157958984375 16.550186157226562 17.209388732910156 16.22669219970703
        13.791312217712402 12.03955078125 11.9296875 12.594985961914062 13.183998107910156 12.695701599121094
        11.078216552734375 9.671318054199219 9.451583862304688 9.90631103515625 10.327461242675781 10.534988403320312
        10.849327087402344 11.804557800292969 13.003936767578125 13.467819213867188 12.0029296875 9.118927001953125
        7.605208873748779 7.5136566162109375 7.351905822753906 5.4414520263671875 3.1281509399414062 3.8300704956054688
        6.6957621574401855 9.042634010314941 10.07415771484375 7.690666198730469 3.1739273071289062 3.7476730346679688
        6.994843006134033 9.533981323242188 10.208441734313965 10.806602478027344 11.746574401855469 12.491226196289062
        11.337623596191406 7.165748596191406 6.949066162109375 10.580764770507812 15.234840393066406 18.22565460205078
        19.367042541503906 18.851280212402344 17.410812377929688 15.875732421875 15.198219299316406 16.0802001953125
        16.403701782226562 15.955078125 15.103607177734375 14.471878051757812 13.525802612304688 12.375259399414062
        8.105712890625 5.444504261016846 4.928741455078125 4.7761454582214355 4.5564117431640625 2.880950689315796
        2.3743438720703125 3.4852142333984375 4.4190826416015625 4.3824615478515625 4.336677551269531 4.983673095703125
        5.710014343261719 7.248146057128906 9.89410400390625 11.984619140625 12.082275390625 8.975494384765625
        6.982635498046875 8.0172119140625 9.570602416992188 10.254219055175781 9.814750671386719 9.292884826660156
        9.692680358886719 11.020233154296875 12.588882446289062 14.03546142578125 14.725181579589844 14.490188598632812
        14.966278076171875 16.971345901489258 19.434188842773438 21.301916122436523 22.495195388793945 22.919403076171875
        22.626426696777344 21.79631805419922 20.828880310058594 19.84313201904297 18.964202880859375 18.738365173339844
        19.63866424560547 20.557266235351562 21.027250289916992 21.515548706054688 22.16559410095215 22.495193481445312
        22.449417114257812 21.88177490234375 21.079132080078125 20.456558227539062 19.83702850341797 19.281593322753906
        19.144264221191406 19.541000366210938 20.410781860351562 21.146276473999023 21.069976806640625 20.551162719726562
        19.96826171875 19.196144104003906 18.585769653320312 18.03643798828125 17.444381713867188 17.69158172607422
        18.720056533813477 19.080169677734375 18.948944091796875 19.400619506835938 8.185066223144531 8.056884765625
        7.7730631828308105 7.4770355224609375 7.5380706787109375 7.6143646240234375 7.4556732177734375 6.01214599609375
        6.167793273925781 7.4129486083984375 9.768974304199219 11.343728065490723 11.105682373046875 9.302040100097656
        6.6743998527526855 4.0467529296875 4.339729309082031 5.2522358894348145 5.313270568847656 5.346839904785156
        5.191200256347656 4.754783630371094 4.321418762207031 4.199348449707031 4.5533599853515625 4.4709625244140625
        5.044708728790283 7.4861907958984375 9.628593444824219 11.273536682128906 12.277596473693848 12.964263916015625
        13.824882507324219 15.005950927734375 15.515610694885254 14.801475524902344 13.461714744567871 12.521743774414062
        12.479018211364746 13.013092041015625 13.409835815429688 12.74147891998291 11.423079490661621 10.507522583007812
        10.406814575195312 10.867637634277344 11.313209533691406 11.420028686523438 11.566513061523438 12.088379859924316
        12.845237731933594 13.27860164642334 13.034454345703125 11.301002502441406 8.670310974121094 6.964324951171875
        5.829032897949219 4.669334888458252 3.7202072143554688 4.7517313957214355 7.5045013427734375 10.184028625488281
        11.835076332092285 9.610275268554688 3.927734613418579 4.193244934082031 6.775108337402344 8.630638122558594
        9.308144569396973 9.97955322265625 11.111784934997559 12.201301574707031 11.053802490234375 6.756798267364502
        6.534011363983154 8.905303955078125 10.10467529296875 10.254219055175781 13.763847351074219 17.429121017456055
        18.390457153320312 17.78618621826172 17.79228973388672 18.463699340820312 18.11578369140625 17.569503784179688
        16.803489685058594 15.427107810974121 13.818778991699219 12.506484985351562 8.395645141601562 5.5513153076171875
        5.005034923553467 4.5289459228515625 4.260383605957031 3.7354660034179688 2.7100448608398438 2.04473876953125
        1.9959107637405396 2.4292755126953125 3.4608001708984375 4.654075622558594 5.316322326660156 6.302070617675781
        8.0660400390625 9.076202392578125 9.396652221679688 8.490249633789062 7.025360107421875 7.5502777099609375
        8.682518005371094 9.433273315429688 9.698782920837402 10.089415550231934 11.316261291503906 12.927643775939941
        14.63057804107666 15.863518714904785 15.680411338806152 14.502395629882812 14.459671020507812 15.9947509765625
        17.85942840576172 19.77599334716797 21.77800750732422 22.614212036132812 22.07098388671875 21.30191993713379
        20.30091094970703 18.561355590820312 17.429122924804688 17.96014404296875 19.412826538085938 19.876708984375
        20.316171646118164 21.87261962890625 23.63353729248047 23.9906005859375 23.474838256835938 22.522659301757812
        21.427047729492188 20.404678344726562 19.281591415405273 18.36908721923828 17.92047119140625 17.520675659179688
        17.181922912597656 17.111724853515625 17.310096740722656 17.050687789916992 16.479995727539062 16.785179138183594
        17.76177215576172 18.27753448486328 18.530838012695312 19.269386291503906 20.404678344726562 20.789207458496094
        20.29785919189453 19.87059783935547 7.663200855255127 7.727287769317627 7.6204681396484375 7.2023701667785645
        7.098602294921875 7.089447021484375 6.826988220214844 6.222724914550781 6.198310852050781 6.5706329345703125
        8.252204895019531 9.317298889160156 8.691673278808594 6.778160095214844 7.080291748046875 6.5797882080078125
        3.5859222412109375 4.632713317871094 4.733421325683594 4.672386646270752 4.928741455078125 5.243079662322998
        5.774101257324219 6.140326976776123 6.213569164276123 6.05487060546875 6.3844757080078125 8.056884765625
        8.633689880371094 9.91546630859375 10.995819091796875 11.172828674316406 10.788291931152344 11.230812072753906
        11.9541015625 12.234870910644531 12.247078895568848 12.0029296875 12.009033203125 12.442398071289062
        12.778099060058594 12.341682434082031 11.474960327148438 10.821860313415527 10.71810245513916 11.072113037109375
        11.569565773010254 11.9205322265625 12.198249816894531 12.591934204101562 13.20841121673584 13.88897705078125
        14.191108703613281 14.133125305175781 13.718071937561035 12.811668395996094 9.98870849609375 6.6011505126953125
        4.181037425994873 4.0833740234375 6.268501281738281 9.244056701660156 11.685539245605469 10.812705993652344
        6.5004425048828125 5.5085906982421875 6.7995219230651855 7.9439697265625 8.633689880371094 8.899200439453125
        9.656059265136719 10.684531211853027 10.312202453613281 7.5624847412109375 6.4058380126953125 6.985687255859375
        5.755790710449219 4.4496002197265625 8.740501403808594 13.327430725097656 15.96728515625 16.33045196533203
        16.470840454101562 17.87774658203125 19.119842529296875 19.51048469543457 19.43113899230957 17.85942840576172
        15.445419311523438 12.512587547302246 7.6021575927734375 4.721214294433594 4.959259033203125 4.330574035644531
        4.0772705078125 5.133216857910156 5.243080139160156 4.4648590087890625 3.869743585586548 3.830070734024048
        4.0589599609375 4.4221343994140625 4.922637939453125 5.3987274169921875 6.4027862548828125 6.482132434844971
        7.040618896484375 7.666252613067627 5.972473621368408 6.2196736335754395 7.321388244628906 8.130134582519531
        9.042632102966309 10.153511047363281 11.89306640625 13.763847351074219 15.225685119628906 15.695671081542969
        15.048674583435059 14.807579040527344 15.427108764648438 16.544082641601562 17.65190887451172 18.799400329589844
        20.21240997314453 20.825828552246094 20.603042602539062 20.679344177246094 20.404678344726562 19.296852111816406
        18.29279136657715 18.18598175048828 18.765830993652344 18.982513427734375 19.510482788085938 20.996734619140625
        22.556228637695312 22.809532165527344 22.41889762878418 21.78411293029785 20.862449645996094 20.072021484375
        19.553207397460938 19.284645080566406 18.790245056152344 18.12494659423828 17.538986206054688 17.30094337463379
        17.096466064453125 16.3426570892334 15.961181640625 16.797386169433594 18.057798385620117 19.122901916503906
        20.026243209838867 20.633567810058594 21.024200439453125 20.926544189453125 20.25208282470703 19.565414428710938
        7.013153076171875 7.226783752441406 7.4648284912109375 7.4648284912109375 7.483139514923096 7.5014495849609375
        7.3641133308410645 7.229835510253906 6.869712829589844 6.265449523925781 7.315284729003906 8.081298828125
        6.131172180175781 4.5716705322265625 6.982635974884033 8.807640075683594 4.751731872558594 3.976562261581421
        4.208503723144531 4.464858531951904 5.368202209472656 6.08233642578125 6.613357067108154 6.897186756134033
        7.074188232421875 7.1260762214660645 6.772056579589844 7.254249095916748 6.4455108642578125 6.646934509277344
        7.6876139640808105 7.278663635253906 5.044708251953125 4.947051525115967 6.4668731689453125 8.0965576171875
        8.990753173828125 9.085357666015625 9.671318054199219 10.889007568359375 11.798454284667969 12.0059814453125
        11.539048194885254 10.910369873046875 10.834068298339844 11.331520080566406 12.0609130859375 12.509535789489746
        12.555313110351562 12.680442810058594 13.33353328704834 14.188056945800781 14.661094665527344 14.883881568908691
        14.813681602478027 14.700767517089844 13.434249877929688 8.838157653808594 4.3794097900390625 4.165779113769531
        6.234931945800781 8.722190856933594 10.702842712402344 11.050749778747559 8.200325012207031 5.893127918243408
        6.4851837158203125 7.696769714355469 7.800529479980469 7.3854827880859375 8.148445129394531 8.673362731933594
        8.270515441894531 7.4160003662109375 6.4333038330078125 5.92059326171875 4.0406494140625 3.933837890625
        7.3946380615234375 10.049742698669434 12.521743774414062 14.239936828613281 14.777061462402344 16.562393188476562
        19.196144104003906 20.661033630371094 21.225624084472656 20.34973907470703 18.23786163330078 13.321327209472656
        10.824913024902344 10.489212036132812 6.234931945800781 4.290901184082031 4.3733062744140625 6.4516143798828125
        7.6570963859558105 7.983642578125 8.645896911621094 7.644889831542969 5.92669677734375 5.3743133544921875
        6.228828430175781 6.674400329589844 6.3081746101379395 6.06097412109375 6.289863586425781 7.287818908691406
        5.426192760467529 5.175941467285156 6.289863586425781 6.976531982421875 7.8188395500183105 8.737449645996094
        10.333564758300781 12.204352378845215 13.040557861328125 12.555313110351562 12.448500633239746 13.90423583984375
        15.607162475585938 16.623435974121094 17.75566864013672 18.924530029296875 19.41282844543457 19.483016967773438
        19.83397674560547 20.444351196289062 20.679344177246094 20.703758239746094 20.139169692993164 19.306007385253906
        19.244970321655273 19.986572265625 20.645776748657227 21.231727600097656 22.01300048828125 22.373123168945312
        22.19611358642578 21.89398193359375 21.47587776184082 21.344642639160156 21.985536575317383 22.78511619567871
        22.16254425048828 21.250038146972656 20.841089248657227 19.85533905029297 18.19513702392578 17.151405334472656
        17.468795776367188 18.698692321777344 19.76378631591797 20.404678344726562 20.667137145996094 20.603042602539062
        20.487075805664062 20.1116943359375 19.73632049560547 19.68444061279297 7.358008861541748 7.4373626708984375
        7.5685882568359375 8.1087646484375 8.539077758789062 8.664207458496094 8.426162719726562 8.203376770019531
        8.020263671875 6.772056579589844 6.726280212402344 6.906341552734375 5.526900768280029 5.182044982910156
        6.991790771484375 8.423110961914062 6.735435485839844 4.333625316619873 4.318367004394531 5.151527404785156
        5.98773193359375 6.4363555908203125 6.567580699920654 6.591995716094971 6.707970142364502 6.817832946777344
        6.164741516113281 5.829032897949219 4.840232849121094 3.6713790893554688 3.6896896362304688 3.109833002090454
        1.7914352416992188 2.5421905517578125 3.1434097290039062 4.187141418457031 4.855491638183594 4.898223876953125
        6.4302520751953125 8.999908447265625 11.117889404296875 12.030396461486816 11.792350769042969 10.980560302734375
        10.983612060546875 11.844230651855469 12.836082458496094 13.177895545959473 12.930694580078125 12.738426208496094
        13.266396522521973 14.163642883300781 14.517653465270996 14.230780601501465 13.94696044921875 13.87982177734375
        13.858451843261719 11.621444702148438 7.425155162811279 5.728324890136719 7.052825927734375 8.725242614746094
        9.91851806640625 10.412918090820312 8.911407470703125 6.646934509277344 6.128120422363281 5.89923095703125
        5.679496765136719 5.920593738555908 7.098602294921875 6.775108337402344 6.305122375488281 6.704917907714844
        6.997893810272217 5.749687671661377 3.833122491836548 4.876861572265625 7.4129486083984375 8.835105895996094
        10.568557739257812 12.567520141601562 13.785210609436035 15.243995666503906 17.69158172607422 20.468767166137695
        21.927553176879883 22.02825927734375 20.80141258239746 14.163642883300781 6.512650012969971 5.4536590576171875
        4.6082916259765625 4.635765075683594 6.137275695800781 9.057891845703125 10.361030578613281 11.011077880859375
        11.746574401855469 9.546188354492188 7.602158069610596 8.636741638183594 10.516677856445312 10.794395446777344
        8.954132080078125 8.151496887207031 7.9317626953125 8.471939086914062 7.3732757568359375 5.4994354248046875
        5.6703410148620605 6.4882354736328125 6.924652099609375 7.129127502441406 7.806632995605469 8.951080322265625
        9.530930519104004 9.680473327636719 10.309150695800781 11.9083251953125 13.99884033203125 15.353858947753906
        16.943878173828125 18.659021377563477 19.080171585083008 19.202245712280273 19.83702850341797 20.21851348876953
        20.175790786743164 20.386367797851562 20.194101333618164 19.84008026123047 20.28260040283203 21.62847137451172
        22.482986450195312 22.495193481445312 22.809532165527344 23.203224182128906 23.090301513671875 22.888885498046875
        22.998748779296875 23.407699584960938 24.14319610595703 24.542984008789062 22.830894470214844 20.963165283203125
        20.755640029907227 20.624412536621094 19.315162658691406 18.18598175048828 18.079160690307617 19.083221435546875
        19.971315383911133 19.70885467529297 19.052703857421875 19.129005432128906 19.71495819091797 20.023191452026367
        20.1513729095459 20.450454711914062 7.7364420890808105 7.821892261505127 7.559433460235596 8.117919921875
        8.615371704101562 8.569596290588379 8.124031066894531 7.751701354980469 7.571639537811279 6.198310852050781
        5.948059558868408 6.283760070800781 6.03961181640625 6.10064697265625 6.875823974609375 7.9866943359375
        8.203376770019531 5.91143798828125 4.766990661621094 5.5421600341796875 6.207466125488281 6.527907848358154
        6.344795227050781 6.170845031738281 6.09454345703125 5.789360523223877 5.230873107910156 5.056915283203125
        4.6143951416015625 3.4455413818359375 3.2227554321289062 2.3804473876953125 1.8494186401367188 2.7680282592773438
        3.1403579711914062 3.4638516902923584 3.5584561824798584 2.932830572128296 4.4923248291015625 7.5258636474609375
        10.681480407714844 12.359992980957031 12.433243751525879 11.590928077697754 11.374252319335938 12.0548095703125
        12.897125244140625 13.312171936035156 13.116850852966309 12.778098106384277 13.000885963439941 13.715019226074219
        14.07513427734375 13.97747802734375 13.708914756774902 13.757743835449219 14.108702659606934 14.386429786682129
        11.841179847717285 7.9989013671875 7.214576721191406 8.093505859375 9.006011962890625 9.973450660705566
        10.766929626464844 9.418014526367188 6.103699207305908 4.0955810546875 4.4373931884765625 5.4048309326171875
        6.4973907470703125 5.5970916748046875 5.777153015136719 7.092498302459717 8.191169738769531 7.6570963859558105
        6.219673156738281 6.540115833282471 8.270515441894531 8.960235595703125 10.06805419921875 11.947999000549316
        14.02325439453125 15.424056053161621 16.855369567871094 19.64171600341797 22.07708740234375 22.962127685546875
        22.44331169128418 19.513534545898438 13.031402587890625 7.5930023193359375 4.4618072509765625 4.824974060058594
        7.284767150878906 10.394607543945312 12.421035766601562 13.498335838317871 13.440353393554688 11.816765785217285
        11.304054260253906 12.555313110351562 13.751640319824219 12.717063903808594 9.88800048828125 9.515670776367188
        10.03448486328125 10.614335060119629 10.547195434570312 7.940918445587158 6.021301746368408 6.07623291015625
        6.253242492675781 6.5431671142578125 6.6316752433776855 6.057921886444092 5.865653991699219 6.5858917236328125
        7.1413350105285645 7.934814453125 10.080262184143066 12.842185020446777 15.408798217773438 17.291786193847656
        18.12799835205078 18.948944091796875 19.86144256591797 19.76378631591797 18.897062301635742 18.546096801757812
        18.973358154296875 19.63256072998047 20.27954864501953 21.478927612304688 22.949920654296875 23.178810119628906
        23.13608741760254 23.523666381835938 23.74034881591797 23.538923263549805 23.877687454223633 24.610124588012695
        24.753562927246094 23.9112548828125 21.182899475097656 18.631553649902344 18.28974151611328 18.662071228027344
        18.039491653442383 17.542037963867188 17.81975555419922 18.555252075195312 18.768882751464844 18.20429229736328
        18.05169677734375 18.930633544921875 20.386369705200195 21.436203002929688 21.433151245117188 21.253089904785156
        7.91650390625 7.5716400146484375 7.092498779296875 7.248146057128906 7.333595275878906 7.199317932128906
        7.2115254402160645 7.327491283416748 6.915496826171875 5.560471057891846 6.02435302734375 6.6164093017578125
        6.729331970214844 6.4241485595703125 6.732383728027344 7.8279948234558105 8.581802368164062 7.174903869628906
        5.191200256347656 5.301063537597656 6.189155578613281 6.4577178955078125 6.137275218963623 5.90228271484375
        5.6428751945495605 4.950103759765625 4.4496002197265625 4.3977203369140625 4.5747222900390625 4.043701171875
        3.7202072143554688 2.945037841796875 2.2644729614257812 3.1525650024414062 3.5493013858795166 3.7812423706054688
        3.5462491512298584 2.5940704345703125 4.687644958496094 7.867668628692627 11.139259338378906 12.729270935058594
        12.796409606933594 12.250129699707031 11.880859375 12.176887512207031 12.891021728515625 13.620407104492188
        13.678398132324219 13.18704891204834 12.967314720153809 13.241981506347656 13.592942237854004 13.644828796386719
        13.226722717285156 12.994782447814941 13.513595581054688 14.157539367675781 13.266395568847656 10.217597961425781
        7.7242350578308105 7.2115254402160645 8.246101379394531 9.772026062011719 11.398667335510254 10.11077880859375
        5.731376647949219 4.06201171875 5.069122314453125 6.216620922088623 7.153541088104248 5.731376647949219
        5.5543670654296875 7.318336486816406 9.195228576660156 10.290840148925781 10.229804992675781 9.564497947692871
        10.07415771484375 9.91241455078125 10.180976867675781 11.807609558105469 14.548171043395996 16.64784812927246
        18.01507568359375 19.876710891723633 22.074033737182617 23.285621643066406 23.209327697753906 22.080141067504883
        19.370094299316406 13.089385986328125 5.203407287597656 4.5930328369140625 6.3936309814453125 9.128089904785156
        12.207404136657715 14.358955383300781 14.880828857421875 14.502395629882812 14.160591125488281 14.148383140563965
        14.178901672363281 12.021241188049316 8.633689880371094 8.883941650390625 10.623497009277344 12.045654296875
        12.424087524414062 10.080262184143066 7.156593322753906 5.99993896484375 5.90838623046875 6.00299072265625
        6.640830993652344 5.95721435546875 4.641868591308594 4.153572082519531 4.187141418457031 4.3977203369140625
        6.03961181640625 9.424118995666504 12.936798095703125 15.231788635253906 16.657005310058594 18.03643798828125
        18.527788162231445 17.97845458984375 17.71904754638672 18.509475708007812 19.74242401123047 20.532852172851562
        20.743431091308594 21.304969787597656 22.064878463745117 22.01300048828125 22.15644073486328 22.24188995361328
        21.92144775390625 22.22968292236328 23.270362854003906 23.70677947998047 23.483993530273438 22.626428604125977
        20.679344177246094 18.982513427734375 18.530839920043945 18.460647583007812 17.62749671936035 16.821800231933594
        16.827903747558594 17.517623901367188 18.411819458007812 19.000823974609375 19.571517944335938 20.624412536621094
        21.63457489013672 21.68340301513672 21.137121200561523 21.008941650390625 7.922606945037842 7.306129455566406
        6.4607696533203125 6.277656555175781 6.274604797363281 6.6133575439453125 7.3824310302734375 7.9805908203125
        7.736442565917969 6.5492706298828125 6.534011363983154 6.726280689239502 6.851402282714844 6.537064075469971
        6.955169677734375 7.678459167480469 7.8890380859375 7.458725452423096 6.11285400390625 4.965362548828125
        5.89312744140625 6.189155578613281 5.96942138671875 5.703911304473877 5.4353485107421875 4.828025817871094
        4.5930328369140625 4.4190826416015625 3.9429931640625 3.6469650268554688 3.7659833431243896 3.3753509521484375
        2.7436141967773438 3.259376287460327 3.4485931396484375 3.7873458862304688 3.997925043106079 4.08642578125
        5.679496765136719 7.5502777099609375 9.96734619140625 11.297950744628906 11.664176940917969 11.740469932556152
        11.774041175842285 12.289802551269531 13.26639461517334 14.270454406738281 14.566481590270996 14.007996559143066
        13.425095558166504 13.168739318847656 13.110748291015625 13.013092041015625 12.961212158203125 13.269447326660156
        14.169746398925781 15.005950927734375 14.697715759277344 11.722160339355469 8.172859191894531 7.123023986816406
        8.392593383789062 9.631645202636719 10.144355773925781 7.4831390380859375 4.5930328369140625 4.889068603515625
        6.07012939453125 6.820884704589844 7.858512878417969 6.689659118652344 5.890076160430908 7.208473205566406
        8.911408424377441 10.327461242675781 11.578720092773438 11.789299964904785 11.978515625 10.907318115234375
        10.028382301330566 11.224708557128906 14.059874534606934 16.657005310058594 19.074066162109375 20.892972946166992
        21.97637939453125 23.20322608947754 23.63964080810547 22.843101501464844 21.213415145874023 18.09747314453125
        7.760857105255127 4.803611755371094 4.916533946990967 6.7506937980651855 9.555343627929688 12.265388488769531
        13.998839378356934 14.569534301757812 14.130073547363281 13.287757873535156 12.509537696838379 10.327461242675781
        7.4373626708984375 7.867668151855469 9.613327026367188 11.29794979095459 11.734367370605469 9.805595397949219
        7.202369689941406 6.04571533203125 6.186103820800781 6.027405261993408 5.5055389404296875 5.4994354248046875
        5.639824390411377 5.041656494140625 4.174934387207031 3.4821624755859375 4.245124816894531 6.973480224609375
        9.778129577636719 11.844230651855469 13.840141296386719 15.9703369140625 16.803489685058594 17.035430908203125
        18.03338623046875 19.80040740966797 21.063873291015625 21.146278381347656 20.926544189453125 21.005889892578125
        20.911285400390625 21.353797912597656 22.55927848815918 22.754600524902344 21.97943115234375 22.14423370361328
        22.980440139770508 22.818687438964844 22.571487426757812 22.595901489257812 22.27240562438965 21.414840698242188
        20.462661743164062 19.217506408691406 17.044586181640625 15.259255409240723 15.601058959960938 17.374191284179688
        19.248023986816406 20.40162467956543 21.027252197265625 21.662038803100586 21.92449951171875 21.558273315429688
        21.176794052124023 21.002838134765625 7.3854827880859375 6.884979724884033 6.180000305175781 6.131172180175781
        6.338691234588623 6.750694274902344 7.388534069061279 8.0355224609375 8.325446128845215 7.681510925292969
        7.031464099884033 6.714073181152344 6.5767364501953125 6.503493785858154 6.906341552734375 7.159645080566406
        6.909393787384033 7.196266174316406 7.193214416503906 5.5207977294921875 5.423141956329346 5.91754150390625
        6.00909423828125 5.676445007324219 5.5238494873046875 5.4292449951171875 5.1271138191223145 4.4709625244140625
        3.7446212768554688 3.5828704833984375 3.6042327880859375 3.6469647884368896 3.4241790771484375 3.1434099674224854
        3.2044448852539062 3.5798187255859375 4.309211730957031 5.4353485107421875 5.96331787109375 5.618454456329346
        5.96636962890625 7.5746917724609375 9.121978759765625 10.577712059020996 11.664177894592285 12.558364868164062
        13.577682495117188 14.520706176757812 14.911346435546875 14.297920227050781 13.418991088867188 12.744529724121094
        12.390518188476562 12.643821716308594 13.443404197692871 14.404740333557129 15.439315795898438 16.119873046875
        15.741447448730469 13.99578857421875 12.106688499450684 11.239967346191406 11.059906005859375 10.333564758300781
        8.288825988769531 5.517745494842529 4.4923248291015625 5.108795166015625 5.93890380859375 6.698814392089844
        7.947021484375 7.4617767333984375 6.582840442657471 7.083343029022217 8.127082824707031 9.283729553222656
        10.541092872619629 11.462752342224121 12.02734375 11.273537635803223 10.10162353515625 10.599076271057129
        12.970367431640625 14.835043907165527 17.90521240234375 20.911285400390625 21.411788940429688 21.573532104492188
        22.22052764892578 22.33649444580078 21.231727600097656 19.998779296875 14.371162414550781 4.632713317871094
        4.6174468994140625 4.944000244140625 7.254249572753906 9.750663757324219 11.758780479431152 13.055816650390625
        13.107696533203125 12.228767395019531 11.072113990783691 9.222694396972656 6.997893810272217 7.205421447753906
        7.785270690917969 8.0660400390625 7.739494323730469 6.711021423339844 6.335639953613281 6.3142781257629395
        6.3905792236328125 6.558426380157471 5.786308288574219 4.6174468994140625 4.367195129394531 4.4526519775390625
        4.217658996582031 3.7995529174804688 4.4892730712890625 6.125068664550781 6.848350524902344 8.163703918457031
        10.559403419494629 12.869651794433594 14.389480590820312 16.052734375 18.14325714111328 20.16053009033203
        20.749534606933594 20.102537155151367 19.565414428710938 19.559310913085938 20.249032974243164 22.09844970703125
        23.807485580444336 23.60606575012207 22.16254425048828 21.54301643371582 21.64678192138672 21.054718017578125
        21.091339111328125 22.507400512695312 23.697622299194336 23.047576904296875 21.198158264160156 19.32126808166504
        17.81670379638672 17.001861572265625 17.81060028076172 19.672231674194336 21.106597900390625 21.640676498413086
        21.79936981201172 21.89398193359375 21.78105926513672 21.314125061035156 20.700706481933594 20.31616973876953
        7.052825927734375 6.921600341796875 6.4302520751953125 6.283760070800781 6.3753204345703125 6.3936309814453125
        6.573684215545654 7.074188709259033 7.641838073730469 7.5930023193359375 7.1718525886535645 6.7934184074401855
        6.4027862548828125 6.4516143798828125 6.671348571777344 6.5767364501953125 6.408890247344971 6.839195251464844
        7.4434661865234375 7.000946521759033 5.786308288574219 5.4475555419921875 5.93585205078125 5.825981140136719
        5.6092987060546875 5.569625377655029 5.255286693572998 4.4312896728515625 3.692741632461548 3.5401461124420166
        3.2593765258789062 3.4363861083984375 3.5401461124420166 2.8687362670898438 3.1250991821289062 3.5645599365234375
        3.5828704833984375 4.5747222900390625 5.5116424560546875 5.4902801513671875 4.931793689727783 5.139320373535156
        6.5553741455078125 9.045684814453125 11.194190979003906 12.564468383789062 13.592942237854004 14.322334289550781
        14.511550903320312 14.00799560546875 13.248085975646973 12.549209594726562 12.164680480957031 12.540054321289062
        13.36710262298584 14.401687622070312 15.430161476135254 15.8787841796875 15.500351905822754 14.932708740234375
        14.786215782165527 14.740440368652344 14.413894653320312 13.727227210998535 10.586868286132812 5.764945983886719
        4.126106262207031 4.678489685058594 5.6154022216796875 6.772056579589844 8.0294189453125 7.9073486328125
        7.4007415771484375 7.641838073730469 7.913452625274658 8.471939086914062 9.366127014160156 10.333564758300781
        11.328468322753906 11.624504089355469 10.705893516540527 10.080262184143066 12.280646324157715 13.489181518554688
        16.13819122314453 19.302955627441406 20.413833618164062 20.29175567626953 20.624412536621094 21.384323120117188
        21.210363388061523 20.413833618164062 19.171730041503906 13.898133277893066 5.3834686279296875 4.760887145996094
        7.061981201171875 9.598068237304688 11.023284912109375 11.960205078125 12.033446311950684 11.478012084960938
        10.467849731445312 8.841209411621094 6.344795227050781 6.161689758300781 5.789360046386719 4.5594635009765625
        4.1138916015625 5.209510803222656 6.942963123321533 7.428206920623779 7.065032958984375 6.280708312988281
        5.98162841796875 5.551314830780029 5.5421600341796875 5.4139862060546875 4.5716705322265625 4.3794097900390625
        5.291908264160156 5.91143798828125 4.797508239746094 5.139320373535156 6.973480224609375 9.167762756347656
        11.471908569335938 14.297921180725098 17.188026428222656 18.579666137695312 18.469802856445312 18.37213897705078
        19.055755615234375 19.910276412963867 20.963165283203125 22.461624145507812 23.126930236816406 22.522659301757812
        21.472824096679688 20.834983825683594 20.844139099121094 21.109651565551758 21.539962768554688 22.336496353149414
        22.788169860839844 21.585739135742188 19.269386291503906 18.579666137695312 19.855337142944336 20.780052185058594
        21.124916076660156 21.94586181640625 22.650840759277344 22.54096794128418 22.043516159057617 21.591842651367188
        21.085235595703125 20.32227325439453 19.73021697998047 19.66307830810547 6.952118396759033 7.052826404571533
        6.5919952392578125 6.05792236328125 5.93890380859375 5.850395679473877 5.89923095703125 6.2013630867004395
        6.573685169219971 6.607254505157471 6.744590759277344 6.5187530517578125 6.259346008300781 6.5736846923828125
        6.802574157714844 6.5462188720703125 6.381423473358154 6.677452087402344 7.238990783691406 7.779167175292969
        6.988739013671875 5.2491841316223145 5.7496867179870605 5.825981140136719 5.5116424560546875 5.240028381347656
        4.782249450683594 4.303108215332031 4.135261535644531 4.330574035644531 4.1199951171875 3.848381280899048
        3.5401456356048584 2.957244873046875 3.2044451236724854 3.299049139022827 2.957244634628296 3.4943695068359375
        3.9002685546875 4.257331848144531 4.678489685058594 5.298011779785156 5.902283191680908 6.988739013671875
        9.292884826660156 11.557357788085938 13.290809631347656 14.221625328063965 14.319282531738281 13.882872581481934
        13.248085021972656 12.836081504821777 12.726218223571777 12.83303165435791 12.842185020446777 13.226722717285156
        13.90118408203125 14.224678039550781 14.078186988830566 14.413894653320312 15.225685119628906 15.115814208984375
        14.453567504882812 14.03851318359375 13.281654357910156 10.419020652770996 6.103699207305908 4.5777740478515625
        5.3315815925598145 6.985687255859375 8.175910949707031 7.678459167480469 7.4037933349609375 8.261360168457031
        8.432266235351562 8.642845153808594 9.433273315429688 10.492263793945312 11.828971862792969 12.637718200683594
        11.505477905273438 9.375290870666504 11.767936706542969 13.27860164642334 15.646842956542969 18.10052490234375
        19.8828125 20.2337703704834 19.82176971435547 20.27649688720703 20.969268798828125 20.987579345703125
        20.606094360351562 19.440292358398438 14.774009704589844 9.94598388671875 8.734397888183594 9.817802429199219
        11.020233154296875 11.856437683105469 11.920531272888184 11.438339233398438 10.452591896057129 9.195228576660156
        6.317329406738281 4.934844970703125 4.257331848144531 3.4760587215423584 4.852439880371094 7.177955627441406
        8.542129516601562 8.722190856933594 8.239997863769531 6.143378734588623 5.7313761711120605 6.128120422363281
        6.3936309814453125 6.4241485595703125 5.624565124511719 5.1515278816223145 5.203407287597656 5.386519908905029
        4.821922302246094 3.949096441268921 4.232917785644531 6.5736846923828125 9.585861206054688 12.820823669433594
        15.652947425842285 16.37012481689453 16.626487731933594 18.00592041015625 20.072021484375 21.234779357910156
        21.375167846679688 21.62542152404785 22.01300048828125 22.13813018798828 21.99468994140625 21.604049682617188
        21.83294105529785 22.846153259277344 22.800376892089844 22.19916534423828 21.82378578186035 20.764793395996094
        19.479965209960938 19.73632049560547 21.445358276367188 22.659996032714844 22.473831176757812 22.26935386657715
        22.25714874267578 21.94586181640625 21.280555725097656 20.432144165039062 19.7027530670166 19.516586303710938
        19.8919677734375 20.60609245300293 6.5187530517578125 6.707969665527344 6.4149932861328125 5.87786865234375
        5.685600280761719 5.6001434326171875 5.539108753204346 5.5848846435546875 5.557419300079346 5.5665740966796875
        6.152534484863281 6.01824951171875 5.90533447265625 6.2959675788879395 6.421097278594971 6.2318806648254395
        6.289863586425781 6.656090259552002 7.061981678009033 7.4221038818359375 7.370216369628906 5.728324890136719
        5.545212268829346 5.5452117919921875 5.194252014160156 5.215614318847656 4.5655670166015625 4.397720813751221
        4.7212138175964355 5.005035400390625 5.203407287597656 4.6174468994140625 3.5462493896484375 3.2380142211914062
        3.305152654647827 2.911468744277954 2.6734237670898438 3.231910467147827 3.7842941284179688 4.348884582519531
        5.090484619140625 5.767997741699219 5.883971691131592 5.307166576385498 6.598099231719971 9.738455772399902
        12.680442810058594 14.03851318359375 14.267402648925781 13.89508056640625 13.415939331054688 13.187050819396973
        13.141273498535156 13.064971923828125 12.802512168884277 12.814720153808594 13.089385986328125 13.293861389160156
        13.238929748535156 13.669242858886719 14.340644836425781 13.773003578186035 13.321327209472656 14.206367492675781
        15.048674583435059 14.038512229919434 8.551284790039062 5.127113342285156 5.737480163574219 7.559432506561279
        8.392593383789062 7.5350189208984375 6.985687255859375 7.96533203125 8.444473266601562 8.798484802246094
        9.689628601074219 10.889006614685059 12.198249816894531 12.897125244140625 11.578720092773438 8.239997863769531
        10.464797973632812 12.369146347045898 15.262306213378906 17.45659065246582 19.434188842773438 20.664085388183594
        20.2154598236084 19.153419494628906 19.089324951171875 19.7851505279541 20.14221954345703 20.13001251220703
        18.45149040222168 14.813682556152344 11.276588439941406 9.588912963867188 9.91546630859375 11.145362854003906
        11.9541015625 11.630607604980469 10.498367309570312 9.588912963867188 7.9500732421875 5.5116424560546875
        3.8209149837493896 3.3784027099609375 5.679496765136719 7.9561767578125 9.060944557189941 9.451583862304688
        9.262367248535156 6.7598490715026855 5.621505260467529 5.99078369140625 5.98468017578125 5.6062469482421875
        4.968414306640625 4.846336364746094 4.367195129394531 3.903320074081421 3.6469650268554688 3.2624282836914062
        3.6439130306243896 5.91448974609375 9.125038146972656 11.8778076171875 13.016143798828125 13.174842834472656
        15.167701721191406 18.30500030517578 20.920440673828125 21.613204956054688 21.350746154785156 21.387374877929688
        21.95501708984375 22.35480499267578 22.589797973632812 22.666099548339844 22.608108520507812 22.45246696472168
        21.610153198242188 21.042510986328125 21.326332092285156 22.03131103515625 22.547073364257812 22.489089965820312
        22.562332153320312 22.577590942382812 21.607101440429688 20.389419555664062 19.62950897216797 19.272436141967773
        19.046600341796875 18.967254638671875 19.434188842773438 20.462661743164062 21.62847137451172 22.699668884277344
        5.98468017578125 6.463821887969971 6.3783721923828125 5.844291687011719 5.4994354248046875 5.322425842285156
        5.081329345703125 4.913482666015625 4.6418681144714355 4.809715270996094 5.5574188232421875 5.3895721435546875
        5.5604705810546875 5.691703796386719 5.551315784454346 5.667289733886719 6.091491222381592 6.344795227050781
        6.5157012939453125 6.5706329345703125 6.845298767089844 6.4912872314453125 5.7557902336120605 5.383468151092529
        4.8432841300964355 5.4811248779296875 5.072174072265625 4.879912853240967 5.166786193847656 5.304114818572998
        5.4170379638671875 4.998931884765625 3.7324142456054688 3.5004730224609375 3.6866378784179688 3.4943695068359375
        3.021331787109375 2.893157958984375 3.2166519165039062 4.0894775390625 5.035552978515625 5.865653991699219
        5.97857666015625 5.038604736328125 5.5024871826171875 7.925659656524658 11.478012084960938 13.330482482910156
        14.047667503356934 13.855400085449219 13.342689514160156 12.906280517578125 12.601089477539062 12.564467430114746
        12.778099060058594 13.086334228515625 13.446456909179688 13.687553405761719 13.556320190429688 13.272499084472656
        12.833030700683594 12.1219482421875 12.811667442321777 14.374221801757812 15.292824745178223 12.198249816894531
        5.99993896484375 5.722221374511719 6.8605570793151855 8.124031066894531 8.938873291015625 8.957182884216309
        7.843254089355469 7.644889831542969 7.788322925567627 8.270515441894531 8.896148681640625 9.88800048828125
        10.806602478027344 11.551255226135254 11.020233154296875 6.891082763671875 7.760856628417969 8.853416442871094
        11.435287475585938 14.185005187988281 16.959136962890625 19.403671264648438 19.66918182373047 17.87163543701172
        16.534927368164062 17.081207275390625 18.09136962890625 18.829917907714844 18.713951110839844 17.267372131347656
        14.413894653320312 10.980560302734375 9.256263732910156 10.11383056640625 11.560410499572754 11.8900146484375
        11.255226135253906 10.800498962402344 10.510574340820312 8.215583801269531 6.274604797363281 4.031494140625
        4.644920349121094 6.622520923614502 8.224739074707031 9.317298889160156 9.649955749511719 8.252204895019531
        6.387526988983154 5.88092041015625 5.697807788848877 5.032501220703125 4.3794097900390625 3.924682855606079
        3.659172296524048 3.2288589477539062 2.874847412109375 3.5340423583984375 4.4831695556640625 6.4912872314453125
        8.874786376953125 9.140296936035156 8.185065269470215 9.805595397949219 13.760795593261719 17.80755043029785
        19.94384765625 20.0384521484375 20.29785919189453 20.960113525390625 21.579635620117188 22.20221710205078
        23.087249755859375 23.7037296295166 23.181861877441406 22.04656982421875 21.189002990722656 21.179847717285156
        21.97027587890625 23.447372436523438 24.875638961791992 24.63454246520996 23.65184783935547 22.626426696777344
        20.896026611328125 19.058805465698242 18.23786163330078 18.17682647705078 18.68343162536621 19.84313201904297
        21.378219604492188 22.739341735839844 23.71288299560547 24.463640213012695 5.96636962890625 6.250190734863281
        5.853446960449219 5.294960021972656 5.029449462890625 4.855491638183594 4.666282653808594 4.5258941650390625
        4.4221343994140625 4.971466064453125 5.4597625732421875 4.950103759765625 5.325477123260498 5.4322967529296875
        5.255287170410156 5.6184539794921875 6.064025402069092 6.00604248046875 6.08843994140625 6.280708312988281
        6.750694751739502 7.019256591796875 6.360054016113281 5.688652038574219 4.852439880371094 5.5818328857421875
        5.93585205078125 5.670341491699219 5.453659534454346 5.3590474128723145 5.194252014160156 5.078277587890625
        3.96435546875 3.5920257568359375 4.303108215332031 4.901275634765625 4.2664875984191895 3.2258071899414062
        2.917572021484375 3.8636398315429688 4.8554911613464355 6.100646495819092 6.689659118652344 5.716117858886719
        5.4445037841796875 6.656089782714844 9.866630554199219 12.619400024414062 14.114808082580566 14.212471008300781
        13.595993995666504 12.784201622009277 12.08837890625 11.9388427734375 12.350837707519531 13.010040283203125
        13.867607116699219 14.477981567382812 14.468826293945312 13.727226257324219 12.625511169433594 12.0670166015625
        12.796409606933594 13.629570007324219 13.312171936035156 9.573654174804688 5.706962585449219 5.941956043243408
        6.875823974609375 8.340705871582031 9.96429443359375 11.026336669921875 10.370185852050781 8.951080322265625
        7.773063659667969 7.898192882537842 7.928710460662842 8.523818969726562 9.195228576660156 10.04974365234375
        10.486159324645996 6.347846984863281 4.5716705322265625 5.3926239013671875 6.906341552734375 9.305091857910156
        11.459701538085938 13.617355346679688 15.079193115234375 14.688560485839844 13.476975440979004 13.437301635742188
        14.795371055603027 16.27246856689453 17.166664123535156 17.398605346679688 15.805534362792969 12.390518188476562
        10.00091552734375 10.397659301757812 11.984619140625 12.833030700683594 13.055816650390625 13.476974487304688
        13.98663330078125 13.632621765136719 13.141273498535156 8.160652160644531 4.620499134063721 6.07012939453125
        7.98974609375 9.305091857910156 9.88189697265625 9.475997924804688 7.333595275878906 5.810722351074219
        5.124061107635498 4.632713317871094 4.699851989746094 3.3356704711914062 3.3692398071289062 3.6469650268554688
        3.891113042831421 4.977569580078125 5.771049499511719 7.141334533691406 7.8340983390808105 5.89617919921875
        5.4628143310546875 8.590957641601562 12.463760375976562 15.170754432678223 16.495254516601562 17.78923988342285
        19.583724975585938 21.085235595703125 21.86040496826172 22.705772399902344 23.56028938293457 23.001800537109375
        21.66814422607422 20.929595947265625 20.822778701782227 21.182899475097656 22.30292510986328 23.9722900390625
        25.177772521972656 24.652856826782227 23.151342391967773 21.85735321044922 20.862449645996094 19.68749237060547
        18.863487243652344 19.089323043823242 20.32227325439453 21.83599090576172 23.294776916503906 24.408706665039062
        25.098419189453125 25.40666389465332 6.329536437988281 5.5085906982421875 4.983673572540283 4.730369567871094
        4.632713317871094 4.4770660400390625 4.4984283447265625 4.660179138183594 5.026397705078125 5.639823913574219
        5.4353485107421875 4.5625152587890625 4.858543395996094 5.197303771972656 5.322425842285156 5.728324890136719
        5.97247314453125 5.865653991699219 6.03656005859375 6.463821887969971 6.830039978027344 6.8025736808776855
        6.4607696533203125 6.08843994140625 5.5848846435546875 5.713066101074219 6.353950500488281 6.158638000488281
        5.5299530029296875 5.374312877655029 5.142372131347656 5.1606831550598145 4.4587554931640625 4.229866027832031
        4.980621337890625 5.627616882324219 5.1637349128723145 4.0833740234375 3.3692398071289062 3.5798184871673584
        4.467911243438721 6.02130126953125 7.052825927734375 6.335639953613281 5.5543670654296875 5.94805908203125
        8.523818969726562 11.563462257385254 14.08428955078125 14.972381591796875 14.603103637695312 13.452560424804688
        12.259284973144531 11.554306030273438 11.709953308105469 12.643821716308594 13.892029762268066 14.844200134277344
        15.137184143066406 14.593948364257812 13.440352439880371 12.601089477539062 12.533950805664062 12.463761329650879
        11.740470886230469 8.880889892578125 5.92669677734375 6.192207336425781 7.5899505615234375 9.082305908203125
        10.406814575195312 11.362038612365723 11.780143737792969 10.986664772033691 8.767967224121094 8.273567199707031
        8.0263671875 7.864616394042969 8.459732055664062 9.350868225097656 10.141304016113281 8.392593383789062
        4.257331848144531 5.185096740722656 6.646934509277344 8.404800415039062 8.130134582519531 7.065032958984375
        7.577744007110596 9.320350646972656 10.568557739257812 10.861534118652344 11.358985900878906 12.878814697265625
        14.493240356445312 15.301979064941406 14.932708740234375 13.489181518554688 11.9327392578125 11.722159385681152
        12.506484985351562 12.927643775939941 13.464767456054688 14.453567504882812 15.335548400878906 15.399642944335938
        14.578689575195312 11.362037658691406 8.652000427246094 9.210487365722656 10.690635681152344 11.868643760681152
        12.341683387756348 11.670279502868652 9.161659240722656 6.5095977783203125 4.812767028808594 5.5085906982421875
        7.293922424316406 5.98468017578125 3.2837908267974854 3.3814544677734375 3.9613037109375 5.658134460449219
        7.4587249755859375 8.642845153808594 7.5685882568359375 4.977569580078125 5.078277587890625 7.873779296875
        10.754721641540527 12.137213706970215 14.10870361328125 17.481002807617188 20.1605281829834 21.213417053222656
        21.69255828857422 22.394485473632812 22.406692504882812 20.651880264282227 19.342628479003906 19.611188888549805
        20.526748657226562 21.610153198242188 23.169654846191406 24.521621704101562 25.119781494140625 24.988555908203125
        24.207284927368164 22.904144287109375 21.530807495117188 20.33142852783203 19.42503547668457 19.8614444732666
        21.585739135742188 23.017057418823242 24.094358444213867 24.961088180541992 25.36087989807129 25.080108642578125
        6.06097412109375 4.733421325683594 4.5411529541015625 4.782249450683594 4.785301208496094 4.5442047119140625
        4.6052398681640625 4.962310791015625 5.4017791748046875 5.4109344482421875 4.699851989746094 4.0833740234375
        4.409927845001221 4.962310791015625 5.307167053222656 5.4475555419921875 5.5391082763671875 5.5665740966796875
        5.847343444824219 6.268501281738281 6.4882354736328125 6.07928466796875 5.97247314453125 6.170845031738281
        6.311225891113281 6.158638000488281 6.5248565673828125 6.3722686767578125 5.609298229217529 5.4841766357421875
        5.4963836669921875 5.6947550773620605 5.819877624511719 5.786308288574219 5.88702392578125 5.8076701164245605
        5.154578685760498 4.5747222900390625 4.3977203369140625 3.7995529174804688 4.290900707244873 5.841239929199219
        6.991790771484375 6.665245532989502 6.158638000488281 6.3600544929504395 9.073150634765625 11.764883995056152
        14.493240356445312 15.591902732849121 15.314186096191406 14.209419250488281 12.906280517578125 11.746574401855469
        11.615341186523438 12.726218223571777 14.200263977050781 15.280616760253906 15.713981628417969 15.387435913085938
        14.215522766113281 12.558364868164062 11.188087463378906 10.67232608795166 9.802542686462402 7.672355651855469
        6.936859607696533 7.864616394042969 8.566543579101562 9.060943603515625 9.781181335449219 10.797447204589844
        11.871695518493652 11.581771850585938 9.399703979492188 9.024322509765625 9.002960205078125 8.11181640625
        8.120970726013184 8.78017520904541 9.671318054199219 10.525832176208496 8.774070739746094 7.300025463104248
        8.0843505859375 9.93988037109375 9.91546630859375 6.335639953613281 3.018280029296875 4.4007720947265625
        8.136238098144531 10.70894718170166 11.358985900878906 11.600082397460938 12.594985961914062 13.766898155212402
        14.542069435119629 14.639731407165527 13.538009643554688 12.335578918457031 11.731316566467285 11.392562866210938
        12.03955078125 13.278602600097656 14.453567504882812 14.868614196777344 14.459671020507812 13.095489501953125
        11.484114646911621 10.534988403320312 11.606184959411621 13.449508666992188 14.899139404296875 15.363014221191406
        14.542067527770996 11.633659362792969 7.9775390625 7.885986328125 9.405807495117188 9.436325073242188
        7.184059143066406 5.072174072265625 3.2105484008789062 5.359046936035156 7.715080261230469 8.291877746582031
        6.790367126464844 4.5533599853515625 4.162727355957031 5.737480163574219 7.623527526855469 9.671318054199219
        13.138221740722656 17.133094787597656 19.78209686279297 20.538955688476562 20.557266235351562 20.13306427001953
        18.81160545349121 17.246009826660156 17.395553588867188 19.009979248046875 20.908233642578125 22.614212036132812
        24.430068969726562 25.73015594482422 26.706748962402344 27.70165252685547 27.243873596191406 24.17371368408203
        20.587783813476562 19.122901916503906 19.186988830566406 19.611190795898438 21.082183837890625 22.928558349609375
        24.2530574798584 24.979398727416992 25.119781494140625 24.503311157226562 5.96942138671875 5.099639892578125
        4.794456481933594 5.090484619140625 5.139320373535156 4.773094177246094 4.635765075683594 4.855491638183594
        5.096588134765625 4.5991363525390625 3.881958246231079 3.9735107421875 4.4862213134765625 4.6906962394714355
        4.986724853515625 4.919586658477783 4.995880126953125 5.227821350097656 5.679496765136719 5.92059326171875
        6.01214599609375 5.6215057373046875 5.633720397949219 6.04876708984375 6.332588195800781 6.5187530517578125
        6.888031005859375 6.985687255859375 6.357002258300781 6.189155578613281 6.4088897705078125 6.912445545196533
        7.5594329833984375 7.5380706787109375 6.637779235839844 5.667289733886719 4.779197692871094 4.635765075683594
        4.913482666015625 4.205451488494873 4.205451965332031 5.880919933319092 6.994843006134033 6.878875255584717
        6.665245056152344 7.4160003662109375 9.509567260742188 12.161628723144531 14.563430786132812 15.390486717224121
        15.265358924865723 14.691612243652344 13.779106140136719 12.710960388183594 12.253182411193848 12.762840270996094
        13.97747802734375 15.189064979553223 15.9215087890625 16.04052734375 15.262306213378906 13.046661376953125
        10.531936645507812 9.344765663146973 8.145393371582031 7.5960540771484375 8.856468200683594 9.90325927734375
        9.96429443359375 9.408859252929688 9.073149681091309 10.06500244140625 11.535995483398438 11.151466369628906
        9.256263732910156 9.115875244140625 9.442428588867188 8.850364685058594 8.355964660644531 8.407852172851562
        8.908355712890625 10.348823547363281 11.450547218322754 9.524826049804688 8.484146118164062 9.329505920410156
        11.401719093322754 10.394607543945312 4.812767505645752 2.1332473754882812 5.151527404785156 9.817802429199219
        13.119903564453125 13.803521156311035 13.293861389160156 13.254188537597656 13.794364929199219 14.471878051757812
        14.242987632751465 12.747581481933594 10.586868286132812 9.369178771972656 10.159613609313965 11.493270874023438
        12.84218692779541 14.197212219238281 15.198219299316406 15.243995666503906 12.884918212890625 8.786277770996094
        8.337654113769531 9.89715576171875 12.689598083496094 15.091400146484375 15.933716773986816 14.63057804107666
        12.063965797424316 10.898162841796875 11.563462257385254 12.619399070739746 12.564468383789062 9.906311988830566
        5.865653991699219 5.5818328857421875 5.4963836669921875 4.367195129394531 3.2746353149414062 2.3194046020507812
        2.3621292114257812 2.914520263671875 4.2634358406066895 7.763908386230469 12.570571899414062 16.16870880126953
        17.91741943359375 18.973358154296875 19.489120483398438 18.25312042236328 16.0313720703125 15.311134338378906
        17.111724853515625 20.072021484375 22.513504028320312 23.69457244873047 24.594865798950195 25.403610229492188
        25.83391571044922 25.25406837463379 22.644737243652344 19.605087280273438 17.92657470703125 18.08221435546875
        18.832969665527344 19.394515991210938 20.993682861328125 23.068937301635742 24.28968048095703 24.808494567871094
        24.927520751953125 24.488052368164062 5.5238494873046875 4.843284606933594 4.684593200683594 4.889068603515625
        4.983673095703125 4.904327392578125 4.7883524894714355 4.3824615478515625 4.202400207519531 3.8361740112304688
        3.6866378784179688 4.11083984375 4.4770660400390625 4.333625793457031 4.339729309082031 4.455704212188721
        4.705955505371094 5.111846923828125 5.5696258544921875 5.5482635498046875 5.563522815704346 5.4994354248046875
        5.700859546661377 5.761894702911377 5.868705749511719 6.4394073486328125 6.985687255859375 7.4007415771484375
        7.315284729003906 7.4312591552734375 7.458725452423096 7.657096862792969 8.0965576171875 8.081298828125
        6.790367126464844 5.3987274169921875 4.5472564697265625 4.7761454582214355 5.066070556640625 4.4587554931640625
        4.080322265625 5.847343444824219 7.037567615509033 7.187110900878906 7.196266174316406 8.374282836914062
        10.06195068359375 12.530899047851562 14.255196571350098 14.886932373046875 15.033415794372559 14.749595642089844
        14.194159507751465 13.699760437011719 13.299964904785156 13.257240295410156 14.05682373046875 15.320289611816406
        16.24805450439453 16.718040466308594 16.3121395111084 14.307075500488281 11.972413063049316 10.049744606018066
        8.142341613769531 8.499404907226562 10.147407531738281 11.212501525878906 11.197242736816406 10.370185852050781
        9.201332092285156 9.540084838867188 10.547195434570312 10.184028625488281 8.850364685058594 8.371223449707031
        8.822898864746094 9.277626037597656 9.384446144104004 9.070098876953125 8.890044212341309 9.796440124511719
        10.956146240234375 10.180976867675781 8.273567199707031 6.799522399902344 7.528915882110596 9.811698913574219
        7.788322448730469 2.7436141967773438 2.7710797786712646 7.806632995605469 13.382370948791504 15.94287109375
        15.085297584533691 13.385421752929688 12.829978942871094 13.318275451660156 13.653984069824219 13.000885963439941
        9.97344970703125 7.019256591796875 7.858512878417969 9.98260498046875 11.853384971618652 13.348793029785156
        14.554274559020996 15.250099182128906 13.812675476074219 10.06500244140625 7.947021484375 6.5736846923828125
        8.404800415039062 10.800498962402344 12.11279296875 12.359993934631348 11.774040222167969 10.934783935546875
        11.630607604980469 12.869651794433594 13.858451843261719 14.496292114257812 13.254188537597656 9.543136596679688
        4.498427867889404 0.842307984828949 1.1383436918258667 1.4862518310546875 1.7212448120117188 1.9592896699905396
        2.8534772396087646 6.4088897705078125 11.096527099609375 14.276557922363281 16.284677505493164 18.30500030517578
        19.052703857421875 16.745506286621094 13.93475341796875 13.864555358886719 16.36402130126953 19.20530128479004
        20.883819580078125 21.179847717285156 21.005889892578125 20.569473266601562 19.049654006958008 17.105623245239258
        17.154457092285156 18.927581787109375 19.64171600341797 19.339576721191406 19.318214416503906 19.73937225341797
        20.43214225769043 21.283607482910156 22.19611358642578 23.206275939941406 24.0638427734375 24.381240844726562
        6.3905792236328125 5.661186218261719 5.105743408203125 4.889068603515625 4.977569580078125 5.3895721435546875
        5.288856506347656 4.025390625 3.2715835571289062 3.5004730224609375 3.8361740112304688 3.8880615234375
        3.8148117065429688 3.7965011596679688 3.9857177734375 4.229866027832031 4.660179138183594 4.913482666015625
        5.197303771972656 5.243080139160156 5.352943420410156 5.645927429199219 5.94805908203125 5.6184539794921875
        5.5269012451171875 6.05487060546875 6.421096324920654 7.104705810546875 7.4678802490234375 7.840202331542969
        7.5533294677734375 7.089447021484375 7.107757568359375 7.303077697753906 6.646934509277344 5.5787811279296875
        4.861595153808594 5.188148021697998 5.3956756591796875 4.773094177246094 4.153572082519531 5.4994354248046875
        6.634727954864502 7.086395263671875 7.422103404998779 8.487197875976562 10.153511047363281 12.411880493164062
        13.773002624511719 14.404739379882812 14.844200134277344 14.639732360839844 14.160591125488281 14.069029808044434
        14.06597900390625 14.00189208984375 14.636680603027344 15.768913269042969 16.37012481689453 16.547134399414062
        16.17481231689453 14.935760498046875 13.449508666992188 11.282691955566406 9.436325073242188 9.811698913574219
        10.892059326171875 11.661125183105469 11.828971862792969 11.368141174316406 9.802543640136719 8.801536560058594
        9.018218994140625 9.115875244140625 8.404800415039062 7.391585826873779 7.827995300292969 8.798484802246094
        9.616378784179688 9.451582908630371 8.905303955078125 9.170814514160156 10.177925109863281 10.223701477050781
        9.161659240722656 8.471938133239746 8.426162719726562 9.570602416992188 9.363075256347656 5.5543670654296875
        2.5818636417388916 5.6367716789245605 10.391556739807129 14.191108703613281 15.030365943908691 13.754692077636719
        12.427139282226562 12.155525207519531 12.338630676269531 12.634666442871094 9.863578796386719 4.965362548828125
        5.621506214141846 8.655052185058594 11.651969909667969 13.318275451660156 13.687552452087402 13.031402587890625
        12.277595520019531 12.1097412109375 11.587876319885254 9.390548706054688 7.5930023193359375 7.4983978271484375
        8.673362731933594 9.814750671386719 9.778129577636719 8.0660400390625 7.995850086212158 9.469894409179688
        11.111785888671875 12.640769958496094 13.699760437011719 13.599044799804688 11.337623596191406 6.6805033683776855
        3.176978826522827 2.5727078914642334 3.3539810180664062 3.4394378662109375 3.8300704956054688 5.905334949493408
        8.899200439453125 11.517684936523438 14.264350891113281 16.26636505126953 15.054780006408691 12.228768348693848
        11.603134155273438 13.290809631347656 15.439315795898438 17.007965087890625 18.17987823486328 18.887908935546875
        19.144264221191406 18.982513427734375 17.62749481201172 16.13208770751953 16.644798278808594 18.424028396606445
        19.376205444335938 19.888916015625 20.404678344726562 20.0628662109375 19.275489807128906 19.211402893066406
        20.072021484375 21.292762756347656 21.942808151245117 21.845144271850586 7.098602294921875 6.274604797363281
        5.3895721435546875 4.980621337890625 5.249183177947998 5.6215057373046875 5.163734436035156 4.245124816894531
        3.5248870849609375 3.860588312149048 3.6561203002929688 3.1952896118164062 2.948089599609375 3.155616521835327
        3.5645599365234375 4.0467529296875 4.574721813201904 4.742576599121094 4.937896728515625 5.160682678222656
        5.4353485107421875 5.832084655761719 6.10064697265625 5.771049499511719 5.4078826904296875 5.5543670654296875
        5.743583679199219 6.772056579589844 7.010101318359375 6.976531505584717 6.5553741455078125 6.05487060546875
        5.941956043243408 6.134223461151123 6.241034984588623 6.2471394538879395 5.99383544921875 6.12200927734375
        6.250190734863281 5.764945983886719 5.343788146972656 5.7802042961120605 6.225776672363281 6.643882751464844
        7.351905822753906 8.157600402832031 9.735404968261719 11.99072265625 13.263343811035156 14.00494384765625
        14.764854431152344 14.694663047790527 14.163642883300781 14.007994651794434 14.270454406738281 14.426101684570312
        14.709922790527344 15.14939022064209 15.478988647460938 15.698721885681152 15.698722839355469 15.051726341247559
        13.330482482910156 11.090423583984375 10.443435668945312 11.105682373046875 11.575668334960938 11.865592956542969
        12.277595520019531 12.350837707519531 10.626548767089844 8.0172119140625 7.330543518066406 7.995849609375
        7.931763172149658 6.695762634277344 6.6164093017578125 7.4282073974609375 8.282723426818848 7.843254089355469
        6.918548107147217 7.303077697753906 8.432266235351562 8.609268188476562 7.9287109375 8.310188293457031
        9.720146179199219 10.733360290527344 11.059906005859375 9.90631103515625 5.6001434326171875 5.148475646972656
        6.280707836151123 10.01617431640625 13.824882507324219 14.874725341796875 13.571578979492188 11.996826171875
        11.334571838378906 11.822868347167969 10.03753662109375 4.693748474121094 4.797508239746094 7.202369689941406
        10.434280395507812 12.741477966308594 13.400680541992188 11.743522644042969 10.361031532287598 11.380356788635254
        13.089385986328125 13.638725280761719 11.722160339355469 9.063996315002441 8.841209411621094 9.323403358459473
        9.247108459472656 7.095550060272217 5.630668640136719 7.022308349609375 8.908355712890625 10.08941650390625
        10.992767333984375 11.9693603515625 13.034454345703125 12.265388488769531 8.609268188476562 3.6591720581054688
        1.6418991088867188 2.05999755859375 3.5676114559173584 5.038604736328125 6.253242015838623 8.0904541015625
        11.252174377441406 12.369148254394531 10.013121604919434 8.621475219726562 10.364082336425781 12.271492004394531
        13.336585998535156 14.917449951171875 17.319252014160156 19.098480224609375 20.0933837890625 20.575576782226562
        19.464706420898438 17.80449676513672 17.380294799804688 18.16766929626465 19.507431030273438 20.865503311157227
        21.546066284179688 21.289710998535156 20.395523071289062 19.171730041503906 18.18903350830078 18.03033447265625
        18.393508911132812 18.890960693359375 7.5014495849609375 6.7812113761901855 5.621506214141846 4.901275634765625
        4.931793212890625 4.663230895996094 3.7415695190429688 3.4943695068359375 3.982666015625 4.123054504394531
        3.021331787109375 2.7436141967773438 2.938934087753296 3.3478775024414062 3.6439132690429688 3.933837890625
        4.242073059082031 4.5503082275390625 4.824974060058594 5.020294189453125 5.194252014160156 5.3956756591796875
        5.789360523223877 5.91448974609375 5.685600280761719 5.175941467285156 5.069122314453125 6.302070617675781
        6.4241485595703125 5.92364501953125 5.3743133544921875 5.279701232910156 5.178993225097656 5.200355529785156
        5.792411804199219 6.949066638946533 7.437363147735596 7.6540446281433105 7.748649597167969 7.5563812255859375
        7.718132019042969 7.449570178985596 6.851402282714844 6.7873148918151855 7.5014495849609375 7.785270690917969
        8.389541625976562 10.473954200744629 12.240974426269531 13.455612182617188 14.435256958007812 14.603103637695312
        14.255195617675781 14.078186988830566 14.334541320800781 14.712974548339844 14.853355407714844 15.118866920471191
        15.784172058105469 15.9886474609375 15.503402709960938 14.105652809143066 11.835075378417969 10.547194480895996
        11.050750732421875 11.664176940917969 11.572617530822754 11.545151710510254 12.222664833068848 12.958160400390625
        12.03955078125 9.384445190429688 7.184059143066406 6.823936462402344 7.367164611816406 6.866661071777344
        5.3163228034973145 6.03350830078125 7.345802307128906 7.150489807128906 5.3926239013671875 5.6367716789245605
        6.6072540283203125 7.4983978271484375 6.866661071777344 6.10064697265625 7.94091796875 10.364082336425781
        11.578721046447754 12.082275390625 10.79134464263916 9.097564697265625 5.090485095977783 5.722221374511719
        10.711997985839844 14.642784118652344 15.118865013122559 13.385421752929688 11.24912166595459 10.721153259277344
        9.509567260742188 6.09149169921875 5.285804748535156 6.094543933868408 7.739494323730469 9.741508483886719
        10.748619079589844 9.601119995117188 8.432266235351562 9.411911010742188 11.416976928710938 13.19925594329834
        14.563430786132812 14.233832359313965 13.010040283203125 11.9541015625 11.194190979003906 9.356971740722656
        5.832084655761719 5.349891662597656 7.5930023193359375 9.216590881347656 10.06805419921875 10.498367309570312
        11.062957763671875 11.9144287109375 12.552261352539062 11.349830627441406 7.666252136230469 4.4251861572265625
        3.115936040878296 3.5218353271484375 4.336677551269531 6.051818370819092 8.722190856933594 9.006011962890625
        6.659141540527344 6.323432922363281 8.874786376953125 11.358985900878906 13.028350830078125 15.485092163085938
        18.869590759277344 21.069976806640625 20.682395935058594 19.263280868530273 18.390457153320312 18.628501892089844
        19.571517944335938 20.435195922851562 21.189002990722656 21.63457489013672 21.353797912597656 20.78310203552246
        19.9713134765625 18.536941528320312 16.794334411621094 15.509507179260254 14.947967529296875 15.375227928161621
        7.089447021484375 6.921600341796875 6.219673156738281 5.310218811035156 4.4557037353515625 3.4272308349609375
        3.1739275455474854 3.7781906127929688 4.342781066894531 3.7293624877929688 2.7558212280273438 2.6154327392578125
        2.7375104427337646 2.874847412109375 3.2197036743164062 3.7293624877929688 3.9796142578125 4.251228332519531
        4.654076099395752 4.718162536621094 4.724266052246094 4.8310770988464355 5.355995178222656 5.87786865234375
        6.07623291015625 5.209510803222656 4.4953765869140625 5.627617359161377 5.91448974609375 5.2858052253723145
        4.461807727813721 4.6143951416015625 4.681541442871094 4.947052001953125 5.96026611328125 7.321388244628906
        8.038573265075684 8.514663696289062 8.63063907623291 8.755760192871094 9.088409423828125 8.746604919433594
        8.0477294921875 7.5838470458984375 7.5960540771484375 7.492293834686279 7.324440002441406 8.658103942871094
        10.657066345214844 12.311164855957031 13.553269386291504 14.169745445251465 14.386427879333496 14.496292114257812
        14.636680603027344 14.844200134277344 14.975433349609375 15.524765014648438 16.379287719726562 16.0618896484375
        14.185005187988281 11.679435729980469 10.336616516113281 10.702842712402344 11.310157775878906 11.239967346191406
        10.922576904296875 11.044647216796875 11.990723609924316 13.17789363861084 13.574630737304688 12.753684997558594
        8.890045166015625 5.5085906982421875 6.5980987548828125 7.7669596672058105 5.4841766357421875 5.92364501953125
        7.849357604980469 8.935821533203125 6.6133575439453125 5.6031951904296875 6.103698253631592 7.147438049316406
        7.5258636474609375 5.865653991699219 5.5269012451171875 7.333595275878906 10.208442687988281 12.100584983825684
        12.805564880371094 13.126014709472656 9.265419006347656 4.242073059082031 7.034515380859375 11.111785888671875
        14.847251892089844 15.320289611816406 13.226722717285156 10.672325134277344 7.89208984375 7.116912841796875
        7.647941589355469 8.1026611328125 8.227790832519531 8.966339111328125 8.731346130371094 6.4943389892578125
        5.661186218261719 7.7761149406433105 10.196235656738281 12.11279296875 12.353889465332031 11.676383972167969
        12.1036376953125 13.27554988861084 14.206366539001465 13.858450889587402 10.05584716796875 4.4862213134765625
        4.235969543457031 7.4129486083984375 9.701835632324219 10.693687438964844 11.584823608398438 12.70180606842041
        13.415939331054688 13.91339111328125 14.154487609863281 13.470870971679688 11.224709510803223 7.989746570587158
        5.252234935760498 4.864646911621094 5.88397216796875 5.5757293701171875 3.985718011856079 4.4801177978515625
        7.4037933349609375 11.493271827697754 15.009002685546875 17.358924865722656 19.058807373046875 19.049654006958008
        17.255165100097656 17.087310791015625 19.388412475585938 21.597946166992188 22.717979431152344 23.172706604003906
        23.035369873046875 22.583694458007812 22.07708740234375 21.381271362304688 20.636619567871094 19.843130111694336
        18.454545974731445 16.315195083618164 14.10870361328125 12.83913516998291 5.97857666015625 6.167793273925781
        6.439406871795654 6.118957996368408 4.977569580078125 3.6469650268554688 3.4974210262298584 4.153572082519531
        4.4465484619140625 3.5828704833984375 2.908416986465454 2.5635528564453125 2.6093292236328125 2.899261474609375
        3.088470697402954 3.2715835571289062 3.6652755737304688 3.9765625 4.3916168212890625 4.4587554931640625
        4.4801177978515625 4.5350494384765625 4.956207275390625 5.5818328857421875 5.98162841796875 5.169837951660156
        4.007080078125 5.050811767578125 5.5604705810546875 5.2888569831848145 4.4679107666015625 4.242073059082031
        4.4373931884765625 5.313270568847656 6.11895751953125 6.820884704589844 7.046722412109375 7.336647033691406
        7.565536975860596 7.852409362792969 8.264412879943848 8.099609375 7.864616394042969 7.5991058349609375
        7.238990783691406 6.888030529022217 6.5370635986328125 6.845299243927002 8.148445129394531 9.98260498046875
        11.865592956542969 13.15042781829834 14.03546142578125 14.432205200195312 14.627525329589844 14.941864013671875
        15.518662452697754 16.15345001220703 16.22058868408203 14.987639427185059 12.625511169433594 10.678428649902344
        10.266426086425781 10.776084899902344 10.773032188415527 10.199287414550781 10.422073364257812 11.166725158691406
        12.237921714782715 13.318275451660156 14.127021789550781 14.148385047912598 9.518722534179688 4.657127380371094
        5.93280029296875 8.124031066894531 7.846305847167969 6.622520446777344 7.116912841796875 7.6204681396484375
        6.878875732421875 6.302070617675781 6.347846984863281 7.156593322753906 7.925659656524658 8.0721435546875
        5.117950439453125 5.3895721435546875 7.165748596191406 10.605178833007812 12.805564880371094 14.03546142578125
        13.727226257324219 7.190162658691406 5.8687052726745605 7.342750072479248 12.198250770568848 16.26636505126953
        16.702781677246094 14.682456970214844 8.868675231933594 5.639824390411377 8.148445129394531 11.221656799316406
        13.025299072265625 13.672294616699219 12.0853271484375 7.263404846191406 4.272590637207031 5.5604705810546875
        8.05078125 10.07415771484375 8.923614501953125 7.107757568359375 8.328498840332031 10.800498962402344
        13.455613136291504 15.039520263671875 14.539016723632812 8.636741638183594 2.5330352783203125 3.8758544921875
        7.2450947761535645 9.610275268554688 11.325416564941406 12.805564880371094 13.769950866699219 14.197212219238281
        14.017151832580566 13.223670959472656 12.1219482421875 11.340675354003906 10.312202453613281 8.719139099121094
        6.7232279777526855 5.047760009765625 4.156623840332031 4.333625793457031 6.820884704589844 10.892059326171875
        14.307075500488281 15.445419311523438 15.085296630859375 14.471878051757812 15.076141357421875 17.71904754638672
        21.475873947143555 24.066892623901367 25.101470947265625 25.61113166809082 25.247962951660156 24.524673461914062
        24.085205078125 23.68846893310547 23.441267013549805 23.496200561523438 23.346656799316406 22.45246696472168
        20.954010009765625 19.330421447753906 5.005035400390625 5.203407287597656 5.703910827636719 5.98162841796875
        5.6123504638671875 4.721214294433594 4.019287109375 3.976562738418579 4.187141418457031 3.7537763118743896
        2.8443222045898438 2.4292755126953125 2.5879669189453125 3.167823553085327 3.112884283065796 3.1312026977539062
        3.100677490234375 3.6896893978118896 4.202400207519531 4.220710754394531 4.321418762207031 4.4038238525390625
        4.721214294433594 5.301063537597656 5.819877624511719 5.096588134765625 3.7263107299804688 4.947052001953125
        5.6154022216796875 5.774101257324219 5.740531921386719 5.090484619140625 4.184089660644531 5.316322326660156
        5.627617359161377 5.95111083984375 6.03961181640625 6.08233642578125 6.4607696533203125 6.357002258300781
        6.707969665527344 6.8056254386901855 6.7873148918151855 6.7964701652526855 6.756798267364502 6.5736846923828125
        6.634727478027344 7.190162658691406 8.243049621582031 9.646903991699219 11.249122619628906 12.518691062927246
        13.452560424804688 13.861504554748535 14.252143859863281 14.929656982421875 15.863517761230469 16.257211685180664
        15.793326377868652 14.758749961853027 13.513595581054688 12.204354286193848 10.696739196777344 9.735404968261719
        8.990753173828125 8.703880310058594 9.89410400390625 11.429183959960938 12.628562927246094 13.367103576660156
        13.592942237854004 13.089385986328125 9.701835632324219 4.937896728515625 5.5452117919921875 7.4800872802734375
        9.747611999511719 6.915496826171875 4.666282653808594 3.2349624633789062 5.313270568847656 5.94195556640625
        6.701866149902344 7.699821472167969 8.182014465332031 9.372238159179688 7.96533203125 4.745628356933594
        5.349891185760498 7.187110900878906 11.102630615234375 13.763847351074219 15.149391174316406 13.058869361877441
        5.5360565185546875 7.113861083984375 8.975494384765625 14.453567504882812 18.030332565307617 18.900115966796875
        15.692619323730469 7.5441741943359375 5.212562561035156 7.870719909667969 12.790306091308594 16.22974395751953
        17.340614318847656 15.671257019042969 9.387496948242188 4.193244934082031 4.593033313751221 6.250190734863281
        6.4882354736328125 4.4862213134765625 5.5177459716796875 7.1291279792785645 9.469895362854004 12.347786903381348
        14.123969078063965 13.815727233886719 9.146400451660156 5.871757507324219 6.930755138397217 8.999908447265625
        10.562454223632812 11.841178894042969 13.098541259765625 14.191108703613281 14.825889587402344 14.728233337402344
        13.824882507324219 12.884918212890625 12.402725219726562 11.676383972167969 9.845268249511719 6.6133575439453125
        4.382462024688721 4.672386646270752 6.8330912590026855 9.280677795410156 10.885954856872559 11.17282772064209
        10.776084899902344 11.386458396911621 13.96832275390625 17.291786193847656 20.142221450805664 22.29376983642578
        23.9326171875 25.125892639160156 25.061800003051758 24.28357696533203 23.926513671875 24.35071563720703
        25.138099670410156 25.91326904296875 26.450393676757812 26.474807739257812 25.87053871154785 25.061798095703125
        5.020294189453125 4.641868591308594 4.736473083496094 5.3865203857421875 5.91448974609375 5.673393249511719
        5.011138916015625 4.229866027832031 3.5340425968170166 3.1861345767974854 2.7588729858398438 2.4994661808013916
        2.6917343139648438 3.244117498397827 2.957244873046875 2.8168563842773438 2.7832870483398438 3.3478775024414062
        4.0162353515625 4.031494140625 4.257331848144531 4.443497180938721 4.779197692871094 5.276649475097656
        5.767997741699219 5.188148498535156 3.7080001831054688 4.992828369140625 5.801567077636719 6.1433796882629395
        6.936859130859375 6.665245056152344 4.4709625244140625 5.093536376953125 5.3804168701171875 5.5940399169921875
        5.865653991699219 5.755790710449219 6.05487060546875 5.6184539794921875 5.731376647949219 6.134223937988281
        6.253242492675781 6.4607696533203125 6.5431671142578125 6.5492706298828125 6.964324951171875 7.6998209953308105
        8.853416442871094 10.290840148925781 11.688590049743652 12.784202575683594 13.428145408630371 13.837089538574219
        14.383377075195312 14.960175514221191 15.411849975585938 15.186012268066406 14.767906188964844 14.569535255432129
        14.175850868225098 12.802513122558594 10.769980430603027 8.822898864746094 7.171852111816406 7.4831390380859375
        9.289833068847656 11.246070861816406 12.784202575683594 13.663139343261719 13.760795593261719 13.003936767578125
        11.545150756835938 7.089447021484375 5.93280029296875 7.034515380859375 9.762870788574219 6.115905284881592
        2.8626327514648438 2.6764755249023438 5.722221374511719 5.4078826904296875 7.1810078620910645 8.03857421875
        8.368171691894531 8.908355712890625 10.04974365234375 6.988739013671875 4.031494140625 5.3956756591796875
        7.6387858390808105 11.972412109375 14.297920227050781 15.747551918029785 8.178962707519531 6.750694751739502
        7.748649597167969 9.295936584472656 14.065978050231934 17.64580535888672 18.475906372070312 14.651939392089844
        5.658134460449219 4.135261535644531 6.146430969238281 11.91748046875 15.9642333984375 17.566452026367188
        15.842155456542969 7.150489807128906 3.5950775146484375 3.662224054336548 5.98162841796875 5.310218811035156
        5.6001434326171875 6.5462188720703125 7.855461120605469 10.177924156188965 12.231820106506348 13.565475463867188
        13.91949462890625 13.30911922454834 11.746574401855469 10.248115539550781 9.927672386169434 10.861533164978027
        12.366096496582031 13.623466491699219 14.490188598632812 15.198219299316406 15.466780662536621 14.972381591796875
        13.440354347229004 11.093475341796875 9.726249694824219 9.787284851074219 9.558395385742188 7.9622802734375
        6.314277648925781 5.899230480194092 6.222724914550781 6.338691711425781 6.164741516113281 7.345802307128906
        10.434280395507812 13.290809631347656 15.234841346740723 17.80144500732422 20.395523071289062 21.951967239379883
        22.452468872070312 22.589797973632812 23.154396057128906 24.198129653930664 25.254066467285156 26.35578155517578
        27.454450607299805 27.83592987060547 27.170631408691406 26.32526397705078 5.044708251953125 4.300056457519531
        3.91552734375 4.5045318603515625 5.322425842285156 5.7039103507995605 5.4872283935546875 4.690696716308594
        3.650017023086548 3.021332025527954 2.7619245052337646 2.975555419921875 3.4394378662109375 3.4180755615234375
        3.045745849609375 3.100677490234375 2.801597833633423 3.033538818359375 3.7965011596679688 3.933837652206421
        4.2634358406066895 4.644920349121094 5.111846923828125 5.5177459716796875 5.719170093536377 5.172889709472656
        3.7080001831054688 4.556411266326904 5.3895721435546875 5.804618835449219 6.6743998527526855 6.8361430168151855
        5.304115295410156 5.026397705078125 5.3926239013671875 5.4933319091796875 5.4719696044921875 5.163734436035156
        5.5391082763671875 5.041656494140625 5.145423889160156 5.90228271484375 5.88702392578125 6.082335948944092
        6.195259094238281 6.149482727050781 5.856498718261719 5.639823913574219 6.3386921882629395 8.224739074707031
        10.098570823669434 11.609236717224121 12.540054321289062 13.312171936035156 13.92864990234375 13.715019226074219
        12.521743774414062 11.569564819335938 12.219611167907715 13.324378967285156 13.614303588867188 12.833030700683594
        11.9510498046875 10.226752281188965 7.715080261230469 7.748650074005127 9.012115478515625 10.620437622070312
        12.408828735351562 13.742485046386719 14.249092102050781 13.605148315429688 12.292854309082031 8.508560180664062
        6.796470642089844 6.924652099609375 8.716087341308594 4.4251861572265625 1.7456589937210083 2.09967041015625
        5.771049499511719 6.997894287109375 8.630638122558594 9.006011962890625 8.859519958496094 9.231849670410156
        9.283729553222656 9.515670776367188 5.798515319824219 4.727317810058594 4.5319976806640625 8.163703918457031
        12.680442810058594 15.19821834564209 11.001923561096191 5.255286693572998 7.156593322753906 6.00604248046875
        7.6937174797058105 12.326422691345215 15.741446495056152 17.484054565429688 12.985626220703125 3.057953119277954
        2.990814208984375 5.310218811035156 11.212501525878906 14.304023742675781 15.555281639099121 11.020233154296875
        3.8331222534179688 4.455704212188721 6.253242492675781 6.726280212402344 6.973479747772217 7.635734558105469
        8.975494384765625 10.983612060546875 12.237922668457031 12.573624610900879 12.762839317321777 13.156532287597656
        13.177894592285156 12.155526161193848 10.641807556152344 10.132148742675781 11.096527099609375 12.378311157226562
        12.918487548828125 13.229774475097656 14.08123779296875 14.847250938415527 14.130074501037598 12.317268371582031
        10.751670837402344 10.147408485412598 10.129096031188965 9.89410400390625 9.024323463439941 7.266456604003906
        4.770042896270752 2.908416509628296 3.018280029296875 4.687644958496094 6.744590759277344 8.099609375
        10.419021606445312 15.045622825622559 19.602035522460938 21.85735321044922 22.608108520507812 22.748497009277344
        22.656944274902344 22.421951293945312 22.29376983642578 22.882781982421875 23.68846893310547 24.002805709838867
        24.0028076171875 24.555191040039062 5.334632396697998 4.364143371582031 3.9552001953125 4.309211730957031
        4.800559997558594 5.218666076660156 5.3987274169921875 5.310218811035156 4.806663513183594 3.91552734375
        3.2166521549224854 3.4424896240234375 4.220710754394531 4.193244934082031 3.4974212646484375 3.7842941284179688
        3.4089202880859375 3.3387222290039062 3.8575363159179688 4.110839366912842 4.409926891326904 4.867698669433594
        5.133216857910156 5.188148498535156 5.148475646972656 4.693748474121094 3.6286544799804688 3.87890625
        4.641868591308594 5.130165100097656 5.636772155761719 5.4322967529296875 4.907379150390625 4.3855133056640625
        5.087432861328125 5.5513153076171875 5.035552978515625 4.754783630371094 5.130165100097656 5.059967041015625
        5.166785717010498 5.6031951904296875 5.4322967529296875 5.5055389404296875 5.7771525382995605 5.92669677734375
        5.2522358894348145 4.4862213134765625 4.766990661621094 5.97247314453125 7.922607421875 10.00396728515625
        11.221656799316406 11.508530616760254 10.983612060546875 9.839164733886719 7.727287292480469 6.378372669219971
        7.9195556640625 10.611283302307129 12.439346313476562 13.083282470703125 13.199256896972656 11.8961181640625
        9.488204956054688 8.749656677246094 9.051788330078125 10.03448486328125 11.633659362792969 13.199256896972656
        14.160591125488281 14.014100074768066 12.866600036621094 9.93072509765625 8.0965576171875 8.218635559082031
        9.607223510742188 5.230872631072998 0.6775131225585938 2.4658966064453125 6.137275695800781 8.484146118164062
        9.698782920837402 10.608230590820312 10.67232608795166 10.483108520507812 8.413955688476562 8.459732055664062
        9.500411987304688 6.714073181152344 3.2715835571289062 4.025390625 9.424118041992188 13.180946350097656
        12.811668395996094 6.5919952392578125 6.015198230743408 5.685600757598877 4.5747222900390625 6.140327453613281
        10.376296997070312 14.423050880432129 16.33960723876953 10.02227783203125 1.5961151123046875 1.4130096435546875
        5.301063537597656 9.793387413024902 11.389511108398438 8.966339111328125 5.212562561035156 5.783256530761719
        6.805625915527344 7.4068450927734375 7.702873229980469 7.748649597167969 9.158607482910156 11.764883995056152
        13.257240295410156 12.588882446289062 11.023284912109375 10.641807556152344 11.737419128417969 12.970367431640625
        13.251136779785156 12.662132263183594 11.9266357421875 11.618392944335938 11.685539245605469 11.816764831542969
        12.01513671875 12.076171875 11.9937744140625 12.08837890625 11.874755859375 10.837120056152344
        9.543136596679688 8.975494384765625 9.561447143554688 10.711997985839844 10.785240173339844 8.978546142578125
        6.01519775390625 4.736473083496094 5.090484619140625 6.350898742675781 8.72524356842041 12.234870910644531
        15.814690589904785 18.625450134277344 20.911285400390625 22.501296997070312 22.986541748046875 22.846153259277344
        22.956022262573242 23.346656799316406 23.480941772460938 23.6457462310791 23.84716033935547 23.63964080810547
        5.4414520263671875 5.215614318847656 5.133216857910156 5.4902801513671875 5.5269012451171875 5.023345947265625
        4.794456481933594 5.157630920410156 5.288856506347656 4.6021881103515625 3.5493013858795166 3.2105484008789062
        4.159675598144531 4.989776611328125 4.1199951171875 4.187141418457031 4.559463977813721 4.690696716308594
        4.519790172576904 4.4709625244140625 4.718162536621094 4.956207752227783 4.922637939453125 4.712059020996094
        4.4709625244140625 4.272590160369873 3.970458745956421 3.8453292846679688 4.364143371582031 4.861595153808594
        5.203407287597656 5.011138916015625 4.953155517578125 4.3763580322265625 4.4038238525390625 5.270545959472656
        4.766990661621094 4.4953765869140625 4.846336364746094 5.142372131347656 5.371253967285156 5.3956756591796875
        5.325477600097656 5.4994354248046875 5.758842945098877 5.98162841796875 5.328529357910156 4.611343860626221
        4.678489685058594 4.367195129394531 5.194252014160156 7.321387767791748 8.767967224121094 7.4007415771484375
        4.632713317871094 3.4516448974609375 2.4384307861328125 2.03863525390625 3.946044921875 7.312232971191406
        10.779136657714844 12.997833251953125 13.528854370117188 12.216560363769531 9.94903564453125 8.874786376953125
        8.871726989746094 9.677421569824219 11.111785888671875 12.549209594726562 13.690605163574219 14.11480712890625
        13.852348327636719 12.173836708068848 10.345771789550781 11.066009521484375 13.678398132324219 14.493240356445312
        10.586868286132812 2.850425958633423 6.839195251464844 9.826957702636719 9.701835632324219 10.333564758300781
        11.447494506835938 11.697747230529785 9.533981323242188 7.156593322753906 8.771018981933594 9.668266296386719
        4.925689697265625 1.7181931734085083 4.4862213134765625 9.579757690429688 11.560409545898438 6.775108337402344
        5.493332386016846 5.667289733886719 4.5960845947265625 4.123054504394531 5.835136890411377 9.91851806640625
        13.965270042419434 15.170753479003906 8.03857421875 0.912506103515625 1.6815719604492188 4.626609802246094
        6.503493785858154 5.6062469482421875 4.980621337890625 6.1433796882629395 7.6113128662109375 8.368171691894531
        8.395645141601562 7.330543041229248 7.104705810546875 9.381393432617188 12.228767395019531 13.287757873535156
        11.9998779296875 9.863578796386719 9.207435607910156 10.449538230895996 12.717062950134277 14.73433780670166
        15.482040405273438 14.899139404296875 13.574631690979004 12.250128746032715 11.209449768066406 10.513627052307129
        10.571610450744629 10.968353271484375 11.13620662689209 10.824913024902344 10.299995422363281 10.141304016113281
        10.419021606445312 10.931732177734375 11.001922607421875 10.147407531738281 7.727287292480469 5.169837951660156
        4.4526519775390625 5.5604705810546875 7.815788269042969 10.275581359863281 12.240974426269531 14.07513427734375
        16.19922637939453 18.03948974609375 19.211402893066406 20.450456619262695 21.89093017578125 22.67830467224121
        22.617263793945312 22.577590942382812 22.528762817382812 21.86956024169922 5.594040393829346 5.5848846435546875
        5.4780731201171875 5.636772155761719 5.539107799530029 4.873809814453125 4.324470520019531 4.4496002197265625
        5.114898681640625 5.5391082763671875 4.803611755371094 4.123054504394531 4.300056457519531 4.7669901847839355
        4.358039855957031 4.214607238769531 4.5350494384765625 4.916534423828125 5.053863525390625 4.901275634765625
        5.001983642578125 5.011138916015625 4.953155040740967 4.776145935058594 4.574722766876221 4.785301208496094
        5.014190196990967 4.7395243644714355 4.785301208496094 4.889068603515625 5.026397705078125 5.4109344482421875
        6.5858917236328125 6.5614776611328125 4.623558044433594 4.812767028808594 4.5686187744140625 4.766990661621094
        4.821922302246094 5.026397705078125 5.502486705780029 5.4597625732421875 5.664237976074219 5.868705749511719
        5.835136413574219 5.850395202636719 5.627616882324219 5.014190673828125 4.605240345001221 3.3021011352539062
        2.5788116455078125 3.7141036987304688 5.438399791717529 3.024383544921875 0.4608306884765625 0.5493316650390625
        0.4760894775390625 0.6042633652687073 1.3275527954101562 3.8422775268554688 8.243049621582031 12.125007629394531
        13.608200073242188 12.631614685058594 10.11688232421875 8.465835571289062 8.438369750976562 9.411911010742188
        10.870689392089844 12.302009582519531 13.409835815429688 13.809622764587402 13.565474510192871 12.384414672851562
        11.319314002990723 12.286750793457031 14.597000122070312 16.937774658203125 18.12494659423828 15.222633361816406
        5.642875671386719 8.923614501953125 10.092469215393066 8.404801368713379 8.746604919433594 10.742514610290527
        11.465805053710938 8.584854125976562 6.216621398925781 8.334602355957031 9.555343627929688 4.754783630371094
        1.6632614135742188 4.669334411621094 7.031463146209717 4.947052001953125 4.309211730957031 4.559463024139404
        4.879913330078125 4.940948009490967 5.774101257324219 8.117919921875 12.0029296875 15.622420310974121
        15.527817726135254 9.204383850097656 1.6235885620117188 1.2054824829101562 3.4058685302734375 5.279701232910156
        4.766990661621094 5.682548999786377 7.6174163818359375 8.349861145019531 8.911407470703125 8.737449645996094
        7.4190521240234375 7.791374206542969 9.918519020080566 11.9541015625 12.1219482421875 9.808646202087402
        7.388535022735596 7.095550537109375 8.856468200683594 11.749626159667969 14.291816711425781 15.616316795349121
        15.524765014648438 13.782157897949219 10.235907554626465 7.4983978271484375 7.9866943359375 9.823904991149902
        10.849327087402344 10.751670837402344 10.180976867675781 10.11993408203125 10.766929626464844 11.658073425292969
        12.192147254943848 11.935791969299316 9.509567260742188 5.97247314453125 5.078277587890625 5.996887683868408
        7.330543518066406 8.557387351989746 9.741508483886719 11.124000549316406 12.533950805664062 13.489181518554688
        14.200263977050781 15.152442932128906 16.010009765625 16.452529907226562 16.541030883789062 16.26026153564453
        15.860466003417969 16.1015625 6.680503845214844 6.167793273925781 5.612350940704346 5.304114818572998
        5.081329345703125 4.4190826416015625 3.775139093399048 3.7293624877929688 4.498427867889404 5.615402698516846
        6.11590576171875 5.755790710449219 5.044708251953125 4.669334411621094 4.321418762207031 4.4618072509765625
        4.766990661621094 5.160682678222656 5.6215057373046875 5.3865203857421875 5.182044982910156 5.133216381072998
        5.255287170410156 5.4811248779296875 5.737480640411377 6.265449523925781 6.3997344970703125 6.216620922088623
        6.042663097381592 5.4414520263671875 5.111846923828125 5.670341491699219 6.591994762420654 7.492293834686279
        6.500442981719971 3.4943695068359375 4.007080078125 4.889068603515625 4.660179138183594 4.5625152587890625
        5.2491841316223145 5.328529357910156 5.4170379638671875 5.6062469482421875 5.5146942138671875 5.365150451660156
        5.5665740966796875 5.658134460449219 4.4221343994140625 3.4058685302734375 3.003021240234375 2.4933624267578125
        3.5920257568359375 2.2431106567382812 0.5005035400390625 1.1383438110351562 1.116973876953125 1.4618377685546875
        1.467941164970398 1.9287718534469604 5.246131896972656 9.265419006347656 11.441390037536621 11.322364807128906
        9.869682312011719 8.600112915039062 8.487197875976562 9.204383850097656 10.336616516113281 11.655021667480469
        12.884918212890625 13.571578979492188 13.443406105041504 12.570570945739746 11.819816589355469 11.380356788635254
        11.420029640197754 13.281654357910156 15.594954490661621 17.932676315307617 14.560378074645996 5.92364501953125
        8.490249633789062 8.224739074707031 6.521805286407471 7.4800872802734375 10.705894470214844 11.386459350585938
        6.894134521484375 6.161689758300781 9.91241455078125 11.484115600585938 7.254249572753906 2.2888870239257812
        3.6683273315429688 4.5258941650390625 3.8605880737304688 3.2227554321289062 3.628654718399048 4.6113433837890625
        5.99993896484375 8.529922485351562 12.079222679138184 15.732292175292969 18.20429229736328 17.65801239013672
        12.454606056213379 7.095550537109375 6.357002258300781 6.857505798339844 5.298011779785156 5.832084655761719
        7.742546081542969 8.359016418457031 9.042633056640625 9.704886436462402 8.755760192871094 7.797477722167969
        8.328498840332031 9.091461181640625 9.088409423828125 7.684562683105469 5.89617919921875 5.5696258544921875
        6.305122375488281 7.7211833000183105 9.680473327636719 11.499374389648438 12.692649841308594 11.520736694335938
        6.854454040527344 3.5218350887298584 4.5991363525390625 7.9439697265625 10.690635681152344 11.9998779296875
        11.987669944763184 11.383406639099121 11.142312049865723 11.731314659118652 12.854393005371094 13.290809631347656
        11.89306640625 8.175909996032715 5.612350940704346 5.93890380859375 7.187110900878906 8.258308410644531
        9.118927955627441 9.866631507873535 10.449539184570312 10.809654235839844 11.236915588378906 11.697747230529785
        12.247077941894531 13.35794734954834 14.517655372619629 14.73738956451416 14.487136840820312 14.578689575195312
        7.7150797843933105 6.707969665527344 5.98773193359375 5.93585205078125 5.90533447265625 5.4322967529296875
        4.834129333496094 4.315315246582031 4.327522277832031 5.340736389160156 6.1433796882629395 5.98468017578125
        5.4292449951171875 4.776145935058594 4.5472564697265625 5.1912007331848145 5.783257007598877 5.92974853515625
        5.868705749511719 5.8015666007995605 5.639823913574219 5.633720397949219 5.819877624511719 6.277656555175781
        6.711021423339844 6.808677673339844 6.7293314933776855 6.8330912590026855 6.903289794921875 6.430251598358154
        5.688652038574219 5.2583394050598145 4.605239391326904 4.879913330078125 6.2532429695129395 2.7863388061523438
        3.5157318115234375 4.846336364746094 4.351936340332031 4.019287109375 4.5381011962890625 5.017242431640625
        5.185096740722656 5.429245471954346 5.441452503204346 5.261390686035156 5.285804748535156 4.879913806915283
        3.8361740112304688 4.0650634765625 5.331580638885498 5.371253967285156 3.930785894393921 1.87689208984375
        0.6653060913085938 1.2848281860351562 1.3306044340133667 1.7334518432617188 1.8219528198242188 1.8402633666992188
        2.6764755249023438 4.968414306640625 6.784263610839844 7.507552623748779 8.172859191894531 8.679466247558594
        8.914459228515625 9.079253196716309 9.518721580505371 10.440383911132812 11.764884948730469 13.086334228515625
        13.766900062561035 13.476974487304688 12.656028747558594 11.301002502441406 9.671318054199219 9.894103050231934
        11.978515625 13.586837768554688 14.03851318359375 10.391555786132812 5.5116424560546875 7.4129486083984375
        6.732383728027344 6.210517883300781 8.148445129394531 11.496321678161621 9.231849670410156 5.5146942138671875
        6.970428466796875 11.017181396484375 12.836081504821777 8.297981262207031 6.05181884765625 6.918548107147217
        7.086395263671875 3.665275812149048 2.5971221923828125 3.7018966674804688 4.8341288566589355 6.744590759277344
        9.845269203186035 13.290810585021973 16.13208770751953 17.496261596679688 16.891998291015625 15.143287658691406
        13.90423583984375 10.202339172363281 5.5452117919921875 5.755790710449219 8.0843505859375 10.144355773925781
        12.176887512207031 13.187049865722656 12.176887512207031 8.853416442871094 5.749687194824219 4.794456481933594
        4.742576599121094 4.657127380371094 3.885009765625 3.305152654647827 4.156623363494873 5.142372131347656
        5.810722351074219 6.711021423339844 7.113861083984375 5.703910827636719 3.909423828125 3.643913507461548
        4.5289459228515625 6.00299072265625 8.413955688476562 11.288795471191406 13.522749900817871 14.542069435119629
        14.496292114257812 14.03851318359375 13.803521156311035 13.516647338867188 12.906280517578125 10.72115421295166
        7.5838470458984375 6.335639953613281 7.153541088104248 8.459732055664062 9.421067237854004 9.900206565856934
        10.229804992675781 10.559401512145996 10.858482360839844 11.093475341796875 11.874756813049316 13.724173545837402
        15.762808799743652 16.885892868041992 17.053741455078125 16.504409790039062 7.2664570808410645 6.6652445793151855
        6.567580699920654 6.4394073486328125 6.4943389892578125 6.820884704589844 6.897186279296875 6.173896789550781
        5.526901721954346 5.94500732421875 6.295966625213623 5.92059326171875 5.4963836669921875 4.983673095703125
        4.727317810058594 5.2552876472473145 6.042664051055908 5.94195556640625 5.4048309326171875 5.557418346405029
        5.758842468261719 5.810722351074219 5.813774585723877 5.98162841796875 6.09759521484375 5.725273132324219
        5.6092987060546875 5.905334949493408 6.286811828613281 6.604201793670654 6.143379211425781 4.962310791015625
        4.263435363769531 5.035552978515625 6.6194610595703125 5.291908264160156 2.7344589233398438 4.806663513183594
        4.422134876251221 3.976562261581421 4.0223388671875 4.623558044433594 5.038604259490967 5.371253490447998
        5.4353485107421875 5.117950439453125 4.724266529083252 4.0223388671875 3.3967132568359375 4.3855133056640625
        6.5034942626953125 8.487197875976562 6.341742992401123 1.6235885620117188 1.1719131469726562 1.3702774047851562
        1.6693648099899292 1.92266845703125 2.04168701171875 1.98065185546875 1.7487107515335083 2.06610107421875
        3.1403579711914062 3.878906488418579 5.127113342285156 7.2084736824035645 8.691673278808594 9.121978759765625
        9.298988342285156 9.823905944824219 10.803550720214844 11.960205078125 12.921539306640625 13.260292053222656
        12.756736755371094 11.587874412536621 10.135201454162598 9.610275268554688 9.741508483886719 8.227790832519531
        8.0965576171875 11.124000549316406 9.213539123535156 5.737480163574219 6.595046520233154 5.99993896484375
        6.00299072265625 8.804588317871094 9.98565673828125 6.884979248046875 6.302070617675781 7.5868988037109375
        10.138252258300781 10.718101501464844 10.08331298828125 10.715049743652344 11.279640197753906 7.9561767578125
        2.948089599609375 3.042694091796875 3.6072843074798584 3.8575363159179688 4.712059497833252 6.6072540283203125
        9.503462791442871 12.872711181640625 15.253150939941406 16.31824493408203 16.891998291015625 16.0435791015625
        12.961212158203125 7.156593322753906 7.824943542480469 10.190132141113281 13.90423583984375 16.34571075439453
        16.11376953125 13.91644287109375 11.322364807128906 9.012115478515625 6.2318806648254395 4.660179138183594
        5.240028381347656 5.4384002685546875 4.315315246582031 3.96435546875 3.5248868465423584 3.753776788711548
        3.3112564086914062 3.5615081787109375 5.102691650390625 5.90838623046875 6.140327453613281 6.3844757080078125
        7.300025939941406 9.524826049804688 12.549209594726562 15.201271057128906 16.803489685058594 17.166664123535156
        16.82179832458496 16.489151000976562 16.3151912689209 15.906249046325684 14.810630798339844 13.385421752929688
        12.414932250976562 12.170783996582031 12.134162902832031 11.380355834960938 10.150459289550781 9.671318054199219
        10.187080383300781 11.059906005859375 12.228767395019531 14.343696594238281 17.233802795410156 19.501327514648438
        20.25208282470703 19.52574348449707 7.037567138671875 6.692710876464844 6.744590759277344 6.6896586418151855
        6.558426380157471 6.729331970214844 6.839195251464844 6.234931945800781 5.713066101074219 5.847343444824219
        6.213569164276123 6.262397766113281 6.250190258026123 6.079284191131592 5.767997741699219 5.771049499511719
        5.798515796661377 5.703910827636719 5.4261932373046875 5.4536590576171875 5.5848846435546875 5.5330047607421875
        5.484177112579346 5.5299530029296875 5.4628143310546875 4.834129333496094 4.855491638183594 5.111846923828125
        5.246131896972656 5.3895721435546875 5.240028381347656 4.687644958496094 4.812767505645752 6.128119945526123
        8.1148681640625 9.402755737304688 5.4109344482421875 4.071166515350342 4.3275227546691895 4.242073059082031
        4.116943359375 4.5167388916015625 4.965362548828125 5.267494201660156 5.084381580352783 4.647972106933594
        4.3885650634765625 4.068115234375 3.6317062377929688 4.330574035644531 5.001983642578125 6.759849548339844
        7.654045104980469 2.5421905517578125 1.1597061157226562 1.3641738891601562 1.5198211669921875 1.90740966796875
        2.1942825317382812 2.1973342895507812 1.91656494140625 1.6052703857421875 1.88299560546875 2.07525634765625
        2.6612167358398438 4.345832824707031 6.781211853027344 8.175910949707031 8.624534606933594 8.886993408203125
        9.463790893554688 10.09552001953125 10.69063663482666 11.337623596191406 10.971405029296875 9.570601463317871
        8.487197875976562 9.628593444824219 10.849327087402344 6.03656005859375 3.967407464981079 7.400742053985596
        10.510574340820312 6.198310852050781 5.4414520263671875 5.636772155761719 4.916533946990967 5.98162841796875
        8.410903930664062 7.904297351837158 7.281715393066406 7.019256591796875 6.711021423339844 6.784264087677002
        7.4465179443359375 8.676414489746094 10.507522583007812 11.658073425292969 8.255255699157715 3.070159912109375
        2.8595809936523438 2.00506591796875 1.4557342529296875 0.7934799194335938 2.6551132202148438 7.330543518066406
        12.280648231506348 15.066985130310059 16.27246856689453 16.516616821289062 15.350807189941406 8.606216430664062
        7.153541564941406 7.840202331542969 10.620437622070312 13.400680541992188 14.392532348632812 14.209419250488281
        14.651939392089844 15.182961463928223 13.473922729492188 7.263404846191406 3.927734136581421 4.638816833496094
        4.013183116912842 3.3326187133789062 2.8199081420898438 3.085418701171875 3.103729009628296 4.660179138183594
        6.665245056152344 8.0294189453125 8.481094360351562 7.959228992462158 6.662193298339844 6.949065685272217
        9.317298889160156 12.677391052246094 15.753654479980469 17.224645614624023 17.25821876525879 16.928619384765625
        16.928619384765625 17.041534423828125 17.014068603515625 16.983551025390625 16.949981689453125 16.815696716308594
        17.087312698364258 17.075103759765625 15.485092163085938 13.16568660736084 11.700798034667969 10.849327087402344
        10.556350708007812 12.125008583068848 15.561386108398438 18.47590446472168 19.406723022460938 18.970306396484375
        7.666252136230469 7.144386291503906 6.784263610839844 6.640830993652344 6.3844757080078125 6.186103820800781
        6.289863109588623 6.140327453613281 5.786308288574219 5.4933319091796875 5.4658660888671875 5.874816417694092
        6.3814239501953125 6.5614776611328125 6.3966827392578125 6.158638000488281 6.1403279304504395 6.4333038330078125
        6.3936309814453125 5.957214832305908 5.5421600341796875 5.236976623535156 5.157630920410156 5.236976623535156
        5.044708251953125 4.5075836181640625 4.5869293212890625 4.5869293212890625 4.315315246582031 4.2786946296691895
        4.4740142822265625 4.4892730712890625 4.858543395996094 5.87481689453125 7.4068450927734375 8.679466247558594
        7.7455973625183105 4.1016845703125 3.8605880737304688 4.4251861572265625 4.629661560058594 4.651023864746094
        4.654075622558594 4.834129810333252 4.4465484619140625 4.025390625 3.9063720703125 3.9185791015625
        3.964355707168579 4.132209777832031 3.8026046752929688 3.8178632259368896 5.862602233886719 3.628654718399048
        0.8606186509132385 1.3672256469726562 1.4587860107421875 1.8646775484085083 2.2736284732818604 2.4140167236328125
        2.2278518676757812 1.99896240234375 1.8768919706344604 1.8280563354492188 1.95928955078125 2.1790237426757812
        3.6622238159179688 5.227821350097656 5.749687194824219 5.93280029296875 6.311225891113281 6.381423473358154
        6.360054016113281 7.138282775878906 7.058929443359375 5.4139862060546875 4.3641438484191895 6.872771739959717
        11.188087463378906 8.526870727539062 3.8117599487304688 4.4557037353515625 7.174903869628906 5.865653991699219
        4.654075622558594 5.063018798828125 4.416030406951904 4.4099273681640625 6.4912872314453125 7.715080738067627
        7.702873229980469 7.260353088378906 7.049774169921875 7.025360584259033 4.824974060058594 3.112884283065796
        4.977569580078125 9.042633056640625 11.615341186523438 8.0263671875 3.814811944961548 2.02642822265625
        1.2604141235351562 0.4791412651538849 0.6164703369140625 2.984710931777954 7.589951038360596 11.944947242736816
        14.258247375488281 14.084290504455566 13.064971923828125 8.0233154296875 5.4048309326171875 5.114898204803467
        5.96636962890625 7.4587249755859375 8.529922485351562 10.321357727050781 13.074127197265625 15.741447448730469
        17.184974670410156 16.04052734375 9.92767333984375 4.5899810791015625 2.5696563720703125 3.2471697330474854
        2.972503423690796 1.022369384765625 1.3641738891601562 4.0040283203125 6.674400329589844 9.063995361328125
        10.840171813964844 10.87069034576416 7.867668151855469 4.992828369140625 5.252235412597656 7.623527526855469
        11.212501525878906 14.246040344238281 14.990692138671875 13.614303588867188 12.198249816894531 12.524795532226562
        14.593949317932129 17.047637939453125 18.741416931152344 19.449447631835938 20.35584259033203 21.396530151367188
        21.216468811035156 20.14832305908203 18.759727478027344 16.895050048828125 14.929656982421875 14.11785888671875
        14.450515747070312 15.103607177734375 15.909300804138184 16.806543350219727 7.849357604980469 7.358009338378906
        7.022308349609375 6.961273193359375 6.616408824920654 6.082335948944092 6.265449523925781 6.582839488983154
        6.259346008300781 5.676445484161377 5.343788146972656 5.478073596954346 5.819877624511719 6.02435302734375
        5.99993896484375 5.945006847381592 6.308174133300781 6.903290271759033 7.104705810546875 6.628624439239502
        5.89312744140625 5.151527404785156 4.858543395996094 4.922637939453125 4.702903747558594 4.4129791259765625
        4.321418762207031 4.116943359375 3.869743585586548 3.946044921875 4.165779113769531 4.336677551269531
        4.794456481933594 5.182044982910156 5.5635223388671875 6.198310852050781 7.013153076171875 4.0009765625
        3.2380142211914062 4.284797668457031 4.4618072509765625 4.2939534187316895 4.01318359375 4.147468566894531
        3.823967218399048 3.4699554443359375 3.5767669677734375 3.6805343627929688 3.8544843196868896 3.9307861328125
        3.5401458740234375 2.8565292358398438 2.826011896133423 2.2339556217193604 0.973541259765625 1.3397598266601562
        1.6327438354492188 1.88909912109375 2.1546096801757812 2.2858352661132812 2.3834991455078125 2.4262237548828125
        2.4109649658203125 2.4323272705078125 2.4048614501953125 2.1332473754882812 1.8311079740524292 1.8677291870117188
        1.9928590059280396 2.157661199569702 2.4475860595703125 2.2309036254882812 1.87994384765625 2.4964141845703125
        2.975555419921875 2.2522659301757812 2.3133010864257812 4.654075622558594 8.816795349121094 9.646903991699219
        5.2827534675598145 3.7354660034179688 4.6357645988464355 4.718162536621094 4.5960845947265625 4.742576599121094
        4.5625152587890625 4.235969543457031 5.212562561035156 6.903289794921875 7.507552623748779 6.546219348907471
        6.854454040527344 8.215583801269531 5.218666076660156 1.1749649047851562 1.7700729370117188 4.0986328125
        7.284767150878906 8.709983825683594 7.611312389373779 5.4780731201171875 3.1800308227539062 1.1536026000976562
        1.2970352172851562 1.7700728178024292 3.6927413940429688 6.924652099609375 10.05889892578125 11.404769897460938
        11.9693603515625 8.481094360351562 3.6713790893554688 3.6225509643554688 2.3590774536132812 2.6001739501953125
        3.2044448852539062 5.731376647949219 9.585861206054688 13.623466491699219 16.010009765625 17.172767639160156
        17.481002807617188 16.846214294433594 13.022247314453125 5.670341491699219 1.8219529390335083 1.1444473266601562
        2.6306991577148438 4.861595153808594 6.259345531463623 7.312232971191406 9.091461181640625 10.724205017089844
        10.553298950195312 8.526870727539062 6.4119415283203125 5.630668640136719 6.7232279777526855 8.966339111328125
        10.599076271057129 10.229804992675781 9.051788330078125 9.192176818847656 11.416975975036621 14.627524375915527
        17.419967651367188 19.019134521484375 19.63256072998047 20.0140380859375 20.838035583496094 21.77495574951172
        21.454513549804688 19.7302188873291 17.85942840576172 16.882843017578125 16.434219360351562 16.446426391601562
        16.962188720703125 17.53898811340332 7.3000264167785645 6.640830993652344 6.4821319580078125 6.686607360839844
        6.872772216796875 6.7964701652526855 6.775108337402344 6.817832946777344 6.4485626220703125 5.96636962890625
        5.655082702636719 5.6062469482421875 5.5665740966796875 5.5177459716796875 5.639823913574219 5.87481689453125
        6.131172180175781 6.4516143798828125 6.6133575439453125 6.573684215545654 6.4455108642578125 5.816825866699219
        5.178992748260498 4.983673095703125 4.5899810791015625 4.202400207519531 3.8361740112304688 3.6530685424804688
        3.7324142456054688 4.0009765625 4.156623840332031 4.300056457519531 4.760887145996094 5.017242431640625
        4.800559997558594 4.345832824707031 4.770042419433594 3.4455411434173584 3.2807388305664062 4.150520324707031
        3.9185791015625 3.6164398193359375 3.4913177490234375 3.7018966674804688 3.4119720458984375 3.021331548690796
        3.2197036743164062 3.4455413818359375 3.5340423583984375 3.6683270931243896 3.4699554443359375 2.8473739624023438
        2.2492141723632812 1.5655975341796875 1.3061903715133667 1.3763885498046875 1.1627577543258667 1.5778045654296875
        1.9165648221969604 2.05694580078125 2.1301956176757812 2.3071975708007812 2.3987579345703125 2.5330352783203125
        2.7314071655273438 2.6825790405273438 2.1637649536132812 1.4435272216796875 0.8667221069335938 0.4699859619140625
        0.26856231689453125 0.28382107615470886 0.4944000542163849 0.20752716064453125 0.5829009413719177 1.5472869873046875
        3.4974210262298584 4.5625152587890625 6.180000305175781 8.401748657226562 7.199317932128906 4.4007720947265625
        3.869743585586548 4.4038238525390625 4.7975077629089355 4.766990661621094 5.093536376953125 4.867699146270752
        4.5533599853515625 5.673393249511719 7.028411388397217 6.222724437713623 5.008087635040283 5.710014820098877
        5.267494201660156 2.5879669189453125 1.4404754638671875 1.6235886812210083 2.905365228652954 4.513686656951904
        7.193214416503906 8.719139099121094 6.601150989532471 2.8077011108398438 2.00201416015625 2.4567410945892334
        3.094573974609375 4.409927845001221 6.311225891113281 8.0782470703125 9.784232139587402 9.549240112304688
        4.800560474395752 2.905364751815796 3.3784029483795166 2.1301956176757812 1.7059860229492188 2.2553176879882812
        4.263435363769531 7.4495697021484375 10.354927062988281 12.341683387756348 14.090392112731934 15.936767578125
        17.157508850097656 15.637687683105469 11.038543701171875 6.6103057861328125 6.5126495361328125 7.834098815917969
        8.188117980957031 7.5716400146484375 7.116912841796875 6.936859130859375 7.8218913078308105 9.561446189880371
        10.776083946228027 10.470901489257812 9.045685768127441 7.663200378417969 7.2328877449035645 7.742546558380127
        8.597061157226562 9.332557678222656 9.97955322265625 11.056854248046875 13.040558815002441 15.521713256835938
        17.572555541992188 18.753623962402344 19.65697479248047 20.505386352539062 20.490127563476562 19.568466186523438
        18.07611083984375 16.38844108581543 15.512558937072754 15.897095680236816 16.724143981933594 17.169715881347656
        7.007049560546875 6.180000305175781 5.679497241973877 5.825981140136719 6.347846984863281 6.927703857421875
        7.361060619354248 7.4587249755859375 7.000945568084717 6.485184192657471 6.198310852050781 6.1281208992004395
        5.771049499511719 5.368202209472656 5.368202209472656 5.6611857414245605 5.737480163574219 5.642876148223877
        5.749687194824219 6.01214599609375 6.234931945800781 6.241035461425781 6.01824951171875 5.5543670654296875
        4.6113433837890625 3.994873046875 3.5676116943359375 3.4333343505859375 3.5920257568359375 3.8117599487304688
        4.028441905975342 4.254280090332031 4.5106353759765625 4.4709625244140625 4.239021301269531 4.104736328125
        3.8056561946868896 3.3692398071289062 3.8697431087493896 3.723259210586548 3.265479803085327 3.2685317993164062
        3.4089202880859375 3.5950775146484375 3.2624282836914062 2.8565289974212646 2.948089599609375 3.1922378540039062
        3.2959976196289062 3.2349627017974854 2.8260116577148438 2.1240921020507812 1.8768919706344604 1.7029342651367188
        1.6876754760742188 1.6968307495117188 1.1474990844726562 0.985748291015625 1.3122940063476562 1.88299560546875
        2.1271438598632812 2.09356689453125 2.288886785507202 2.4842071533203125 2.5452423095703125 2.4933626651763916
        2.1362991333007812 1.5961151123046875 1.1536026000976562 0.912506103515625 0.683616578578949 0.4852447509765625
        0.32044219970703125 0.22888946533203125 0.34790802001953125 3.1312026977539062 6.2166218757629395 5.359046936035156
        3.6744308471679688 5.014190673828125 6.6103057861328125 5.645927429199219 4.3733062744140625 4.5564117431640625
        5.005034923553467 4.962310314178467 5.453659534454346 5.441452503204346 4.681541442871094 4.626609802246094
        5.725273132324219 6.11895751953125 5.041656494140625 4.1016845703125 3.946044921875 3.170875310897827
        1.8036423921585083 0.5951079726219177 0.7324447631835938 1.97149658203125 4.7822489738464355 8.1148681640625
        8.502456665039062 3.885009527206421 1.88604736328125 2.761924982070923 3.2319107055664062 3.6439132690429688
        4.147468566894531 4.4373931884765625 5.059967041015625 6.537063121795654 6.06707763671875 2.3224563598632812
        1.8524703979492188 2.4964141845703125 2.4475860595703125 2.01422119140625 1.034576416015625 2.02032470703125
        3.6378097534179688 5.014190673828125 6.735435485839844 9.079254150390625 11.874756813049316 14.603103637695312
        15.210426330566406 13.058868408203125 11.413925170898438 11.001922607421875 10.821861267089844 9.707939147949219
        7.303077697753906 4.068115234375 3.4272308349609375 5.081329345703125 7.477035999298096 10.04058837890625
        11.429183959960938 11.041595458984375 9.92462158203125 9.314247131347656 9.469895362854004 9.95513916015625
        10.153511047363281 10.06500244140625 10.364082336425781 11.368141174316406 13.177894592285156 15.161598205566406
        16.599014282226562 17.77092742919922 18.756675720214844 19.101533889770508 18.628501892089844 17.538986206054688
        16.568496704101562 16.403701782226562 16.797386169433594 16.971343994140625 6.6042022705078125 6.283760070800781
        5.664237976074219 5.487228870391846 5.887024402618408 6.5980987548828125 7.263404846191406 7.504500865936279
        7.156592845916748 6.784263610839844 6.671348571777344 6.6866068840026855 6.4943389892578125 6.118957042694092
        5.786308288574219 5.5726776123046875 5.4750213623046875 5.319374084472656 5.178993225097656 5.4170379638671875
        5.6947550773620605 5.844291687011719 5.862602710723877 5.639824390411377 4.730369567871094 4.043701171875
        3.7202072143554688 3.4913177490234375 3.4363861083984375 3.5859222412109375 3.9033203125 4.0772705078125
        4.0223388671875 4.104736804962158 4.248176574707031 4.0894775390625 3.8941650390625 3.930786371231079
        4.141365051269531 3.3967132568359375 3.1525650024414062 3.5340421199798584 3.7354660034179688 3.6500165462493896
        3.2807388305664062 2.899261474609375 2.7954938411712646 2.957244873046875 3.1647720336914062 3.1525652408599854
        2.810753107070923 2.4231722354888916 2.11492919921875 2.2217483520507812 2.3102493286132812 2.1362991333007812
        1.8066939115524292 1.599166989326477 1.3397598266601562 1.605270504951477 2.07525634765625 2.356025457382202
        2.4872589111328125 2.5482940673828125 2.6368026733398438 2.5818634033203125 2.2553176879882812 1.7731245756149292
        1.3000869750976562 1.068145751953125 0.8331527709960938 0.5493316650390625 0.4638824760913849 0.9674378037452698
        1.1780166625976562 3.2563250064849854 5.664238452911377 4.922637939453125 2.8534774780273438 3.2410659790039062
        5.233924865722656 6.268501281738281 5.298011779785156 4.684593200683594 4.849388122558594 5.059967517852783
        5.5940399169921875 5.661186695098877 5.5269012451171875 5.127113342285156 5.090484619140625 5.4872283935546875
        5.337684631347656 4.263435363769531 3.5706634521484375 3.1983413696289062 2.01116943359375 0.8606185913085938
        0.7843246459960938 1.9592894315719604 3.96435546875 6.6103057861328125 8.566543579101562 6.10064697265625
        3.097625732421875 2.3987581729888916 2.7069931030273438 2.7405624389648438 2.5849151611328125 2.5696563720703125
        2.3590774536132812 1.98980712890625 2.6032257080078125 2.2827835083007812 0.4699859619140625 1.040679931640625
        1.2939835786819458 1.7304000854492188 1.602218508720398 1.88604736328125 2.5208282470703125 3.1830825805664062
        3.1861343383789062 3.4608001708984375 5.5787811279296875 8.322395324707031 9.451583862304688 9.424118041992188
        9.854424476623535 11.227760314941406 12.808615684509277 13.443404197692871 12.256232261657715 8.804588317871094
        6.173896789550781 5.4933319091796875 5.5024871826171875 5.853446960449219 6.982635498046875 8.911407470703125
        10.583816528320312 11.163673400878906 10.773033142089844 10.568557739257812 11.221656799316406 11.862541198730469
        11.810660362243652 11.435287475585938 11.20334529876709 11.545150756835938 12.933746337890625 15.066986083984375
        16.873689651489258 17.88995361328125 18.33856964111328 17.99676513671875 16.962190628051758 16.531875610351562
        17.072050094604492 17.072050094604492 6.341743469238281 6.4485626220703125 6.01519775390625 5.774101734161377
        5.90838623046875 6.4272003173828125 7.086395263671875 7.379378795623779 7.245094299316406 7.019256591796875
        6.790367603302002 6.610305309295654 6.640831470489502 6.695763111114502 6.381423473358154 6.05181884765625
        6.05792236328125 6.155586242675781 5.95111083984375 5.90533447265625 5.670341491699219 5.4078826904296875
        5.349891662597656 5.322425842285156 4.828025817871094 4.217658996582031 3.7812423706054688 3.5218355655670166
        3.4852142333984375 3.5096282958984375 3.7507247924804688 3.991821527481079 3.8941650390625 3.985718011856079
        4.263435363769531 4.0833740234375 4.0528564453125 4.251228332519531 4.324470520019531 3.9002685546875
        3.7659835815429688 3.9124755859375 4.0009765625 3.6805343627929688 3.2532730102539062 2.990814208984375
        2.914520263671875 3.106780767440796 3.186134099960327 3.027435064315796 2.884002685546875 2.908416986465454
        2.6001739501953125 2.4903106689453125 2.4750518798828125 2.2888870239257812 2.09356689453125 1.95623779296875
        1.5686492919921875 1.2726212739944458 1.5137176513671875 2.3590774536132812 2.5971221923828125 2.5269317626953125
        2.6734237670898438 2.5788116455078125 2.4475860595703125 1.9745482206344604 1.4069061279296875 1.3092422485351562
        1.025421142578125 0.5279693603515625 0.961334228515625 1.7944868803024292 1.6205291748046875 1.7456588745117188
        3.030487060546875 4.080322265625 3.8270184993743896 3.4241790771484375 3.4638519287109375 5.151527404785156
        5.642875671386719 4.879912853240967 4.5350494384765625 4.901275634765625 5.3315815925598145 5.5177459716796875
        6.4546661376953125 7.003997802734375 5.871757507324219 5.032501220703125 5.4841766357421875 5.197303295135498
        3.7385175228118896 3.1769790649414062 2.8015975952148438 2.261420965194702 1.87994384765625 2.06304931640625
        3.3722991943359375 5.240028381347656 7.046721935272217 6.537064075469971 3.8239669799804688 1.6571578979492188
        1.3855438232421875 1.4557342529296875 1.2756729125976562 1.1841201782226562 1.5808563232421875 1.5472869873046875
        0.7904281616210938 0.18921661376953125 0.9094544053077698 1.062042236328125 1.4130096435546875 2.6337509155273438
        3.5187835693359375 4.364143371582031 4.663230895996094 4.858543395996094 4.5472564697265625 4.4496002197265625
        5.349891662597656 6.198310852050781 6.790367126464844 6.414992809295654 5.5848846435546875 6.329536437988281
        8.401748657226562 10.327461242675781 10.85237979888916 10.458695411682129 10.827964782714844 11.688591003417969
        11.099577903747559 8.215583801269531 5.4170379638671875 5.4414520263671875 6.939910888671875 7.98974609375
        8.270515441894531 8.905304908752441 10.754721641540527 12.491225242614746 12.979522705078125 12.82387638092041
        12.265387535095215 11.694694519042969 11.899169921875 12.750633239746094 13.876769065856934 15.427108764648438
        16.85231590270996 17.056795120239258 16.20532989501953 16.00390625 16.769920349121094 16.699729919433594
        6.7781596183776855 6.894134998321533 6.5736846923828125 6.271553039550781 6.338691711425781 6.759849548339844
        7.312232494354248 7.5899505615234375 7.5472259521484375 7.4678802490234375 7.211524963378906 6.869712829589844
        7.013153076171875 7.272560119628906 6.991790771484375 6.305122375488281 5.807670593261719 5.688652038574219
        5.914489269256592 6.094543933868408 5.655082702636719 5.053863525390625 5.014190673828125 5.090484619140625
        4.782249450683594 4.065062999725342 3.3509292602539062 3.1861343383789062 3.3326187133789062 3.4028167724609375
        3.5096282958984375 3.8636398315429688 4.031494140625 4.025390625 4.080322265625 3.909423828125
        4.007080078125 4.342781066894531 4.739524841308594 4.895171642303467 4.5960845947265625 4.141365051269531
        3.9307861328125 3.5126800537109375 3.1250991821289062 3.003021240234375 3.088470458984375 3.2898941040039062
        3.167823553085327 2.954193115234375 2.941986083984375 2.884002923965454 2.7192001342773438 2.5849151611328125
        2.3957061767578125 2.03253173828125 1.88604736328125 1.6815719604492188 1.2817764282226562 1.1780166625976562
        1.6968307495117188 2.5391390323638916 2.926727294921875 2.8595809936523438 2.999969720840454 2.5055694580078125
        2.3438186645507812 2.00201416015625 1.3550186157226562 1.3672256469726562 1.1627578735351562 0.5401763916015625
        1.013214111328125 1.5900115966796875 1.470992922782898 1.2268449068069458 1.7365034818649292 3.3295669555664062
        5.001983642578125 5.209510803222656 3.4363858699798584 3.7385177612304688 4.5899810791015625 4.953155517578125
        4.858543395996094 4.983673095703125 5.2766499519348145 5.5330047607421875 6.158637523651123 6.817832946777344
        6.4546661376953125 6.216620922088623 7.4831390380859375 7.7059245109558105 4.651023864746094 2.884002923965454
        3.2532730102539062 3.7171554565429688 3.5309908390045166 3.2105486392974854 3.5493013858795166 4.129158020019531
        5.215614318847656 5.5879364013671875 4.593033313751221 2.8351669311523438 1.1902236938476562 0.5981597900390625
        0.723289430141449 0.7934799194335938 1.1841201782226562 1.5808563232421875 1.2146377563476562 0.976593017578125
        0.973541259765625 0.8178939819335938 2.1546096801757812 3.7629318237304688 4.678489685058594 5.4261932373046875
        5.291908264160156 4.742576599121094 4.782249450683594 4.818870544433594 4.794456481933594 5.005035400390625
        5.316322326660156 4.702903747558594 3.8453292846679688 3.903320550918579 4.3763580322265625 5.316322326660156
        6.927703380584717 8.478042602539062 9.787284851074219 11.25827693939209 12.469863891601562 12.155525207519531
        10.211494445800781 7.9256591796875 6.878875732421875 7.403793811798096 8.374282836914062 9.289833068847656
        10.232856750488281 10.629599571228027 10.711997985839844 11.416976928710938 12.488174438476562 13.330482482910156
        13.589889526367188 13.159584045410156 12.979522705078125 13.480027198791504 13.98358154296875 14.209419250488281
        14.438308715820312 15.005950927734375 15.836051940917969 16.107666015625 6.707969665527344 6.854454040527344
        6.820884704589844 6.5523223876953125 6.3966827392578125 6.656089782714844 7.071136474609375 7.358008861541748
        7.342750072479248 7.284767150878906 7.287818431854248 7.132179260253906 7.095551013946533 7.3000264167785645
        7.4251556396484375 6.790367126464844 5.5116424560546875 4.873809337615967 5.011138916015625 5.368202209472656
        5.3559956550598145 4.748680114746094 4.4953765869140625 4.5136871337890625 4.4557037353515625 3.8453290462493896
        3.1342544555664062 2.902313232421875 2.8321151733398438 2.917572021484375 3.186134099960327 3.4608001708984375
        3.6927413940429688 3.7263107299804688 3.7324142456054688 3.7476730346679688 4.043701171875 4.6266093254089355
        5.1759419441223145 5.4384002685546875 4.852439880371094 4.135261535644531 3.5737152099609375 3.033538818359375
        2.7985458374023438 2.8015975952148438 2.972503423690796 3.1403579711914062 2.905365228652954 2.8260116577148438
        2.8565292358398438 2.908416748046875 2.7222518920898438 2.5208280086517334 2.2125930786132812 1.8005903959274292
        1.5747528076171875 1.3031387329101562 1.074249267578125 1.2634658813476562 1.94708251953125 2.6551132202148438
        2.978607177734375 2.941986083984375 3.100677490234375 2.3316116333007812 1.92266845703125 1.6022186279296875
        1.2421035766601562 1.4465789794921875 1.3122941255569458 0.7171859741210938 1.004058837890625 1.3061904907226562
        1.474044919013977 1.7059860229492188 1.9928590059280396 2.7710800170898438 4.4831695556640625 5.914489269256592
        5.3529438972473145 4.245124816894531 3.6500167846679688 4.629662036895752 5.3926239013671875 5.661186218261719
        6.207466125488281 6.683555603027344 6.183052062988281 4.3794097900390625 4.345832824707031 6.161689281463623
        8.926666259765625 10.77303409576416 7.6143646240234375 2.6795272827148438 2.4903106689453125 4.150520324707031
        4.950103759765625 4.861595153808594 4.4129791259765625 4.147468566894531 4.937896728515625 4.818871021270752
        3.5309908390045166 2.5971221923828125 2.1454544067382812 1.025421142578125 0.4150543212890625 0.9002991318702698
        1.095611572265625 1.4221649169921875 1.034576416015625 1.3977508544921875 1.2146377563476562 1.3550186157226562
        3.8575363159179688 5.246131896972656 5.298011779785156 5.5207977294921875 5.301063537597656 3.6561200618743896
        2.7253036499023438 3.1922378540039062 3.927734375 4.266487121582031 3.872802495956421 2.987762451171875
        2.4811553955078125 2.3499221801757812 2.4109649658203125 3.7293624877929688 6.234931945800781 8.267463684082031
        9.390548706054688 10.00091552734375 10.718101501464844 11.474960327148438 11.606184959411621 10.956146240234375
        10.419021606445312 10.867637634277344 11.651969909667969 12.375259399414062 13.183998107910156 13.687553405761719
        13.367103576660156 12.530899047851562 12.118896484375 12.799461364746094 14.09039306640625 14.929656982421875
        14.566482543945312 12.833029747009277 11.246070861816406 11.758781433105469 13.864555358886719 15.588851928710938
        16.0557861328125 15.695671081542969 6.4638214111328125 6.5065460205078125 6.3783721923828125 5.96331787109375
        5.697807312011719 5.89312744140625 6.277656555175781 6.622520923614502 6.692711353302002 6.759849548339844
        7.034515380859375 6.7995219230651855 6.164741039276123 6.152534484863281 6.723228454589844 7.010101318359375
        6.244087219238281 5.130165100097656 4.834129333496094 5.285804748535156 5.526900768280029 4.995880126953125
        4.4557037353515625 4.281745910644531 4.150520324707031 3.6652753353118896 3.131202459335327 2.7344589233398438
        2.4658966064453125 2.4597930908203125 2.8290634155273438 2.990814208984375 3.2959976196289062 3.5096282958984375
        3.7415695190429688 4.007080078125 4.324470520019531 4.7212138175964355 4.834129810333252 4.745628356933594
        4.257331848144531 3.7842938899993896 3.186134099960327 2.6123809814453125 2.5208282470703125 2.6520612239837646
        2.8595809936523438 2.960296392440796 2.7375106811523438 2.7558212280273438 2.8199081420898438 2.847374200820923
        2.7253036499023438 2.4353790283203125 2.05999755859375 1.6785202026367188 1.4313201904296875 1.2360000610351562
        1.6174774169921875 1.8707810640335083 2.02947998046875 2.6917343139648438 2.8595809936523438 2.8626327514648438
        3.1495132446289062 2.3071975708007812 1.6083221435546875 1.3672256469726562 1.2787246704101562 1.5839080810546875
        1.7120896577835083 1.2878799438476562 1.3122940063476562 1.553390622138977 2.03558349609375 2.6215362548828125
        2.4689483642578125 2.4964141845703125 3.1495132446289062 4.0498046875 5.664237976074219 5.954162120819092
        4.187141418457031 3.982666015625 4.995880126953125 6.03656005859375 7.181007385253906 8.365119934082031
        8.560440063476562 5.267494201660156 2.12103271484375 4.08642578125 7.443466663360596 10.647911071777344
        10.312202453613281 4.226814270019531 1.8494186401367188 3.4424898624420166 4.693748474121094 4.797508239746094
        4.733421325683594 4.934844970703125 5.774101257324219 5.011138916015625 2.5849151611328125 1.5350799560546875
        2.7405624389648438 4.144416809082031 2.743614435195923 0.6103668212890625 0.5096588134765625 1.1963272094726562
        1.5747528076171875 1.6571578979492188 1.1658097505569458 3.1556167602539062 6.00604248046875 7.2389912605285645
        6.753746032714844 6.140327453613281 6.753746032714844 6.8239359855651855 4.0223388671875 1.7151412963867188
        1.9043580293655396 2.3682327270507812 2.5452420711517334 2.1912307739257812 1.7334517240524292 1.90435791015625
        2.8382186889648438 4.193244934082031 5.88092041015625 7.782218933105469 9.494308471679688 10.528883934020996
        10.733360290527344 10.09857177734375 8.865623474121094 7.9927978515625 8.313240051269531 9.87884521484375
        11.761833190917969 13.217567443847656 14.648887634277344 15.99169921875 16.525772094726562 16.052732467651367
        14.877778053283691 13.571578979492188 13.333534240722656 14.386428833007812 15.094451904296875 14.11175537109375
        12.796408653259277 13.092438697814941 14.923552513122559 16.937774658203125 17.93878173828125 18.13715362548828
        6.707969665527344 6.707969665527344 6.286811828613281 5.89312744140625 5.853446960449219 6.125068664550781
        6.286811828613281 6.4485626220703125 6.7506937980651855 6.991790294647217 7.028412342071533 6.6072540283203125
        5.804618835449219 5.5757293701171875 6.146430969238281 6.762901306152344 6.656089782714844 5.914490222930908
        5.288856029510498 5.246131896972656 5.4536590576171875 5.349891662597656 4.928741455078125 4.531998157501221
        4.135261535644531 3.6225509643554688 3.1556167602539062 2.880951166152954 2.7344589233398438 2.4689483642578125
        2.5971221923828125 2.6642684936523438 2.978607177734375 3.5798187255859375 4.174934387207031 4.367195129394531
        4.361091613769531 4.3488850593566895 4.251228332519531 4.177986145019531 3.6744306087493896 3.289893865585327
        3.051849365234375 2.5788116455078125 2.4506378173828125 2.7741317749023438 3.103729248046875 3.115936279296875
        2.890106201171875 2.880950927734375 2.966399908065796 2.7954940795898438 2.7130966186523438 2.3102493286132812
        2.02642822265625 1.8097457885742188 1.590011715888977 1.6266403198242188 2.3041458129882812 2.5421905517578125
        2.2278518676757812 2.249213933944702 2.5330352783203125 2.7741317749023438 3.1952896118164062 2.7100448608398438
        1.7304000854492188 1.3733367919921875 1.5655975341796875 1.7426071166992188 1.9989625215530396 2.3041458129882812
        2.02947998046875 2.01422119140625 2.5177767276763916 2.8229598999023438 2.3133010864257812 2.1576614379882812
        2.4781036376953125 2.7069931030273438 4.019287109375 5.648979187011719 4.818871021270752 3.6927413940429688
        4.519791126251221 5.737480163574219 6.8605570793151855 8.450576782226562 10.568557739257812 10.00701904296875
        4.4373931884765625 3.946044921875 6.060974597930908 8.615371704101562 11.264381408691406 7.867668151855469
        3.057952880859375 2.02032470703125 3.3021011352539062 3.9979248046875 4.223762512207031 4.156623840332031
        4.156623840332031 3.3295669555664062 1.8585739135742188 1.1444473266601562 2.05084228515625 4.3977203369140625
        4.852439880371094 5.056915283203125 5.761894702911377 5.719170093536377 4.620499134063721 2.04779052734375
        1.2237930297851562 4.315315246582031 7.132179260253906 8.841209411621094 9.454634666442871 8.917510986328125
        7.351905822753906 5.95111083984375 4.647972106933594 2.7863388061523438 1.2756729125976562 1.2909317016601562
        1.6449508666992188 1.8646774291992188 2.3987579345703125 3.5187833309173584 4.4923248291015625 4.510634899139404
        4.232917785644531 5.005035400390625 6.671348571777344 8.182014465332031 9.17081356048584 9.366127014160156
        8.368172645568848 6.958221435546875 6.820884704589844 8.0904541015625 9.772026062011719 11.056853294372559
        11.758780479431152 12.326422691345215 13.385421752929688 14.923553466796875 16.18091583251953 16.29688262939453
        15.323342323303223 13.873717308044434 12.311164855957031 11.597030639648438 12.552260398864746 14.230781555175781
        15.607163429260254 16.980499267578125 18.28974151611328 19.501327514648438 6.848351001739502 7.281715393066406
        7.037566661834717 6.692710876464844 6.695762634277344 6.826988220214844 6.619461536407471 6.357002258300781
        6.509597301483154 6.884978771209717 7.007049560546875 6.982635974884033 6.686607360839844 6.01214599609375
        5.847343444824219 6.485183238983154 6.683555603027344 6.08538818359375 5.258338928222656 4.855492115020752
        4.974517822265625 5.307167053222656 5.3926239013671875 5.099640369415283 4.4831695556640625 3.842277765274048
        3.3814544677734375 3.2532730102539062 3.207496404647827 2.7924423217773438 2.5482940673828125 2.6337506771087646
        2.969451904296875 3.5370941162109375 4.229866027832031 4.4801177978515625 4.217658996582031 3.936889886856079
        3.8880615234375 3.903320074081421 3.4150238037109375 3.042694091796875 3.103729486465454 2.5635528564453125
        2.4597930908203125 3.103729248046875 3.3906097412109375 3.3265151977539062 3.2685317993164062 3.323463201522827
        3.3967130184173584 3.061004400253296 2.7924423217773438 2.2370071411132812 2.02642822265625 2.06304931640625
        1.8768922090530396 2.1271438598632812 2.6612167358398438 3.057952880859375 3.3539810180664062 3.131202459335327
        2.7314071655273438 2.5727083683013916 2.945037841796875 2.917572021484375 2.233955144882202 1.8463668823242188
        1.9257200956344604 1.94403076171875 2.078307867050171 2.3926541805267334 2.2583694458007812 2.04168701171875
        2.2766799926757812 2.3468704223632812 1.99285888671875 2.1607131958007812 2.4842071533203125 2.6734235286712646
        3.4028167724609375 4.260383605957031 4.348884582519531 3.927734375 4.751732349395752 5.4628143310546875
        5.92059326171875 6.695762634277344 8.539077758789062 10.678428649902344 9.298988342285156 8.185066223144531
        7.071136474609375 6.640830993652344 9.915467262268066 11.563461303710938 8.474990844726562 2.6673202514648438
        1.480148196220398 2.984710931777954 3.912475824356079 3.1464614868164062 2.03558349609375 1.1932753324508667
        1.120025634765625 2.02947998046875 4.315315246582031 7.779167175292969 8.871726989746094 8.572647094726562
        9.280677795410156 10.180976867675781 10.635704040527344 8.792381286621094 5.792412281036377 5.130165100097656
        6.393631458282471 8.243049621582031 10.599075317382812 12.320320129394531 11.438339233398438 7.4953460693359375
        3.933837890625 4.6021881103515625 5.4628143310546875 3.933837890625 2.5360870361328125 2.6490097045898438
        3.7232589721679688 4.821922302246094 5.4078826904296875 5.1850972175598145 4.104736328125 3.4455413818359375
        4.116943359375 5.212562561035156 6.1464314460754395 6.949065685272217 7.812736511230469 7.947021484375
        6.8025736808776855 6.372268199920654 7.351905822753906 8.581802368164062 9.463790893554688 10.452590942382812
        12.1158447265625 14.313179016113281 16.812644958496094 18.976409912109375 19.74547576904297 18.613237380981445
        15.567489624023438 11.899169921875 10.01312255859375 10.568557739257812 12.866600036621094 15.8848876953125
        18.579666137695312 20.520645141601562 6.11590576171875 7.156593322753906 7.9317626953125 7.916504383087158
        7.6204681396484375 7.6204681396484375 7.4221038818359375 6.888031005859375 6.3844757080078125 6.3966827392578125
        6.744590759277344 6.921600341796875 6.6164093017578125 5.89923095703125 5.526900768280029 6.143379211425781
        6.567580699920654 5.95416259765625 5.026397705078125 4.5106353759765625 4.5594635009765625 5.108795642852783
        5.627616882324219 5.5299530029296875 4.821922302246094 3.9857177734375 3.4241790771484375 3.1769793033599854
        3.054901123046875 2.8717877864837646 2.7130963802337646 2.761924982070923 3.070159912109375 3.3204116821289062
        3.8819580078125 4.208503723144531 3.8758544921875 3.6103363037109375 3.7171552181243896 3.7690353393554688
        3.4333343505859375 3.082366943359375 3.021331787109375 2.3773956298828125 2.5727081298828125 3.1586685180664062
        3.3326187133789062 3.3356707096099854 3.4852142333984375 3.741569757461548 3.9063720703125 3.5584561824798584
        2.917572021484375 2.11492919921875 2.01116943359375 2.3224563598632812 2.3743438720703125 2.6673202514648438
        2.978607177734375 3.4241790771484375 4.1199951171875 4.199348449707031 3.109833002090454 2.3560256958007812
        2.8473739624023438 2.8595809936523438 2.1240923404693604 1.9104613065719604 2.04779052734375 1.9867554903030396
        2.01727294921875 2.12103271484375 2.05999755859375 1.8738404512405396 1.91656494140625 2.11492919921875
        2.2309036254882812 2.5269320011138916 2.716148614883423 2.996917963027954 3.3356704711914062 3.3539810180664062
        3.5096280574798584 3.91552734375 4.803612232208252 5.194252014160156 5.313270568847656 5.252235412597656
        5.563522815704346 7.321388244628906 9.91851806640625 11.114837646484375 7.9683837890625 5.090484619140625
        7.333595275878906 11.169776916503906 12.771995544433594 8.407852172851562 2.816856622695923 1.5808563232421875
        2.7069931030273438 3.1312026977539062 2.914520263671875 2.7314071655273438 4.08642578125 6.268501281738281
        8.914459228515625 11.426132202148438 12.289803504943848 10.599076271057129 7.8768310546875 7.370215892791748
        10.266426086425781 12.729269981384277 11.108734130859375 6.8330912590026855 6.286811828613281 7.007050037384033
        8.612319946289062 11.474960327148438 13.34879207611084 11.636711120605469 6.970428466796875 5.5085906982421875
        7.5868988037109375 8.188117980957031 5.5116424560546875 3.2441177368164062 3.4363858699798584 4.3580403327941895
        4.3977203369140625 3.6896893978118896 3.4516451358795166 4.3916168212890625 6.131172180175781 7.367164611816406
        6.891082763671875 6.03045654296875 6.863609313964844 8.716087341308594 9.445480346679688 7.8066325187683105
        5.859550476074219 5.792411804199219 6.799522399902344 8.11181640625 9.445480346679688 11.032440185546875
        13.339637756347656 16.1107177734375 18.402664184570312 19.83702850341797 20.32532501220703 19.306005477905273
        16.299936294555664 12.857444763183594 11.795402526855469 13.12296199798584 15.344704627990723 17.151405334472656
        6.10675048828125 7.4953460693359375 8.536026000976562 8.496353149414062 8.0172119140625 7.660148620605469
        7.281715393066406 7.043670654296875 6.967376708984375 6.793418884277344 6.836143493652344 6.909393787384033
        6.6103057861328125 6.051818370819092 5.4841766357421875 5.3895721435546875 5.819877624511719 5.731376647949219
        5.014190673828125 4.3733062744140625 4.235969543457031 4.776145935058594 5.5482635498046875 5.652030944824219
        4.934844970703125 4.0223388671875 3.4272308349609375 3.1830825805664062 3.115936279296875 3.2319107055664062
        3.4577484130859375 3.4028167724609375 3.3600845336914062 3.3478775024414062 3.5859222412109375 3.7079999446868896
        3.720207452774048 3.5493011474609375 3.4638519287109375 3.5615079402923584 3.3356704711914062 3.021331787109375
        2.984710693359375 2.6673202514648438 2.847374200820923 3.2227554321289062 3.4150238037109375 3.3784024715423584
        3.4241793155670166 3.7629318237304688 3.8666915893554688 3.5645599365234375 2.8412704467773438 1.98675537109375
        1.88604736328125 2.4018096923828125 2.8656845092773438 3.1922378540039062 3.4791107177734375 3.8148117065429688
        4.217658996582031 4.739524841308594 3.9765625 2.5452420711517334 2.5605010986328125 2.4567413330078125
        1.88909912109375 1.8127975463867188 1.9287720918655396 1.96539306640625 2.06915283203125 2.04779052734375
        2.1485061645507812 2.04779052734375 1.95928955078125 2.1851272583007812 2.5391387939453125 2.752769708633423
        2.850425958633423 3.143409490585327 3.2319107055664062 3.006072998046875 3.1525650024414062 3.7842941284179688
        4.5350494384765625 5.029449462890625 5.038604736328125 4.931793212890625 4.971466064453125 5.777153491973877
        8.285774230957031 10.333564758300781 7.4312591552734375 4.669334411621094 4.858543395996094 7.6265788078308105
        10.989715576171875 12.573623657226562 9.98870849609375 3.6744308471679688 1.1536027193069458 2.4872589111328125
        4.666282653808594 5.551314830780029 6.213569641113281 7.2481465339660645 8.557388305664062 9.271522521972656
        9.149452209472656 7.763908386230469 5.001983642578125 3.323463201522827 4.6143951416015625 6.769004821777344
        7.5746917724609375 5.94805908203125 6.03656005859375 6.341743469238281 6.826988220214844 8.603164672851562
        11.008026123046875 11.395614624023438 8.862571716308594 6.308174133300781 6.854454040527344 8.493301391601562
        6.994842529296875 4.08642578125 2.8473739624023438 3.6378097534179688 5.121002197265625 5.97247314453125
        5.5940399169921875 6.048766613006592 8.594009399414062 11.770989418029785 13.098542213439941 11.722159385681152
        8.731345176696777 6.942963123321533 7.776115417480469 9.591964721679688 9.99481201171875 8.572647094726562
        6.793418884277344 6.292914867401123 7.052826404571533 8.404800415039062 10.00701904296875 11.618392944335938
        13.168739318847656 14.709922790527344 16.382339477539062 17.96929931640625 18.912322998046875 18.506423950195312
        16.437271118164062 13.583786964416504 12.201301574707031 12.363044738769531 7.333595275878906 8.368172645568848
        8.682518005371094 8.276618957519531 7.672356128692627 7.242042541503906 7.031463623046875 7.101653575897217
        7.2389912605285645 7.1718525886535645 6.906341552734375 6.759849548339844 6.747642517089844 6.5248565673828125
        5.92669677734375 5.236976623535156 5.301063537597656 5.670341968536377 5.200355529785156 4.2634358406066895
        3.7659835815429688 3.9857177734375 4.696800231933594 5.151527404785156 4.928741931915283 4.358039855957031
        3.9063720703125 3.823967218399048 3.91552734375 4.0467529296875 4.239021301269531 4.0589599609375
        3.6378097534179688 3.3875579833984375 3.4180755615234375 3.3509292602539062 3.3997650146484375 3.4882657527923584
        3.3845062255859375 3.4943692684173584 3.2288589477539062 2.945037841796875 3.2288589477539062 3.5584561824798584
        3.4943692684173584 3.4882659912109375 3.4028167724609375 3.1800308227539062 3.039642095565796 3.2685317993164062
        3.2288589477539062 2.932830572128296 2.4109649658203125 2.087463617324829 2.1729202270507812 2.5513458251953125
        2.975555419921875 3.3600845336914062 3.6774826049804688 4.0009765625 4.242073059082031 4.782249450683594
        4.931793212890625 3.7537763118743896 2.5757598876953125 1.93487548828125 1.8433152437210083 2.05389404296875
        1.98370361328125 2.03558349609375 2.3773956298828125 2.3773956298828125 2.4994659423828125 2.4018094539642334
        2.11798095703125 2.2431106567382812 2.6429061889648438 2.8260116577148438 2.917572021484375 3.1891860961914062
        3.262428045272827 3.2837905883789062 3.4730072021484375 3.991821050643921 4.5503082275390625 5.032501220703125
        5.178993225097656 5.307167053222656 5.267494201660156 5.435348987579346 6.308174133300781 7.98974609375
        7.092498302459717 6.186103820800781 5.212562561035156 6.04571533203125 7.5746917724609375 10.559402465820312
        13.452560424804688 10.675376892089844 3.5798187255859375 0.3753814399242401 1.90130615234375 3.6347577571868896
        3.7018966674804688 4.0589599609375 5.716117858886719 5.97247314453125 4.715110778808594 3.622551202774048
        2.3438186645507812 1.483200192451477 2.1637649536132812 3.176978826522827 4.03759765625 3.4577486515045166
        3.7873458862304688 4.5197906494140625 5.163734436035156 6.311225891113281 8.328498840332031 10.04058837890625
        9.90631103515625 7.303077220916748 5.710014343261719 6.4485626220703125 5.740531921386719 3.3356704711914062
        2.4872589111328125 3.903320074081421 6.2959675788879395 8.75881290435791 9.295936584472656 8.389540672302246
        8.313240051269531 10.03448486328125 12.866599082946777 15.286720275878906 15.601058006286621 13.043609619140625
        9.399704933166504 7.9317626953125 9.009064674377441 10.922576904296875 11.99072265625 11.609237670898438
        10.409866333007812 9.460739135742188 9.195228576660156 9.732353210449219 10.754722595214844 11.752677917480469
        12.729270935058594 13.791313171386719 15.097503662109375 16.748558044433594 17.95098876953125 17.096466064453125
        14.166693687438965 11.096527099609375 7.5045013427734375 7.821892261505127 7.657096862792969 7.205421447753906
        6.646934509277344 6.4210968017578125 6.573685169219971 7.028411865234375 7.5991058349609375 7.785270690917969
        7.4739837646484375 7.095550060272217 6.875823974609375 6.704918384552002 6.347846984863281 5.91754150390625
        5.771049976348877 5.713066101074219 4.971466064453125 3.753776788711548 3.070159912109375 3.2288591861724854
        4.0009765625 4.660179138183594 4.727318286895752 4.5167388916015625 4.3763580322265625 4.4282379150390625
        4.6357645988464355 4.718162536621094 4.5747222900390625 4.0223388671875 3.4119720458984375 3.085418701171875
        3.122040033340454 3.1312026977539062 3.097625732421875 3.2166519165039062 3.4424898624420166 3.6347579956054688
        3.5798184871673584 3.2837905883789062 3.4455413818359375 3.7476730346679688 3.5584564208984375 3.4394381046295166
        3.2197036743164062 2.954193353652954 2.8687362670898438 2.884002685546875 2.7069928646087646 2.4750521183013916
        2.3407669067382812 2.5910186767578125 2.987762689590454 3.027435302734375 3.103729248046875 3.4028170108795166
        3.6286542415618896 4.168830871582031 4.5319976806640625 4.370246887207031 4.510634899139404 4.809715270996094
        3.7171554565429688 1.91351318359375 1.90435791015625 2.3316116333007812 2.2034378051757812 2.2003860473632812
        2.5177762508392334 2.7283554077148438 2.822960138320923 2.6062774658203125 2.3102493286132812 2.3712844848632812
        2.7649765014648438 2.954193115234375 3.042694091796875 3.2898941040039062 3.4089202880859375 3.6805343627929688
        3.988769769668579 4.635765075683594 5.035552978515625 5.188148498535156 5.3407368659973145 5.478072643280029
        5.047760009765625 4.632713317871094 4.5991363525390625 5.710014343261719 7.223731994628906 8.798484802246094
        8.871726989746094 8.639793395996094 7.6693034172058105 8.652000427246094 11.560409545898438 12.335579872131348
        4.800559997558594 1.7487106323242188 0.888092041015625 0.30518341064453125 0.939971923828125 1.562545895576477
        3.6469650268554688 4.4648590087890625 4.367195129394531 4.525894641876221 2.999969482421875 1.5015106201171875
        2.03253173828125 2.3682327270507812 2.5543975830078125 2.2797317504882812 2.887054443359375 4.623558044433594
        6.2379841804504395 5.4048309326171875 5.301063537597656 8.1087646484375 11.380355834960938 11.578720092773438
        6.4912872314453125 1.7487106323242188 0.5615386962890625 2.2064895629882812 4.367195129394531 6.335639953613281
        7.989746570587158 9.744560241699219 10.931732177734375 10.800498962402344 9.610275268554688 8.648948669433594
        9.399703979492188 11.9022216796875 14.688560485839844 16.15955352783203 15.472885131835938 13.464767456054688
        10.959197998046875 9.665213584899902 10.574661254882812 12.680442810058594 14.377274513244629 15.005950927734375
        14.658042907714844 14.120909690856934 13.980530738830566 14.02935791015625 13.87982177734375 13.153480529785156
        12.207406044006348 12.118896484375 13.19315242767334 14.685508728027344 15.158546447753906 13.733329772949219
        7.071136474609375 7.312232494354248 6.915496826171875 6.091491222381592 5.291908264160156 5.182044982910156
        5.847343444824219 6.671348571777344 7.431259632110596 8.0172119140625 8.044677734375 7.7059245109558105
        7.4098968505859375 7.171852111816406 6.906341552734375 6.5980987548828125 6.01214599609375 5.151527404785156
        4.297004699707031 3.5920257568359375 3.1891860961914062 3.3204119205474854 3.93994140625 4.5655670166015625
        4.5777740478515625 4.229866027832031 4.08642578125 4.1199951171875 4.281745910644531 4.4404449462890625
        4.351936340332031 3.8117599487304688 3.1678237915039062 2.7832868099212646 2.8534774780273438 2.978607177734375
        3.112884283065796 3.1403579711914062 3.2959976196289062 3.3661880493164062 3.3906095027923584 3.4180755615234375
        3.3112564086914062 3.1952896118164062 3.079315185546875 3.1678240299224854 3.106781244277954 2.905364990234375
        2.8321151733398438 2.746666193008423 2.6520614624023438 2.5666046142578125 2.7069931030273438 3.024383544921875
        3.6591720581054688 4.0498046875 4.0986328125 3.891113042831421 3.8453290462493896 4.4465484619140625
        5.102691650390625 4.321418762207031 3.6164398193359375 3.695793390274048 3.9918212890625 3.045745849609375
        2.2827835083007812 2.5818634033203125 2.6398541927337646 2.5940704345703125 2.795494318008423 3.039642333984375
        2.923675537109375 2.5635528564453125 2.4811553955078125 2.728355646133423 3.033538818359375 3.167823553085327
        3.3631362915039062 3.4791109561920166 3.4180755615234375 3.775139093399048 4.336677551269531 5.124061107635498
        5.276648998260498 5.127113342285156 5.029449462890625 4.773094654083252 4.254280090332031 3.958251714706421
        4.330574035644531 5.3773651123046875 6.955169677734375 8.975494384765625 10.452590942382812 11.392562866210938
        11.27048397064209 11.722159385681152 12.771994590759277 11.28574275970459 3.7751388549804688 1.9928590059280396
        3.2074966430664062 3.048797845840454 2.7222518920898438 1.8982542753219604 1.3336564302444458 2.1851272583007812
        4.202400207519531 5.3743133544921875 5.5085906982421875 4.306159973144531 3.5370943546295166 2.4079132080078125
        2.4201202392578125 3.048797607421875 4.1077880859375 6.4088897705078125 9.225746154785156 7.052825927734375
        4.132209777832031 6.421097278594971 10.931732177734375 14.502395629882812 12.317268371582031 3.4150238037109375
        1.1810684204101562 2.2309036254882812 5.728324890136719 7.864616870880127 8.450576782226562 9.006011962890625
        10.232856750488281 11.624504089355469 12.070068359375 11.105682373046875 9.726250648498535 9.076202392578125
        9.866630554199219 12.0364990234375 14.688560485839844 16.965238571166992 17.49015998840332 15.747550964355469
        12.961212158203125 10.986663818359375 10.525833129882812 11.105682373046875 12.173835754394531 13.141273498535156
        13.525802612304688 13.675346374511719 13.92864990234375 13.858450889587402 13.275550842285156 12.503433227539062
        12.222663879394531 13.098541259765625 14.349799156188965 14.374221801757812 7.290870666503906 7.3763275146484375
        7.254249572753906 6.4180450439453125 5.178993225097656 4.687644958496094 5.298011779785156 6.219672679901123
        6.958221435546875 7.4922943115234375 7.641838073730469 7.446518421173096 7.333595275878906 7.361061096191406
        7.431259632110596 7.358009338378906 6.5095977783203125 5.142372131347656 4.287849426269531 4.06201171875
        3.888061761856079 3.7415695190429688 4.0162353515625 4.632713317871094 4.733421325683594 4.153572082519531
        3.7537763118743896 3.7018966674804688 3.7110519409179688 3.720207452774048 3.787346124649048 3.628654718399048
        3.097625732421875 2.6825790405273438 2.6123809814453125 2.7832868099212646 3.027435302734375 3.1830825805664062
        3.216651678085327 3.1617202758789062 3.067107915878296 3.2013931274414062 3.051849126815796 3.045745849609375
        3.091522455215454 3.070159912109375 2.938934087753296 2.905364990234375 3.039642333984375 3.033538818359375
        2.8656845092773438 2.7375106811523438 3.064056396484375 3.4608001708984375 3.903320550918579 4.358039855957031
        4.596085071563721 4.287849426269531 4.263435363769531 4.666282653808594 5.355994701385498 4.944000244140625
        3.2654800415039062 2.935882329940796 3.3326187133789062 3.5523531436920166 3.3204116821289062 3.051849365234375
        2.987762451171875 3.082366943359375 3.2258071899414062 3.3509292602539062 3.009124755859375 2.6032257080078125
        2.6429061889648438 3.027435302734375 3.1983413696289062 3.3234636783599854 3.5004732608795166 3.3265151977539062
        3.173927068710327 3.7995529174804688 4.5991363525390625 5.069122314453125 4.931793212890625 4.812767505645752
        4.5442047119140625 4.0009765625 3.9033203125 4.4251861572265625 5.304115295410156 6.134223461151123
        6.631675720214844 6.872772216796875 7.650993347167969 9.98565673828125 13.113800048828125 15.668206214904785
        15.845207214355469 12.381362915039062 5.096588134765625 1.6144256591796875 3.6683273315429688 4.4190826416015625
        4.800559997558594 4.461807727813721 3.982666015625 4.309211730957031 4.568618297576904 4.828025817871094
        6.05487060546875 6.674400329589844 5.948059558868408 4.01318359375 2.8077011108398438 3.4669036865234375
        4.651023864746094 6.03656005859375 7.684562683105469 5.92059326171875 2.948089599609375 4.358039855957031
        8.685569763183594 12.210456848144531 12.1158447265625 4.904326915740967 1.1932754516601562 3.4424896240234375
        6.704917907714844 8.548233032226562 8.0477294921875 7.4282073974609375 7.9744873046875 8.941925048828125
        9.88800048828125 10.602127075195312 10.889007568359375 9.89410400390625 8.343757629394531 8.188118934631348
        10.296942710876465 13.974425315856934 17.618331909179688 19.67528533935547 19.449447631835938 16.34876251220703
        11.416976928710938 8.557388305664062 9.106719970703125 10.977508544921875 12.530899047851562 13.400680541992188
        13.483078002929688 13.226722717285156 13.354896545410156 13.681448936462402 14.007994651794434 14.783164978027344
        15.768913269042969 16.660057067871094 7.010101318359375 7.080291748046875 7.1352314949035645 6.6133575439453125
        5.5818328857421875 5.014190673828125 5.133216857910156 5.5970916748046875 6.180000305175781 6.6072540283203125
        6.576735973358154 6.5065460205078125 6.643882751464844 6.775108337402344 6.924652099609375 7.092498779296875
        6.637779235839844 5.5055389404296875 4.5716705322265625 4.062012195587158 3.7293624877929688 3.4424896240234375
        3.3936614990234375 3.8880615234375 4.232917785644531 3.967407464981079 3.6194915771484375 3.5401458740234375
        3.5157318115234375 3.3417739868164062 3.2197036743164062 3.2593765258789062 3.1525650024414062 2.8321151733398438
        2.5940704345703125 2.7069931030273438 2.941986083984375 3.070159912109375 3.045745849609375 3.042694091796875
        3.1281509399414062 3.2441177368164062 3.054901123046875 3.015228033065796 3.115936279296875 2.990814208984375
        2.8077011108398438 2.899261474609375 3.112884521484375 3.3112564086914062 3.1708755493164062 2.917572021484375
        3.3326187133789062 3.7141036987304688 3.958251953125 4.1016845703125 4.211555480957031 4.330574035644531
        4.4984283447265625 4.730369567871094 5.224769592285156 5.246131896972656 3.2197036743164062 2.4292755126953125
        2.7741317749023438 3.061004400253296 3.5798187255859375 3.5248870849609375 3.036590576171875 3.1861343383789062
        3.3875579833984375 3.5859222412109375 3.2227554321289062 2.7497177124023438 2.7008895874023438 3.009124755859375
        3.1525650024414062 3.3631365299224854 3.2929458618164062 3.018280029296875 3.1861345767974854 4.0589599609375
        4.718162536621094 4.709007263183594 4.5319976806640625 4.5625152587890625 4.242073059082031 3.7629315853118896
        4.232917785644531 5.236976623535156 5.954162120819092 6.280708312988281 6.4302520751953125 6.378372669219971
        6.6103057861328125 7.9012451171875 10.361031532287598 13.846244812011719 15.857414245605469 16.33350372314453
        14.563429832458496 7.800529479980469 0.8239974975585938 2.4994659423828125 2.8107528686523438 3.6805343627929688
        4.4526519775390625 5.639823913574219 6.173896789550781 5.636772155761719 5.160682678222656 5.200355529785156
        5.169837951660156 4.4465484619140625 3.3448257446289062 4.223762512207031 5.4322967529296875 5.5940399169921875
        4.956207275390625 2.8290634155273438 1.8005905151367188 3.262428045272827 7.5807952880859375 11.117889404296875
        12.088379859924316 8.407852172851562 4.873809814453125 5.4139862060546875 7.159645080566406 7.745597839355469
        7.034514904022217 6.210517883300781 6.03961181640625 6.314277172088623 6.701866149902344 6.976531982421875
        7.269508361816406 7.4221038818359375 6.775108337402344 6.256294250488281 7.162696361541748 9.485153198242188
        12.823875427246094 16.15955352783203 17.84111785888672 16.986602783203125 14.151434898376465 11.441390991210938
        10.675376892089844 11.468856811523438 12.466811180114746 12.729270935058594 12.0120849609375 10.946990966796875
        10.574661254882812 11.001922607421875 12.070068359375 13.797416687011719 15.659049987792969 17.053741455078125
        6.274604797363281 6.6103057861328125 6.5065460205078125 5.91754150390625 5.3804168701171875 5.288856506347656
        5.218666076660156 5.130165100097656 5.4017791748046875 5.98773193359375 6.4394073486328125 6.5828399658203125
        6.4943389892578125 6.329536437988281 6.353950023651123 6.4882354736328125 6.4607696533203125 5.91754150390625
        4.992828369140625 4.104736328125 3.6652753353118896 3.4089200496673584 3.039642333984375 3.112884283065796
        3.5889737606048584 3.6256027221679688 3.3967132568359375 3.4424898624420166 3.5767669677734375 3.4119720458984375
        3.061004638671875 3.033538818359375 3.183082342147827 3.1830825805664062 2.981658935546875 2.8321151733398438
        2.8290634155273438 2.8565289974212646 2.999969720840454 3.1373064517974854 3.2349624633789062 3.2441177368164062
        3.024383544921875 2.899261474609375 2.935882568359375 2.7710800170898438 2.6062774658203125 2.7405624389648438
        2.8107528686523438 3.088470458984375 3.2166519165039062 3.176978826522827 3.4699554443359375 3.637809991836548
        3.7171552181243896 3.698845148086548 3.827018976211548 4.095581531524658 4.358039855957031 4.4923248291015625
        4.742576599121094 4.919586181640625 3.9490966796875 2.6306991577148438 2.4842071533203125 2.6368026733398438
        3.027435302734375 3.3082046508789062 3.012176513671875 3.045745849609375 3.3112564086914062 3.6500167846679688
        3.6591720581054688 3.088470458984375 2.697838068008423 3.112884521484375 3.4882662296295166 3.5431976318359375
        3.1739273071289062 3.1434097290039062 3.7141034603118896 4.3763580322265625 4.5716705322265625 4.358039855957031
        4.4190826416015625 4.623558044433594 4.367195129394531 4.129157543182373 4.4984283447265625 5.291908264160156
        5.914489269256592 6.317329406738281 6.4912872314453125 6.4394073486328125 6.750694751739502 6.436355113983154
        6.09149169921875 8.163703918457031 11.584823608398438 14.688560485839844 17.416915893554688 17.368080139160156
        10.098572731018066 1.4465789794921875 2.6978378295898438 1.87384033203125 3.039642095565796 7.159645080566406
        8.69777774810791 8.383438110351562 7.089446544647217 5.633720397949219 4.956206798553467 4.718162536621094
        4.220710754394531 4.931793212890625 5.862602233886719 5.4445037841796875 3.7232589721679688 1.9043577909469604
        2.4109649658203125 3.872802734375 6.921600341796875 9.613326072692871 10.995820045471191 11.185035705566406
        10.159614562988281 7.779167175292969 5.221717834472656 4.4160308837890625 5.230873107910156 5.5909881591796875
        5.4811248779296875 6.292914867401123 8.252204895019531 9.591965675354004 9.015167236328125 7.458724498748779
        6.711021423339844 6.860557556152344 7.217628479003906 8.093505859375 9.533981323242188 10.986662864685059
        11.691642761230469 12.173835754394531 13.27249813079834 14.612258911132812 15.9215087890625 17.090360641479492
        16.913360595703125 14.954071044921875 12.201301574707031 9.96429443359375 8.999908447265625 9.390548706054688
        10.721153259277344 12.256234169006348 13.467818260192871 14.08123779296875 5.4322967529296875 6.140327453613281
        6.289863586425781 6.07318115234375 6.143379211425781 6.4180450439453125 6.271553039550781 5.722221374511719
        5.4353485107421875 5.850395202636719 6.546218395233154 6.817832946777344 6.5492706298828125 6.2807087898254395
        6.155586242675781 5.98773193359375 5.8473429679870605 5.5970916748046875 5.047760009765625 4.565567493438721
        4.336677551269531 4.07421875 3.6011807918548584 3.4150240421295166 3.6622238159179688 3.7324142456054688
        3.5126798152923584 3.4852142333984375 3.6347579956054688 3.5035245418548584 3.118988037109375 2.896209955215454
        2.975555658340454 3.1312026977539062 3.1830825805664062 2.948089599609375 2.6612167358398438 2.5666046142578125
        2.7649765014648438 2.8412704467773438 2.807701349258423 2.7466659545898438 2.7222518920898438 2.7100448608398438
        2.6001739501953125 2.3743438720703125 2.2644731998443604 2.3896026611328125 2.5421905517578125 2.920623779296875
        3.2715835571289062 3.6103363037109375 3.8666915893554688 3.8941650390625 3.7598800659179688 3.6469650268554688
        3.7232589721679688 3.921630620956421 4.144416809082031 4.229866027832031 4.281745910644531 4.8310770988464355
        5.2797017097473145 4.370246887207031 2.5757598876953125 2.4109649658203125 2.6520614624023438 3.064056396484375
        3.112884283065796 3.100677490234375 3.4485929012298584 3.8514328002929688 4.0040283203125 3.7903976440429688
        3.3906097412109375 3.6805343627929688 3.98876953125 3.6194918155670166 3.2136001586914062 3.637809991836548
        4.235969543457031 4.467910289764404 4.272590637207031 4.025390625 4.2634358406066895 4.4862213134765625
        4.251228332519531 4.223762512207031 4.5381011962890625 5.1759419441223145 5.859550476074219 6.341743469238281
        6.4821319580078125 6.292915344238281 6.256294250488281 5.630668640136719 4.409926891326904 3.9002685546875
        5.902283191680908 8.923614501953125 12.897125244140625 17.126991271972656 18.836021423339844 12.149422645568848
        2.4536895751953125 3.1403579711914062 2.6032257080078125 8.230842590332031 9.790336608886719 9.619430541992188
        8.789329528808594 7.6326823234558105 6.653038024902344 6.125068664550781 5.853446960449219 5.7832560539245605
        5.5757293701171875 4.5838775634765625 3.1708755493164062 2.4872589111328125 3.3997650146484375 4.5350494384765625
        5.807670593261719 6.952117919921875 8.468888282775879 10.940887451171875 12.320319175720215 11.471909523010254
        8.859519958496094 5.227821350097656 2.987762212753296 2.3773956298828125 2.4231717586517334 3.878906488418579
        7.055877685546875 10.443435668945312 12.009033203125 10.968353271484375 6.976531982421875 4.5411529541015625
        5.4200897216796875 6.357002258300781 6.302070617675781 5.648979187011719 5.789360523223877 7.098602294921875
        9.500411987304688 13.095490455627441 16.75465965270996 18.869590759277344 18.927581787109375 17.874696731567383
        16.44032096862793 15.338600158691406 14.10260009765625 12.436294555664062 11.084320068359375 10.605178833007812
        10.733359336853027 10.803550720214844 5.154579162597656 5.703910827636719 6.11895751953125 6.3722686767578125
        6.765953540802002 7.025360107421875 6.936858654022217 6.5675811767578125 6.082335948944092 5.94500732421875
        6.3112263679504395 6.695763111114502 6.686607360839844 6.4790802001953125 6.07318115234375 5.444504261016846
        5.2247700691223145 5.319374084472656 5.1820454597473145 4.867698669433594 4.623558044433594 4.5014801025390625
        4.312263488769531 4.0406494140625 3.7995529174804688 3.6957929134368896 3.625602960586548 3.4882659912109375
        3.3295669555664062 3.079315185546875 2.7497177124023438 2.5330352783203125 2.5360870361328125 2.5482940673828125
        2.4964141845703125 2.2644729614257812 1.9470824003219604 1.8158493041992188 1.9623411893844604 2.07220458984375
        2.1454544067382812 2.3621292114257812 2.6276473999023438 2.5788116455078125 2.3560256958007812 2.2431106567382812
        2.2919387817382812 2.3834993839263916 2.6795272827148438 2.923675537109375 3.3478775024414062 3.7995529174804688
        4.141365051269531 4.263435363769531 4.235969543457031 4.260383605957031 4.248176574707031 4.263434886932373
        4.2451252937316895 4.1199951171875 4.248176574707031 4.895172119140625 5.633720397949219 5.789360046386719
        3.9368896484375 2.6886825561523438 2.7130963802337646 2.987762451171875 3.2593765258789062 3.4272310733795166
        3.7720870971679688 4.257331848144531 4.4709625244140625 4.318367004394531 4.0009765625 4.092529296875
        4.0009765625 3.4302825927734375 3.6286544799804688 4.266487121582031 4.4740142822265625 4.257331848144531
        3.7659835815429688 3.5218355655670166 3.8239669799804688 4.043701171875 4.0040283203125 4.226814270019531
        4.785301208496094 5.343788146972656 5.624565124511719 5.691703796386719 5.929748058319092 5.94500732421875
        5.652030944824219 4.992828369140625 4.147468566894531 3.3600845336914062 3.5615079402923584 4.812767028808594
        8.310188293457031 14.09649658203125 18.692588806152344 19.556259155273438 10.678428649902344 2.2644729614257812
        3.4180755615234375 8.355964660644531 9.421066284179688 9.183021545410156 8.0751953125 7.061981201171875
        6.5309600830078125 6.5279083251953125 6.738487720489502 5.99993896484375 4.4160308837890625 2.990814208984375
        2.7130966186523438 3.1403579711914062 4.06201171875 4.705955505371094 5.139320373535156 5.4567108154296875
        6.280707836151123 7.669303894042969 8.154548645019531 8.279670715332031 9.668266296386719 10.913421630859375
        9.198280334472656 4.809715270996094 1.7578659057617188 1.7883836030960083 3.7049484252929688 7.132179260253906
        11.609238624572754 14.990692138671875 15.124977111816406 9.295936584472656 3.906372308731079 3.6683273315429688
        3.2837905883789062 2.5940704345703125 2.05999755859375 2.7008895874023438 4.315315246582031 7.168799877166748
        10.07720947265625 12.173835754394531 14.474929809570312 17.255165100097656 19.421981811523438 20.514541625976562
        20.1116943359375 18.66512107849121 16.937776565551758 14.676353454589844 11.584823608398438 8.911407470703125
        4.733421325683594 5.197303771972656 5.563521862030029 5.810722351074219 6.09759521484375 6.271553039550781
        6.262397289276123 6.198310852050781 6.045715808868408 5.957214832305908 6.161689758300781 6.546219348907471
        6.726280212402344 6.5919952392578125 5.880919933319092 5.072174072265625 4.910430908203125 5.328529357910156
        5.6276164054870605 5.639824390411377 5.325477600097656 4.843285083770752 4.4465484619140625 4.147468566894531
        3.8544845581054688 3.6713790893554688 3.5645599365234375 3.323463201522827 3.061004638671875 2.7527694702148438
        2.3834991455078125 2.1851272583007812 2.1851272583007812 2.08441162109375 1.8066940307617188 1.5350799560546875
        1.3153457641601562 1.3031387329101562 1.522872805595398 1.7914351224899292 2.01116943359375 2.2736282348632812
        2.4842071533203125 2.4048614501953125 2.4079132080078125 2.6276473999023438 2.7192001342773438 2.7161481380462646
        2.954193115234375 3.106781005859375 3.4333343505859375 3.6835858821868896 3.9490966796875 4.123054504394531
        4.123054504394531 4.293952941894531 4.3580403327941895 4.4831695556640625 4.4251861572265625 3.9918212890625
        3.8605880737304688 4.223762512207031 4.358039855957031 4.5686187744140625 4.4587554931640625 3.4669039249420166
        2.8199081420898438 2.880951166152954 3.1617202758789062 3.4424898624420166 3.7965011596679688 4.2970051765441895
        4.5381011962890625 4.260383605957031 3.7263107299804688 3.5676116943359375 3.5920257568359375 3.6652753353118896
        4.312263488769531 4.4801177978515625 4.242073059082031 3.7751388549804688 3.2105484008789062 2.984710693359375
        3.3570327758789062 3.7568283081054688 4.0406494140625 4.443497180938721 4.879913330078125 5.050812244415283
        5.017242431640625 4.953155517578125 5.252234935760498 5.5391082763671875 5.294960021972656 4.751731872558594
        4.025390625 3.2105484008789062 2.5940704345703125 2.5330355167388916 4.217658996582031 9.210487365722656
        14.917449951171875 18.689537048339844 18.778038024902344 14.233833312988281 10.818809509277344 8.642845153808594
        7.229835510253906 7.428206920623779 7.309181213378906 6.332588195800781 5.6794962882995605 5.749687194824219
        6.04876708984375 5.279701232910156 3.5157318115234375 2.142402410507202 2.4567413330078125 3.1922378540039062
        3.4699554443359375 3.5065765380859375 3.4974215030670166 3.5767669677734375 3.891113042831421 3.6225509643554688
        2.835167169570923 3.6408615112304688 6.3875274658203125 9.225746154785156 10.522781372070312 7.730339050292969
        2.4536895751953125 0.6225815415382385 0.28382110595703125 2.7954940795898438 7.849357604980469 12.949005126953125
        16.15039825439453 15.430161476135254 9.244056701660156 3.4791107177734375 2.896209716796875 3.3814544677734375
        2.5818636417388916 2.935882568359375 3.5157318115234375 3.5157318115234375 4.5289459228515625 7.6021575927734375
        11.36203670501709 14.264350891113281 15.677360534667969 16.553237915039062 17.68548011779785 19.028289794921875
        20.0323486328125 20.34363555908203 19.443344116210938 17.64885711669922 4.898223876953125 4.5960845947265625
        4.870750427246094 5.053863525390625 5.087432384490967 5.267494201660156 5.4933319091796875 5.682548522949219
        5.87481689453125 6.07928466796875 6.344795227050781 6.778160095214844 6.955169677734375 6.686607360839844
        6.01214599609375 5.316321849822998 4.956207752227783 5.240027904510498 5.752738952636719 6.01519775390625
        5.93890380859375 5.3376851081848145 4.6204986572265625 4.174934387207031 4.037597179412842 4.086426258087158
        3.8453292846679688 3.192237615585327 2.6886825561523438 2.5391387939453125 2.3896026611328125 2.06304931640625
        1.9928590059280396 2.03253173828125 1.7120895385742188 1.5472869873046875 1.571701169013977 1.6083221435546875
        1.9440306425094604 2.3377151489257812 2.5116729736328125 2.5208282470703125 2.5940704345703125 2.5940704345703125
        2.5452423095703125 2.6703717708587646 2.7039413452148438 2.7527694702148438 2.7314071655273438 3.042693853378296
        3.4455413818359375 3.6896893978118896 3.897217035293579 3.958251953125 3.8056564331054688 3.7293624877929688
        3.692741632461548 3.946044921875 3.933837890625 3.3722991943359375 3.048797369003296 3.3448257446289062
        3.3631362915039062 3.2074966430664062 3.4150238037109375 3.2502214908599854 2.5971221923828125 2.4262237548828125
        2.6429061889648438 3.054901123046875 3.5248870849609375 3.982666015625 4.260383605957031 4.297004699707031
        3.906371831893921 3.4669036865234375 3.4760591983795166 4.0650634765625 4.535048961639404 4.1779866218566895
        3.8087081909179688 3.4607999324798584 2.935882568359375 2.7649765014648438 3.2990496158599854 3.842277765274048
        4.214607238769531 4.348884582519531 4.336677551269531 4.2603840827941895 4.184089660644531 4.248176574707031
        4.5899810791015625 5.020294189453125 4.998931884765625 4.644920349121094 4.0528564453125 3.3753509521484375
        2.4781036376953125 1.5839080810546875 0.927764892578125 4.242073059082031 9.161659240722656 13.196205139160156
        15.875732421875 16.809593200683594 14.236885070800781 9.228797912597656 6.549271106719971 6.3966827392578125
        6.5767364501953125 5.417037487030029 4.3855133056640625 4.174934387207031 4.599136829376221 4.3763580322265625
        3.3631362915039062 3.009124755859375 3.6713788509368896 4.4465484619140625 4.4831695556640625 4.1138916015625
        3.4272308349609375 2.7314071655273438 2.911468505859375 2.7375106811523438 2.5940704345703125 3.3204116821289062
        4.406876087188721 4.898223876953125 5.667289733886719 6.11895751953125 4.104736328125 1.3000869750976562
        0.3723297119140625 0.726341187953949 3.201392889022827 6.808677673339844 10.351875305175781 12.570571899414062
        12.408828735351562 10.748619079589844 9.22269344329834 7.5289154052734375 5.343788146972656 4.864646911621094
        5.627616882324219 4.5167388916015625 3.2837905883789062 4.989776611328125 7.818840026855469 9.195228576660156
        9.735404968261719 10.776084899902344 12.393568992614746 14.542068481445312 17.072052001953125 19.73937225341797
        21.549116134643555 21.71697235107422 4.4099273681640625 4.257331848144531 4.199348449707031 4.333625793457031
        4.5838775634765625 4.779197692871094 5.127112865447998 5.5665740966796875 5.865653991699219 6.02740478515625
        6.204414367675781 6.5095977783203125 6.851402282714844 6.842247009277344 6.5126495361328125 5.969421863555908
        5.4597625732421875 5.4109344482421875 5.664238452911377 5.706962585449219 5.5543670654296875 5.282752990722656
        4.809715747833252 4.220710754394531 3.946044921875 4.3977203369140625 4.5564117431640625 3.7018966674804688
        2.7466659545898438 2.5116729736328125 2.6032259464263916 2.3560256958007812 2.11798095703125 2.04473876953125
        1.8494187593460083 1.7731248140335083 2.06610107421875 2.3651809692382812 2.7191998958587646 3.003021240234375
        2.951141357421875 2.7100446224212646 2.5818634033203125 2.4750521183013916 2.3529739379882812 2.3590774536132812
        2.3438186645507812 2.4811553955078125 2.5513458251953125 2.932831048965454 3.4180755615234375 3.860588312149048
        4.019287109375 3.7965011596679688 3.4791107177734375 3.2258071899414062 3.1861343383789062 3.4516451358795166
        3.2563247680664062 2.6490097045898438 2.3499221801757812 2.6612167358398438 2.865684747695923 2.7253036499023438
        2.7405624389648438 2.3926544189453125 2.05999755859375 1.9684447050094604 2.1301958560943604 2.6734235286712646
        3.2868423461914062 3.7598800659179688 4.019286632537842 4.5869293212890625 5.233924388885498 4.4007720947265625
        3.6042327880859375 4.150520324707031 4.3855133056640625 4.0040283203125 3.6133880615234375 3.3478775024414062
        3.009124755859375 2.972503900527954 3.5401461124420166 3.8392257690429688 4.025390625 4.0284423828125
        3.8514328002929688 3.6957931518554688 3.6469650268554688 3.7263107299804688 3.976562261581421 4.297004699707031
        4.3794097900390625 4.266487121582031 4.0009765625 3.6530683040618896 2.987762451171875 2.069152593612671
        0.8117904663085938 1.4404754638671875 4.211555480957031 6.817832946777344 8.75576114654541 10.422072410583496
        10.397659301757812 8.438369750976562 8.166755676269531 9.302040100097656 9.607223510742188 6.958221435546875
        2.2614212036132812 1.8646774291992188 2.6123809814453125 3.9002685546875 4.318367004394531 5.1332173347473145
        6.204414367675781 7.165748596191406 7.4129486083984375 6.857506275177002 6.02435302734375 5.157630920410156
        4.199348449707031 2.932830572128296 2.7405624389648438 3.6866378784179688 4.3733062744140625 3.8117599487304688
        3.189185857772827 3.9368896484375 4.904327392578125 4.300055980682373 2.5330352783203125 1.034576416015625
        1.6296921968460083 3.2227554321289062 4.928741455078125 6.03350830078125 6.6621928215026855 7.5106048583984375
        7.898193359375 6.4210968017578125 4.266487121582031 3.5401456356048584 4.690696716308594 5.218666076660156
        4.0223388671875 4.08642578125 5.8626017570495605 6.976531505584717 7.9287109375 9.607223510742188
        10.568557739257812 10.873748779296875 12.063965797424316 14.587844848632812 17.065950393676758 18.085264205932617
        6.12200927734375 4.995880603790283 4.4618072509765625 4.4282379150390625 4.559463977813721 4.742576599121094
        5.264442443847656 5.91448974609375 6.204414367675781 6.06402587890625 5.804619312286377 5.905334949493408
        6.4943389892578125 6.939910888671875 6.976531982421875 6.640830993652344 6.05181884765625 5.633720397949219
        5.4384002685546875 5.084381103515625 4.666282653808594 4.5838775634765625 4.5442047119140625 4.043700695037842
        3.656120538711548 4.162727355957031 4.922637939453125 4.815818786621094 3.9429931640625 3.3448257446289062
        3.4516451358795166 3.4974210262298584 2.887054443359375 2.12103271484375 1.7029341459274292 1.5503387451171875
        1.7456588745117188 2.05999755859375 2.2095413208007812 2.2309036254882812 2.1881790161132812 2.114929437637329
        1.96844482421875 1.7883834838867188 1.7304000854492188 1.9043577909469604 2.1607131958007812 2.4811553955078125
        2.639854669570923 2.941985845565796 3.4241793155670166 3.8819580078125 3.772087335586548 3.2319107055664062
        2.8382186889648438 2.7375106811523438 2.911468505859375 3.079315185546875 2.6520614624023438 2.2339553833007812
        2.075256109237671 2.2949905395507812 2.5574493408203125 2.5940704345703125 2.5574493408203125 2.01727294921875
        1.8494186401367188 1.8524705171585083 1.99896240234375 2.3529739379882812 2.914520263671875 3.4180755615234375
        3.5493009090423584 3.842277765274048 4.751731872558594 4.4770660400390625 3.6103363037109375 4.312263488769531
        4.3763580322265625 3.8453292846679688 3.4546964168548584 3.2410659790039062 3.1312026977539062 3.1891863346099854
        3.5981292724609375 3.7354660034179688 3.7812423706054688 3.7903976440429688 3.7324142456054688 3.5889742374420166
        3.5126802921295166 3.5981292724609375 3.8880615234375 4.104736328125 3.9368896484375 3.6622235774993896
        3.5218350887298584 3.3692398071289062 2.963348388671875 2.2278518676757812 1.2634658813476562 0.31433868408203125
        1.2482070922851562 2.2705764770507812 4.0162353515625 5.963318347930908 6.936859607696533 7.046722412109375
        8.758811950683594 11.505478858947754 13.87677001953125 13.190101623535156 7.016205310821533 2.691734552383423
        2.056946039199829 3.2136001586914062 4.635765552520752 5.5452117919921875 6.05487060546875 6.5980987548828125
        7.370216369628906 7.843254566192627 7.5197601318359375 6.07623291015625 4.104736328125 2.4781036376953125
        2.2248001098632812 2.5910189151763916 2.6947860717773438 2.3804473876953125 2.2217485904693604 2.3743438720703125
        2.7222516536712646 3.3265151977539062 3.7446210384368896 3.4669039249420166 3.210548162460327 3.6042327880859375
        4.092529296875 4.260383605957031 4.300056457519531 4.3610920906066895 3.939941167831421 2.740562677383423
        1.6693649291992188 1.525924801826477 2.5543975830078125 4.177986145019531 4.696800231933594 4.4557037353515625
        5.017242431640625 6.225776672363281 7.940917491912842 10.00091552734375 10.660118103027344 10.00396728515625
        9.95513916015625 11.447494506835938 14.386428833007812 16.83705711364746 8.404800415039062 7.654045104980469
        6.872772216796875 5.813774585723877 4.818870544433594 5.014190673828125 6.01519775390625 6.692710876464844
        6.674400329589844 6.308174133300781 5.856499195098877 5.761894702911377 6.344795227050781 6.8544535636901855
        6.643882751464844 6.198310852050781 5.856499195098877 5.5909881591796875 5.349891662597656 4.919586181640625
        4.4831695556640625 4.330574035644531 4.290900707244873 3.885009765625 3.3356704711914062 3.5065765380859375
        4.297004699707031 4.843284606933594 4.568619251251221 4.007080078125 4.0711669921875 4.242072582244873
        3.5737154483795166 2.2980422973632812 1.376388430595398 1.049835205078125 1.1780166625976562 1.3946990966796875
        1.2451553344726562 1.034576416015625 1.031524658203125 1.1474990844726562 1.2604141235351562 1.3092422485351562
        1.4618377685546875 1.541183590888977 1.8646775484085083 2.4414825439453125 2.7222518920898438 2.877898931503296
        3.2746355533599854 3.4882659912109375 3.064056396484375 2.4567413330078125 2.1362991333007812 2.4170687198638916
        2.874847412109375 2.7558212280273438 2.3987579345703125 2.2064895629882812 2.06915283203125 2.1668167114257812
        2.3773956298828125 2.6245956420898438 2.7039413452148438 2.03253173828125 1.8372116088867188 1.7822799682617188
        1.8250045776367188 2.00506591796875 2.4201202392578125 2.7863388061523438 2.996917724609375 3.2929458618164062
        3.4974212646484375 3.1830825805664062 3.2715837955474854 4.025390625 4.0498046875 3.4943695068359375
        3.1464614868164062 3.036590576171875 3.027435302734375 3.1464614868164062 3.5279388427734375 3.6866378784179688
        3.6286544799804688 3.5828704833984375 3.6133880615234375 3.6317062377929688 3.723259210586548 3.7965011596679688
        3.872802734375 4.0284423828125 3.87890625 3.4791107177734375 3.2136001586914062 2.880950927734375
        2.2766799926757812 1.6998826265335083 1.5961151123046875 1.1444473266601562 0.4821929931640625 1.3000869750976562
        2.7985458374023438 3.964355230331421 4.898224353790283 6.955170154571533 8.410903930664062 9.558395385742188
        12.363044738769531 14.957122802734375 14.770957946777344 12.320320129394531 7.260353088378906 2.917572021484375
        3.5096280574798584 4.043701171875 4.104736328125 4.5564117431640625 5.343787670135498 6.5431671142578125
        7.5655364990234375 7.348854064941406 5.374313831329346 2.893157720565796 1.446578860282898 0.8484115600585938
        0.8117904663085938 1.052886962890625 1.2451553344726562 0.9094544053077698 0.5035552978515625 0.6622543931007385
        1.1352920532226562 1.4557342529296875 1.89520263671875 2.4506378173828125 2.941985845565796 2.880950689315796
        1.92266845703125 1.092559814453125 0.7660140991210938 0.723289430141449 0.979644775390625 1.3000869750976562
        1.9043580293655396 3.2044451236724854 4.345832824707031 4.190192699432373 4.0589599609375 4.995880126953125
        6.527908802032471 7.724236011505127 8.03857421875 8.304085731506348 9.195228576660156 10.791343688964844
        13.852348327636719 16.959136962890625 8.75881290435791 8.719139099121094 8.487197875976562 7.901244640350342
        7.080291748046875 6.4394073486328125 6.4516143798828125 6.881927490234375 7.1840596199035645 7.260353088378906
        7.223731994628906 7.074188232421875 6.936859130859375 6.6469340324401855 6.12200927734375 5.5452117919921875
        5.261390686035156 5.151527404785156 5.005034923553467 4.821922302246094 4.574721813201904 4.382461071014404
        4.184089660644531 3.8087079524993896 3.2166519165039062 2.978607177734375 3.4974212646484375 4.153572082519531
        4.174934387207031 3.7415692806243896 3.7842941284179688 3.946044921875 3.4577484130859375 2.5025174617767334
        1.614425539970398 1.083404541015625 1.1291885375976562 1.2512588500976562 0.952178955078125 0.8117904663085938
        0.8239974975585938 0.8484115600585938 1.098663330078125 1.513717770576477 1.8005906343460083 1.8494186401367188
        1.91351318359375 2.1546096801757812 2.3957061767578125 2.4597930908203125 2.8321151733398438 2.996917486190796
        2.5299835205078125 2.166816473007202 1.87384033203125 2.3224563598632812 2.948089599609375 2.8046491146087646
        2.868736505508423 2.5757596492767334 2.2064895629882812 2.2370071411132812 2.4964141845703125 2.4384307861328125
        2.5238800048828125 2.2034380435943604 1.91656494140625 1.8768922090530396 1.8585739135742188 1.8463668823242188
        2.151557683944702 2.4170684814453125 2.7100448608398438 3.134254217147827 3.2197039127349854 2.960296630859375
        3.1525650024414062 3.3204116821289062 3.259376287460327 3.042694330215454 2.8656845092773438 2.7863388061523438
        2.7802352905273438 3.109832763671875 3.6103360652923584 3.7171554565429688 3.5309908390045166 3.2959976196289062
        3.250221014022827 3.5187835693359375 3.8605880737304688 3.973510503768921 3.93994140625 3.7842941284179688
        3.5004730224609375 3.253272771835327 3.2685320377349854 3.2013931274414062 2.880951166152954 3.076263427734375
        4.1016845703125 3.6622238159179688 2.07220458984375 1.7456589937210083 2.2339553833007812 2.6917343139648438
        4.733421325683594 7.260353088378906 7.7730631828308105 7.5014495849609375 8.560440063476562 10.965301513671875
        13.592942237854004 15.433212280273438 13.94696044921875 9.93072509765625 8.346809387207031 8.694725036621094
        7.693717956542969 5.4353485107421875 4.754783630371094 5.011138916015625 5.4109344482421875 5.835136890411377
        5.7893595695495605 4.5533599853515625 3.024383544921875 2.142402410507202 1.92572021484375 1.8768922090530396
        1.6296920776367188 1.1841201782226562 0.8667221069335938 0.8178940415382385 0.8636703491210938 0.7873764038085938
        1.031524658203125 1.2939834594726562 1.528976559638977 1.562545657157898 1.4801483154296875 1.2543106079101562
        1.1841201782226562 1.2146377563476562 1.1780166625976562 1.4282684326171875 1.9409791231155396 2.8107528686523438
        3.3631365299224854 3.6194918155670166 4.144416809082031 4.940948486328125 5.487228870391846 5.6092987060546875
        5.97247314453125 7.251197338104248 8.877838134765625 10.461745262145996 12.491226196289062 14.270454406738281
        8.0751953125 8.233894348144531 8.230842590332031 7.995849609375 7.4953460693359375 6.765953063964844
        6.323432922363281 6.5797882080078125 7.260353088378906 7.852409362792969 8.032470703125 7.812736511230469
        7.5045013427734375 7.501449108123779 7.321388244628906 6.4394073486328125 5.6245646476745605 5.221717834472656
        5.035552978515625 4.824974060058594 4.4282379150390625 4.226814270019531 4.254280090332031 3.988769292831421
        3.4516448974609375 3.094573974609375 3.3417742252349854 3.8636398315429688 3.927734613418579 3.6072845458984375
        3.732414484024048 4.0528564453125 3.7873458862304688 3.122039794921875 2.5696563720703125 2.3010940551757812
        2.3377151489257812 2.3010940551757812 2.01727294921875 1.5839080810546875 1.3122940063476562 1.3214492797851562
        1.593063235282898 1.95318603515625 2.078307867050171 2.05694580078125 2.07830810546875 2.1881790161132812
        2.352973699569702 2.3468704223632812 2.5330352783203125 2.941986083984375 2.7222518920898438 2.2827835083007812
        1.9440308809280396 2.3407669067382812 3.012176513671875 3.3753509521484375 3.8117599487304688 3.109832763671875
        2.4018094539642334 2.044739007949829 2.2614212036132812 2.4018099308013916 2.7344589233398438 2.8321151733398438
        2.5757598876953125 2.6673202514648438 2.7893903255462646 2.5330352783203125 2.4689483642578125 2.4872589111328125
        2.719200372695923 3.054901123046875 3.067108154296875 3.006072998046875 3.2013931274414062 3.3326187133789062
        3.1922378540039062 3.076263427734375 2.893157958984375 2.6215362548828125 2.5757598876953125 3.2258071899414062
        3.6378095149993896 3.5065765380859375 3.2044448852539062 2.911468744277954 2.8443222045898438 3.061004638671875
        3.5615084171295166 3.982665777206421 4.0009765625 3.6896896362304688 3.4699554443359375 3.5523529052734375
        3.6591720581054688 3.3722989559173584 3.112884521484375 3.5584564208984375 4.4923248291015625 4.156623840332031
        2.914520263671875 1.7670211791992188 1.440475583076477 2.7253036499023438 4.7181620597839355 6.338691234588623
        6.900238037109375 6.4027862548828125 6.274604797363281 6.8605570793151855 8.688621520996094 11.459701538085938
        13.614303588867188 14.792320251464844 15.607161521911621 15.274513244628906 13.370155334472656 7.8188395500183105
        3.964355230331421 3.4577486515045166 2.7253036499023438 2.8260116577148438 3.9857177734375 4.5136871337890625
        4.239021301269531 3.6347579956054688 2.7985458374023438 2.2003860473632812 1.7365036010742188 1.3367080688476562
        1.2756727933883667 1.93182373046875 2.7588729858398438 2.7680282592773438 2.02642822265625 1.5808563232421875
        1.5991668701171875 1.6510543823242188 1.9196165800094604 2.01727294921875 2.09051513671875 2.3041460514068604
        2.3957061767578125 2.2186965942382812 2.255317449569702 2.7344589233398438 3.073211669921875 3.7476727962493896
        4.605240345001221 5.206459045410156 5.3224263191223145 5.310218811035156 5.7710490226745605 6.802574157714844
        8.0111083984375 9.247108459472656 10.309150695800781 10.855429649353027 7.046722412109375 6.949066638946533
        7.2908711433410645 7.4221038818359375 7.104705810546875 6.5950469970703125 6.231880187988281 6.378371715545654
        7.089447021484375 7.9805908203125 8.420059204101562 8.258308410644531 7.9256591796875 8.0172119140625
        8.505509376525879 8.304085731506348 7.296974182128906 6.5706329345703125 6.3783721923828125 5.865653991699219
        4.675437927246094 3.6317062377929688 3.4028167724609375 3.5218355655670166 3.4760589599609375 3.201392889022827
        3.3661880493164062 3.881958246231079 4.0498046875 3.8300704956054688 3.9490966796875 4.4496002197265625
        4.4862213134765625 3.8605880737304688 3.2410659790039062 3.039642333984375 3.1403579711914062 3.100677490234375
        2.6703720092773438 2.2400588989257812 2.08441162109375 2.07525634765625 2.2217485904693604 2.3102493286132812
        2.2034378051757812 2.1362991333007812 2.2949905395507812 2.4597928524017334 2.4872589111328125 2.6245956420898438
        2.6825790405273438 3.2258074283599854 3.3051528930664062 2.4689483642578125 2.08135986328125 2.5055694580078125
        3.2227554321289062 3.6774826049804688 4.260383605957031 3.7598800659179688 2.948089599609375 2.3712844848632812
        2.4506378173828125 2.8412704467773438 3.3173599243164062 3.5798187255859375 3.5889737606048584 3.756828546524048
        4.019287109375 3.878906011581421 3.7232589721679688 3.4150238037109375 3.3478775024414062 3.4974210262298584
        3.2074966430664062 3.042694091796875 3.091522455215454 3.079315185546875 3.167823553085327 3.323463201522827
        3.1739273071289062 2.8046493530273438 2.932830572128296 3.5248870849609375 3.4760589599609375 3.1769793033599854
        2.7954938411712646 2.4964141845703125 2.4109649658203125 2.6337509155273438 3.1342544555664062 3.5401456356048584
        3.7720870971679688 3.7842941284179688 3.6988449096679688 3.6805343627929688 3.6133880615234375 3.5523529052734375
        3.5187838077545166 3.5737152099609375 3.8880615234375 3.6103360652923584 2.893157720565796 1.7090377807617188
        1.2176895141601562 2.3071975708007812 3.5493013858795166 5.4628143310546875 6.222724914550781 5.523849964141846
        5.285804748535156 6.02130126953125 7.110809803009033 9.186073303222656 11.801505088806152 14.508498191833496
        16.516616821289062 17.209388732910156 17.224647521972656 11.224708557128906 2.905364751815796 3.091522455215454
        1.95013427734375 1.1597061157226562 2.096618413925171 2.960296392440796 3.4791107177734375 3.3661880493164062
        2.6398544311523438 1.98065185546875 1.5686492919921875 1.5289764404296875 2.3499221801757812 3.3936617374420166
        4.193244934082031 4.199348449707031 3.2288589477539062 2.291938543319702 2.05999755859375 2.4994659423828125
        3.045745849609375 2.957245111465454 2.884002685546875 3.155616521835327 3.2959976196289062 3.1495134830474854
        3.003021240234375 3.1983413696289062 3.4699554443359375 3.7965011596679688 4.272590637207031 4.904327392578125
        5.3956756591796875 5.810722351074219 6.360054016113281 7.080291748046875 7.922607421875 8.905303955078125
        9.533981323242188 9.93682861328125 6.01214599609375 5.89617919921875 6.4943389892578125 6.952117919921875
        6.939910888671875 6.6682963371276855 6.405837535858154 6.3905792236328125 6.799522399902344 7.708976745605469
        8.532974243164062 8.700828552246094 8.407852172851562 8.212532043457031 8.496353149414062 8.447525024414062
        7.593001842498779 6.936859607696533 6.701866149902344 6.344795227050781 5.655083179473877 4.629661560058594
        3.4638519287109375 2.887054443359375 2.887054443359375 2.929779052734375 3.161720037460327 3.6469650268554688
        3.8514328002929688 3.7232589721679688 3.8483810424804688 4.266487121582031 4.3916168212890625 3.946045160293579
        3.3845062255859375 3.018280029296875 2.874847412109375 2.6551132202148438 2.2034378051757812 1.94097900390625
        2.00201416015625 2.1424026489257812 2.2278518676757812 2.2705764770507812 2.2736284732818604 2.2400588989257812
        2.3896026611328125 2.6123809814453125 2.6886823177337646 2.6154327392578125 2.7222518920898438 3.2258071899414062
        3.4852142333984375 2.7161483764648438 2.3560256958007812 3.067108154296875 3.7080001831054688 3.9521484375
        4.4831695556640625 4.4404449462890625 3.634758234024048 2.899261474609375 2.6001739501953125 2.948089599609375
        3.3875579833984375 3.7842938899993896 3.93994140625 4.007080078125 4.147468566894531 4.275642395019531
        4.623558044433594 4.5350494384765625 4.306159973144531 4.4801177978515625 3.976562261581421 3.6133882999420166
        3.4272308349609375 3.1617202758789062 3.2349624633789062 3.3417739868164062 3.265479803085327 3.033538818359375
        3.323463201522827 3.5950775146484375 3.3295669555664062 2.877899169921875 2.5055694580078125 2.2766799926757812
        2.1942825317382812 2.3621292114257812 2.8595809936523438 3.2258071899414062 3.5065765380859375 3.8544843196868896
        4.171882629394531 4.220710754394531 3.96435546875 3.7385177612304688 3.7659835815429688 3.9033203125
        3.8300704956054688 3.2074966430664062 2.4506378173828125 1.3611221313476562 1.016265869140625 1.4954071044921875
        2.4842071533203125 4.6479716300964355 5.819877624511719 5.282752990722656 5.6062469482421875 6.5889434814453125
        6.903289794921875 8.0172119140625 10.11993408203125 13.785209655761719 17.233802795410156 19.501325607299805
        20.487075805664062 17.70378875732422 7.031463623046875 1.2970352172851562 1.8280562162399292 1.3672256469726562
        1.3824920654296875 1.7670211791992188 2.3987579345703125 2.3804473876953125 1.97454833984375 1.6815719604492188
        1.3458633422851562 1.6480025053024292 3.091522455215454 4.4892730712890625 5.337684631347656 5.5482635498046875
        4.910430908203125 4.0284423828125 3.5645596981048584 3.8544843196868896 4.275642395019531 3.8239669799804688
        3.4028167724609375 3.3173601627349854 3.3753509521484375 3.720207452774048 4.0406494140625 4.196296691894531
        4.1016845703125 3.9613037109375 4.01318359375 4.309211730957031 4.916534423828125 5.652030944824219
        6.250190734863281 6.7232279777526855 7.242042541503906 7.730339050292969 8.0843505859375 9.063995361328125
        5.279701232910156 5.536056995391846 6.326484680175781 6.802574157714844 6.784263610839844 6.4455108642578125
        6.237983703613281 6.323432922363281 6.527908802032471 7.089447498321533 8.0721435546875 8.703880310058594
        8.688621520996094 8.450576782226562 8.331551551818848 8.230842590332031 7.684562683105469 6.793418884277344
        6.216621398925781 5.90533447265625 5.5269012451171875 5.114898681640625 4.3733062744140625 3.4546964168548584
        3.036590814590454 3.091522455215454 3.3234636783599854 3.4424896240234375 3.314307928085327 3.1891860961914062
        3.3814547061920166 3.7354660034179688 3.8666915893554688 3.5737152099609375 3.085418701171875 2.4720001220703125
        1.7700729370117188 1.3855438232421875 1.385543704032898 1.397750735282898 1.4282684326171875 1.5533905029296875
        1.6296920776367188 1.7792282104492188 2.06610107421875 2.10272216796875 2.069152593612671 2.1759719848632812
        2.2461624145507812 2.2370073795318604 2.5299835205078125 2.8290634155273438 3.2105486392974854 2.7069931030273438
        2.5360872745513916 3.4974210262298584 3.958252191543579 3.9918212890625 4.4282379150390625 4.5167388916015625
        3.7232589721679688 3.024383544921875 2.4231719970703125 2.5299835205078125 2.957244634628296 3.5004730224609375
        3.6774826049804688 3.6866378784179688 3.7079999446868896 4.03759765625 4.5197906494140625 4.629661560058594
        4.672386646270752 5.063018798828125 4.5960845947265625 3.982666015625 3.4272308349609375 2.7924420833587646
        2.902313232421875 3.231910467147827 3.201392889022827 3.048797607421875 3.115936279296875 3.2349624633789062
        3.109833002090454 2.5238800048828125 2.230903387069702 2.07525634765625 2.157661199569702 2.4262237548828125
        2.981658935546875 3.2898941040039062 3.4638521671295166 3.7018966674804688 3.93994140625 4.080322265625
        4.153572082519531 4.196296691894531 4.162727355957031 4.0894775390625 3.6835861206054688 3.1525650024414062
        2.5299835205078125 1.4160614013671875 0.976593017578125 1.071197509765625 1.8829954862594604 3.8483810424804688
        5.5238494873046875 5.682548522949219 6.259346008300781 6.5553741455078125 6.161689758300781 6.936859130859375
        7.8890380859375 10.583816528320312 14.850303649902344 18.631553649902344 20.499284744262695 21.533859252929688
        20.050657272338867 16.12598419189453 10.306098937988281 5.6184539794921875 3.3021011352539062 1.7700729370117188
        1.3397598266601562 1.571701169013977 2.00506591796875 2.4079132080078125 2.3163528442382812 2.197334051132202
        2.917572021484375 4.141365051269531 5.4139862060546875 6.2166218757629395 5.5177459716796875 4.159675598144531
        4.0101318359375 4.870750427246094 5.648979187011719 5.590988636016846 4.861595153808594 3.8087081909179688
        3.4730072021484375 4.4129791259765625 5.368202209472656 5.706962585449219 5.340736389160156 4.669334411621094
        4.330574035644531 4.339729309082031 4.690696716308594 5.279701232910156 5.822929859161377 6.237983703613281
        6.628623962402344 6.918548107147217 7.4129486083984375 8.563491821289062 5.044707775115967 5.276649475097656
        6.10675048828125 6.5492706298828125 6.353950500488281 5.777153015136719 5.655082702636719 6.164741516113281
        6.622520923614502 6.808678150177002 7.504500865936279 8.438370704650879 8.734397888183594 8.487197875976562
        8.224738121032715 8.227790832519531 8.301033020019531 7.9134521484375 7.040618896484375 5.880920886993408
        5.224769592285156 5.252235412597656 5.066070079803467 4.6235575675964355 4.4557037353515625 4.351935863494873
        3.7354660034179688 3.1342544555664062 2.920623779296875 2.935882568359375 3.088470458984375 3.3265151977539062
        3.5126800537109375 3.3265151977539062 2.917572021484375 2.3438186645507812 1.2909315824508667 0.8056869506835938
        0.921661376953125 0.860618531703949 0.8301010131835938 0.979644775390625 1.113922119140625 1.1719131469726562
        1.376388430595398 1.6449507474899292 1.6937788724899292 1.6693649291992188 1.7944869995117188 2.09661865234375
        2.5849153995513916 2.6581649780273438 2.932830572128296 2.908416748046875 2.8443222045898438 3.5065765380859375
        3.5859222412109375 3.8544845581054688 4.5075836181640625 4.4984283447265625 3.6286542415618896 3.076263427734375
        2.3743438720703125 2.3346633911132812 2.7680282592773438 3.1312026977539062 3.3387222290039062 3.5035247802734375
        3.5493011474609375 3.8758544921875 4.0345458984375 4.116943359375 4.4831695556640625 4.910430908203125
        4.574721813201904 3.3784029483795166 2.4811553955078125 2.063049554824829 2.11798095703125 2.3804473876953125
        2.6062774658203125 2.5574493408203125 2.4323272705078125 2.8351669311523438 2.8046493530273438 2.1454544067382812
        1.93182373046875 1.7975387573242188 2.00201416015625 2.4720001220703125 3.012176513671875 3.1739273071289062
        3.4577484130859375 3.7507247924804688 4.019287109375 4.06201171875 4.0894775390625 4.263435363769531
        4.4068756103515625 4.348884582519531 3.897216796875 3.6835858821868896 3.5401458740234375 2.5269317626953125
        1.7975387573242188 2.3377151489257812 2.902313232421875 3.3539810180664062 5.111846923828125 5.89312744140625
        6.350898742675781 6.1281208992004395 5.661186218261719 6.314277648925781 6.5401153564453125 7.6021575927734375
        10.852378845214844 14.868613243103027 17.502365112304688 19.315162658691406 21.243934631347656 22.19611358642578
        20.48097038269043 16.0618896484375 10.983613014221191 8.0111083984375 6.927703380584717 6.680503845214844
        6.1281208992004395 4.959259033203125 4.144416809082031 3.3051528930664062 2.8229596614837646 3.042694091796875
        3.7354660034179688 4.3336262702941895 4.0162353515625 3.8056564331054688 4.5838775634765625 5.5177459716796875
        6.244087219238281 6.649986267089844 6.3875274658203125 5.368202209472656 4.248176574707031 4.638816833496094
        5.96026611328125 6.726280212402344 6.4760284423828125 5.5726776123046875 4.898223400115967 4.736473083496094
        4.834129333496094 5.121002674102783 5.542159557342529 5.911438465118408 6.125068664550781 6.369209289550781
        6.869712829589844 7.742546081542969 5.304115295410156 5.536056995391846 6.360054016113281 6.759850025177002
        6.314277648925781 5.575729846954346 5.4811248779296875 6.11895751953125 6.787315368652344 6.872772216796875
        7.025359630584717 7.699821472167969 8.169807434082031 8.188118934631348 8.185066223144531 8.322395324707031
        8.676414489746094 8.896148681640625 8.832054138183594 8.273567199707031 7.5380706787109375 6.985687255859375
        6.216620922088623 5.8046183586120605 6.186103820800781 6.463821887969971 5.807671070098877 4.681541442871094
        3.4699556827545166 2.7436141967773438 2.7283554077148438 3.057952880859375 3.3417739868164062 3.2471694946289062
        3.006072998046875 2.6490097045898438 1.8677291870117188 0.7629623413085938 0.6134185791015625 0.7110824584960938
        0.6836166977882385 0.8270492553710938 0.979644775390625 0.961334228515625 0.964385986328125 1.3092422485351562
        1.7151412963867188 1.7456589937210083 1.7700729370117188 2.00201416015625 2.1820755004882812 2.2705764770507812
        2.7497177124023438 3.009124755859375 3.027435302734375 3.4638519287109375 3.4638519287109375 3.952148199081421
        4.678489685058594 4.718162536621094 4.025390625 3.3600847721099854 2.6917343139648438 2.5025177001953125
        2.7710800170898438 3.003021001815796 3.103729248046875 3.3784024715423584 3.5401461124420166 3.5828704833984375
        3.3570330142974854 3.4546966552734375 3.8880615234375 4.147468566894531 4.104736328125 2.8687362670898438
        1.6541061401367188 1.4954071044921875 1.7395553588867188 1.8280563354492188 1.91656494140625 2.2492141723632812
        2.4689483642578125 2.8015973567962646 2.722252130508423 2.07830810546875 1.88604736328125 1.8402634859085083
        2.1362991333007812 2.7405624389648438 3.2776870727539062 3.4485931396484375 3.6072845458984375 3.7507247924804688
        3.885009765625 3.8239669799804688 3.8148117065429688 3.970458745956421 4.208503723144531 4.4312896728515625
        4.5075836181640625 4.5747222900390625 4.5319976806640625 3.946044921875 3.6256024837493896 4.712059020996094
        5.96636962890625 5.249183654785156 4.898223876953125 5.8687052726745605 6.05487060546875 5.758842468261719
        5.4353485107421875 5.4475555419921875 5.111846923828125 5.404831409454346 7.4465179443359375 10.281684875488281
        11.960205078125 13.168739318847656 15.128028869628906 17.41691780090332 18.53693962097168 18.35688018798828
        17.76177215576172 16.16260528564453 13.272499084472656 11.114837646484375 11.160622596740723 11.008025169372559
        8.0111083984375 4.361091613769531 2.2431106567382812 1.9898072481155396 2.4628448486328125 2.3773956298828125
        3.012176513671875 4.4831695556640625 5.7313761711120605 6.134223937988281 6.213569164276123 6.558426380157471
        6.912445068359375 6.720176696777344 5.841239929199219 5.688652038574219 6.677452087402344 7.712028980255127
        7.8890380859375 7.028411865234375 5.716118335723877 5.102691650390625 5.087432861328125 5.157630920410156
        5.325477600097656 5.636772155761719 5.853446960449219 6.04571533203125 6.329535961151123 6.860558032989502
        5.5421600341796875 5.706962585449219 6.363105773925781 6.985687255859375 6.695763111114502 6.225776195526123
        6.201362609863281 6.729332447052002 7.370215892791748 7.794425964355469 7.846305847167969 7.873778820037842
        7.8768310546875 7.9287109375 8.178962707519531 8.526870727539062 8.841209411621094 8.957183837890625
        9.054840087890625 8.975494384765625 8.911407470703125 8.920562744140625 8.432266235351562 7.757804870605469
        7.852409362792969 8.392593383789062 8.725242614746094 8.249153137207031 6.903289794921875 5.691703796386719
        5.001983642578125 4.4740142822265625 3.958251953125 3.5767669677734375 3.4730072021484375 3.311256170272827
        2.5910186767578125 1.574752688407898 1.019317626953125 0.7019271850585938 0.3967437744140625 0.7995834350585938
        0.946075439453125 0.967437744140625 1.113922119140625 1.3977508544921875 1.7670211791992188 2.1668167114257812
        2.4567413330078125 2.5849151611328125 2.3804473876953125 2.1698684692382812 2.3407669067382812 2.5971221923828125
        2.7527694702148438 3.1800308227539062 3.4852139949798584 4.11083984375 4.4496002197265625 4.718162536621094
        4.5075836181640625 3.5828702449798584 2.7283554077148438 2.2858352661132812 2.11492919921875 2.3316116333007812
        2.6459579467773438 2.893157958984375 2.963348627090454 2.8077011108398438 2.7649765014648438 3.146461248397827
        3.5584564208984375 3.720207452774048 3.9063720703125 3.4363861083984375 2.2858352661132812 1.6541061401367188
        1.7792280912399292 1.8433151245117188 2.11798095703125 2.5605010986328125 2.7710800170898438 3.027435302734375
        2.8351666927337646 2.00201416015625 1.7639694213867188 1.98980712890625 2.5727083683013916 2.8473739624023438
        3.2807388305664062 3.6408615112304688 3.671379327774048 3.6530685424804688 3.6805343627929688 3.5401461124420166
        3.4943692684173584 3.5218355655670166 3.8483808040618896 4.4221343994140625 4.846336364746094 5.017242431640625
        4.992828369140625 4.873809814453125 4.681541442871094 5.163734436035156 6.192207336425781 6.4149932861328125
        4.834129333496094 5.609298229217529 5.871757507324219 5.5299530029296875 5.230873107910156 4.8310770988464355
        3.933837890625 2.902313232421875 3.8148117065429688 5.6550822257995605 6.872772216796875 7.6113128662109375
        9.051788330078125 12.195198059082031 15.515610694885254 16.705833435058594 16.400650024414062 14.416946411132812
        12.240974426269531 12.182991027832031 14.02325439453125 15.427108764648438 13.495285034179688 7.538071155548096
        1.2817764282226562 1.379440188407898 3.2898941040039062 3.070159912109375 3.3539810180664062 5.157630920410156
        6.488235950469971 6.878875732421875 6.5095977783203125 6.4455108642578125 6.811729431152344 7.1871113777160645
        7.318336486816406 7.4465179443359375 7.718132495880127 8.139289855957031 8.563491821289062 8.685569763183594
        7.864616394042969 6.527908802032471 5.6398234367370605 5.236976623535156 5.221717834472656 5.652030944824219
        6.268501281738281 6.659142017364502 6.677452564239502 6.762901306152344 5.92059326171875 5.97857666015625
        6.421096324920654 6.820884704589844 6.735435485839844 7.058929443359375 7.5563812255859375 8.148445129394531
        8.874786376953125 9.390549659729004 9.436325073242188 9.112823486328125 8.890045166015625 8.734397888183594
        8.417006492614746 8.325447082519531 8.423110961914062 8.368171691894531 8.230842590332031 8.0843505859375
        8.148445129394531 8.508560180664062 8.575698852539062 8.352912902832031 8.322395324707031 8.569595336914062
        8.886993408203125 8.984649658203125 8.838157653808594 8.471939086914062 7.922606945037842 7.4129486083984375
        6.863609313964844 6.366157531738281 5.670341491699219 4.635765075683594 3.5340423583984375 2.3499221801757812
        1.5198211669921875 1.2390518188476562 1.1719131469726562 1.1780166625976562 1.071197509765625 1.055938720703125
        1.3061904907226562 1.6083221435546875 1.7700728178024292 1.9684447050094604 2.4628448486328125 2.8443222045898438
        2.5055694580078125 2.4109649658203125 2.5940704345703125 2.6886825561523438 3.222755193710327 3.7018964290618896
        3.7659835815429688 3.982666015625 4.08642578125 4.507583141326904 4.5594635009765625 3.8605880737304688
        3.1678240299224854 2.3102493286132812 1.87384033203125 1.8585739135742188 2.09356689453125 2.3499221801757812
        2.4781033992767334 2.3407669067382812 2.2705764770507812 2.8107528686523438 3.3997650146484375 3.7812423706054688
        4.217658996582031 4.449600696563721 4.0772705078125 2.4384307861328125 1.8524705171585083 1.96234130859375
        2.3102493286132812 2.6886825561523438 2.7161483764648438 2.7436139583587646 2.7680282592773438 1.8829954862594604
        1.5839080810546875 2.08746337890625 2.7802352905273438 2.8229596614837646 3.039642095565796 3.3906097412109375
        3.4363861083984375 3.3845064640045166 3.3753509521484375 3.234962224960327 3.2136001586914062 3.2288589477539062
        3.4394378662109375 3.9307861328125 4.4801177978515625 4.968414306640625 5.3773651123046875 5.6550822257995605
        5.5055389404296875 4.834129333496094 3.8270184993743896 3.5523526668548584 4.0772705078125 4.940948486328125
        5.075225830078125 4.989776611328125 4.660179138183594 4.290900707244873 3.8026044368743896 2.1759719848632812
        0.7232894897460938 2.5238800048828125 4.150520324707031 5.029449939727783 6.4088897705078125 9.854423522949219
        13.592942237854004 14.874724388122559 13.812675476074219 11.471908569335938 10.782188415527344 13.434248924255371
        16.678367614746094 18.668176651000977 15.353858947753906 4.623558044433594 1.94708251953125 1.9928590059280396
        4.2725911140441895 4.919586181640625 4.733421325683594 6.04571533203125 7.1443867683410645 7.718132019042969
        7.6143646240234375 7.2939229011535645 7.184058666229248 7.535019397735596 8.163703918457031 8.68862247467041
        8.841209411621094 8.679466247558594 8.536026000976562 8.670310974121094 8.691673278808594 8.0111083984375
        6.808677673339844 5.94805908203125 5.783256530761719 6.07623291015625 6.5767364501953125 6.976531982421875
        7.037566661834717 7.126075744628906 6.213569641113281 6.027404308319092 6.213569164276123 6.295967102050781
        6.491287708282471 6.924651622772217 7.3946380615234375 8.099609375 9.045684814453125 9.793388366699219
        10.013121604919434 9.701834678649902 9.433273315429688 9.637748718261719 9.424118041992188 8.737449645996094
        8.163703918457031 7.889037609100342 7.730339050292969 7.672356128692627 7.827995300292969 8.249153137207031
        8.435318946838379 8.307136535644531 8.297981262207031 8.444473266601562 8.648948669433594 8.725242614746094
        8.77407169342041 8.740501403808594 8.615371704101562 8.594009399414062 8.383438110351562 7.8951416015625
        7.303077697753906 6.369209289550781 5.294960021972656 3.7965011596679688 1.9959105253219604 1.019317626953125
        1.071197509765625 1.3306045532226562 1.3824920654296875 1.3122941255569458 1.4343719482421875 1.6510543823242188
        1.7395553588867188 1.88299560546875 2.3499221801757812 2.6184844970703125 2.3468704223632812 2.4414825439453125
        2.3285598754882812 2.3682327270507812 3.204444646835327 3.6591720581054688 3.5462493896484375 3.7751388549804688
        3.976562261581421 4.269538879394531 4.205451965332031 3.91552734375 3.9185791015625 3.2166519165039062
        2.2614214420318604 1.94097900390625 2.014220952987671 2.334663152694702 2.5666046142578125 2.6612167358398438
        2.783287286758423 3.286842107772827 3.836174249649048 4.2024006843566895 4.483170032501221 4.7975077629089355
        4.773094177246094 3.2532730102539062 2.05694580078125 1.8372114896774292 1.9775999784469604 2.3773956298828125
        3.085418462753296 3.2502212524414062 3.082366943359375 2.3651809692382812 1.93182373046875 2.1790237426757812
        2.8077011108398438 2.6581649780273438 2.890106201171875 3.4485929012298584 3.4485931396484375 3.2898941040039062
        3.2746353149414062 3.118988037109375 3.076263427734375 3.094573974609375 3.1586685180664062 3.5279388427734375
        4.080322265625 4.715110778808594 5.368202209472656 5.810722351074219 6.04876708984375 5.829032897949219
        4.953155517578125 3.897216796875 4.0101318359375 4.217658996582031 4.3946685791015625 4.855491638183594
        4.287849426269531 3.7385177612304688 3.4363861083984375 2.7527694702148438 1.449630856513977 0.8484115600585938
        1.9379273653030396 2.1485061645507812 4.898224353790283 9.90936279296875 13.690605163574219 13.583785057067871
        10.730308532714844 8.224738121032715 8.233894348144531 11.929686546325684 15.680412292480469 17.889955520629883
        13.650931358337402 2.8321151733398438 2.4964141845703125 2.1942825317382812 4.602188587188721 6.4272003173828125
        6.704917907714844 7.116912841796875 7.657096862792969 8.261360168457031 8.536026000976562 8.468887329101562
        8.224739074707031 8.249153137207031 8.655052185058594 9.201332092285156 9.558395385742188 9.479049682617188
        9.021270751953125 8.572647094726562 8.279670715332031 7.9561767578125 7.535019397735596 7.217628479003906
        7.144386291503906 7.269508361816406 7.495346546173096 7.644889831542969 7.4648284912109375 7.2847676277160645
        6.06097412109375 6.07318115234375 6.253242492675781 6.295967102050781 6.311225891113281 6.3875274658203125
        6.5492706298828125 7.104706287384033 8.0263671875 8.777122497558594 9.131141662597656 9.173866271972656
        9.131141662597656 9.469894409179688 9.96429443359375 9.500411987304688 8.465835571289062 7.827995300292969
        7.687614440917969 7.809684753417969 8.0782470703125 8.346809387207031 8.279670715332031 7.959228515625
        7.9287109375 8.212532043457031 8.554336547851562 8.783226013183594 8.975494384765625 9.28678035736084
        9.604172706604004 9.698782920837402 9.308144569396973 8.484146118164062 7.791374206542969 7.254249572753906
        6.720177173614502 5.703910827636719 3.7751388549804688 1.8677291870117188 1.010162353515625 1.071197509765625
        1.3824920654296875 1.449630856513977 1.4923553466796875 1.6388473510742188 1.6968307495117188 1.8646774291992188
        2.2248003482818604 2.4658966064453125 2.3407669067382812 2.114928960800171 2.3377151489257812 2.3590774536132812
        2.993865966796875 3.4485933780670166 3.5493011474609375 3.8544845581054688 3.769035577774048 3.6988446712493896
        3.2715835571289062 3.234962224960327 3.4394378662109375 3.3173599243164062 3.1281509399414062 2.7283554077148438
        2.3987579345703125 2.5818634033203125 2.8412704467773438 3.094573974609375 3.2654800415039062 3.6042327880859375
        4.1016845703125 4.4007720947265625 4.5197906494140625 4.739524841308594 4.690697193145752 3.8422775268554688
        2.807701349258423 2.1668167114257812 2.09051513671875 2.1546096801757812 2.7069931030273438 3.2136001586914062
        3.2807388305664062 2.8046493530273438 2.5330352783203125 2.8534774780273438 3.2166519165039062 2.948089838027954
        3.061004638671875 3.5340423583984375 3.5737152099609375 3.5431976318359375 3.5157318115234375 3.4272308349609375
        3.2227554321289062 3.042694091796875 2.880951166152954 2.926727294921875 3.2654800415039062 3.833122491836548
        4.641868591308594 5.072174072265625 5.188148498535156 5.063018798828125 4.901275634765625 4.712059020996094
        4.303108215332031 3.5309908390045166 3.6256024837493896 4.242073059082031 4.0223388671875 3.5279388427734375
        3.064056396484375 2.3743438720703125 1.434372067451477 1.2543106079101562 2.3316116333007812 2.2400588989257812
        3.6317062377929688 8.081299781799316 10.492263793945312 9.533981323242188 7.3213887214660645 6.802574157714844
        7.843254566192627 10.406814575195312 13.037505149841309 14.590896606445312 10.290840148925781 4.0528564453125
        2.1546096801757812 1.5808563232421875 4.4282379150390625 6.881927490234375 7.205421447753906 6.939910888671875
        7.248146057128906 8.124031066894531 8.786277770996094 8.966339111328125 8.780174255371094 8.716087341308594
        8.932769775390625 9.292885780334473 9.540085792541504 9.411911010742188 8.871726989746094 8.163703918457031
        7.644889831542969 7.5197601318359375 7.5594329833984375 7.4922943115234375 7.4221038818359375 7.5746917724609375
        7.950072765350342 8.346810340881348 8.359016418457031 7.782218933105469 5.154579162597656 5.98468017578125
        6.8636088371276855 7.162696361541748 6.7476420402526855 6.463821887969971 6.390578746795654 6.628624439239502
        7.040618896484375 7.419052600860596 7.721183776855469 7.895141124725342 8.0721435546875 8.841209411621094
        9.625541687011719 9.408859252929688 8.789329528808594 8.456680297851562 8.352912902832031 8.270515441894531
        8.124031066894531 7.840202331542969 7.4495697021484375 7.150489807128906 7.1504902839660645 7.3824310302734375
        7.745597839355469 8.136238098144531 8.420059204101562 8.746604919433594 9.30509090423584 9.729301452636719
        9.677421569824219 9.17386531829834 8.499404907226562 7.803581237792969 7.208473205566406 6.698814392089844
        5.722221374511719 3.7629318237304688 1.6388473510742188 0.8148422241210938 1.1230850219726562 1.2848281860351562
        1.3245010375976562 1.4618377685546875 1.6266403198242188 1.7487105131149292 1.98370361328125 2.1576614379882812
        2.3194046020507812 2.6490097045898438 2.6490097045898438 2.6062774658203125 2.6673202514648438 3.1373062133789062
        3.7690353393554688 4.318367004394531 3.9063720703125 3.3753509521484375 2.8534774780273438 2.993865966796875
        3.088470697402954 2.8717877864837646 3.079315185546875 3.1769793033599854 2.8412704467773438 2.7619247436523438
        2.935882329940796 3.1769790649414062 3.3082046508789062 3.5706634521484375 4.06201171875 4.321418762207031
        4.5472564697265625 4.696800231933594 4.4862213134765625 4.153572082519531 3.4608001708984375 2.6062777042388916
        2.2003860473632812 2.11798095703125 2.4109652042388916 2.6337509155273438 2.624595880508423 2.917572021484375
        3.332618474960327 3.6133880615234375 3.5187835693359375 3.5340423583984375 3.796501398086548 4.138313293457031
        3.8636398315429688 3.8300704956054688 3.7568283081054688 3.6591720581054688 3.2837905883789062 2.935882568359375
        2.7192001342773438 2.6337509155273438 3.048797607421875 3.5889739990234375 3.906371831893921 4.2054524421691895
        4.718162536621094 5.096588134765625 5.212562561035156 5.044708251953125 4.705955505371094 4.168830871582031
        3.891113042831421 4.165779113769531 4.4740142822265625 4.141365051269531 3.1647720336914062 2.2919387817382812
        1.9409791231155396 1.8250044584274292 1.89520263671875 1.9531859159469604 2.3865509033203125 3.903320074081421
        4.770042419433594 4.995880126953125 5.7435832023620605 8.06298828125 10.461746215820312 11.664176940917969
        12.509535789489746 12.918487548828125 11.294898986816406 7.077239990234375 2.6764755249023438 3.6866378784179688
        6.912445068359375 7.007049083709717 6.360054016113281 6.03656005859375 6.546218395233154 7.446518421173096
        8.291877746582031 8.734397888183594 8.841209411621094 8.929718017578125 9.033477783203125 8.990753173828125
        8.764915466308594 8.371223449707031 7.852409362792969 7.4129486083984375 7.315284252166748 7.583846569061279
        7.9256591796875 8.0233154296875 7.9866943359375 8.0355224609375 8.136238098144531 8.301033020019531
        8.432266235351562 8.160652160644531 4.632713317871094 5.093536376953125 5.832084655761719 6.4668731689453125
        6.637779235839844 6.4485626220703125 6.341743469238281 6.2501912117004395 6.146430969238281 6.4516143798828125
        6.741539001464844 6.842247009277344 7.220680236816406 8.163703918457031 8.81374454498291 8.865623474121094
        8.795433044433594 8.929717063903809 9.106719970703125 9.262368202209473 8.990753173828125 8.05078125
        7.095550537109375 6.756797790527344 6.949066162109375 7.199317932128906 7.4556732177734375 7.727287292480469
        7.840202331542969 8.0233154296875 8.456680297851562 8.85952091217041 8.993804931640625 8.825950622558594
        8.307136535644531 7.666252136230469 7.1840596199035645 6.976531982421875 6.775108814239502 5.850395202636719
        3.6957931518554688 1.5503387451171875 0.8026351928710938 0.8667221069335938 0.982696533203125 1.1261367797851562
        1.3702772855758667 1.5411834716796875 1.5900115966796875 1.7792282104492188 2.3102495670318604 2.1759719848632812
        2.2461624145507812 2.8260116577148438 2.7985458374023438 3.5004730224609375 4.281745910644531 4.739524841308594
        4.5991363525390625 3.6439130306243896 3.2380142211914062 3.1586685180664062 3.070159912109375 2.890106201171875
        2.719200372695923 2.7558212280273438 2.7283551692962646 2.5879669189453125 2.6673202514648438 3.1922378540039062
        3.3753509521484375 3.5950775146484375 4.0894775390625 4.260383129119873 4.531998157501221 4.5258941650390625
        3.946044921875 3.5828704833984375 3.067108154296875 2.3438186645507812 1.9379273653030396 2.02947998046875
        2.6001739501953125 3.1983413696289062 3.3143081665039062 3.7202072143554688 4.019287109375 3.927734375
        3.9613037109375 4.1199951171875 4.635765552520752 4.779197692871094 4.0528564453125 3.6744308471679688
        3.4119720458984375 3.112884521484375 2.7588729858398438 2.7436141967773438 2.7130966186523438 2.7222518920898438
        3.2319107055664062 3.7903976440429688 3.6194915771484375 3.4730069637298584 3.5767669677734375 4.0101318359375
        4.699851989746094 5.041656494140625 4.867698669433594 4.687644958496094 4.5381011962890625 4.400771617889404
        4.235969543457031 4.1199951171875 3.8209152221679688 3.118988037109375 2.4628448486328125 2.1515579223632812
        1.8524702787399292 1.5228729248046875 1.3000869750976562 1.2970352172851562 1.4923553466796875 2.8321151733398438
        5.91754150390625 8.487197875976562 9.97344970703125 12.106689453125 14.06292724609375 14.658042907714844
        11.835075378417969 4.467911243438721 1.8860472440719604 6.03350830078125 8.081298828125 6.5523223876953125
        4.861595153808594 5.3895721435546875 6.671349048614502 7.5228118896484375 8.261360168457031 8.77407169342041
        8.960234642028809 8.825950622558594 8.496353149414062 7.9500732421875 7.330543518066406 6.906341552734375
        6.7140727043151855 6.784264087677002 7.190162658691406 7.681510925292969 8.01416015625 8.270515441894531
        8.658103942871094 9.140296936035156 9.323402404785156 8.832054138183594 7.940917491912842 7.3061299324035645
        5.90533447265625 5.151527404785156 4.6082916259765625 4.4221343994140625 4.5716705322265625 5.032501220703125
        5.4506072998046875 5.648979187011719 5.98468017578125 6.286811828613281 6.4851837158203125 6.4729766845703125
        6.5889434814453125 7.229835510253906 7.757804870605469 8.020263671875 8.197273254394531 8.667259216308594
        9.326454162597656 9.793389320373535 9.820854187011719 9.073151588439941 7.785270690917969 7.010101318359375
        7.101654529571533 7.4007415771484375 7.5868988037109375 7.699821472167969 7.754753112792969 7.947021484375
        8.169807434082031 8.130134582519531 8.05078125 7.885986328125 7.5014495849609375 7.092498779296875
        6.878876209259033 6.863609313964844 6.848351001739502 6.4088897705078125 5.2674946784973145 3.643913507461548
        2.05389404296875 1.4801483154296875 1.6541061401367188 1.5472869873046875 1.3733367919921875 1.3214493989944458
        1.2909318208694458 1.1505509614944458 1.3977508544921875 2.01116943359375 2.5330350399017334 2.887054443359375
        3.1922378540039062 3.805656671524048 4.126106262207031 4.190193176269531 4.168830871582031 3.1830825805664062
        3.1891860961914062 3.253272771835327 3.1250994205474854 2.7039413452148438 2.3285598754882812 2.1820755004882812
        2.01727294921875 2.09661865234375 2.04779052734375 2.4262237548828125 2.6764755249023438 3.2380142211914062
        3.982666015625 4.239021301269531 4.4679107666015625 4.281745910644531 3.6256027221679688 2.874847650527954
        2.2461624145507812 1.8311080932617188 1.8341599702835083 2.2949905395507812 3.3600845336914062 3.842277765274048
        3.7873456478118896 4.019287109375 4.150520324707031 4.153572082519531 4.4618072509765625 4.684593200683594
        5.096588134765625 4.861595630645752 3.8941650390625 3.3326187133789062 3.1250991821289062 2.917572021484375
        2.798546075820923 2.884002685546875 2.969451904296875 3.140357732772827 3.4516448974609375 3.7171554565429688
        3.5218355655670166 3.5065765380859375 3.5035247802734375 3.4730072021484375 3.7110519409179688 4.190193176269531
        4.297004699707031 4.126106262207031 4.11083984375 4.315315246582031 4.281745910644531 3.698845148086548
        3.085418462753296 2.7375106811523438 2.3773956298828125 2.07830810546875 1.7639694213867188 1.3672256469726562
        0.997955322265625 0.8545150756835938 0.6897201538085938 2.8595809936523438 5.777153491973877 5.780205249786377
        5.6123504638671875 9.744560241699219 14.792320251464844 16.806541442871094 16.083251953125 10.180976867675781
        6.07318115234375 7.312232971191406 8.493301391601562 7.6052093505859375 4.361091613769531 4.837181091308594
        6.677452087402344 7.94091796875 8.664207458496094 8.655052185058594 8.230843544006348 7.708976745605469
        7.287818908691406 6.811729431152344 6.289863586425781 6.02740478515625 6.167793273925781 6.6133575439453125
        7.101654052734375 7.4037933349609375 7.5991058349609375 7.873779773712158 8.227790832519531 8.722190856933594
        9.155555725097656 9.045684814453125 7.9561767578125 6.567580699920654 8.096556663513184 6.747642517089844
        5.3956756591796875 4.6174468994140625 4.510634899139404 4.931793212890625 5.4170379638671875 5.6001434326171875
        6.03961181640625 6.430251598358154 6.869712829589844 6.796470642089844 6.4577178955078125 6.964325428009033
        7.4434661865234375 7.608260631561279 7.669303894042969 8.175910949707031 9.045684814453125 9.631644248962402
        9.610274314880371 9.106719970703125 8.355964660644531 7.846306324005127 7.812736511230469 8.0477294921875
        8.105712890625 7.824943542480469 7.654045104980469 7.840202331542969 7.9195556640625 7.708976745605469
        7.5258636474609375 7.266456604003906 6.903290271759033 6.5736846923828125 6.4851837158203125 6.4424591064453125
        6.1281208992004395 5.5360565185546875 4.8219218254089355 4.269538879394531 3.5309908390045166 3.018280029296875
        2.984710931777954 2.6886825561523438 2.1301956176757812 1.7151412963867188 1.4313201904296875 1.086456298828125
        1.2512588500976562 2.4231719970703125 2.847374200820923 2.5360870361328125 2.941986083984375 3.3356704711914062
        3.5279388427734375 3.5065765380859375 3.4394378662109375 2.8534774780273438 2.926727294921875 3.2929458618164062
        3.4852142333984375 2.5055694580078125 2.163764715194702 1.7914352416992188 1.489303469657898 1.7426071166992188
        1.5411834716796875 2.3590774536132812 2.7497177124023438 2.8656845092773438 3.5737152099609375 3.900268316268921
        4.0406494140625 4.007080078125 3.866691827774048 2.5757598876953125 1.90740966796875 1.9379273653030396
        2.2278518676757812 2.7405624389648438 3.4760589599609375 3.3875579833984375 3.3997652530670166 3.6469647884368896
        3.7965011596679688 3.982666015625 4.1932454109191895 4.303108215332031 4.5594635009765625 4.333625316619873
        3.769035577774048 3.3539810180664062 3.012176513671875 2.7802352905273438 2.7283554077148438 2.8382186889648438
        3.097625732421875 3.4791107177734375 3.7049484252929688 3.6835858821868896 3.5340423583984375 3.4150238037109375
        3.3997647762298584 3.3448257446289062 3.3814547061920166 3.7080001831054688 4.193244934082031 4.367195129394531
        4.3916168212890625 4.4892730712890625 4.370246410369873 4.0009765625 3.4516446590423584 2.926727294921875
        2.4689483642578125 2.10577392578125 1.7212446928024292 1.2482070922851562 0.6988754272460938 0.3784332573413849
        0.6500473022460938 2.6612167358398438 3.6988449096679688 2.11798095703125 1.4740447998046875 4.812767028808594
        10.190132141113281 14.590895652770996 17.001861572265625 16.772972106933594 11.9327392578125 8.539077758789062
        8.929718017578125 9.338662147521973 6.03656005859375 4.327522277832031 5.4963836669921875 7.721183776855469
        8.633689880371094 7.693717956542969 6.3936309814453125 5.810722351074219 6.02130126953125 6.2807087898254395
        6.1403279304504395 6.030456066131592 6.292915344238281 6.689659118652344 6.933807373046875 6.942963123321533
        6.845298767089844 6.802574157714844 6.936859607696533 7.257300853729248 7.6052093505859375 7.852409362792969
        7.693717956542969 7.184059143066406 8.972442626953125 8.145393371582031 7.2420430183410645 6.6988139152526855
        6.3783721923828125 6.4058380126953125 6.5034942626953125 6.4943389892578125 6.640830993652344 6.823936462402344
        6.994843006134033 6.750694274902344 6.695762634277344 7.254249095916748 7.687614440917969 7.4556732177734375
        7.107758045196533 7.419052600860596 8.322394371032715 9.106719017028809 9.344764709472656 9.137245178222656
        8.700828552246094 8.380386352539062 8.529922485351562 9.067047119140625 9.302040100097656 8.816794395446777
        8.279670715332031 8.380386352539062 8.703880310058594 8.819847106933594 8.816795349121094 8.505508422851562
        7.803581237792969 7.159644603729248 6.900238513946533 6.814781188964844 6.4485626220703125 5.5238494873046875
        4.4007720947265625 3.9552001953125 3.8117599487304688 3.3997650146484375 2.990814208984375 2.728355646133423
        2.5696563720703125 2.3957061767578125 2.12103271484375 1.6205291748046875 1.7242966890335083 2.3804476261138916
        2.5116727352142334 2.4140167236328125 2.5452425479888916 2.7375106811523438 3.030487060546875 3.2746353149414062
        2.938934564590454 2.7680280208587646 2.905364990234375 3.2959976196289062 3.6561203002929688 2.6673202514648438
        2.1607131958007812 1.7456588745117188 1.5778045654296875 1.94708251953125 1.6846237182617188 2.1698684692382812
        2.8412704467773438 3.2471694946289062 3.6011810302734375 3.3509292602539062 3.2746353149414062 3.680534601211548
        4.290900707244873 3.2685317993164062 2.1942827701568604 2.3316116333007812 2.5482940673828125 3.061004638671875
        3.8666915893554688 3.8331222534179688 3.646965265274048 3.6286544799804688 3.634758234024048 3.6927413940429688
        3.8270187377929688 3.6256027221679688 3.6652753353118896 3.6957931518554688 3.936889886856079 3.946044921875
        3.6133880615234375 2.963348388671875 2.5177767276763916 2.3407669067382812 2.6581649780273438 3.1922378540039062
        3.5645599365234375 3.7324142456054688 3.723259210586548 3.4241790771484375 3.231910467147827 3.216651678085327
        3.292945623397827 3.4089200496673584 3.5859222412109375 3.6530685424804688 3.7110519409179688 3.8697431087493896
        3.875854730606079 3.6439132690429688 3.2807388305664062 2.874847650527954 2.3926544189453125 1.90740966796875
        1.4679412841796875 0.964385986328125 0.5706939697265625 1.092559814453125 1.6205291748046875 2.1332473754882812
        1.6418991088867188 0.19532012939453125 0.9521788954734802 0.872833251953125 4.4099273681640625 9.591964721679688
        13.99273681640625 14.465774536132812 9.472946166992188 7.434310436248779 8.413955688476562 10.235908508300781
        9.158607482910156 5.89923095703125 4.803611755371094 6.802574157714844 7.5624847412109375 6.5706329345703125
        5.319374084472656 5.3987274169921875 6.256294250488281 6.277656555175781 5.713066101074219 5.4048309326171875
        5.618454456329346 6.137275695800781 6.4729766845703125 6.488234996795654 6.164741516113281 6.073180675506592
        6.4272003173828125 7.290870666503906 8.392593383789062 9.234901428222656 9.454635620117188 8.539076805114746
        8.502456665039062 8.105712890625 7.3488545417785645 6.830039978027344 6.628623962402344 6.5218048095703125
        6.3997344970703125 6.4668731689453125 6.674400329589844 6.720176696777344 6.3081746101379395 6.07623291015625
        6.521805286407471 7.2817158699035645 7.760856628417969 7.5167083740234375 6.701866149902344 6.601150989532471
        7.4465179443359375 8.420059204101562 8.890045166015625 8.706931114196777 8.188117980957031 7.8768310546875
        7.983642578125 8.328498840332031 8.548233032226562 8.529922485351562 8.514663696289062 8.78017520904541
        9.118927955627441 9.295936584472656 9.414962768554688 9.570602416992188 9.482101440429688 9.042632102966309
        8.438369750976562 7.861565113067627 7.351905822753906 6.3966827392578125 4.791404724121094 3.6805343627929688
        3.3845064640045166 3.076263189315796 2.6490097045898438 2.5208280086517334 2.6673202514648438 2.7619247436523438
        2.7436141967773438 2.3194046020507812 2.1576614379882812 2.1973342895507812 2.06304931640625 2.1576614379882812
        2.1881790161132812 2.6764755249023438 2.8077011108398438 2.8687362670898438 2.7283554077148438 3.1586685180664062
        3.3936614990234375 3.4211270809173584 3.677482843399048 2.7954938411712646 1.95318603515625 1.9196165800094604
        1.425216555595398 2.5910186767578125 2.7802352905273438 2.3773956298828125 2.5177764892578125 2.887054443359375
        3.2349624633789062 3.3417739868164062 3.5096280574798584 3.8422775268554688 4.3763580322265625 4.293952941894531
        2.6612164974212646 2.5635526180267334 2.8534772396087646 2.923675537109375 3.6225509643554688 3.7659835815429688
        3.7842941284179688 3.8819580078125 3.6713788509368896 3.6225509643554688 3.775139093399048 3.5584564208984375
        3.6042327880859375 3.5493011474609375 3.5767669677734375 3.5645599365234375 3.5279388427734375 2.7192001342773438
        2.3468706607818604 2.06610107421875 2.2431106567382812 2.813804864883423 3.103729248046875 3.3967132568359375
        3.5889737606048584 3.2593765258789062 2.902313232421875 2.8046493530273438 2.7588729858398438 2.8626327514648438
        3.1800308227539062 3.3967132568359375 3.3539810180664062 3.1586685180664062 2.948089599609375 2.7802352905273438
        2.5971221923828125 2.352973699569702 2.044739007949829 1.7395553588867188 1.4160614013671875 0.991851806640625
        1.2054824829101562 2.7253036499023438 3.5767669677734375 3.5401456356048584 3.3967132568359375 1.5472869873046875
        1.028472900390625 1.3306045532226562 2.6337509155273438 5.4689178466796875 8.569595336914062 7.892090320587158
        4.6052398681640625 5.258338928222656 5.825981140136719 8.825950622558594 11.9052734375 11.819816589355469
        10.08636474609375 8.954132080078125 9.067047119140625 9.619430541992188 9.94293212890625 10.657065391540527
        10.486160278320312 8.285774230957031 7.309181213378906 7.4434661865234375 6.3814239501953125 5.798515319824219
        5.94500732421875 5.859550476074219 5.801567077636719 5.5818328857421875 5.246131420135498 6.289863586425781
        8.508560180664062 10.907318115234375 12.912384986877441 13.602096557617188 8.084349632263184 7.4190521240234375
        6.906341552734375 6.6011505126953125 6.4943389892578125 6.4546661376953125 6.344795227050781 6.237983226776123
        6.292914867401123 6.393630504608154 6.1769490242004395 6.222724914550781 6.445511341094971 7.193213939666748
        7.5716400146484375 7.5563812255859375 7.019256591796875 6.732383728027344 7.321387767791748 8.182014465332031
        8.368171691894531 8.01416015625 7.5502777099609375 7.278663158416748 7.196266174316406 7.196266174316406
        7.281714916229248 7.599106311798096 7.962280750274658 8.285774230957031 8.578751564025879 8.874786376953125
        9.109771728515625 9.329505920410156 9.573654174804688 9.625540733337402 9.326454162597656 8.758810997009277
        8.212532043457031 7.263404846191406 5.6123504638671875 4.0894775390625 3.4241793155670166 3.3600845336914062
        3.2258071899414062 2.8260116577148438 2.4536895751953125 2.2766799926757812 2.4414825439453125 2.3682327270507812
        1.9592894315719604 1.7761763334274292 1.486251711845398 1.602218508720398 1.87994384765625 2.09051513671875
        2.3377151489257812 2.4170684814453125 2.4781036376953125 3.015228033065796 3.2990493774414062 3.2471694946289062
        3.958251953125 3.8361740112304688 2.6032254695892334 1.6968307495117188 1.5228729248046875 2.1881790161132812
        2.11187744140625 1.93487548828125 1.94403076171875 2.8382184505462646 2.5116729736328125 2.5269317626953125
        3.1281509399414062 3.7781906127929688 4.712059020996094 4.766990661621094 2.917572021484375 2.3255081176757812
        3.012176275253296 3.2502212524414062 3.7659835815429688 4.190193176269531 4.03759765625 3.8941650390625
        3.6378097534179688 3.6866378784179688 3.9979248046875 4.2268147468566895 4.141365051269531 3.6713790893554688
        3.1708755493164062 2.8260116577148438 2.7161483764648438 2.3834991455078125 2.1881790161132812 2.2278518676757812
        2.4018099308013916 2.6764755249023438 2.8260116577148438 3.027435302734375 3.2136001586914062 3.1556167602539062
        2.908416748046875 2.6184844970703125 2.3621292114257812 2.3651809692382812 2.5818634033203125 3.003021240234375
        3.3875577449798584 3.3875579833984375 3.054901123046875 2.7344586849212646 2.5391390323638916 2.2858352661132812
        1.98065185546875 1.6876754760742188 1.4343719482421875 1.092559814453125 1.034576416015625 2.1637649536132812
        2.951141357421875 3.3021011352539062 3.6713790893554688 2.4445343017578125 1.565597414970398 1.6602096557617188
        2.3834991455078125 3.2807390689849854 4.367195129394531 4.4404449462890625 3.7141034603118896 4.443497180938721
        4.8341288566589355 6.4058380126953125 10.229804992675781 13.644827842712402 14.557327270507812 13.724174499511719
        12.866600036621094 12.02734375 12.613296508789062 14.307075500488281 14.584793090820312 13.90728759765625
        14.578689575195312 14.02020263671875 10.229804992675781 4.879913330078125 2.932830810546875 3.8300704956054688
        4.773094177246094 4.730369567871094 4.4465484619140625 4.5564117431640625 5.658134460449219 7.8340983390808105
        10.666221618652344 13.498336791992188 8.581802368164062 7.928710460662842 7.190162658691406 6.4302520751953125
        6.09454345703125 6.335639953613281 6.5523223876953125 6.302070617675781 6.09759521484375 6.213569641113281
        6.317329406738281 6.5218048095703125 6.961272716522217 7.260352611541748 6.866661071777344 6.5553741455078125
        6.369208812713623 6.457718372344971 7.016204833984375 7.760856628417969 7.791374206542969 7.574692249298096
        7.333595275878906 7.113860607147217 7.040618896484375 7.019256114959717 7.110809326171875 7.290870666503906
        7.296974182128906 7.190162658691406 7.306129455566406 7.754753589630127 8.313240051269531 8.755760192871094
        9.097564697265625 9.247108459472656 9.006011962890625 8.444473266601562 7.858512878417969 7.2237324714660645
        6.360054016113281 5.2552876472473145 4.458755970001221 4.2085041999816895 3.9429931640625 3.4608001708984375
        2.914520263671875 2.4109649658203125 2.2186965942382812 2.1942825317382812 1.6937789916992188 1.5686492919921875
        1.4099578857421875 1.4221649169921875 1.6632614135742188 1.8646775484085083 2.5116729736328125 3.048797607421875
        3.3051528930664062 3.6683273315429688 3.6530685424804688 3.7568283081054688 4.5716705322265625 4.422134876251221
        3.6469650268554688 2.2492141723632812 2.151557683944702 3.3204116821289062 3.4913177490234375 3.027435302734375
        3.042694091796875 3.4150235652923584 3.2807390689849854 3.5584564208984375 3.9002685546875 4.348884582519531
        5.4933319091796875 5.130165100097656 3.1891860961914062 2.1546096801757812 2.6123809814453125 3.3631365299224854
        3.827018976211548 4.3763580322265625 3.9185791015625 3.6774826049804688 3.6317062377929688 3.5737154483795166
        3.7415695190429688 4.144416809082031 4.1016845703125 3.4241790771484375 2.7100448608398438 2.7710800170898438
        2.877899169921875 2.899261474609375 2.6642684936523438 2.764976739883423 2.8077011108398438 2.6215362548828125
        2.6001739501953125 2.6734235286712646 2.8015975952148438 3.076263427734375 3.2807390689849854 3.1250991821289062
        2.7314071655273438 2.4506378173828125 2.3194046020507812 2.4781036376953125 2.7985458374023438 3.088470697402954
        3.073211669921875 2.8473739624023438 2.633751153945923 2.4323272705078125 2.1576614379882812 1.8372116088867188
        1.5167694091796875 1.3550186157226562 1.5106658935546875 1.3245010375976562 0.6592025756835938 0.28076934814453125
        0.5127105712890625 1.028472900390625 1.6541061401367188 1.8097457885742188 2.10272216796875 2.2980422973632812
        2.7741317749023438 3.5737152099609375 3.8666915893554688 4.165779113769531 4.876861572265625 5.3743133544921875
        6.219673156738281 9.500411987304688 12.988677978515625 14.194159507751465 12.359992027282715 8.996856689453125
        9.247108459472656 12.0975341796875 14.200263977050781 15.646842002868652 16.888946533203125 16.400650024414062
        15.253150939941406 13.693656921386719 10.336616516113281 5.084381103515625 4.370246887207031 4.6204986572265625
        4.4587554931640625 3.9735107421875 3.8331222534179688 4.821922302246094 6.927703857421875 9.683525085449219
        9.427170753479004 9.15860652923584 8.792381286621094 8.151496887207031 7.730339050292969 7.4526214599609375
        7.104705810546875 6.781211853027344 6.5309600830078125 6.1494832038879395 5.98773193359375 6.265449523925781
        7.052825450897217 7.257301330566406 6.5187530517578125 5.835136413574219 5.5940399169921875 5.859550476074219
        6.451614856719971 7.080292224884033 7.205420970916748 7.223731994628906 7.101654052734375 6.7781596183776855
        6.619460582733154 6.894134521484375 7.327491760253906 7.5167083740234375 7.379378795623779 7.116912841796875
        6.991790771484375 7.187110424041748 7.7059245109558105 8.145393371582031 8.471939086914062 8.822898864746094
        8.795433044433594 8.279670715332031 7.516708850860596 6.845298767089844 6.509598255157471 6.00604248046875
        5.236976623535156 4.5808258056640625 3.906371831893921 3.3051528930664062 2.920623779296875 2.6093289852142334
        2.5025177001953125 2.5208282470703125 2.11187744140625 1.91656494140625 2.1271438598632812 2.00201416015625
        1.5839080810546875 1.6449508666992188 2.2797317504882812 2.5391387939453125 2.5482943058013916 2.880951166152954
        3.3631362915039062 3.8453292846679688 4.4923248291015625 4.782249450683594 4.626610279083252 3.9490966796875
        2.2431106567382812 2.5086212158203125 3.3997650146484375 2.990814208984375 3.2868423461914062 3.5645599365234375
        3.6439132690429688 4.147468566894531 4.251228332519531 4.281745910644531 4.944000244140625 5.117950439453125
        3.7476730346679688 2.3102495670318604 2.6368026733398438 3.6317062377929688 3.985718011856079 4.629661560058594
        3.8544845581054688 3.2258071899414062 3.1586685180664062 3.2502212524414062 3.7690353393554688 4.1688313484191895
        4.0467529296875 3.87890625 3.4302823543548584 3.2868423461914062 3.7385177612304688 3.967407464981079
        3.7537763118743896 3.5401458740234375 3.2563250064849854 2.6795272827148438 2.5147247314453125 2.5116729736328125
        2.5574493408203125 2.7039413452148438 2.993865966796875 3.2227554321289062 3.1800308227539062 2.957244873046875
        2.7100448608398438 2.7222518920898438 2.7893905639648438 2.7497177124023438 2.7039413452148438 2.8321151733398438
        2.8687362670898438 2.6154327392578125 2.3743438720703125 2.06304931640625 1.525924801826477 1.90740966796875
        3.167823553085327 2.7344589233398438 0.985748291015625 0.9613342881202698 1.2329483032226562 1.037628173828125
        1.2512587308883667 1.4435272216796875 2.07525634765625 2.2186965942382812 2.264472723007202 2.06610107421875
        2.7100448608398438 3.723259210586548 4.4129791259765625 5.157630920410156 4.910430908203125 4.748680114746094
        7.89208984375 12.0792236328125 11.343727111816406 5.877869129180908 5.7527384757995605 8.246101379394531
        10.837120056152344 12.674338340759277 14.322334289550781 15.604110717773438 16.644798278808594 17.465744018554688
        16.599014282226562 8.960234642028809 2.902313470840454 3.109833002090454 3.250221014022827 3.939941644668579
        4.275642395019531 4.907379150390625 6.363105773925781 8.374282836914062 9.521774291992188 9.344765663146973
        9.247108459472656 9.225746154785156 9.106719970703125 8.600112915039062 8.0904541015625 7.962280750274658
        7.922607421875 7.205421447753906 6.360054016113281 6.11895751953125 6.3844757080078125 6.3386921882629395
        6.02435302734375 5.618454456329346 5.4139862060546875 5.594039440155029 6.140327453613281 6.704917907714844
        6.805626392364502 6.833091735839844 6.723228454589844 6.537064075469971 6.6042022705078125 7.095551013946533
        7.531967639923096 7.5899505615234375 7.4770355224609375 7.3763275146484375 7.266456604003906 7.144386291503906
        7.293922424316406 7.657096862792969 8.0050048828125 8.221687316894531 8.166755676269531 7.91650390625
        7.4922943115234375 6.875823974609375 6.369209289550781 6.167793273925781 5.859550476074219 4.806663513183594
        3.5279388427734375 2.8046493530273438 2.3896026611328125 2.03253173828125 2.06610107421875 2.4170682430267334
        2.7222516536712646 2.7405624389648438 2.7253036499023438 2.5879671573638916 1.94708251953125 1.7578660249710083
        1.4069061279296875 1.7334518432617188 2.3896026611328125 2.679527521133423 3.1830825805664062 3.659172296524048
        4.4099273681640625 5.157630920410156 5.2980122566223145 4.818870544433594 3.5767669677734375 3.024383544921875
        3.7659835815429688 3.7263107299804688 3.750725030899048 4.123054504394531 4.495376110076904 4.739525318145752
        4.5503082275390625 4.4526519775390625 4.226814270019531 4.4404449462890625 3.9521484375 2.5605010986328125
        2.877899169921875 3.9002685546875 4.510634899139404 5.038604736328125 4.242073059082031 3.115936279296875
        2.890106201171875 3.4211275577545166 3.9490966796875 3.906371831893921 3.9063720703125 4.019286632537842
        4.107787609100342 4.3763580322265625 4.6693339347839355 4.5228424072265625 4.5442047119140625 4.181037425994873
        3.5859222412109375 2.871788263320923 2.5849151611328125 2.5910186767578125 2.6642684936523438 2.7466659545898438
        2.8534774780273438 3.064056396484375 3.3631362915039062 3.4730069637298584 3.3845062255859375 3.3661880493164062
        3.2074966430664062 3.033538818359375 2.932830810546875 3.012176513671875 2.987762451171875 2.7375106811523438
        2.5666046142578125 2.6093292236328125 2.4170687198638916 2.954193115234375 3.906372308731079 3.7720870971679688
        2.1729202270507812 0.3784331977367401 1.5137176513671875 1.071197509765625 0.35401153564453125 2.04779052734375
        3.6225509643554688 3.7965011596679688 3.866691827774048 3.067108154296875 2.2553176879882812 3.2105484008789062
        3.9735107421875 4.6082916259765625 4.629661560058594 3.866691827774048 3.5493011474609375 7.312232971191406
        9.222694396972656 4.641868591308594 4.281745910644531 4.5930328369140625 5.340736389160156 6.4882354736328125
        9.002960205078125 12.80251407623291 16.0130615234375 17.465744018554688 17.191078186035156 11.670280456542969
        2.3651809692382812 2.8473739624023438 3.1922378540039062 3.994873285293579 4.803611755371094 5.6123504638671875
        6.778160572052002 8.325447082519531 8.346809387207031 8.362068176269531 8.578749656677246 8.908355712890625
        8.810691833496094 8.261361122131348 7.910400390625 8.197273254394531 8.532973289489746 8.288825988769531
        7.5563812255859375 6.875823974609375 6.3905792236328125 5.92364501953125 5.4536590576171875 5.130165100097656
        4.983673095703125 5.4933319091796875 6.109802722930908 6.283760070800781 6.186103820800781 6.201362609863281
        6.222724914550781 6.259345531463623 6.469925403594971 6.784263610839844 7.022308349609375 7.162696838378906
        7.1840596199035645 7.028411865234375 6.582839488983154 6.00299072265625 5.764945983886719 6.11895751953125
        6.561478137969971 6.622520923614502 6.375320911407471 6.09149169921875 5.822929382324219 5.667289733886719
        5.6123504638671875 5.5818328857421875 5.4384002685546875 4.754783630371094 3.3295669555664062 2.2217483520507812
        1.8494186401367188 1.8158491849899292 1.6937789916992188 1.532028317451477 1.8311082124710083 2.3957061767578125
        2.5940704345703125 2.5269317626953125 2.2980422973632812 2.3316116333007812 2.05999755859375 2.10577392578125
        2.3071975708007812 2.3438186645507812 2.7405624389648438 3.2197039127349854 4.123054504394531 4.922637939453125
        5.346839904785156 5.5055389404296875 4.766990661621094 3.903320550918579 3.860588312149048 4.1657795906066895
        4.242073059082031 4.5381011962890625 4.962310791015625 5.221717834472656 5.175941467285156 5.011138916015625
        4.281745910644531 4.318367004394531 4.406876087188721 3.4211270809173584 3.3875579833984375 3.9918212890625
        4.5258941650390625 4.5899810791015625 3.872802734375 2.8534772396087646 2.835167169570923 3.4302825927734375
        4.1138916015625 3.958252191543579 4.071166515350342 4.351936340332031 4.5106353759765625 4.611343860626221
        4.669334411621094 4.5075836181640625 4.629661560058594 4.443497180938721 3.6835858821868896 3.2654800415039062
        2.941986083984375 2.8015975952148438 2.6917343139648438 2.7649765014648438 2.899261474609375 2.975555419921875
        3.158668279647827 3.4241790771484375 3.6042327880859375 3.7080001831054688 3.5340423583984375 3.2715835571289062
        3.076263427734375 3.027435302734375 2.935882568359375 2.6947860717773438 2.5879666805267334 2.963348388671875
        3.115936279296875 3.2074966430664062 2.5910186767578125 1.8433151245117188 1.92266845703125 0.5798492431640625
        1.068145751953125 0.5615386962890625 1.025421142578125 2.3346633911132812 4.055908203125 5.569625377655029
        6.836143493652344 6.662193775177002 3.7507247924804688 2.7710800170898438 3.6133880615234375 4.345832824707031
        4.4434967041015625 3.921630859375 2.893158197402954 2.7222518920898438 4.715110778808594 3.3265151977539062
        2.6581649780273438 2.8626327514648438 2.6337509155273438 2.923675537109375 4.779197692871094 8.545181274414062
        13.21146297454834 16.34876251220703 17.294837951660156 16.858421325683594 11.89306640625 4.666282653808594
        3.109833002090454 4.6143951416015625 5.4200897216796875 5.996887683868408 7.028411865234375 8.215583801269531
        7.641838073730469 7.492293834686279 7.669303894042969 8.059937477111816 8.154549598693848 7.885986328125
        7.690666675567627 7.8707194328308105 8.221687316894531 8.685569763183594 8.825950622558594 8.279671669006348
        7.4373626708984375 6.6621928215026855 5.89923095703125 5.169837951660156 4.5747222900390625 4.876861572265625
        5.386519908905029 5.5543670654296875 5.679496765136719 5.868705749511719 6.05487060546875 6.189155578613281
        6.146430492401123 6.09759521484375 6.4119415283203125 6.921600341796875 7.052825927734375 6.698814392089844
        6.271553039550781 6.00299072265625 5.798515319824219 5.7008585929870605 5.758842468261719 5.755791187286377
        5.682548522949219 5.710014343261719 5.98162841796875 6.201362133026123 5.97857666015625 5.5665740966796875
        5.371253967285156 5.368202209472656 4.944000244140625 3.6774826049804688 2.2919387817382812 1.6846237182617188
        1.5961151123046875 1.5320281982421875 1.385543942451477 1.5137176513671875 1.6357955932617188 1.5930633544921875
        1.5411834716796875 1.3611221313476562 1.1719131469726562 1.7029341459274292 2.3102493286132812 2.1698684692382812
        2.6886825561523438 3.051849365234375 3.4272310733795166 4.156623840332031 4.913482666015625 5.465865612030029
        5.038604259490967 4.248176574707031 4.062011241912842 4.4648590087890625 4.959259033203125 5.429244518280029
        5.645927429199219 5.825981140136719 5.87786865234375 5.8046183586120605 5.072174072265625 4.5899810791015625
        4.5411529541015625 3.7049484252929688 3.7385177612304688 4.2146077156066895 4.348884582519531 3.958251953125
        3.4974215030670166 3.1342544555664062 3.4089205265045166 3.958251953125 4.205451965332031 4.0345458984375
        4.229866027832031 4.5655670166015625 4.4923248291015625 4.553360462188721 4.501479625701904 4.223762512207031
        4.211555480957031 4.220710277557373 3.5676116943359375 3.5126800537109375 3.3875579833984375 3.198341131210327
        2.896209716796875 2.8077011108398438 2.6703720092773438 2.5605013370513916 2.7680282592773438 3.100677490234375
        3.4363861083984375 3.6988449096679688 3.7690351009368896 3.6469650268554688 3.3814544677734375 3.1586685180664062
        2.941986083984375 2.8015975952148438 2.990814208984375 3.2563247680664062 3.100677490234375 2.8687362670898438
        2.3468704223632812 1.90130615234375 2.04779052734375 1.1993788480758667 0.6225814819335938 0.830100953578949
        1.3824920654296875 1.92572021484375 3.164771795272827 4.715110778808594 6.143379211425781 7.193214416503906
        5.627617359161377 2.966400146484375 3.1739273071289062 3.933837890625 4.278694152832031 4.159675598144531
        3.6256027221679688 2.7130963802337646 2.4750516414642334 2.2461624145507812 1.1932754516601562 1.7151414155960083
        2.5727078914642334 3.6683273315429688 4.257331848144531 4.5991363525390625 6.775108337402344 10.364082336425781
        13.519699096679688 16.107666015625 17.215492248535156 15.063934326171875 10.324409484863281 5.438399791717529
        5.4445037841796875 5.771049499511719 6.06707763671875 6.677452087402344 7.766960144042969 8.078248023986816
        8.172859191894531 8.11181640625 7.733390808105469 7.724235534667969 7.681510925292969 7.715080261230469
        8.178962707519531 8.920562744140625 9.393600463867188 9.317298889160156 8.731346130371094 7.94091796875
        7.141334533691406 6.2440876960754395 5.240028381347656 4.342780590057373 4.135261535644531 4.330574035644531
        4.6174468994140625 4.977569580078125 5.258338928222656 5.365150451660156 5.5238494873046875 5.88702392578125
        6.448563098907471 6.982635498046875 7.153541564941406 7.019256591796875 7.058929443359375 7.238990783691406
        7.156593322753906 6.836143493652344 6.5736846923828125 6.656090259552002 7.022307872772217 7.5075531005859375
        7.9622802734375 8.301033020019531 8.200325965881348 7.480087757110596 6.854454040527344 6.665245532989502
        6.573685169219971 6.07318115234375 4.922637939453125 3.4730069637298584 1.8646774291992188 1.1444473266601562
        1.046783447265625 0.936920166015625 1.4282684326171875 1.8707809448242188 2.09661865234375 2.026428461074829
        1.5930633544921875 1.3031387329101562 1.8250045776367188 2.00811767578125 2.08441162109375 2.5360870361328125
        3.4150240421295166 4.019287109375 4.3580403327941895 4.858543395996094 4.263435363769531 3.8117599487304688
        4.132209777832031 4.5411529541015625 5.5696258544921875 6.06707763671875 6.183052062988281 6.4272003173828125
        6.292914867401123 6.08843994140625 5.725273609161377 5.359046936035156 5.224769592285156 4.672386169433594
        4.171882152557373 4.306159973144531 4.736473083496094 4.5930328369140625 3.8605880737304688 3.5126800537109375
        3.5950775146484375 3.921630859375 3.3234634399414062 3.2136001586914062 3.7751388549804688 4.0833740234375
        3.9765625 4.623558044433594 4.412978649139404 4.123054504394531 3.8544845581054688 3.9002685546875
        3.7751388549804688 3.634758234024048 3.6286544799804688 3.4638519287109375 3.3356704711914062 3.3112564086914062
        2.999969720840454 2.5269317626953125 2.5574493408203125 2.8199081420898438 3.118988275527954 3.4424896240234375
        3.7171554565429688 3.7049481868743896 3.3997652530670166 3.2197036743164062 3.2074966430664062 3.2654800415039062
        3.6805343627929688 3.6652753353118896 3.2136001586914062 2.6673202514648438 2.3285598754882812 2.4353790283203125
        2.3834991455078125 1.7426071166992188 1.449630856513977 1.7212449312210083 1.98675537109375 2.7008895874023438
        3.109833002090454 2.6551132202148438 3.097625732421875 4.5289459228515625 4.699851989746094 3.5004730224609375
        3.1250991821289062 3.3692398071289062 3.6072845458984375 3.8087081909179688 3.8483810424804688 3.5462493896484375
        2.969451904296875 2.3529739379882812 2.08135986328125 3.042694091796875 3.6927413940429688 4.333625793457031
        3.3021011352539062 2.02947998046875 2.00811767578125 4.153572082519531 8.569595336914062 13.150428771972656
        16.919464111328125 18.936737060546875 17.596969604492188 10.08941650390625 3.6561203002929688 5.011138916015625
        6.637779235839844 7.159644603729248 6.848351001739502 8.03857421875 8.874786376953125 8.987702369689941
        8.490249633789062 8.069091796875 7.660148620605469 7.5533294677734375 8.175910949707031 8.902252197265625
        9.317298889160156 9.515671730041504 9.488204002380371 9.140296936035156 8.587905883789062 7.9866943359375
        7.367164611816406 6.5523223876953125 5.716117858886719 4.977569580078125 4.593033313751221 4.4892730712890625
        4.5899810791015625 4.876861572265625 5.5909881591796875 6.372269153594971 6.698814392089844 6.646934509277344
        6.5858917236328125 6.765953063964844 7.028411865234375 7.147438049316406 7.065032958984375 7.016204833984375
        7.211524963378906 7.8188395500183105 8.581801414489746 9.085357666015625 9.265419006347656 9.125038146972656
        8.883941650390625 8.865623474121094 8.728294372558594 8.056884765625 7.385483264923096 6.939910888671875
        6.4210968017578125 5.899230480194092 5.008086681365967 3.7568283081054688 2.8717880249023438 2.6368026733398438
        2.984710693359375 3.5828704833984375 4.1199951171875 4.287848949432373 4.0772705078125 3.4394376277923584
        2.5086212158203125 1.8433151245117188 2.1790237426757812 2.8229596614837646 3.5248870849609375 3.8819580078125
        4.171882629394531 4.4923248291015625 4.3916168212890625 3.5981290340423584 3.9002685546875 4.190193176269531
        4.968414306640625 5.4567108154296875 5.92364501953125 6.4607696533203125 6.317329406738281 5.993835926055908
        5.761894226074219 5.444503307342529 5.133216857910156 4.931793212890625 4.6693339347839355 4.861595153808594
        5.154579162597656 4.837181568145752 4.293952941894531 4.06201171875 3.2319107055664062 3.1800308227539062
        3.2044448852539062 3.1922378540039062 3.079315185546875 3.2349627017974854 3.5187835693359375 4.272590160369873
        4.361091613769531 4.208503723144531 4.0589599609375 3.857536554336548 4.144416809082031 4.0467529296875
        3.869743585586548 3.4882659912109375 3.4119720458984375 3.2227554321289062 2.8382186889648438 2.5543975830078125
        2.7161483764648438 3.073211669921875 3.268531560897827 3.9185791015625 4.5808258056640625 4.358039855957031
        3.854484796524048 3.5676116943359375 3.5004727840423584 3.5096282958984375 3.5340423583984375 3.2044451236724854
        2.893157720565796 2.6368026733398438 2.4109647274017334 2.4231719970703125 2.2064895629882812 2.10882568359375
        2.2248001098632812 2.5391387939453125 3.5370941162109375 5.001983642578125 4.770042896270752 2.3773956298828125
        1.8677291870117188 2.5299835205078125 2.914520263671875 3.061004638671875 3.051849365234375 2.902313232421875
        2.941986322402954 3.2074966430664062 3.3784029483795166 3.5462496280670166 3.683586359024048 3.662224054336548
        3.5279388427734375 3.6378097534179688 3.3814544677734375 3.2044448852539062 2.5086212158203125 1.8524705171585083
        2.09967041015625 3.3204116821289062 5.5207977294921875 8.694725036621094 13.507493019104004 17.85637664794922
        19.977415084838867 19.132057189941406 14.535964965820312 8.417007446289062 4.678489685058594 5.3712544441223145
        5.95111083984375 7.019256591796875 7.962280750274658 8.221687316894531 7.959228515625 7.3732757568359375
        7.037567138671875 7.388534069061279 8.136237144470215 8.896148681640625 9.674368858337402 10.211494445800781
        10.364081382751465 10.071106910705566 9.573654174804688 9.109771728515625 8.658103942871094 8.322395324707031
        8.01416015625 7.770011901855469 7.4892425537109375 6.884978771209717 6.369208812713623 6.561478137969971
        7.171852111816406 7.4190521240234375 7.025360107421875 6.537063121795654 6.540115833282471 6.936858654022217
        7.202369689941406 7.2054219245910645 7.089447021484375 7.037567138671875 7.232887268066406 7.9287109375
        8.868675231933594 9.668266296386719 9.994811058044434 9.826957702636719 9.555343627929688 9.582809448242188
        9.866630554199219 9.869682312011719 9.421067237854004 9.164710998535156 9.152503967285156 9.048736572265625
        8.328498840332031 7.364112854003906 6.372268199920654 5.3895721435546875 4.882965087890625 5.023345947265625
        5.5269012451171875 6.10675048828125 6.3905792236328125 5.92669677734375 4.742576599121094 3.5676116943359375
        3.2776873111724854 3.4852142333984375 3.7965009212493896 4.263435363769531 4.4923248291015625 4.0284423828125
        4.150520324707031 3.4943695068359375 3.7446212768554688 4.0040283203125 4.06201171875 3.7537765502929688
        4.5289459228515625 5.4292449951171875 5.5635223388671875 5.3804168701171875 5.151527404785156 5.044708251953125
        4.6174468994140625 4.5411529541015625 5.017242431640625 5.484176158905029 5.734428405761719 5.4231414794921875
        4.666282653808594 4.068115234375 3.6988449096679688 3.3631362915039062 2.7314071655273438 2.7008895874023438
        3.076263427734375 3.5340423583984375 3.8758544921875 4.025390625 3.802604913711548 3.5706634521484375
        3.7049484252929688 3.9674072265625 4.104736328125 4.3916168212890625 4.0162353515625 3.3906097412109375
        3.1556167602539062 2.3926546573638916 1.89215087890625 1.91656494140625 2.2827835083007812 2.914520263671875
        3.3448257446289062 4.342781066894531 5.4353485107421875 4.913482666015625 3.7110519409179688 3.2349624633789062
        3.3722991943359375 3.3997647762298584 3.231910467147827 2.8717880249023438 2.5452423095703125 2.5513458251953125
        2.6337509155273438 2.6429061889648438 2.5330355167388916 2.4567413330078125 2.2492141723632812 2.3194046020507812
        3.5004730224609375 5.148475646972656 5.774101257324219 3.2105484008789062 1.5503387451171875 2.03558349609375
        2.2309038639068604 2.1698684692382812 2.1515579223632812 2.3896026611328125 2.5360870361328125 2.7314071655273438
        3.006072998046875 3.1739275455474854 3.4180755615234375 3.8331222534179688 4.043701171875 3.958251714706421
        3.5798187255859375 3.207496404647827 3.210548162460327 3.3387224674224854 3.4730072021484375 3.7934494018554688
        3.6500167846679688 4.870750427246094 8.456680297851562 12.86965274810791 16.2144832611084 18.808555603027344
        20.673240661621094 20.523696899414062 17.246009826660156 11.212501525878906 5.4841766357421875 5.859550476074219
        6.219673156738281 6.656089782714844 6.994842529296875 7.046721935272217 7.293922424316406 7.827995300292969
        8.542129516601562 9.186073303222656 9.88800048828125 10.345770835876465 10.605178833007812 10.675376892089844
        10.434280395507812 9.848320007324219 9.219642639160156 9.009063720703125 9.216590881347656 9.439376831054688
        9.298988342285156 8.981597900390625 8.951080322265625 9.234901428222656 9.381393432617188 8.877837181091309
        8.0050048828125 7.4068450927734375 7.4007415771484375 7.672355651855469 7.791374206542969 7.702873229980469
        7.5777435302734375 7.5624847412109375 7.7303385734558105 8.1148681640625 8.703880310058594 9.28678035736084
        9.588912963867188 9.680473327636719 9.99176025390625 10.538040161132812 10.928680419921875 11.011076927185059
        11.203346252441406 11.377304077148438 11.334571838378906 11.099578857421875 10.122993469238281 9.210487365722656
        8.673362731933594 7.4587249755859375 6.225776195526123 5.920593738555908 6.237983703613281 7.031463146209717
        7.5868988037109375 7.4831390380859375 6.579787731170654 5.5879364013671875 5.038605213165283 4.678489685058594
        4.538101673126221 4.892120838165283 5.127113342285156 4.800559997558594 4.3855133056640625 3.8056564331054688
        3.2441177368164062 3.5157315731048584 3.3478775024414062 3.4546966552734375 3.7965011596679688 4.330574035644531
        4.6174468994140625 4.727317810058594 4.5655670166015625 4.4160308837890625 3.970458984375 4.434340953826904
        5.4384002685546875 5.731376647949219 5.804618835449219 5.5269012451171875 4.989776611328125 4.5258941650390625
        4.0406494140625 3.946044921875 3.7385177612304688 3.7751388549804688 3.8148117065429688 3.210548162460327
        3.662224054336548 3.9124755859375 3.7049484252929688 3.5523529052734375 3.4333345890045166 3.8666915893554688
        3.9124755859375 3.6927413940429688 3.6347579956054688 3.1800308227539062 2.899261474609375 1.8433152437210083
        1.025421142578125 1.083404541015625 1.4618377685546875 2.3926546573638916 3.015228033065796 3.4150238037109375
        4.007080078125 3.4058685302734375 2.288886785507202 2.10272216796875 2.5635528564453125 2.893157958984375
        2.963348388671875 2.890106201171875 2.7527692317962646 2.7436141967773438 2.8656845092773438 2.969451904296875
        2.926727294921875 2.6886825561523438 2.2583694458007812 2.02642822265625 1.89825439453125 2.10882568359375
        2.899261474609375 2.1790237426757812 1.2604141235351562 1.8372116088867188 2.06610107421875 1.7181930541992188
        1.7181930541992188 2.10272216796875 2.3041458129882812 2.3804473876953125 2.7039413452148438 2.8168563842773438
        2.7832870483398438 2.996917724609375 3.1983413696289062 3.2929458618164062 3.4302825927734375 3.5004730224609375
        3.5004730224609375 3.3143081665039062 3.2593765258789062 3.2624282836914062 2.8260116577148438 2.7893905639648438
        3.6317062377929688 5.758842468261719 8.877838134765625 12.216559410095215 15.271461486816406 18.28058624267578
        20.777000427246094 21.475875854492188 4.742576599121094 4.5686187744140625 4.681541442871094 4.901275634765625
        5.233924865722656 5.4170379638671875 5.652030944824219 5.98468017578125 6.463820934295654 7.168800354003906
        7.91650390625 8.673362731933594 9.387496948242188 10.00701904296875 10.397659301757812 10.370185852050781
        10.00396728515625 9.659111022949219 9.653007507324219 9.906311988830566 10.162666320800781 10.370185852050781
        10.550247192382812 10.525833129882812 10.196235656738281 9.393600463867188 8.615371704101562 8.227790832519531
        8.209480285644531 8.374282836914062 8.432266235351562 8.371223449707031 8.331550598144531 8.328498840332031
        8.404800415039062 8.432266235351562 8.490249633789062 8.688621520996094 9.057891845703125 9.524826049804688
        10.03753662109375 10.489212036132812 10.760826110839844 10.953093528747559 11.270484924316406 11.374252319335938
        11.365089416503906 11.304054260253906 10.443435668945312 9.173866271972656 8.349861145019531 7.568587779998779
        6.939910888671875 6.720176696777344 6.698814392089844 7.229835510253906 7.4312591552734375 7.358009338378906
        7.110809326171875 6.884979248046875 6.5492706298828125 5.92669677734375 5.4811248779296875 5.6367716789245605
        5.829032897949219 5.6062469482421875 4.907379150390625 4.3946685791015625 3.9490966796875 3.7354657649993896
        3.4302825927734375 3.5950775146484375 3.903320550918579 4.263435363769531 3.9979248046875 4.184089660644531
        4.202400207519531 3.906371831893921 3.4730072021484375 4.0467529296875 5.069122314453125 5.117950439453125
        5.233924865722656 5.307167053222656 5.227820873260498 4.934845447540283 4.858543395996094 4.925689697265625
        4.995880126953125 5.111847400665283 5.279701232910156 4.754783630371094 4.870750427246094 4.5991363525390625
        3.8575363159179688 3.6866378784179688 4.129158020019531 4.626609802246094 4.0986328125 3.3082046508789062
        3.335670232772827 2.957244873046875 2.945037841796875 2.1851272583007812 1.004058837890625 0.8453598022460938
        1.3336563110351562 3.009124755859375 3.1617202758789062 2.6673202514648438 2.6825788021087646 2.05084228515625
        1.5381317138671875 1.6083221435546875 1.9257203340530396 2.2644729614257812 2.6001739501953125 2.8168563842773438
        2.908416509628296 2.951141357421875 2.8717880249023438 2.7832870483398438 2.6795272827148438 2.5666043758392334
        2.4964141845703125 2.5025177001953125 2.3346633911132812 2.08135986328125 1.92877197265625 1.5564422607421875
        1.2512588500976562 1.5472869873046875 1.7609176635742188 1.6327438354492188 2.04779052734375 2.2309038639068604
        2.01727294921875 1.9440308809280396 2.4445343017578125 2.6581649780273438 2.5452423095703125 2.5208282470703125
        2.7008895874023438 2.8595809936523438 2.987762451171875 3.1525650024414062 3.1434097290039062 2.874847412109375
        2.4414825439453125 2.3255081176757812 2.3896026611328125 2.4353790283203125 2.1515581607818604 2.6093292236328125
        4.025390625 5.6062469482421875 7.370216369628906 10.05584716796875 13.492233276367188 17.035430908203125
        6.854454040527344 5.1606831550598145 4.0772705078125 3.7018966674804688 3.7568283081054688 3.8514328002929688
        3.9552001953125 4.116943359375 4.531998157501221 5.087432861328125 5.786308288574219 6.4607696533203125
        7.168800354003906 7.9989013671875 8.923614501953125 9.814750671386719 10.376296997070312 10.394608497619629
        10.101622581481934 9.99176025390625 10.287788391113281 10.708946228027344 10.931732177734375 10.843223571777344
        10.290840148925781 9.518722534179688 9.067047119140625 9.076202392578125 9.082305908203125 8.871726036071777
        8.716087341308594 8.743553161621094 8.816795349121094 8.807640075683594 8.752708435058594 8.551284790039062
        8.392593383789062 8.572647094726562 9.115875244140625 9.659110069274902 9.90936279296875 9.94293212890625
        9.91546630859375 9.93682861328125 10.309150695800781 10.748619079589844 11.142312049865723 11.221656799316406
        10.663168907165527 9.234901428222656 7.690666198730469 6.723228454589844 6.653038024902344 6.927703857421875
        6.884979248046875 6.817832946777344 6.5553741455078125 6.5858917236328125 6.830039978027344 7.153541088104248
        7.159645080566406 6.653038024902344 6.08538818359375 5.975525379180908 6.131172180175781 6.137275695800781
        5.813774108886719 5.420090198516846 5.337684631347656 5.1606831550598145 4.770042419433594 4.199347972869873
        3.7446212768554688 3.5248873233795166 3.6713790893554688 4.150520324707031 4.171882629394531 4.068115234375
        3.778190851211548 3.7812423706054688 4.0833740234375 4.144416809082031 4.477066516876221 4.898223876953125
        5.2644429206848145 5.316322326660156 5.3773651123046875 5.301063537597656 5.255287170410156 5.212562561035156
        5.4261932373046875 5.310218811035156 4.995880126953125 4.5442047119140625 4.358039855957031 4.5625152587890625
        4.818870544433594 4.840232849121094 4.1016845703125 3.3753509521484375 3.1952896118164062 2.8717877864837646
        2.914520263671875 2.7497177124023438 1.7181931734085083 1.5411834716796875 2.966400146484375 4.226814270019531
        3.2502212524414062 1.88299560546875 1.99591064453125 2.10577392578125 2.02947998046875 1.94097900390625
        2.00201416015625 2.2309036254882812 2.5177767276763916 2.7405624389648438 2.877899169921875 2.914520502090454
        2.8260116577148438 2.6551132202148438 2.4109649658203125 2.3438186645507812 2.4262239933013916 2.4842071533203125
        2.5086212158203125 2.4597930908203125 2.3133010864257812 1.99285888671875 1.532028079032898 1.3672256469726562
        1.2817764282226562 1.3946990966796875 2.5177764892578125 2.3926544189453125 1.4893035888671875 1.3214492797851562
        1.8250045776367188 2.1881790161132812 2.05694580078125 1.88604736328125 1.95318603515625 2.3957061767578125
        2.7527694702148438 2.868736505508423 2.6429061889648438 2.2339553833007812 1.6724168062210083 1.6235885620117188
        1.91961669921875 2.2217485904693604 2.1240921020507812 2.04473876953125 1.99285888671875 1.8036422729492188
        2.04168701171875 3.3692398071289062 5.758842468261719 8.807640075683594 9.808646202087402 9.396652221679688
        8.926666259765625 7.712028503417969 5.807670593261719 4.361091613769531 3.7781903743743896 3.3600847721099854
        3.1769793033599854 3.3936614990234375 3.970458745956421 4.4496002197265625 5.142372131347656 6.237983703613281
        7.461776256561279 8.758811950683594 9.833061218261719 10.361029624938965 10.309151649475098 10.238959312438965
        10.522781372070312 10.885955810546875 11.062957763671875 11.004974365234375 10.605178833007812 10.09857177734375
        10.03143310546875 10.330513000488281 10.348823547363281 9.537033081054688 8.832054138183594 8.722190856933594
        8.844261169433594 8.786277770996094 8.679466247558594 8.557388305664062 8.703880310058594 9.070098876953125
        9.533981323242188 9.851371765136719 9.854423522949219 9.707939147949219 9.585861206054688 9.469894409179688
        9.573654174804688 9.92462158203125 10.205391883850098 10.303048133850098 10.147407531738281 9.329505920410156
        7.910400390625 6.640830993652344 6.680504322052002 7.367164611816406 7.4953460693359375 6.958221435546875
        6.369209289550781 6.265449523925781 6.4607696533203125 6.762901306152344 6.939910888671875 6.784264087677002
        6.189155578613281 5.679496765136719 5.798515319824219 5.999939441680908 5.98773193359375 6.11590576171875
        6.4607696533203125 6.5248565673828125 6.186103820800781 5.3620991706848145 4.5197906494140625 3.9552001953125
        3.7812423706054688 3.4791107177734375 3.1617202758789062 3.1556167602539062 3.250221014022827 3.6225509643554688
        3.6957931518554688 3.3539810180664062 3.729362726211548 4.4160308837890625 4.944000244140625 5.029449462890625
        4.797508239746094 4.458755970001221 4.4923248291015625 4.4923248291015625 4.730369567871094 4.763938903808594
        4.379409313201904 4.080322265625 4.0589599609375 4.4557037353515625 4.779197692871094 4.245124816894531
        3.4791107177734375 3.1617202758789062 3.100677490234375 3.094573974609375 3.262428045272827 3.4363861083984375
        2.984710693359375 2.847374200820923 3.085418701171875 3.302100896835327 3.003021240234375 1.9806517362594604
        1.8646774291992188 1.88299560546875 1.7975387573242188 1.7151412963867188 1.7120894193649292 1.91046142578125
        2.2553176879882812 2.5971221923828125 2.7405622005462646 2.7314071655273438 2.7375106811523438 2.6734237670898438
        2.5025177001953125 2.3743438720703125 2.2492141723632812 2.1820755004882812 2.2370071411132812 2.2064895629882812
        1.98980712890625 1.8372116088867188 1.7304000854492188 1.5625457763671875 1.3153457641601562 1.1871720552444458
        1.4099578857421875 1.089508056640625 0.6866683959960938 0.939971923828125 1.3122940063476562 1.593063235282898
        1.5686492919921875 1.4984588623046875 1.6449508666992188 1.9318236112594604 2.2888870239257812 2.4750516414642334
        2.3468704223632812 2.264472723007202 2.1546096801757812 1.93182373046875 1.93487548828125 2.11798095703125
        2.1271440982818604 1.8097457885742188 1.2909317016601562 0.912506103515625 0.6378402709960938 0.8545150756835938
        2.5452423095703125 4.5350494384765625 10.885954856872559 10.452589988708496 10.419022560119629 10.351874351501465
        9.94293212890625 9.192177772521973 8.267464637756348 7.132178783416748 5.755790710449219 4.892120361328125
        4.5594635009765625 4.226814270019531 4.4862213134765625 5.343787670135498 6.274604797363281 7.3763275146484375
        8.581802368164062 9.656059265136719 10.217597961425781 10.425125122070312 10.583816528320312 10.748619079589844
        10.873749732971191 11.001922607421875 11.066009521484375 11.14231014251709 11.471908569335938 11.960204124450684
        11.9937744140625 10.843222618103027 9.436325073242188 8.914459228515625 8.996856689453125 8.825950622558594
        8.688621520996094 8.893096923828125 9.418014526367188 9.930724143981934 10.229804992675781 10.147408485412598
        9.89105224609375 9.833061218261719 9.698783874511719 9.463789939880371 9.338661193847656 9.408860206604004
        9.497360229492188 9.549240112304688 9.653008460998535 9.695732116699219 9.173866271972656 7.9500732421875
        7.6174163818359375 8.258308410644531 8.453628540039062 7.7486491203308105 6.784263610839844 6.311225891113281
        6.357002258300781 6.5889434814453125 6.808677673339844 6.790367126464844 6.155586242675781 5.365150451660156
        5.267494201660156 5.340736389160156 5.3895721435546875 5.902283191680908 6.7232279777526855 7.141334533691406
        6.924652576446533 6.329536437988281 5.92974853515625 5.652030944824219 5.1912007331848145 4.5197906494140625
        4.0009765625 3.5462493896484375 3.1769790649414062 3.1800308227539062 3.2624282836914062 3.3509292602539062
        3.6164398193359375 3.964355230331421 4.364143371582031 4.342781066894531 3.8148117065429688 3.4485931396484375
        3.3082046508789062 3.4211275577545166 3.6683273315429688 3.872802734375 3.7690353393554688 3.5981292724609375
        3.692741632461548 4.055908203125 4.4618072509765625 4.07421875 3.2013931274414062 2.5574493408203125
        2.957244873046875 3.1525650024414062 3.3600845336914062 3.4058682918548584 3.4485931396484375 3.3906097412109375
        2.914520263671875 3.070159912109375 3.4943695068359375 2.08746337890625 1.91961669921875 1.7304000854492188
        1.6571577787399292 1.5503387451171875 1.2726211547851562 1.2756729125976562 1.541183590888977 1.7334518432617188
        1.88909912109375 2.151557683944702 2.4536895751953125 2.6764755249023438 2.6581649780273438 2.4414825439453125
        2.2614212036132812 2.1790237426757812 2.1698684692382812 2.03863525390625 1.7029342651367188 1.4130096435546875
        1.3092422485351562 1.3061904907226562 1.3794403076171875 1.6296920776367188 1.6296920776367188 1.4435272216796875
        1.3428115844726562 1.116973876953125 0.7324447631835938 0.8423080444335938 1.1291885375976562 1.2634660005569458
        1.2909317016601562 1.397750735282898 1.7365036010742188 1.8189010620117188 1.6998825073242188 1.7304000854492188
        2.4720003604888916 2.999969482421875 2.917572021484375 2.6306991577148438 2.2827835083007812 1.89825439453125
        1.5137176513671875 1.1536026000976562 0.6530990600585938 0.909454345703125 2.5818634033203125 4.330574035644531
        11.740470886230469 11.181983947753906 10.556350708007812 10.159614562988281 10.174872398376465 10.165718078613281
        9.674369812011719 8.948028564453125 8.243049621582031 8.0050048828125 7.96533203125 7.724235534667969
        7.113861083984375 6.237983703613281 5.90228271484375 6.634727478027344 7.736442565917969 8.932770729064941
        9.87884521484375 10.357977867126465 10.364082336425781 10.165718078613281 10.208442687988281 10.477005004882812
        10.885955810546875 11.423080444335938 12.042601585388184 12.436294555664062 12.186042785644531 11.117889404296875
        9.854424476623535 9.384444236755371 9.353919982910156 9.152503967285156 8.981597900390625 9.289833068847656
        9.91241455078125 10.391555786132812 10.406814575195312 10.10162353515625 9.848320960998535 9.833061218261719
        9.811698913574219 9.781181335449219 9.674369812011719 9.503464698791504 9.448532104492188 9.619430541992188
        9.698784828186035 9.634696960449219 9.378341674804688 8.804588317871094 8.719139099121094 8.914459228515625
        8.569595336914062 7.666252136230469 6.836143493652344 6.6286234855651855 6.7415385246276855 6.851402282714844
        6.930755138397217 6.787315368652344 6.256294250488281 5.4933319091796875 5.191200256347656 5.102691650390625
        4.956207275390625 5.456710338592529 6.4760284423828125 7.156593322753906 7.071136474609375 6.7567973136901855
        6.796470642089844 6.811729431152344 6.653038024902344 6.042663097381592 4.977569580078125 4.0955810546875
        3.6927413940429688 3.7141036987304688 3.7720870971679688 3.933837890625 4.03759765625 3.9033203125
        4.0101318359375 3.7446212768554688 3.4516451358795166 3.292945623397827 2.7924423217773438 2.8351669311523438
        2.8412702083587646 3.021332025527954 3.317359685897827 3.097625732421875 3.1891863346099854 3.5035245418548584
        4.0101318359375 4.367195129394531 3.2380142211914062 2.5513458251953125 3.2837905883789062 3.3906095027923584
        3.4455413818359375 3.5065765380859375 3.668327569961548 3.897216796875 3.7324142456054688 3.5767669677734375
        3.7324142456054688 2.6337509155273438 1.7487106323242188 1.7334518432617188 1.7029341459274292 1.5503387451171875
        1.1963272094726562 1.2543106079101562 1.6418991088867188 1.87384033203125 2.06610107421875 2.1851272583007812
        2.1973342895507812 2.2553176879882812 2.2949905395507812 2.1881790161132812 2.2217483520507812 2.2522659301757812
        2.10882568359375 1.8097457885742188 1.4099578857421875 1.046783447265625 0.8972473740577698 0.7446517944335938
        0.8697738647460938 1.120025634765625 1.2054824829101562 0.894195556640625 1.4465789794921875 1.5625457763671875
        0.961334228515625 0.6042633056640625 0.5767974853515625 0.5767974853515625 0.4882965087890625 0.903350830078125
        1.2024307250976562 1.3092422485351562 1.4557342529296875 1.6632614135742188 1.9714967012405396 2.4109652042388916
        2.899261713027954 2.8473739624023438 2.2309036254882812 1.571701169013977 0.955230712890625 0.5859527587890625
        0.6530990600585938 1.3245010375976562 2.4811556339263916 3.5218350887298584 12.247078895568848 11.679435729980469
        10.986663818359375 10.425125122070312 10.217597961425781 10.238960266113281 10.086363792419434 9.311195373535156
        8.713035583496094 9.201332092285156 10.07415771484375 10.531936645507812 10.02532958984375 8.886993408203125
        8.069091796875 8.05078125 8.532974243164062 8.908355712890625 9.22574520111084 9.585860252380371
        9.482101440429688 9.118927001953125 8.963287353515625 9.219642639160156 9.649954795837402 10.290840148925781
        11.081268310546875 11.627555847167969 11.645865440368652 11.178932189941406 10.654014587402344 10.336617469787598
        10.04364013671875 9.588912963867188 9.183021545410156 9.063995361328125 9.35697078704834 9.704887390136719
        9.900208473205566 9.869682312011719 9.866630554199219 9.89105224609375 9.95819091796875 10.144355773925781
        10.232856750488281 10.09857177734375 9.89105224609375 9.759819030761719 9.570601463317871 9.112823486328125
        8.783226013183594 8.587905883789062 8.499404907226562 8.520767211914062 8.343757629394531 7.672356128692627
        7.281715393066406 7.4770355224609375 7.5258636474609375 7.187110900878906 6.869712829589844 6.692710876464844
        6.515701770782471 6.2501912117004395 5.96026611328125 5.642875671386719 5.294960021972656 5.661186218261719
        6.4729766845703125 6.796471118927002 6.732383728027344 6.906341075897217 7.156593322753906 7.040618896484375
        6.881927490234375 6.4943389892578125 5.761894226074219 5.3590474128723145 5.319374084472656 5.130164623260498
        5.014190673828125 5.301063537597656 5.343788146972656 4.675437927246094 4.190193176269531 3.8239669799804688
        3.6103363037109375 3.5706634521484375 3.3722991943359375 3.1830828189849854 3.003021240234375 2.8626327514648438
        2.990814208984375 2.7619245052337646 2.7649765014648438 2.993865728378296 3.1495132446289062 3.7568283081054688
        3.6133880615234375 3.5737152099609375 3.9918212890625 3.750725030899048 3.323463201522827 3.7873456478118896
        4.1016845703125 4.174934387207031 4.0040283203125 3.823967218399048 3.8819580078125 3.4455416202545166
        1.8707809448242188 1.7731246948242188 1.6327438354492188 1.3916473388671875 1.071197509765625 1.1932754516601562
        1.614425539970398 1.8616256713867188 2.1851272583007812 2.3285598754882812 2.1973342895507812 2.04168701171875
        1.88909912109375 1.8433151245117188 2.02032470703125 2.02947998046875 1.7487106323242188 1.3916473388671875
        1.113922119140625 0.881988525390625 0.6622543334960938 0.6286849975585938 0.8636703491210938 1.1047667264938354
        1.8677291870117188 1.6602096557617188 0.7446517944335938 1.4008026123046875 1.4099578857421875 1.101715087890625
        0.7477035522460938 0.4150543212890625 0.5645904541015625 0.885040283203125 0.985748291015625 1.052886962890625
        1.3824920654296875 1.7578659057617188 1.96539306640625 2.2827835083007812 2.3712844848632812 2.3316116333007812
        2.10882568359375 1.596114993095398 1.007110595703125 0.6805648803710938 0.5890045166015625 0.8178940415382385
        1.7212446928024292 2.5360870361328125 12.216560363769531 11.9144287109375 11.33151912689209 10.538041114807129
        9.915467262268066 9.92767333984375 10.156561851501465 9.643852233886719 9.048735618591309 9.332557678222656
        10.10162353515625 10.260323524475098 9.87884521484375 9.485153198242188 9.051788330078125 8.673362731933594
        8.725242614746094 8.374282836914062 7.925659656524658 7.8829345703125 7.931762218475342 7.904296398162842
        7.843254089355469 7.971435546875 8.413955688476562 9.018218994140625 9.97955322265625 10.834068298339844
        11.15451717376709 11.151466369628906 11.163673400878906 11.069061279296875 10.742515563964844 9.95819091796875
        9.033477783203125 8.380386352539062 8.301033020019531 8.508560180664062 8.935821533203125 9.411911010742188
        9.91851806640625 10.269477844238281 10.299995422363281 10.245064735412598 10.342720031738281 10.412918090820312
        10.223701477050781 9.836112976074219 9.579757690429688 9.433273315429688 9.085357666015625 8.664207458496094
        8.297981262207031 8.166755676269531 8.224739074707031 7.6082611083984375 7.266456604003906 7.4434661865234375
        7.4221038818359375 7.037567138671875 6.756797790527344 6.671348571777344 6.781211853027344 6.881927490234375
        6.805625915527344 6.6408305168151855 6.5340118408203125 6.753746032714844 7.156593322753906 7.061981678009033
        6.817832946777344 7.022308349609375 7.153541088104248 6.772056579589844 6.268501281738281 5.8503947257995605
        5.5452117919921875 5.7374796867370605 6.08538818359375 6.170845031738281 6.2471394538879395 6.5126495361328125
        6.6133575439453125 5.96636962890625 5.310218811035156 4.855492115020752 4.303108215332031 4.013183116912842
        3.9979248046875 3.8575363159179688 3.698845148086548 3.5523531436920166 3.1281509399414062 2.7069931030273438
        2.7527692317962646 3.1678237915039062 3.2746353149414062 3.4791107177734375 4.025390625 3.921631097793579
        3.7598800659179688 3.5737152099609375 3.6500167846679688 4.0528564453125 4.068115234375 4.0711669921875
        4.0345458984375 3.912475824356079 3.87890625 3.8666915893554688 2.7283554077148438 1.8646775484085083
        1.3855438232421875 1.1688613891601562 1.013214111328125 1.1841201782226562 1.5350799560546875 1.7365036010742188
        1.89215087890625 2.06304931640625 1.89520263671875 1.6541061401367188 1.4404754638671875 1.3275527954101562
        1.4130096435546875 1.3306045532226562 1.068145751953125 0.799583375453949 0.6530990600585938 0.5920562744140625
        0.6958236694335938 1.095611572265625 1.2176896333694458 1.074249267578125 0.8911438584327698 0.976593017578125
        0.7446517944335938 0.8545150756835938 0.7385483384132385 0.5340728759765625 0.6134185791015625 0.4211578369140625
        0.5829010009765625 0.875885009765625 0.9949036240577698 1.1993789672851562 1.7853317260742188 2.12103271484375
        2.3651809692382812 2.6306991577148438 2.4353790283203125 2.099670648574829 1.91046142578125 1.8127975463867188
        1.3275527954101562 0.9186096787452698 0.7751693725585938 1.055938720703125 1.9531861543655396 3.018280029296875
        11.822867393493652 11.795401573181152 11.719109535217285 11.151467323303223 10.312202453613281 9.92462158203125
        10.07720947265625 10.11383056640625 9.765923500061035 9.451583862304688 9.418014526367188 9.176918029785156
        8.743553161621094 8.447525024414062 8.020263671875 7.293922424316406 6.854454040527344 6.4668731689453125
        6.134223937988281 6.2898640632629395 6.5919952392578125 6.994842052459717 7.370216369628906 7.821892261505127
        8.191169738769531 8.615371704101562 9.427169799804688 10.193183898925781 10.538040161132812 10.574661254882812
        10.663169860839844 10.931732177734375 10.861534118652344 10.129097938537598 9.109771728515625 8.197274208068848
        7.5868988037109375 7.4251556396484375 7.742546081542969 8.606216430664062 9.814750671386719 10.831016540527344
        11.062957763671875 10.754721641540527 10.556351661682129 10.699790954589844 10.782187461853027 10.534987449645996
        10.318305969238281 10.434280395507812 10.629599571228027 10.422073364257812 9.802543640136719 8.832054138183594
        7.7700114250183105 6.6957621574401855 6.280708312988281 6.289863586425781 6.329536437988281 6.4668731689453125
        6.540115833282471 6.582840442657471 6.634727478027344 6.753746509552002 6.924652099609375 7.293922424316406
        7.687614440917969 7.962280750274658 8.093505859375 7.766960144042969 7.330543518066406 7.306129455566406
        7.223731994628906 6.692710876464844 5.8687052726745605 5.301063537597656 5.352943420410156 5.88397216796875
        6.3905792236328125 6.775108337402344 6.839195251464844 6.643883228302002 6.6164093017578125 6.341743469238281
        5.98162841796875 5.471970081329346 4.834129333496094 4.5136871337890625 4.5533599853515625 4.5838775634765625
        4.336677551269531 4.220710754394531 3.7629318237304688 3.1403579711914062 3.051849126815796 3.6774826049804688
        4.0223388671875 3.9796142578125 4.293952941894531 3.878906488418579 3.7018966674804688 3.8453290462493896
        3.848381280899048 3.8239669799804688 3.6713790893554688 3.9185791015625 4.007080078125 3.973510980606079
        3.949096441268921 4.080322265625 3.4882659912109375 2.3224563598632812 1.3458633422851562 1.2390518188476562
        1.2390516996383667 1.4038543701171875 1.5442352294921875 1.6296920776367188 1.7487106323242188 1.7517625093460083
        1.4954071044921875 1.2085342407226562 1.104766845703125 1.071197509765625 0.900299072265625 0.7354965209960938
        0.6408920288085938 0.5249176025390625 0.5279693603515625 0.6927719712257385 1.1932754516601562 1.6846237182617188
        1.5869598388671875 1.3428115844726562 0.9521790146827698 0.7354965806007385 0.4638824164867401 0.5584869384765625
        0.6012115478515625 1.7914352416992188 1.91961669921875 0.5829010009765625 0.6134185791015625 0.8423080444335938
        1.1474989652633667 1.5137176513671875 2.05084228515625 2.02642822265625 2.2736282348632812 2.5452425479888916
        2.2797317504882812 1.8311080932617188 1.7761763334274292 1.9348756074905396 1.7151412963867188 1.3946990966796875
        1.2726212739944458 1.5259246826171875 2.114929437637329 3.079314947128296 11.423080444335938 11.505477905273438
        11.786247253417969 11.764884948730469 11.230812072753906 10.464797973632812 10.138253211975098 10.260322570800781
        10.03448486328125 9.595016479492188 9.35697078704834 9.134194374084473 8.563491821289062 7.943970203399658
        7.358009338378906 6.512649059295654 5.96331787109375 5.7313761711120605 5.7466349601745605 5.764945983886719
        5.88092041015625 6.228828430175781 6.946014404296875 7.715080261230469 8.166755676269531 8.560440063476562
        9.179969787597656 9.857475280761719 10.208442687988281 10.266426086425781 10.248115539550781 10.455642700195312
        10.574661254882812 10.180976867675781 9.695731163024902 9.067047119140625 8.0904541015625 7.4495697021484375
        7.623527526855469 8.465835571289062 9.714042663574219 10.977508544921875 11.682488441467285 11.615342140197754
        11.255226135253906 11.117889404296875 11.221656799316406 11.258277893066406 11.191139221191406 11.224708557128906
        11.542098999023438 11.911376953125 11.688591003417969 10.461746215820312 8.359016418457031 6.643883228302002
        5.987732410430908 6.10064697265625 6.289863586425781 6.4455108642578125 6.4363555908203125 6.360054016113281
        6.155586242675781 6.027404308319092 6.256294250488281 6.802574157714844 7.498397350311279 8.081298828125
        8.197274208068848 7.797478199005127 7.513657093048096 7.4221038818359375 7.281715393066406 6.903289794921875
        6.176948547363281 5.5848846435546875 5.639823913574219 6.03961181640625 6.274604797363281 6.4424591064453125
        6.3844757080078125 6.04571533203125 6.02740478515625 6.265449523925781 6.265449523925781 5.90838623046875
        5.322425842285156 5.026397705078125 5.099639892578125 5.182044982910156 4.983673572540283 4.770042419433594
        4.129158020019531 3.5828704833984375 3.3967132568359375 3.9979248046875 4.339729309082031 4.4923248291015625
        4.669334411621094 3.888061761856079 3.1403579711914062 3.2868423461914062 3.628654718399048 3.5767669677734375
        3.2868425846099854 3.5279388427734375 3.2807388305664062 3.5859222412109375 4.01318359375 4.126106262207031
        3.9063720703125 3.115936517715454 2.1820755004882812 1.97149658203125 1.8311080932617188 1.7273483276367188
        1.5655975341796875 1.7304000854492188 2.1332473754882812 1.9043577909469604 1.4313201904296875 1.1658096313476562
        1.3977508544921875 1.605270504951477 0.875885009765625 0.5249176025390625 0.5798493027687073 0.640891969203949
        0.9338684678077698 1.3855438232421875 1.8677291870117188 2.1851272583007812 1.8280562162399292 1.5076141357421875
        1.025421142578125 0.7843246459960938 0.5584869384765625 0.36316680908203125 1.080352783203125 3.122039556503296
        4.4984283447265625 3.6225509643554688 1.98065185546875 1.052886962890625 1.3031387329101562 1.6968307495117188
        2.1820757389068604 2.1942825317382812 2.3346633911132812 2.3255081176757812 2.06304931640625 1.7792280912399292
        1.6388474702835083 1.486251711845398 1.3855438232421875 1.492355465888977 1.4709930419921875 1.3061906099319458
        1.5778045654296875 2.349921941757202 11.380354881286621 11.352882385253906 11.676383972167969 11.996826171875
        11.835075378417969 11.301002502441406 10.675376892089844 10.293891906738281 9.97039794921875 9.585861206054688
        9.564498901367188 9.732353210449219 9.549241065979004 8.993804931640625 8.099609375 7.336647033691406
        7.339698791503906 7.199317932128906 6.8330912590026855 6.326484680175781 6.07928466796875 6.164741516113281
        6.5736846923828125 7.046722412109375 7.5991058349609375 8.255256652832031 8.941925048828125 9.448531150817871
        9.89410400390625 10.150459289550781 10.05889892578125 10.09552001953125 10.290841102600098 10.361030578613281
        10.522781372070312 10.553298950195312 10.052794456481934 9.588912963867188 9.451583862304688 9.628593444824219
        10.03448486328125 10.654014587402344 11.267434120178223 11.441390991210938 11.099578857421875 10.69674015045166
        10.650962829589844 10.910369873046875 11.081268310546875 11.011077880859375 11.090423583984375 11.667229652404785
        12.0975341796875 11.447494506835938 9.329505920410156 7.260353088378906 6.5889434814453125 6.991790771484375
        7.348854064941406 7.309181213378906 6.933807373046875 6.6347270011901855 6.03045654296875 5.380417346954346
        5.261390686035156 5.5818328857421875 6.259346008300781 6.924652099609375 7.101654052734375 6.927703857421875
        6.967376232147217 6.888031005859375 6.640830993652344 6.4088897705078125 6.158638000488281 5.832084655761719
        5.667289733886719 5.5787811279296875 5.420089244842529 5.243080139160156 5.365150451660156 5.4414520263671875
        5.655082702636719 6.10980224609375 6.4241485595703125 6.4394073486328125 6.192206859588623 5.954162120819092
        5.807670593261719 5.722221851348877 5.4414520263671875 4.809715270996094 4.123054504394531 3.8575363159179688
        3.8239669799804688 4.254280090332031 4.361091613769531 4.3763580322265625 4.272590637207031 3.909423828125
        3.2715835571289062 3.042694091796875 3.4333343505859375 3.6103363037109375 3.704948663711548 3.3356704711914062
        2.978607416152954 3.3417739868164062 3.6866378784179688 3.6164400577545166 3.7903976440429688 3.952148199081421
        3.732414484024048 3.5554046630859375 2.951141357421875 2.3590774536132812 1.97454833984375 2.1851272583007812
        2.6947860717773438 2.3041460514068604 1.5320281982421875 1.2390518188476562 1.2268447875976562 1.4893035888671875
        0.19226837158203125 0.8392562866210938 1.3672256469726562 1.7029342651367188 2.1271438598632812 2.2553176879882812
        2.3560256958007812 2.4720001220703125 1.99896240234375 1.559493899345398 1.068145751953125 0.7385482788085938
        0.5340728759765625 0.4852447509765625 1.5961151123046875 2.8107528686523438 4.3885650634765625 5.526900768280029
        4.992828369140625 3.3784027099609375 2.2370071411132812 2.1301956176757812 2.2583694458007812 2.4872589111328125
        2.5574493408203125 2.2461624145507812 1.9135130643844604 1.7456589937210083 1.6968306303024292 1.6846237182617188
        1.5930633544921875 1.5076141357421875 1.602218747138977 1.5106658935546875 0.7812728881835938 1.1291885375976562
        11.700797080993652 11.627554893493652 11.734368324279785 11.792350769042969 11.679435729980469 11.535994529724121
        11.261329650878906 11.075163841247559 10.873748779296875 10.486160278320312 10.220649719238281 10.168768882751465
        10.04974365234375 9.793388366699219 9.36307430267334 8.767967224121094 8.447525024414062 8.249153137207031
        7.91650390625 7.583847522735596 7.4526214599609375 7.3732757568359375 7.2573018074035645 7.2359395027160645
        7.3824310302734375 7.879883289337158 8.520767211914062 8.926666259765625 9.482101440429688 9.98260498046875
        9.97955322265625 9.945982933044434 10.147407531738281 10.608230590820312 11.078216552734375 11.349830627441406
        11.465805053710938 11.468856811523438 11.166725158691406 10.678428649902344 10.379348754882812 10.315255165100098
        10.498367309570312 10.608230590820312 10.214546203613281 9.570602416992188 9.280677795410156 9.479048728942871
        9.796440124511719 9.97955322265625 10.190132141113281 10.785240173339844 11.676383972167969 12.027344703674316
        10.873748779296875 8.941925048828125 7.760856628417969 7.3732757568359375 7.272560119628906 7.248146057128906
        7.074188709259033 6.854454040527344 6.161689758300781 5.142372131347656 4.4618072509765625 4.4373931884765625
        4.779197692871094 5.063018798828125 5.349891185760498 5.758842468261719 6.189155578613281 6.195259094238281
        5.92059326171875 5.792411804199219 5.8076701164245605 5.636772155761719 5.227821350097656 4.824974060058594
        4.5594635009765625 4.4923248291015625 5.008087158203125 5.4750213623046875 5.627616882324219 5.6978068351745605
        5.804619312286377 5.954163074493408 6.08843994140625 6.253242492675781 6.207465648651123 5.96331787109375
        5.368202209472656 4.345832824707031 4.0223388671875 4.0772705078125 4.345832824707031 4.3794097900390625
        4.351936340332031 4.303108215332031 4.147468566894531 3.982665777206421 3.4058685302734375 2.8168563842773438
        3.1647720336914062 3.6591720581054688 3.5950775146484375 3.4119720458984375 3.048797607421875 3.2776873111724854
        3.7018964290618896 3.7690351009368896 3.848381280899048 4.269538879394531 4.818870544433594 4.910430908203125
        4.269538879394531 3.2502214908599854 2.6520614624023438 2.7527692317962646 3.021332025527954 2.6764755249023438
        1.88299560546875 1.483200192451477 1.095611572265625 0.6897201538085938 0.979644775390625 1.8280564546585083
        2.4475860595703125 3.006072998046875 3.1403579711914062 2.7008895874023438 2.5666046142578125 2.6215362548828125
        2.2614212036132812 1.6357955932617188 1.3428115844726562 0.897247314453125 0.8789368271827698 1.3519668579101562
        2.1729202270507812 2.5421905517578125 3.1312026977539062 4.461807727813721 5.764945983886719 6.030457019805908
        5.6092987060546875 5.117950916290283 3.1586685180664062 2.2675247192382812 2.5574493408203125 2.3682327270507812
        1.9379273653030396 1.7761765718460083 1.8066940307617188 1.7822799682617188 1.6663131713867188 1.4679412841796875
        1.1352921724319458 0.930816650390625 0.4821929931640625 0.4120025634765625 11.984619140625 11.926636695861816
        12.0029296875 11.9083251953125 11.526840209960938 11.34677791595459 11.426132202148438 11.612289428710938
        11.789299011230469 11.642814636230469 11.163673400878906 10.614334106445312 10.07415771484375 9.765922546386719
        9.768974304199219 9.90020751953125 9.87884521484375 9.671318054199219 9.195228576660156 8.774070739746094
        8.587905883789062 8.490249633789062 8.261360168457031 7.898193359375 7.605208873748779 7.638786315917969
        7.9378662109375 8.401748657226562 9.192176818847656 9.726249694824219 9.781182289123535 9.823906898498535
        10.138252258300781 10.580764770507812 10.910369873046875 11.102630615234375 11.365089416503906 11.593978881835938
        11.478012084960938 11.026336669921875 10.632652282714844 10.458694458007812 10.483107566833496 10.510573387145996
        10.09552001953125 9.179969787597656 8.389541625976562 8.1209716796875 8.285774230957031 8.777122497558594
        9.515670776367188 10.339668273925781 11.273536682128906 12.256233215332031 12.314216613769531 10.956146240234375
        9.259315490722656 7.9287109375 7.205421447753906 6.897186279296875 6.5187530517578125 6.161689758300781
        5.774101257324219 5.154579162597656 4.336677551269531 3.933838129043579 3.8056564331054688 3.7812423706054688
        4.235969066619873 5.044708251953125 5.5391082763671875 5.825981140136719 5.792411804199219 5.6062469482421875
        5.5238494873046875 5.4078826904296875 4.968414306640625 4.5442047119140625 4.4770660400390625 4.733421325683594
        5.3926239013671875 5.6154022216796875 5.5360565185546875 5.5726776123046875 5.337684631347656 5.059966564178467
        5.078277587890625 5.3743133544921875 5.5848846435546875 5.5818328857421875 5.127113342285156 4.3885650634765625
        4.351936340332031 4.367194652557373 4.654075622558594 4.3855133056640625 4.254280090332031 4.181037902832031
        4.342781066894531 4.4221343994140625 3.6988446712493896 3.2013931274414062 3.3478775024414062 3.8148117065429688
        3.6133880615234375 3.5462491512298584 3.3722991943359375 3.8453292846679688 4.791404724121094 4.760887145996094
        4.1840901374816895 4.3763580322265625 4.870750427246094 5.142372131347656 4.934844970703125 4.2298665046691895
        3.6561203002929688 3.4760587215423584 3.2746353149414062 2.8504257202148438 2.2766799926757812 1.7944869995117188
        1.4618377685546875 1.095611572265625 2.03863525390625 2.6459579467773438 3.3021011352539062 3.8453292846679688
        3.5615081787109375 2.795494318008423 2.5360870361328125 2.6245956420898438 2.4170684814453125 1.7700730562210083
        1.5015106201171875 1.2268447875976562 1.3794403076171875 2.08135986328125 2.5238800048828125 2.5543975830078125
        2.6306989192962646 3.1312026977539062 4.297004699707031 5.767997741699219 7.153541088104248 7.809684753417969
        5.313270568847656 2.2858352661132812 2.10577392578125 2.313300848007202 1.99591064453125 1.7334518432617188
        1.9348756074905396 2.05389404296875 1.94708251953125 1.7761763334274292 1.4618377685546875 1.2329483032226562
        1.007110595703125 1.004058837890625 11.774040222167969 11.8778076171875 12.176887512207031 12.289802551269531
        11.923583984375 11.532943725585938 11.490219116210938 11.758781433105469 12.140266418457031 12.231819152832031
        11.923584938049316 11.307106018066406 10.666221618652344 10.263374328613281 10.257270812988281 10.562454223632812
        10.800498962402344 10.861533164978027 10.626548767089844 10.153511047363281 9.729301452636719 9.634696960449219
        9.433273315429688 8.874786376953125 8.496354103088379 8.304084777832031 8.0721435546875 8.142341613769531
        8.581802368164062 8.990753173828125 9.405807495117188 9.94293212890625 10.440383911132812 10.623497009277344
        10.589920043945312 10.724205017089844 11.059906005859375 11.349830627441406 11.435287475585938 11.294898986816406
        11.075164794921875 10.882904052734375 10.782188415527344 10.736412048339844 10.534989356994629 9.830009460449219
        8.822898864746094 8.0660400390625 7.840202331542969 8.172859191894531 8.954132080078125 9.869682312011719
        10.708946228027344 11.526840209960938 12.0853271484375 11.630607604980469 10.422073364257812 9.216590881347656
        8.304084777832031 7.4678802490234375 6.4729766845703125 5.807671070098877 5.6611857414245605 5.618454456329346
        4.861595153808594 4.0528564453125 3.894164800643921 3.9490966796875 4.3275227546691895 4.953155517578125
        5.404831409454346 5.740531921386719 5.822929382324219 5.5574188232421875 5.240028381347656 5.169837951660156
        4.980621337890625 4.6082916259765625 4.5564117431640625 4.956206798553467 5.4322967529296875 5.3956756591796875
        5.172889232635498 5.420089244842529 5.282752990722656 4.898223876953125 4.669334411621094 4.6082916259765625
        4.681541442871094 4.895171642303467 5.200355529785156 5.063018798828125 4.660179138183594 4.3702473640441895
        4.5808258056640625 4.354988098144531 4.0009765625 3.7842941284179688 4.126106262207031 4.654075622558594
        4.4221343994140625 3.860588312149048 3.872802734375 4.129158020019531 3.970458984375 4.08642578125
        4.150520324707031 4.5381011962890625 5.435348033905029 5.032501220703125 4.205451488494873 4.4923248291015625
        4.705955505371094 4.867698669433594 4.889069080352783 4.828025817871094 4.4892730712890625 4.193244934082031
        3.6317062377929688 3.051849365234375 2.4872589111328125 1.8616255521774292 2.00811767578125 2.1424026489257812
        2.935882329940796 3.3417739868164062 3.9185791015625 4.284797668457031 3.711052179336548 2.951141357421875
        2.4323272705078125 2.4506378173828125 2.3041458129882812 1.91046142578125 1.4557342529296875 1.4282684326171875
        1.89520263671875 2.5086212158203125 2.5696563720703125 2.652061700820923 2.7771835327148438 3.079315185546875
        3.6835861206054688 4.5533599853515625 5.810722827911377 7.046722412109375 6.247138977050781 3.3082046508789062
        1.98065185546875 1.6663131713867188 1.7304000854492188 1.6968307495117188 1.92572021484375 2.10272216796875
        2.1942825317382812 2.2003860473632812 1.9653929471969604 1.7517625093460083 1.419113039970398 1.1993789672851562
        11.395615577697754 11.731315612792969 12.201301574707031 12.634665489196777 12.677391052246094 12.427139282226562
        12.103636741638184 11.984619140625 12.176887512207031 12.530899047851562 12.613296508789062 12.213508605957031
        11.545150756835938 11.130104064941406 11.029387474060059 11.084320068359375 11.252174377441406 11.468856811523438
        11.493269920349121 11.31320858001709 11.026336669921875 10.75472354888916 10.489212036132812 10.235909461975098
        10.06500244140625 9.604171752929688 9.009063720703125 8.420059204101562 8.0111083984375 7.9989013671875
        8.694725036621094 9.778129577636719 10.534988403320312 10.696739196777344 10.510575294494629 10.415969848632812
        10.620437622070312 10.919525146484375 11.172828674316406 11.31015682220459 11.249122619628906 10.910369873046875
        10.501420021057129 10.257270812988281 10.220649719238281 10.254219055175781 9.92156982421875 9.366127014160156
        8.929718017578125 8.798484802246094 8.941925048828125 9.286781311035156 9.692680358886719 10.05279541015625
        10.400711059570312 10.464797973632812 10.08331298828125 9.656059265136719 9.256263732910156 8.511611938476562
        7.358009338378906 6.2807087898254395 5.8076701164245605 6.01519775390625 5.917541980743408 5.4933319091796875
        5.624565124511719 5.6520304679870605 5.5543670654296875 5.5970916748046875 5.716117858886719 5.758842468261719
        5.801567077636719 5.5085906982421875 5.203406810760498 5.2888569831848145 5.307167053222656 4.870750904083252
        4.5655670166015625 4.870750427246094 5.145423889160156 4.922637939453125 4.6388163566589355 4.809715270996094
        4.913482666015625 4.797508239746094 4.672386646270752 4.5442047119140625 4.574721813201904 4.727317810058594
        5.279701232910156 5.4353485107421875 5.081329345703125 4.461807727813721 4.2024006843566895 4.0650634765625
        3.833122491836548 3.7842941284179688 4.132209300994873 4.5899810791015625 4.831077575683594 4.770042419433594
        4.782249450683594 4.760887145996094 4.431289196014404 4.5655670166015625 4.751731872558594 4.654075622558594
        4.5960845947265625 4.162727355957031 4.016234874725342 4.5442047119140625 4.699851989746094 4.663230895996094
        4.416031360626221 4.4404449462890625 4.287849426269531 4.11083984375 3.842277765274048 3.3600845336914062
        2.7253036499023438 1.98980712890625 2.117980718612671 2.642906427383423 3.4363861083984375 3.87890625
        4.229866027832031 4.3733062744140625 3.7171554565429688 3.030487060546875 2.3529739379882812 2.2705764770507812
        2.050842523574829 1.7548141479492188 1.4282684326171875 1.6357955932617188 2.3224563598632812 2.6398544311523438
        2.6520614624023438 2.8473739624023438 3.082367181777954 3.4852142333984375 3.8483808040618896 3.9979248046875
        4.290901184082031 4.818870544433594 5.096588134765625 4.3916168212890625 3.1312026977539062 1.6632614135742188
        1.571700930595398 1.8066940307617188 1.9775999784469604 2.05694580078125 2.06915283203125 1.99591064453125
        1.8860474824905396 1.98675537109375 1.8524703979492188 1.574752926826477 11.624504089355469 11.9632568359375
        12.439346313476562 12.924591064453125 13.162635803222656 13.016143798828125 12.689598083496094 12.442398071289062
        12.356941223144531 12.646873474121094 12.933746337890625 12.829978942871094 12.460708618164062 12.347784996032715
        12.210456848144531 11.9754638671875 11.609237670898438 11.343727111816406 11.197242736816406 11.252174377441406
        11.273536682128906 11.127052307128906 11.035491943359375 11.108733177185059 11.185035705566406 10.705893516540527
        10.02227783203125 9.115875244140625 8.249153137207031 7.6082611083984375 7.840202331542969 8.944977760314941
        9.857475280761719 10.357978820800781 10.495315551757812 10.351875305175781 10.422073364257812 10.596023559570312
        10.77303409576416 10.965301513671875 10.922576904296875 10.504470825195312 9.99176025390625 9.668266296386719
        9.741507530212402 10.315254211425781 10.821860313415527 10.934783935546875 10.730308532714844 10.309150695800781
        9.772027015686035 9.271522521972656 8.883941650390625 8.911407470703125 9.277626037597656 9.521774291992188
        9.363076210021973 9.225746154785156 9.350868225097656 9.247108459472656 8.652000427246094 7.9073486328125
        7.254249572753906 6.851402759552002 6.772056579589844 6.793418884277344 6.830039978027344 6.784263610839844
        6.7506937980651855 6.680504322052002 6.5675811767578125 6.4180450439453125 6.506545543670654 6.4027862548828125
        6.195259094238281 6.225776672363281 5.7679972648620605 4.944000244140625 4.678489685058594 5.063018798828125
        5.255287170410156 4.934845447540283 4.5594635009765625 4.757835388183594 5.093536376953125 5.114898681640625
        4.977569580078125 4.766990661621094 4.702903747558594 4.773094177246094 4.965362548828125 4.7822489738464355
        4.5716705322265625 4.293952941894531 4.08642578125 3.860588312149048 4.0772705078125 4.4557037353515625
        4.821922302246094 4.879913330078125 5.1393208503723145 5.581833362579346 5.5604705810546875 5.4109344482421875
        5.056915283203125 4.876861572265625 5.066070556640625 4.663230895996094 4.2024006843566895 4.1077880859375
        4.345832824707031 4.724266052246094 4.6204986572265625 4.107787609100342 3.5950775146484375 3.695793390274048
        3.921630620956421 4.055908203125 4.025390625 3.7385177612304688 3.2715837955474854 2.5330352783203125
        2.1362991333007812 2.6856307983398438 3.7995529174804688 4.266487121582031 4.293952941894531 4.07421875
        3.4882659912109375 2.7985458374023438 2.3651809692382812 2.1790239810943604 1.9043577909469604 1.7090377807617188
        1.8433151245117188 2.206489324569702 2.6520612239837646 3.024383544921875 3.2654800415039062 3.326514959335327
        3.5462496280670166 3.9185791015625 3.9674072265625 3.6042327880859375 3.3448257446289062 3.3570327758789062
        3.6561203002929688 4.330574035644531 4.348884582519531 3.067108154296875 2.5086212158203125 2.1515579223632812
        2.1668167114257812 2.09051513671875 1.8189010620117188 1.6388473510742188 1.5655975341796875 1.7334518432617188
        1.8036423921585083 1.88909912109375 11.978515625 12.311164855957031 12.677391052246094 13.132118225097656
        13.27860164642334 13.183998107910156 13.156532287597656 13.101593017578125 12.985627174377441 12.894073486328125
        13.028350830078125 13.263343811035156 13.476974487304688 13.663139343261719 13.470870971679688 12.829978942871094
        11.9022216796875 10.953095436096191 10.339668273925781 10.226752281188965 10.345771789550781 10.705894470214844
        11.24912166595459 11.633659362792969 11.804556846618652 11.462752342224121 10.718101501464844 9.762870788574219
        8.899200439453125 8.139289855957031 7.882935047149658 8.554336547851562 9.094512939453125 9.628593444824219
        10.150460243225098 10.367134094238281 10.437332153320312 10.336616516113281 10.122993469238281 10.07720947265625
        10.144355773925781 10.03448486328125 9.698783874511719 9.494307518005371 9.576705932617188 10.238959312438965
        11.151466369628906 11.902222633361816 12.216560363769531 11.874755859375 11.075163841247559 10.193183898925781
        9.314247131347656 8.679466247558594 8.600112915039062 8.627586364746094 8.438369750976562 8.413955688476562
        8.951080322265625 9.585860252380371 9.714042663574219 9.576705932617188 9.308143615722656 8.566543579101562
        7.953125476837158 7.629631042480469 7.223731994628906 7.181007385253906 7.663200855255127 8.06298828125
        8.044677734375 7.8798828125 7.913452625274658 7.855461120605469 7.638786315917969 7.3976898193359375
        6.439406871795654 5.371253967285156 5.4872283935546875 6.302070617675781 6.900237560272217 6.833091735839844
        6.4119415283203125 6.4729766845703125 6.711021423339844 6.820884704589844 6.604201793670654 5.96636962890625
        5.191200256347656 4.831077575683594 4.681541442871094 4.266487121582031 3.89111328125 3.982665777206421
        3.8636398315429688 4.11083984375 4.757835388183594 5.185096740722656 5.3895721435546875 5.221717834472656
        5.322425842285156 5.804618835449219 5.829032897949219 5.664237976074219 5.3834686279296875 5.087432861328125
        5.331581115722656 5.050812244415283 4.907379150390625 4.962310791015625 5.169837951660156 5.047759532928467
        4.5014801025390625 3.6256027221679688 3.3082046508789062 3.4760587215423584 3.8026046752929688 4.159675598144531
        4.306159973144531 4.202400207519531 3.729362726211548 3.006073236465454 2.4964139461517334 2.8534772396087646
        4.1016845703125 4.745628356933594 4.245124816894531 3.5340423583984375 3.021331787109375 2.4201202392578125
        2.3560256958007812 2.273627996444702 2.206489324569702 2.352973699569702 2.7771835327148438 3.042694091796875
        3.4394378662109375 4.0223388671875 4.254280090332031 3.799553155899048 3.7018966674804688 3.8300704956054688
        3.6408615112304688 3.2776870727539062 3.1312026977539062 3.2837905883789062 3.7781906127929688 4.5411529541015625
        5.066070556640625 5.124061584472656 4.5411529541015625 3.3906097412109375 2.6551132202148438 2.166816473007202
        1.7700729370117188 1.6663131713867188 1.6998823881149292 1.7395553588867188 1.7456587553024292 1.89520263671875
        11.780143737792969 12.237922668457031 12.601089477539062 12.985626220703125 13.17789363861084 13.190101623535156
        13.364051818847656 13.522749900817871 13.519699096679688 13.290809631347656 13.254188537597656 13.486129760742188
        14.02020263671875 14.334541320800781 14.142280578613281 13.321327209472656 12.213508605957031 11.017181396484375
        9.95513916015625 9.509567260742188 9.668266296386719 10.208442687988281 10.971405029296875 11.764885902404785
        12.179939270019531 11.96630859375 11.172828674316406 10.281684875488281 9.543136596679688 8.883941650390625
        8.267463684082031 8.008056640625 8.044677734375 8.618423461914062 9.295936584472656 9.695732116699219
        9.656059265136719 9.302040100097656 9.027374267578125 9.198280334472656 9.582809448242188 9.656059265136719
        9.445479393005371 9.363075256347656 9.546188354492188 10.122993469238281 10.931732177734375 11.9449462890625
        12.601089477539062 12.64077091217041 12.0731201171875 11.224708557128906 10.254219055175781 9.228797912597656
        8.417007446289062 7.98974609375 7.6296305656433105 7.6052093505859375 8.359016418457031 9.292884826660156
        9.787284851074219 9.982604026794434 10.138253211975098 9.720146179199219 9.118927001953125 8.389541625976562
        7.696769714355469 7.699821472167969 8.166755676269531 8.560440063476562 8.807640075683594 9.009063720703125
        9.231849670410156 9.353919982910156 9.390547752380371 9.186073303222656 7.971435546875 6.5431671142578125
        6.643883228302002 7.696770191192627 8.542129516601562 8.731346130371094 8.398695945739746 8.1209716796875
        8.0233154296875 8.182014465332031 8.142341613769531 7.4098968505859375 6.241035461425781 5.5421600341796875
        5.310218811035156 4.977569580078125 4.287849426269531 3.936889886856079 4.0528564453125 4.5838775634765625
        5.032501220703125 5.188148498535156 5.310218811035156 5.3895721435546875 5.273597717285156 5.401779651641846
        5.6550822257995605 5.5970916748046875 5.3926239013671875 5.243080139160156 5.5482635498046875 5.581832408905029
        5.774101734161377 5.664237976074219 5.490279674530029 4.797508239746094 4.205451965332031 3.6622235774993896
        3.8087081909179688 3.9765625 4.171882629394531 4.3946685791015625 4.4923248291015625 4.5167388916015625
        4.156623840332031 3.3509292602539062 2.957244634628296 3.3295669555664062 4.290901184082031 4.745628356933594
        4.0711669921875 3.1617202758789062 2.6306991577148438 2.2858352661132812 2.3499221801757812 2.6520614624023438
        2.972503662109375 3.3295669555664062 3.711052179336548 4.0040283203125 4.5136871337890625 4.760887145996094
        4.5258941650390625 3.8209152221679688 3.3967132568359375 3.3265151977539062 3.1922378540039062 3.112884521484375
        3.2013931274414062 3.6225509643554688 4.019287109375 4.3763580322265625 4.907379150390625 5.706962585449219
        5.856498718261719 5.346839904785156 4.0833740234375 2.8351666927337646 2.2522659301757812 2.1485061645507812
        2.05999755859375 1.89520263671875 1.8646774291992188 2.1698684692382812 11.389511108398438 11.947998046875
        12.439346313476562 12.790306091308594 12.936798095703125 13.022247314453125 13.13822078704834 13.330482482910156
        13.476974487304688 13.483078002929688 13.498336791992188 13.489181518554688 13.794364929199219 14.03851318359375
        13.99273681640625 13.559372901916504 12.875763893127441 11.792350769042969 10.583816528320312 9.87884521484375
        9.704887390136719 9.92767333984375 10.519729614257812 11.529891967773438 12.268440246582031 12.265388488769531
        11.615342140197754 10.889007568359375 10.242012023925781 9.549240112304688 8.868675231933594 8.359016418457031
        7.971435546875 7.837150573730469 7.89208984375 7.9927978515625 7.8829345703125 7.809684753417969
        8.0721435546875 8.612319946289062 9.030426025390625 9.091461181640625 9.143348693847656 9.314247131347656
        9.564498901367188 10.00701904296875 10.675376892089844 11.593978881835938 12.283699035644531 12.503433227539062
        12.320320129394531 11.859488487243652 11.163673400878906 10.211494445800781 9.222694396972656 8.563490867614746
        8.310187339782715 8.249153137207031 8.542129516601562 9.063996315002441 9.451583862304688 9.845268249511719
        10.312202453613281 10.312202453613281 10.126045227050781 9.619429588317871 8.969390869140625 8.749656677246094
        8.624534606933594 8.453628540039062 8.633689880371094 9.036529541015625 9.567550659179688 10.132148742675781
        10.672325134277344 10.766929626464844 9.692680358886719 8.136238098144531 7.794425964355469 8.502456665039062
        9.225746154785156 9.494308471679688 9.216590881347656 8.639793395996094 8.148445129394531 8.182014465332031
        8.117919921875 7.4373626708984375 6.4333038330078125 5.835136413574219 5.752739429473877 5.694755554199219
        5.322425842285156 4.919586181640625 4.937896728515625 5.081329345703125 5.151527404785156 5.069122314453125
        5.053863525390625 5.160682678222656 4.928741455078125 4.870750427246094 5.252234935760498 5.313270568847656
        5.285804748535156 5.4231414794921875 5.6550822257995605 5.883971691131592 6.00909423828125 5.4261932373046875
        4.6143951416015625 3.976562738418579 3.9857177734375 4.272590637207031 4.809715270996094 4.806663513183594
        4.6632304191589355 4.629662036895752 4.666282653808594 4.797508239746094 4.8158183097839355 4.135261535644531
        3.7202072143554688 3.9674072265625 4.4557037353515625 4.3824615478515625 4.0467529296875 3.5065765380859375
        2.746666193008423 2.4323272705078125 2.6795272827148438 3.176978826522827 3.6256027221679688 3.909423828125
        4.266487121582031 4.754783630371094 5.154579162597656 4.898223876953125 4.382461071014404 3.753776788711548
        3.2380142211914062 3.051849126815796 3.1464614868164062 3.2929458618164062 3.6988449096679688 4.232917785644531
        4.266487121582031 4.110839366912842 4.193244934082031 4.4862213134765625 5.069122314453125 5.645927429199219
        5.163734436035156 4.116943359375 3.6256027221679688 3.1250991821289062 2.3987581729888916 1.92572021484375
        2.03253173828125 2.7314069271087646 11.34677791595459 11.545150756835938 11.9754638671875 12.344733238220215
        12.506484985351562 12.546157836914062 12.622459411621094 12.829978942871094 13.049713134765625 13.159584045410156
        13.110749244689941 13.013092041015625 13.074128150939941 13.223670959472656 13.403732299804688 13.507492065429688
        13.306068420410156 12.646873474121094 11.667228698730469 10.78218936920166 10.235908508300781 9.93072509765625
        10.05889892578125 10.928680419921875 11.716056823730469 11.935791015625 11.810662269592285 11.545150756835938
        11.047698974609375 10.385452270507812 9.634696960449219 8.960235595703125 8.337654113769531 7.770011901855469
        7.312232971191406 6.884979248046875 6.741539001464844 7.055877685546875 7.6052093505859375 7.9073486328125
        8.041625022888184 8.343757629394531 8.871726989746094 9.347816467285156 9.631645202636719 9.89410400390625
        10.330513000488281 10.971405029296875 11.615341186523438 11.9754638671875 12.063963890075684 12.0181884765625
        11.764885902404785 11.249122619628906 10.565505981445312 10.01312255859375 9.836112976074219 9.765921592712402
        9.573654174804688 9.414962768554688 9.369178771972656 9.695732116699219 10.11077880859375 10.415969848632812
        10.721153259277344 10.635704040527344 10.217597961425781 9.88189697265625 9.387496948242188 8.740501403808594
        8.429214477539062 8.652000427246094 9.259315490722656 10.150459289550781 10.904266357421875 11.120941162109375
        10.229804992675781 8.853416442871094 8.435317993164062 8.844261169433594 9.363075256347656 9.656059265136719
        9.573654174804688 9.024322509765625 8.172859191894531 7.8951416015625 7.666252136230469 7.181007385253906
        6.5767364501953125 6.10980224609375 5.95721435546875 6.00909423828125 6.094543933868408 6.030456066131592
        5.822929859161377 5.5818328857421875 5.371253967285156 5.157630920410156 5.026397705078125 4.632713317871094
        4.4190826416015625 4.330574035644531 4.629661560058594 4.742576599121094 4.907379627227783 5.227821350097656
        5.3743133544921875 5.255287170410156 5.066070556640625 4.498428821563721 3.878906488418579 3.6378097534179688
        3.894164800643921 4.690696716308594 5.4902801513671875 5.261390686035156 4.864646911621094 4.6021881103515625
        4.6174468994140625 4.931793212890625 5.240028381347656 4.861595153808594 4.4129791259765625 4.269538879394531
        4.3855133056640625 4.2054524421691895 4.290901184082031 4.245124816894531 3.4516448974609375 3.091522216796875
        3.4089202880859375 3.5889742374420166 3.753776788711548 3.921630859375 4.135261535644531 4.5747222900390625
        5.310218811035156 5.093536376953125 4.354988098144531 3.7324142456054688 3.3051528930664062 3.079315185546875
        3.2532730102539062 3.6011812686920166 4.3855133056640625 4.852439880371094 4.5991363525390625 4.181037902832031
        3.888061285018921 3.646965265274048 3.9002685546875 4.5136871337890625 4.748680114746094 5.047760009765625
        5.4017791748046875 4.4831695556640625 2.874847412109375 2.01116943359375 2.2522659301757812 2.887054443359375
        11.255226135253906 11.21555233001709 11.450546264648438 11.700798034667969 11.883912086486816 12.118896484375
        12.216561317443848 12.417983055114746 12.500381469726562 12.62551212310791 12.634666442871094 12.579726219177246
        12.430191040039062 12.375259399414062 12.616349220275879 12.921539306640625 13.080230712890625 12.955108642578125
        12.387467384338379 11.545150756835938 10.925628662109375 10.336616516113281 9.96734619140625 10.272529602050781
        10.721153259277344 10.907318115234375 11.001922607421875 11.102630615234375 10.965301513671875 10.708946228027344
        10.318305969238281 9.768975257873535 9.131141662597656 8.517715454101562 7.763908386230469 6.817832946777344
        6.445510387420654 6.878875732421875 7.092498779296875 6.839195251464844 7.049774169921875 7.9073486328125
        8.722190856933594 9.225746154785156 9.451582908630371 9.527877807617188 9.671318054199219 9.98565673828125
        10.660118103027344 11.365089416503906 11.749626159667969 11.89306640625 11.810661315917969 11.456649780273438
        10.946990013122559 10.599075317382812 10.464797973632812 10.342720031738281 10.10772705078125 9.747611045837402
        9.421066284179688 9.414962768554688 9.527877807617188 9.869682312011719 10.266426086425781 10.556349754333496
        10.629600524902344 10.382400512695312 9.863578796386719 9.265419006347656 8.792381286621094 8.783226013183594
        9.216591835021973 9.89105224609375 10.357978820800781 10.284737586975098 9.442428588867188 8.63979434967041
        8.694725036621094 9.134193420410156 9.439376831054688 9.723198890686035 9.94903564453125 9.659111022949219
        8.648948669433594 7.6754069328308105 7.345801830291748 7.455672740936279 7.461776256561279 7.293922424316406
        7.049774169921875 6.884979248046875 6.805625915527344 6.671349048614502 6.2959675788879395 5.920592784881592
        5.685600757598877 5.420089244842529 4.959259033203125 4.263435363769531 4.245124816894531 4.156623840332031
        4.181037902832031 4.235969543457031 4.339729309082031 4.599135875701904 4.5869293212890625 4.0528564453125
        3.897216796875 3.888061761856079 3.8209152221679688 3.857536554336548 3.949096441268921 4.3733062744140625
        5.188148498535156 4.843284606933594 4.513686656951904 4.318367004394531 4.263435363769531 4.5777740478515625
        4.864646911621094 4.971465587615967 4.861595153808594 4.6021881103515625 4.5747222900390625 4.4648590087890625
        4.623558044433594 4.782249450683594 4.4434967041015625 4.333625793457031 4.174934387207031 3.7232589721679688
        3.5706634521484375 3.7598800659179688 3.942992925643921 4.4709625244140625 5.294960021972656 4.928741455078125
        4.235969543457031 3.6896896362304688 3.3845062255859375 3.4058682918548584 3.851433038711548 4.4526519775390625
        5.069122314453125 5.023345947265625 4.733421325683594 4.4007720947265625 4.232917785644531 3.9857177734375
        3.833122491836548 4.150520324707031 4.782249450683594 5.645927429199219 6.03656005859375 5.072174072265625
        3.6194915771484375 2.4109649658203125 2.2919387817382812 2.8321151733398438 11.056854248046875 11.172828674316406
        11.352882385253906 11.349830627441406 11.423079490661621 11.774041175842285 12.143317222595215 12.314216613769531
        12.259285926818848 12.286750793457031 12.472914695739746 12.399673461914062 11.972412109375 11.691642761230469
        11.859489440917969 12.219612121582031 12.521742820739746 12.77199649810791 12.604141235351562 11.960205078125
        11.243019104003906 10.831016540527344 10.477005004882812 10.122993469238281 10.058899879455566 10.150459289550781
        10.187079429626465 10.190132141113281 10.211494445800781 10.419022560119629 10.739462852478027 10.730308532714844
        10.324409484863281 9.537033081054688 8.496353149414062 7.6326823234558105 7.229835510253906 7.089447021484375
        6.671348571777344 6.314277648925781 6.814781665802002 7.855461120605469 8.575697898864746 8.829002380371094
        8.960234642028809 9.121978759765625 9.201332092285156 9.308143615722656 9.826957702636719 10.693687438964844
        11.438339233398438 11.746574401855469 11.645866394042969 11.264381408691406 10.730308532714844 10.351875305175781
        10.129096984863281 9.92462158203125 9.695732116699219 9.414962768554688 9.131141662597656 8.957183837890625
        8.822898864746094 8.789329528808594 9.033477783203125 9.518722534179688 9.94903564453125 10.02838134765625
        9.741508483886719 9.424118041992188 9.210487365722656 9.128089904785156 9.241004943847656 9.558395385742188
        9.689628601074219 9.231849670410156 8.331550598144531 8.1026611328125 8.658103942871094 9.186073303222656
        9.408859252929688 9.604171752929688 9.866630554199219 9.820854187011719 9.189125061035156 7.870719909667969
        7.354957580566406 7.803581237792969 8.200325012207031 8.331550598144531 8.130134582519531 7.6631999015808105
        7.293922424316406 7.019256114959717 6.6286234855651855 6.253242492675781 6.04571533203125 5.688652038574219
        5.142372131347656 4.623558044433594 4.1199951171875 3.5828704833984375 3.6347579956054688 3.823967218399048
        3.842277765274048 4.052856922149658 3.9613037109375 3.4333343505859375 3.4302825927734375 3.7751388549804688
        4.0498046875 4.348884582519531 4.4251861572265625 4.08642578125 4.321418762207031 3.976562738418579
        3.8697433471679688 3.970458984375 3.970459222793579 4.150520324707031 4.08642578125 4.4679107666015625
        4.937896728515625 4.953155517578125 4.995880126953125 4.852439880371094 4.898223876953125 5.1271138191223145
        5.127113342285156 5.059967041015625 4.5197906494140625 3.885009765625 3.7659835815429688 3.9796142578125
        4.0528564453125 4.5838775634765625 5.166786193847656 4.870750904083252 4.348884582519531 3.7171552181243896
        3.4760587215423584 3.8392257690429688 4.687644958496094 5.590988636016846 5.969421863555908 5.4170379638671875
        4.644920349121094 4.4557037353515625 4.5503082275390625 4.5960845947265625 4.690696716308594 4.7883524894714355
        5.224769592285156 5.655082702636719 5.035552978515625 4.4984283447265625 4.757835388183594 4.370246887207031
        3.4791107177734375 2.908416748046875 10.531936645507812 10.922575950622559 11.191139221191406 11.291847229003906
        11.413925170898438 11.761833190917969 12.08837890625 12.234870910644531 12.204352378845215 12.161628723144531
        12.372199058532715 12.292854309082031 11.8961181640625 11.584823608398438 11.532943725585938 11.648918151855469
        11.813713073730469 12.115843772888184 12.213508605957031 11.847282409667969 11.343727111816406 11.130104064941406
        11.020233154296875 10.638755798339844 10.339668273925781 10.309150695800781 10.257270812988281 10.129097938537598
        10.184028625488281 10.586868286132812 11.111785888671875 11.34982967376709 11.117889404296875 10.449538230895996
        9.414962768554688 8.386489868164062 7.846305847167969 7.94091796875 7.8951416015625 7.480087757110596
        7.6143646240234375 8.252204895019531 8.496353149414062 8.554336547851562 8.728294372558594 8.999908447265625
        9.088409423828125 9.134193420410156 9.506515502929688 10.281684875488281 11.15451717376709 11.603134155273438
        11.557357788085938 11.23081111907959 10.885954856872559 10.528884887695312 10.11688232421875 9.631645202636719
        9.256263732910156 9.015167236328125 8.841209411621094 8.716087341308594 8.389541625976562 7.953125
        7.947021484375 8.374282836914062 8.877838134765625 9.280677795410156 9.442428588867188 9.518722534179688
        9.570602416992188 9.582809448242188 9.628593444824219 9.732353210449219 9.619430541992188 8.856468200683594
        7.663200378417969 7.461777210235596 8.093505859375 8.624534606933594 8.969390869140625 9.146400451660156
        9.201332092285156 9.250160217285156 9.225746154785156 8.523818969726562 7.98974609375 8.0538330078125
        8.352912902832031 8.594009399414062 8.584854125976562 8.282722473144531 7.995850086212158 7.650993347167969
        7.193214416503906 6.692710876464844 6.2746052742004395 5.832084655761719 5.417038440704346 5.041656017303467
        4.760887145996094 4.3336262702941895 3.8636398315429688 3.6378097534179688 3.7018966674804688 3.769035577774048
        3.6286544799804688 3.4028167724609375 3.4394378662109375 3.8148117065429688 4.193244934082031 4.5747222900390625
        4.7700419425964355 4.300056457519531 4.0162353515625 3.8514325618743896 3.860588312149048 3.885009765625
        3.8392255306243896 4.077270030975342 4.025390625 4.318367004394531 4.647972106933594 4.644920349121094
        4.953155517578125 4.855491638183594 4.886016845703125 5.169837951660156 4.910430908203125 4.806663513183594
        4.730369567871094 4.5716705322265625 4.416031360626221 4.4038238525390625 4.336677551269531 4.754783630371094
        5.264442443847656 4.947052001953125 4.5533599853515625 3.9857177734375 3.7598800659179688 4.275642395019531
        5.114898681640625 5.99383544921875 6.244087219238281 5.838188171386719 4.696800231933594 4.193244934082031
        4.5136871337890625 4.879913330078125 5.142372131347656 5.4414520263671875 5.5421600341796875 5.475021839141846
        4.370246887207031 4.132209777832031 5.145423889160156 6.04571533203125 5.4231414794921875 3.5798184871673584
        10.544144630432129 10.892059326171875 11.185035705566406 11.392562866210938 11.523789405822754 11.667228698730469
        11.917479515075684 12.112792015075684 11.9571533203125 11.9541015625 12.0487060546875 11.960205078125
        11.774041175842285 11.676383972167969 11.606186866760254 11.310157775878906 11.062957763671875 11.178932189941406
        11.377305030822754 11.304054260253906 11.206398010253906 11.163673400878906 11.059906005859375 10.85237979888916
        10.812705993652344 10.861534118652344 10.898162841796875 10.898162841796875 10.901214599609375 11.050750732421875
        11.337623596191406 11.752677917480469 11.96630859375 11.716055870056152 11.069061279296875 10.202339172363281
        9.363075256347656 8.841209411621094 8.429215431213379 8.130134582519531 8.224739074707031 8.401748657226562
        8.301033020019531 8.401748657226562 8.734397888183594 9.152503967285156 9.408859252929688 9.512619018554688
        9.723196983337402 10.208442687988281 10.754722595214844 11.188087463378906 11.441390991210938 11.416976928710938
        11.276588439941406 11.114837646484375 10.876800537109375 10.354927062988281 9.680472373962402 9.121978759765625
        8.822898864746094 8.737449645996094 8.392592430114746 7.892090320587158 7.760856628417969 7.9256591796875
        8.352912902832031 8.999907493591309 9.567550659179688 9.854423522949219 9.924622535705566 10.08331298828125
        10.226753234863281 10.11688232421875 9.784233093261719 8.993804931640625 7.345802307128906 6.5645294189453125
        6.958221435546875 7.599106311798096 8.056884765625 8.175910949707031 8.081298828125 8.139289855957031
        8.444473266601562 8.639793395996094 8.682518005371094 8.578750610351562 8.487197875976562 8.542129516601562
        8.679466247558594 8.746604919433594 8.603164672851562 8.307136535644531 7.9134521484375 7.333595275878906
        6.781211853027344 6.4790802001953125 6.317329406738281 6.131172180175781 5.89617919921875 5.404830455780029
        4.858543395996094 4.5289459228515625 4.361091613769531 4.235969543457031 3.927734375 3.7812423706054688
        3.8148117065429688 3.9490966796875 4.257331848144531 4.669334411621094 4.8707499504089355 4.660179138183594
        4.3885650634765625 4.281745910644531 4.324470520019531 4.3000569343566895 4.11083984375 4.220710754394531
        4.3855133056640625 4.4587554931640625 4.4373931884765625 4.226814270019531 4.4648590087890625 4.4343414306640625
        4.4984283447265625 4.705955505371094 4.4587554931640625 4.687644958496094 5.108795166015625 5.343787670135498
        5.261390686035156 4.974517822265625 4.864646911621094 5.319374084472656 5.682548522949219 5.047760009765625
        4.657127380371094 4.3855133056640625 4.242073059082031 4.623558044433594 5.206459045410156 5.835136890411377
        5.853446960449219 5.774101734161377 4.892120361328125 3.903320074081421 4.229866027832031 4.821922302246094
        5.148475646972656 5.365150451660156 5.4445037841796875 5.401778697967529 4.831078052520752 4.318367004394531
        4.4526519775390625 5.240028381347656 5.4078826904296875 4.358039855957031 11.404769897460938 11.554306030273438
        11.587875366210938 11.575669288635254 11.554306030273438 11.584823608398438 11.722160339355469 11.798455238342285
        11.618392944335938 11.621444702148438 11.822868347167969 11.734368324279785 11.453597068786621 11.416976928710938
        11.413925170898438 10.974457740783691 10.528884887695312 10.440383911132812 10.605178833007812 10.693687438964844
        10.684532165527344 10.592971801757812 10.480056762695312 10.541091918945312 10.79134464263916 11.038543701171875
        11.285743713378906 11.407821655273438 11.420029640197754 11.505476951599121 11.764885902404785 12.201301574707031
        12.555313110351562 12.570571899414062 12.302009582519531 11.850334167480469 11.120942115783691 10.269477844238281
        9.314248085021973 8.432266235351562 8.166755676269531 8.139289855957031 8.0111083984375 8.105712890625
        8.590957641601562 9.292885780334473 9.772026062011719 9.90020751953125 9.98870849609375 10.177925109863281
        10.312202453613281 10.559402465820312 10.974456787109375 11.185035705566406 11.206398010253906 11.264381408691406
        11.343727111816406 11.130104064941406 10.553297996520996 9.717095375061035 9.091461181640625 8.771018981933594
        8.383438110351562 8.0782470703125 7.995849609375 7.943970203399658 8.203376770019531 8.865623474121094
        9.524826049804688 9.811698913574219 9.823905944824219 10.02838134765625 10.385451316833496 10.446487426757812
        10.165718078613281 9.372239112854004 7.315284729003906 6.00299072265625 6.256294250488281 6.964324951171875
        7.327491283416748 7.403793811798096 7.376327037811279 7.5502777099609375 8.008056640625 8.624534606933594
        9.131141662597656 9.31119441986084 9.002960205078125 8.697776794433594 8.688621520996094 8.777122497558594
        8.749656677246094 8.612319946289062 8.337654113769531 7.9195556640625 7.623527526855469 7.4282073974609375
        7.272560119628906 7.263404846191406 7.061980724334717 6.4546661376953125 6.03961181640625 5.90838623046875
        5.691703796386719 5.587936878204346 5.258338928222656 4.696800231933594 4.358039855957031 4.0498046875
        4.0955810546875 4.5533599853515625 4.965362548828125 4.922637939453125 4.809715270996094 4.812767028808594
        4.959259033203125 5.087432861328125 4.647972106933594 4.3275227546691895 4.5228424072265625 4.278694152832031
        4.1077880859375 4.0589599609375 4.123054504394531 3.9918212890625 3.9735107421875 4.144416809082031
        4.342781066894531 4.928741455078125 5.4445037841796875 5.816825866699219 5.868705749511719 5.5085906982421875
        5.5848846435546875 6.12200927734375 6.09149169921875 5.1942524909973145 4.684593200683594 4.297004699707031
        4.3977203369140625 4.7883524894714355 5.334632873535156 5.728324890136719 5.5757293701171875 5.200355529785156
        5.011138916015625 4.226814270019531 4.193244934082031 4.748680114746094 4.974518299102783 5.105743408203125
        5.4048309326171875 5.316322326660156 5.343788146972656 4.983673095703125 4.6632304191589355 4.928741455078125
        4.5960845947265625 3.9674072265625 12.900177001953125 12.76894474029541 12.466812133789062 12.140266418457031
        11.9296875 11.810661315917969 11.709953308105469 11.478012084960938 11.139259338378906 11.288795471191406
        11.761834144592285 11.844230651855469 11.532943725585938 11.206398010253906 11.047698974609375 10.702841758728027
        10.446487426757812 10.400711059570312 10.361030578613281 10.248115539550781 10.02227783203125 9.799491882324219
        9.750663757324219 10.02227783203125 10.458694458007812 10.815757751464844 11.093475341796875 11.23996639251709
        11.340675354003906 11.624504089355469 12.1036376953125 12.442398071289062 12.591934204101562 12.787254333496094
        12.854393005371094 12.723167419433594 12.311164855957031 11.508529663085938 10.278633117675781 9.018218994140625
        8.291877746582031 8.01416015625 7.834098815917969 7.895142078399658 8.572647094726562 9.527877807617188
        10.09552001953125 10.11383056640625 9.93682861328125 9.93682861328125 10.00396728515625 10.00701904296875
        10.01312255859375 10.220648765563965 10.553298950195312 10.882904052734375 11.148414611816406 11.17587947845459
        10.971405029296875 10.495315551757812 9.854423522949219 9.161659240722656 8.447525978088379 8.0782470703125
        7.913452625274658 7.791374206542969 7.989745616912842 8.496353149414062 9.060943603515625 9.335609436035156
        9.512619018554688 9.93377685546875 10.446487426757812 10.803550720214844 10.925628662109375 10.293890953063965
        8.304084777832031 6.845298767089844 6.830039978027344 7.2145771980285645 7.4556732177734375 7.733390808105469
        8.05078125 8.340705871582031 8.664207458496094 9.067046165466309 9.479049682617188 9.753715515136719
        9.573654174804688 9.152503967285156 8.841209411621094 8.661154747009277 8.661155700683594 8.789329528808594
        8.716087341308594 8.447525978088379 8.313240051269531 7.9927978515625 7.5228118896484375 7.330543518066406
        7.260353088378906 7.251197814941406 7.293922424316406 7.150489807128906 6.796470642089844 6.677452087402344
        6.4729766845703125 5.719169616699219 4.864646911621094 4.187141418457031 4.0528564453125 4.5869293212890625
        5.130165100097656 5.072174072265625 4.907378673553467 4.940948963165283 5.044707775115967 5.1942524909973145
        5.063018798828125 4.644920349121094 4.623558044433594 4.0772705078125 3.8209152221679688 3.7232589721679688
        3.5676116943359375 3.5218353271484375 3.7781906127929688 4.08642578125 4.4068756103515625 4.779197692871094
        5.233924865722656 5.5482635498046875 5.801567077636719 5.771049499511719 6.170845031738281 6.6225199699401855
        6.338691234588623 5.4078826904296875 4.828025817871094 4.4251861572265625 4.791404724121094 5.154579162597656
        5.508590221405029 5.594040393829346 5.240028381347656 4.5167388916015625 4.727318286895752 4.745628356933594
        4.647972106933594 4.916534423828125 4.870750427246094 4.974517822265625 5.288856506347656 5.157630920410156
        5.096588134765625 5.340736389160156 5.5055389404296875 5.1789937019348145 4.4312896728515625 4.0467529296875
        13.821830749511719 13.476974487304688 13.113800048828125 12.692648887634277 12.237921714782715 11.972412109375
        11.706902503967285 11.282691955566406 10.885955810546875 11.038543701171875 11.453598022460938 11.755730628967285
        11.642814636230469 11.24606990814209 10.931731224060059 10.71505069732666 10.696739196777344 10.663169860839844
        10.324409484863281 9.93072509765625 9.744559288024902 9.579757690429688 9.515670776367188 9.744560241699219
        10.06195068359375 10.229804992675781 10.473953247070312 10.867637634277344 11.301003456115723 11.648918151855469
        11.96630859375 12.0853271484375 12.1097412109375 12.338630676269531 12.64382266998291 12.698753356933594
        12.558364868164062 12.070069313049316 11.200294494628906 10.02532958984375 8.920562744140625 8.1209716796875
        7.666252136230469 7.96533203125 8.868675231933594 9.738456726074219 10.229804992675781 10.208442687988281
        9.842216491699219 9.686576843261719 9.762870788574219 9.683526039123535 9.381393432617188 9.317298889160156
        9.683525085449219 10.132148742675781 10.522781372070312 10.769981384277344 10.849327087402344 10.788291931152344
        10.592971801757812 10.03448486328125 9.137245178222656 8.423111915588379 8.0965576171875 7.943970203399658
        8.0721435546875 8.380386352539062 8.761863708496094 9.085357666015625 9.448532104492188 9.94903564453125
        10.394607543945312 10.733360290527344 11.178932189941406 10.873748779296875 9.414962768554688 8.117919921875
        7.763908386230469 7.840202331542969 8.224739074707031 8.886993408203125 9.399703979492188 9.604171752929688
        9.616378784179688 9.726249694824219 9.866629600524902 9.97955322265625 9.93072509765625 9.692680358886719
        9.317298889160156 8.792381286621094 8.581802368164062 8.749656677246094 8.859519958496094 8.886993408203125
        8.847312927246094 8.383439064025879 7.4739837646484375 6.753746509552002 6.5980987548828125 7.052825927734375
        7.376327037811279 7.266456604003906 7.107757568359375 7.049774169921875 6.796471118927002 6.015198230743408
        5.105742931365967 4.5106353759765625 4.4160308837890625 4.837181091308594 5.224769592285156 5.075225830078125
        4.687644958496094 4.5686187744140625 4.937896728515625 4.995880126953125 4.974517822265625 5.066070079803467
        4.681541442871094 4.0345458984375 3.5798184871673584 3.5615079402923584 3.4791109561920166 3.921630859375
        4.4862213134765625 4.8005595207214355 4.919586181640625 4.647972106933594 4.751732349395752 4.925689697265625
        5.2522358894348145 5.667289733886719 6.268501281738281 6.5065460205078125 6.1830525398254395 5.4750213623046875
        4.803611755371094 4.5075836181640625 4.937896728515625 5.316322326660156 5.6031951904296875 5.514693737030029
        4.989776611328125 4.5655670166015625 4.431289196014404 4.5136871337890625 4.800559997558594 5.102691650390625
        5.026397705078125 4.995880126953125 4.950103282928467 4.858543395996094 5.008087158203125 5.298011779785156
        5.682548522949219 5.792411804199219 5.3804168701171875 4.821922302246094 13.791312217712402 13.449508666992188
        13.214515686035156 12.869651794433594 12.491226196289062 12.0670166015625 11.658073425292969 11.316261291503906
        11.230812072753906 11.279640197753906 11.267433166503906 11.194190979003906 11.178932189941406 11.041595458984375
        10.711997985839844 10.461746215820312 10.446486473083496 10.391555786132812 10.153511047363281 10.01617431640625
        10.09552001953125 10.02227783203125 9.92767333984375 9.823905944824219 9.732353210449219 9.662162780761719
        9.99176025390625 10.586868286132812 11.23081111907959 11.474959373474121 11.493270874023438 11.487166404724121
        11.581772804260254 11.786247253417969 12.0487060546875 12.179939270019531 12.0914306640625 11.9022216796875
        11.572616577148438 10.925628662109375 9.88189697265625 8.63674259185791 7.885985851287842 8.203376770019531
        9.112823486328125 9.88494873046875 10.306098937988281 10.296942710876465 9.98565673828125 9.830009460449219
        10.04058837890625 10.168769836425781 9.845269203186035 9.341712951660156 9.137245178222656 9.207435607910156
        9.460739135742188 9.863578796386719 10.162666320800781 10.477005004882812 10.800498962402344 10.751670837402344
        10.208442687988281 9.424118995666504 8.908355712890625 8.502456665039062 8.389541625976562 8.526870727539062
        8.850364685058594 9.173866271972656 9.479049682617188 9.814750671386719 10.132148742675781 10.446487426757812
        10.940887451171875 10.611282348632812 9.295936584472656 8.258308410644531 8.227789878845215 8.664206504821777
        9.311195373535156 9.94293212890625 10.321357727050781 10.495315551757812 10.480056762695312 10.419021606445312
        10.248115539550781 9.94293212890625 9.692680358886719 9.793388366699219 9.775077819824219 9.320350646972656
        8.954132080078125 8.804588317871094 8.679466247558594 8.868675231933594 9.210487365722656 9.024322509765625
        8.203376770019531 7.2084736824035645 6.634727478027344 6.604202747344971 6.5584259033203125 6.5065460205078125
        6.6194610595703125 6.851402282714844 6.842247009277344 6.10980224609375 5.298011302947998 4.876861572265625
        4.901275634765625 5.136268138885498 5.285804748535156 5.032501220703125 4.3763580322265625 4.239021301269531
        4.669334411621094 4.776145935058594 4.757835388183594 5.001983642578125 4.4465484619140625 3.903320074081421
        3.3875579833984375 3.6896896362304688 3.970458984375 4.702903747558594 5.291908264160156 5.4200897216796875
        5.4322967529296875 4.687644958496094 4.4373931884765625 4.6052398681640625 4.953155994415283 5.4017791748046875
        5.789360523223877 5.743583679199219 5.5940399169921875 5.2522358894348145 4.724266052246094 4.327522277832031
        4.678489685058594 5.142372131347656 5.5024871826171875 5.6184539794921875 5.218666076660156 5.063018798828125
        4.5655670166015625 4.4862213134765625 4.681541442871094 5.111846923828125 5.053863525390625 4.788352966308594
        4.803611755371094 5.072174072265625 5.343788146972656 5.4445037841796875 5.642875671386719 5.648979187011719
        5.334632873535156 4.998932361602783 13.397628784179688 13.196205139160156 13.025299072265625 12.771995544433594
        12.482070922851562 12.051756858825684 11.621444702148438 11.487168312072754 11.496322631835938 11.420029640197754
        10.983612060546875 10.626548767089844 10.681480407714844 10.86458683013916 10.773033142089844 10.547195434570312
        10.501419067382812 10.437332153320312 10.296942710876465 10.391555786132812 10.525833129882812 10.473953247070312
        10.321357727050781 9.94293212890625 9.793388366699219 9.842216491699219 10.174873352050781 10.470901489257812
        10.831016540527344 11.050750732421875 11.273536682128906 11.401719093322754 11.535994529724121 11.569564819335938
        11.545150756835938 11.551255226135254 11.520736694335938 11.499374389648438 11.542098045349121 11.261329650878906
        10.452590942382812 9.372238159179688 8.670310974121094 8.624534606933594 9.128089904785156 9.833061218261719
        10.287788391113281 10.327461242675781 10.242012023925781 10.336616516113281 10.583816528320312 10.773032188415527
        10.611282348632812 10.04974365234375 9.430221557617188 9.045684814453125 9.027374267578125 9.387496948242188
        9.860526084899902 10.443435668945312 10.937835693359375 11.029388427734375 10.861534118652344 10.333564758300781
        9.726250648498535 8.926666259765625 8.444473266601562 8.609268188476562 9.128089904785156 9.552291870117188
        9.677421569824219 9.793388366699219 10.06195068359375 10.507521629333496 10.882904052734375 10.220648765563965
        8.743553161621094 8.154548645019531 8.645896911621094 9.521774291992188 10.284737586975098 10.806602478027344
        11.154518127441406 11.383407592773438 11.316261291503906 10.989715576171875 10.419021606445312 9.714042663574219
        9.289833068847656 9.472946166992188 9.87274169921875 9.99481201171875 9.90936279296875 9.442428588867188
        8.685569763183594 8.581802368164062 9.100616455078125 9.414962768554688 9.338661193847656 9.073150634765625
        8.481094360351562 7.617416858673096 6.747642517089844 6.271553039550781 6.155586242675781 6.332587718963623
        6.6621928215026855 6.5858917236328125 6.158637523651123 5.633720397949219 5.264441967010498 5.230873107910156
        5.343788146972656 5.261390686035156 4.794456958770752 4.629661560058594 4.3824615478515625 4.278694152832031
        4.3916168212890625 4.4190826416015625 4.184089660644531 3.5767669677734375 3.3143081665039062 3.915527105331421
        4.4038238525390625 4.867698669433594 5.307167053222656 5.3987274169921875 5.371253967285156 4.794456481933594
        4.589981555938721 4.736473083496094 4.965362548828125 5.154579162597656 5.371253490447998 5.084381103515625
        4.928741455078125 4.727317810058594 4.4465484619140625 4.019287109375 4.3885650634765625 4.904327392578125
        5.4750213623046875 5.88092041015625 5.719169616699219 5.4445037841796875 4.864646911621094 4.3885650634765625
        4.025390625 4.205451965332031 4.5075836181640625 4.5411529541015625 5.066070556640625 5.5513153076171875
        5.648979187011719 5.5513153076171875 5.3926239013671875 5.3743133544921875 5.200355529785156 4.901275634765625
        13.156532287597656 13.043609619140625 12.781150817871094 12.460708618164062 12.186042785644531 11.9022216796875
        11.709953308105469 11.716056823730469 11.667227745056152 11.246070861816406 10.693687438964844 10.63875675201416
        10.919525146484375 11.218605041503906 11.297951698303223 11.188087463378906 11.059906005859375 10.977508544921875
        10.928680419921875 10.971405029296875 10.983612060546875 10.940887451171875 10.583816528320312 10.187080383300781
        10.235908508300781 10.419020652770996 10.510574340820312 10.437332153320312 10.525832176208496 10.818809509277344
        11.343727111816406 11.642814636230469 11.679435729980469 11.468856811523438 11.169776916503906 11.026336669921875
        11.154518127441406 11.30100154876709 11.349830627441406 11.178932189941406 10.617385864257812 10.02227783203125
        9.686576843261719 9.317298889160156 9.265419006347656 9.549240112304688 9.823905944824219 9.90325927734375
        10.11688232421875 10.467849731445312 10.824913024902344 11.014129638671875 11.020232200622559 10.846274375915527
        10.434280395507812 9.98870849609375 9.808647155761719 10.092469215393066 10.608230590820312 10.983612060546875
        11.154518127441406 10.995819091796875 10.892059326171875 10.666221618652344 10.229804992675781 9.22879695892334
        8.618423461914062 8.880889892578125 9.564498901367188 10.01007080078125 10.04058837890625 9.98870849609375
        10.190132141113281 10.611282348632812 10.901214599609375 10.229804992675781 8.917510986328125 8.572647094726562
        9.146400451660156 9.869682312011719 10.617385864257812 11.273536682128906 11.688591003417969 11.737419128417969
        11.410873413085938 10.910369873046875 10.147407531738281 9.369178771972656 8.966339111328125 9.082305908203125
        9.512619018554688 10.06805419921875 10.492263793945312 10.177924156188965 9.192176818847656 8.642844200134277
        8.618423461914062 8.737448692321777 9.112823486328125 9.595016479492188 9.646903991699219 9.070098876953125
        8.191169738769531 7.364112854003906 6.674400329589844 6.1922078132629395 6.265449523925781 6.5767364501953125
        6.762901306152344 6.5279083251953125 5.899230480194092 5.487228870391846 5.5452117919921875 5.7252726554870605
        5.490279674530029 5.038604259490967 4.257331848144531 3.7690353393554688 4.0009765625 3.970458984375
        3.7080001831054688 3.5370941162109375 3.4424896240234375 4.156623363494873 4.5014801025390625 4.660179138183594
        5.001983642578125 5.145423889160156 4.992828369140625 4.666282653808594 4.693748474121094 4.568618297576904
        4.5716705322265625 4.699851989746094 4.971466064453125 4.812767028808594 4.5960845947265625 4.306159973144531
        3.93994140625 3.921630859375 4.504532337188721 5.169837951660156 5.880920886993408 6.256294250488281
        5.96636962890625 5.4841766357421875 4.995880126953125 4.132209777832031 3.7324142456054688 3.7110517024993896
        4.4679107666015625 4.944000244140625 5.728324890136719 6.4333038330078125 6.5828399658203125 5.99383544921875
        5.310218811035156 5.127113342285156 5.206459045410156 5.319374084472656 13.147377014160156 12.930694580078125
        12.582777976989746 12.320320129394531 12.125007629394531 11.999878883361816 11.935791969299316 11.780142784118652
        11.502426147460938 10.962249755859375 10.657066345214844 10.925628662109375 11.236915588378906 11.563460350036621
        11.734367370605469 11.590927124023438 11.447494506835938 11.349830627441406 11.355934143066406 11.407821655273438
        11.410873413085938 11.386459350585938 10.959197998046875 10.571609497070312 10.507522583007812 10.614333152770996
        10.705893516540527 10.684532165527344 10.864584922790527 11.090424537658691 11.395615577697754 11.627555847167969
        11.670279502868652 11.340675354003906 10.864585876464844 10.696739196777344 11.062957763671875 11.34067440032959
        11.343728065490723 11.178932189941406 10.827964782714844 10.596022605895996 10.446487426757812 10.02838134765625
        9.720146179199219 9.573654174804688 9.546188354492188 9.573654174804688 9.802543640136719 10.306098937988281
        10.66622257232666 10.791343688964844 10.889007568359375 11.124000549316406 11.056853294372559 10.629600524902344
        10.406815528869629 10.580764770507812 10.895111083984375 10.959198951721191 10.837120056152344 10.614334106445312
        10.522781372070312 10.605178833007812 10.330513000488281 9.454634666442871 9.045684814453125 9.317298889160156
        9.839164733886719 10.10467529296875 10.01922607421875 9.820854187011719 9.863578796386719 10.187080383300781
        10.461746215820312 10.03753662109375 9.137245178222656 8.987701416015625 9.298988342285156 9.701835632324219
        10.303047180175781 10.885955810546875 11.188087463378906 11.075164794921875 10.635704040527344 10.226753234863281
        9.598068237304688 8.963287353515625 8.642845153808594 8.661155700683594 8.975494384765625 9.543135643005371
        10.147407531738281 10.266426086425781 9.674369812011719 9.073149681091309 8.352912902832031 7.889037609100342
        8.166755676269531 8.816795349121094 9.204383850097656 9.060943603515625 8.676414489746094 8.258308410644531
        7.715080261230469 6.927703857421875 6.4058380126953125 6.3783721923828125 6.6042022705078125 6.817832946777344
        6.6591410636901855 6.299018859863281 6.00909423828125 6.00604248046875 6.03961181640625 5.88397216796875
        5.252234935760498 4.281745910644531 3.7324142456054688 3.5706632137298584 3.5828704833984375 3.5431973934173584
        3.89111328125 4.336677551269531 4.333625793457031 4.361091613769531 4.583877086639404 4.727317810058594
        4.5289459228515625 4.348884582519531 4.303108215332031 3.875854253768921 3.903320550918579 4.184089660644531
        4.4892730712890625 4.5442047119140625 4.4587554931640625 4.272590637207031 4.147468566894531 4.4892730712890625
        5.078277111053467 5.792411804199219 6.332588195800781 6.250190734863281 5.7039103507995605 5.188148498535156
        4.757835388183594 4.0894775390625 3.7781903743743896 3.6530685424804688 4.3946685791015625 4.947052001953125
        5.4078826904296875 6.05792236328125 6.5675811767578125 6.2440876960754395 5.645927429199219 5.5482635498046875
        5.8015666007995605 6.00909423828125 13.058869361877441 12.744529724121094 12.573623657226562 12.479018211364746
        12.265388488769531 11.9815673828125 11.865593910217285 11.774040222167969 11.407821655273438 10.931732177734375
        10.818809509277344 11.175881385803223 11.487166404724121 11.807609558105469 11.868644714355469 11.676383972167969
        11.438339233398438 11.310157775878906 11.398667335510254 11.554306030273438 11.581772804260254 11.429183959960938
        11.029388427734375 10.739463806152344 10.611282348632812 10.715049743652344 10.977508544921875 11.233863830566406
        11.493270874023438 11.529891967773438 11.499374389648438 11.517684936523438 11.539047241210938 11.178933143615723
        10.574662208557129 10.489212036132812 11.014129638671875 11.420029640197754 11.389510154724121 11.163674354553223
        11.069061279296875 11.050750732421875 10.812705993652344 10.406814575195312 10.153511047363281 9.88494873046875
        9.695732116699219 9.607223510742188 9.817802429199219 10.168768882751465 10.303046226501465 10.312202453613281
        10.428176879882812 10.827964782714844 10.889007568359375 10.504470825195312 10.263374328613281 10.245063781738281
        10.248115539550781 10.116883277893066 9.93072509765625 9.87884521484375 10.10772705078125 10.403762817382812
        10.184028625488281 9.488204956054688 9.259315490722656 9.347816467285156 9.552291870117188 9.619430541992188
        9.533981323242188 9.341712951660156 9.256263732910156 9.509567260742188 9.772026062011719 9.549240112304688
        9.100616455078125 9.173866271972656 9.347817420959473 9.497360229492188 9.823905944824219 10.04669189453125
        10.09246826171875 9.99481201171875 9.790336608886719 9.686576843261719 9.305091857910156 8.758811950683594
        8.383438110351562 8.316291809082031 8.633689880371094 9.140296936035156 9.726249694824219 10.04669189453125
        9.96124267578125 9.665215492248535 8.902252197265625 8.301033020019531 8.359016418457031 8.789329528808594
        8.987701416015625 8.572647094726562 8.059937477111816 8.020263671875 8.209480285644531 8.166755676269531
        7.809684753417969 7.2817158699035645 6.939910888671875 6.979583740234375 7.116912841796875 6.970428466796875
        6.5645294189453125 6.204414367675781 6.292914867401123 6.5034942626953125 6.125068664550781 5.322425842285156
        4.675437927246094 4.315315246582031 4.0711669921875 3.9674072265625 4.4831695556640625 4.6204986572265625
        4.367195129394531 4.297004699707031 4.3580403327941895 4.226814270019531 3.872802495956421 3.6683273315429688
        3.6744308471679688 3.6774826049804688 3.875854730606079 4.129158020019531 4.269538402557373 4.354988098144531
        4.4068756103515625 4.5838775634765625 4.895172119140625 5.096588134765625 5.4231414794921875 5.98162841796875
        6.344795227050781 6.08538818359375 5.4933319091796875 4.998931407928467 4.669334411621094 4.6082916259765625
        4.547256946563721 4.330574035644531 5.017242431640625 5.3956756591796875 5.4231414794921875 5.648979187011719
        5.798515319824219 5.627616882324219 5.6123504638671875 5.98773193359375 6.338691711425781 6.265449523925781
        12.768943786621094 12.417983055114746 12.399673461914062 12.427139282226562 12.173835754394531 11.795402526855469
        11.587876319885254 11.548202514648438 11.398666381835938 11.209450721740723 11.33457088470459 11.514632225036621
        11.682488441467285 11.786247253417969 11.630607604980469 11.310157775878906 11.020233154296875 10.925628662109375
        11.13620662689209 11.362037658691406 11.30405330657959 11.035491943359375 10.852378845214844 10.910368919372559
        10.925628662109375 10.980560302734375 11.206398010253906 11.423080444335938 11.636711120605469 11.648918151855469
        11.627554893493652 11.444441795349121 11.157570838928223 10.687583923339844 10.266426086425781 10.293891906738281
        10.800498962402344 11.191139221191406 11.261329650878906 11.133155822753906 11.145362854003906 11.084320068359375
        10.77303409576416 10.568557739257812 10.504470825195312 10.287787437438965 9.933775901794434 9.695732116699219
        9.823904991149902 10.08941650390625 10.147407531738281 10.165718078613281 10.251168251037598 10.522781372070312
        10.547195434570312 10.238961219787598 10.019227027893066 9.860526084899902 9.683525085449219 9.454634666442871
        9.283729553222656 9.421066284179688 9.949036598205566 10.376296997070312 10.217597961425781 9.653007507324219
        9.231849670410156 9.009063720703125 9.057890892028809 9.173866271972656 9.195228576660156 9.073150634765625
        9.060943603515625 9.326454162597656 9.601119041442871 9.421066284179688 9.176918029785156 9.381393432617188
        9.567550659179688 9.588912963867188 9.527877807617188 9.210487365722656 9.006011962890625 9.036529541015625
        9.31424617767334 9.695732116699219 9.381393432617188 8.630638122558594 8.175910949707031 8.175910949707031
        8.688621520996094 9.225746154785156 9.628593444824219 9.91546630859375 10.07110595703125 10.135200500488281
        9.839165687561035 9.488204002380371 9.424118041992188 9.570602416992188 9.518721580505371 8.746604919433594
        7.9012451171875 7.840202331542969 8.340705871582031 8.902252197265625 9.039581298828125 8.471939086914062
        7.742546081542969 7.4037933349609375 7.4556732177734375 7.4831390380859375 7.248146057128906 6.738487243652344
        6.5553741455078125 6.5889434814453125 6.4241485595703125 6.2593464851379395 6.207466125488281 6.02130126953125
        5.316322326660156 4.873809814453125 5.1332173347473145 5.240028381347656 4.934844970703125 4.794456481933594
        4.760887145996094 4.5838775634765625 4.345832824707031 4.043701171875 3.91552734375 4.171882629394531
        4.501479625701904 4.702903747558594 4.635765552520752 4.5747222900390625 4.626609802246094 4.983673095703125
        5.264442443847656 5.209510803222656 5.307166576385498 5.667289733886719 5.932799816131592 5.88397216796875
        5.4322967529296875 5.038604736328125 4.943999767303467 5.151527404785156 5.1332173347473145 5.136268615722656
        5.652030944824219 5.841239929199219 5.853446960449219 5.734428405761719 5.304115295410156 4.992828369140625
        5.383468151092529 6.02740478515625 6.372268199920654 6.176948547363281 12.469864845275879 12.256234169006348
        12.277596473693848 12.329475402832031 12.207405090332031 11.9022216796875 11.624504089355469 11.468856811523438
        11.426132202148438 11.581771850585938 11.850335121154785 11.899169921875 11.8900146484375 11.697747230529785
        11.26438045501709 10.858482360839844 10.663169860839844 10.632652282714844 10.760826110839844 10.849327087402344
        10.754722595214844 10.690635681152344 10.879852294921875 11.087370872497559 11.090423583984375 11.102630615234375
        11.169776916503906 11.178932189941406 11.352882385253906 11.493270874023438 11.468856811523438 11.178932189941406
        10.663169860839844 10.10162353515625 9.814750671386719 9.97955322265625 10.480056762695312 10.855430603027344
        10.971405029296875 10.934782981872559 10.922576904296875 10.818809509277344 10.702842712402344 10.815756797790527
        10.943939208984375 10.693687438964844 10.06195068359375 9.521774291992188 9.491256713867188 9.823905944824219
        10.141304016113281 10.367134094238281 10.495315551757812 10.553298950195312 10.480056762695312 10.318305969238281
        10.281684875488281 10.275581359863281 10.159614562988281 9.811698913574219 9.408859252929688 9.329505920410156
        9.820854187011719 10.278633117675781 10.199287414550781 9.744560241699219 9.262367248535156 9.103668212890625
        9.237953186035156 9.451582908630371 9.653007507324219 9.729301452636719 9.851371765136719 9.98870849609375
        10.00701904296875 9.613327026367188 9.411911010742188 9.659111022949219 9.860527038574219 9.778129577636719
        9.378341674804688 8.734397888183594 8.423110961914062 8.725242614746094 9.396652221679688 10.00701904296875
        9.656059265136719 8.606216430664062 7.9439697265625 8.0782470703125 8.706932067871094 9.189125061035156
        9.271522521972656 9.399703979492188 9.735404014587402 10.01617431640625 10.01922607421875 9.95208740234375
        10.171821594238281 10.455642700195312 10.394607543945312 9.735404014587402 8.819847106933594 8.453628540039062
        8.758811950683594 9.216590881347656 9.274575233459473 8.688621520996094 8.001953125 7.6998209953308105
        7.773063659667969 7.9989013671875 8.0751953125 7.6143646240234375 7.1871113777160645 7.101654052734375
        7.049774169921875 7.116912841796875 7.205421447753906 7.1993184089660645 6.701866149902344 6.097594738006592
        6.04876708984375 6.07623291015625 5.764945983886719 5.719169616699219 5.8717570304870605 5.88397216796875
        5.783256530761719 5.5055389404296875 5.108795166015625 5.017242431640625 5.2217183113098145 5.3285298347473145
        5.206459045410156 5.154579162597656 5.185096740722656 5.294960021972656 5.307167053222656 5.194252014160156
        5.240028381347656 5.4445037841796875 5.648979187011719 5.5696258544921875 5.023345947265625 5.059966564178467
        5.700859069824219 5.941956043243408 5.5787811279296875 5.4963836669921875 5.688652038574219 5.850395202636719
        5.96636962890625 5.7710490226745605 5.075225830078125 4.702903747558594 5.285804748535156 6.02130126953125
        6.338691234588623 6.170845031738281 12.146369934082031 12.082275390625 12.140266418457031 12.381362915039062
        12.570571899414062 12.271492004394531 11.862541198730469 11.557357788085938 11.517684936523438 11.697746276855469
        11.850334167480469 11.8961181640625 11.984619140625 11.713005065917969 11.230812072753906 10.901214599609375
        10.675376892089844 10.446487426757812 10.364082336425781 10.321357727050781 10.351875305175781 10.663169860839844
        11.139259338378906 11.255226135253906 11.081267356872559 10.995819091796875 10.946990966796875 10.934783935546875
        11.090422630310059 11.270484924316406 11.307106971740723 11.014129638671875 10.458694458007812 9.811697959899902
        9.515670776367188 9.811698913574219 10.385452270507812 10.696739196777344 10.617385864257812 10.501419067382812
        10.541091918945312 10.669273376464844 10.794395446777344 10.992767333984375 11.011077880859375 10.711997985839844
        9.99176025390625 9.344764709472656 9.167762756347656 9.414962768554688 9.851370811462402 10.278633117675781
        10.534988403320312 10.559402465820312 10.464797973632812 10.596023559570312 10.983612060546875 11.313209533691406
        11.316262245178223 10.794395446777344 10.01007080078125 9.497360229492188 9.607223510742188 9.97650146484375
        10.000916481018066 9.671318054199219 9.494308471679688 9.689628601074219 9.94293212890625 10.132148742675781
        10.470901489257812 10.788291931152344 11.114837646484375 11.072113037109375 10.565505981445312 9.87884521484375
        9.588912963867188 9.860527038574219 10.132148742675781 10.04669189453125 9.717094421386719 9.262367248535156
        9.14639949798584 9.488204956054688 10.03448486328125 10.385452270507812 9.92767333984375 8.709983825683594
        7.867668151855469 7.901245594024658 8.398696899414062 8.682518005371094 8.771018981933594 9.021270751953125
        9.411911010742188 9.533981323242188 9.463790893554688 9.613326072692871 10.052794456481934 10.577713012695312
        10.882904052734375 10.889007568359375 10.376296997070312 9.93377685546875 9.91851806640625 9.95513916015625
        9.656059265136719 8.905303955078125 8.212532043457031 7.9775390625 8.06298828125 8.508560180664062
        8.761863708496094 8.374282836914062 7.934814453125 7.815788269042969 7.8585124015808105 7.9134521484375
        7.7608561515808105 7.5746917724609375 7.4068450927734375 7.071136951446533 6.860557556152344 6.6225199699401855
        6.317329406738281 6.5095977783203125 6.961273193359375 7.135231018066406 7.016204833984375 6.808677673339844
        6.250190734863281 5.734428405761719 5.835136413574219 5.96942138671875 5.94805908203125 6.155586242675781
        6.180000305175781 5.789360046386719 5.4658660888671875 5.340736389160156 5.4536590576171875 5.6489787101745605
        5.8351359367370605 5.5238494873046875 4.678489685058594 5.224769592285156 6.558425426483154 6.366157054901123
        5.648979663848877 5.4536590576171875 5.694756031036377 6.00909423828125 6.04876708984375 5.655083179473877
        4.959259033203125 4.751731872558594 5.218666076660156 5.8687052726745605 6.3814239501953125 6.5462188720703125
        11.853385925292969 12.0181884765625 12.225716590881348 12.515641212463379 12.689598083496094 12.381362915039062
        12.0029296875 11.703849792480469 11.609238624572754 11.593978881835938 11.645865440368652 11.9052734375
        12.146369934082031 11.9052734375 11.575668334960938 11.355934143066406 11.035491943359375 10.641807556152344
        10.425125122070312 10.351875305175781 10.550247192382812 11.020233154296875 11.423080444335938 11.383407592773438
        11.139260292053223 11.056854248046875 10.992766380310059 10.925628662109375 10.995819091796875 11.206398010253906
        11.328468322753906 11.124000549316406 10.629600524902344 10.132148742675781 9.939881324768066 10.10162353515625
        10.403762817382812 10.516677856445312 10.409867286682129 10.333564758300781 10.446486473083496 10.635704040527344
        10.79744815826416 10.79134464263916 10.678428649902344 10.458694458007812 10.07720947265625 9.729301452636719
        9.439377784729004 9.222694396972656 9.366127014160156 9.753716468811035 10.129096031188965 10.315254211425781
        10.385452270507812 10.773033142089844 11.435287475585938 11.8900146484375 11.880859375 11.288795471191406
        10.510575294494629 9.830008506774902 9.530929565429688 9.530929565429688 9.616378784179688 9.656059265136719
        9.939881324768066 10.293891906738281 10.449539184570312 10.498367309570312 10.791343688964844 11.221656799316406
        11.804557800292969 11.832023620605469 11.151466369628906 10.205390930175781 9.704886436462402 10.02838134765625
        10.565505981445312 10.785240173339844 10.800498962402344 10.623497009277344 10.477005004882812 10.534988403320312
        10.70589542388916 10.708946228027344 9.99176025390625 8.807640075683594 8.0263671875 7.9287109375
        8.163703918457031 8.508560180664062 8.969390869140625 9.399703979492188 9.518722534179688 9.408859252929688
        9.213539123535156 9.082305908203125 9.103668212890625 9.369178771972656 9.98870849609375 10.599075317382812
        10.715049743652344 10.641807556152344 10.638755798339844 10.510575294494629 10.177925109863281 9.591965675354004
        9.121978759765625 8.819847106933594 8.642845153808594 8.838156700134277 9.027374267578125 8.752708435058594
        8.291877746582031 8.151496887207031 8.297981262207031 8.484146118164062 8.249153137207031 7.657096862792969
        7.5136566162109375 7.4495697021484375 7.229835033416748 6.878875732421875 6.649986267089844 6.918548583984375
        7.3915863037109375 7.641838073730469 7.650993347167969 7.593001842498779 6.991790771484375 6.314277648925781
        6.5523223876953125 6.7934184074401855 6.900238513946533 7.113861083984375 6.952117919921875 6.2990193367004395
        5.801567077636719 5.676445484161377 5.89007568359375 6.161689758300781 6.4058380126953125 5.97247314453125
        5.148475170135498 6.237983703613281 7.3915863037109375 6.302070617675781 5.4963836669921875 5.569625377655029
        6.140327453613281 6.585891246795654 6.4455108642578125 5.725273609161377 5.117950439453125 4.983673095703125
        5.163734436035156 5.767997741699219 6.3814239501953125 6.6011505126953125 11.758781433105469 12.021240234375
        12.256232261657715 12.482071876525879 12.570571899414062 12.350837707519531 12.161629676818848 11.923583984375
        11.801506042480469 11.789299011230469 11.99072265625 12.250129699707031 12.210457801818848 11.9571533203125
        11.896119117736816 11.838127136230469 11.563461303710938 11.227760314941406 10.934783935546875 10.82186222076416
        11.032439231872559 11.264381408691406 11.444442749023438 11.450547218322754 11.499373435974121 11.493270874023438
        11.36203670501709 11.072113990783691 10.953094482421875 11.108734130859375 11.291847229003906 11.236915588378906
        10.986663818359375 10.779136657714844 10.571609497070312 10.406814575195312 10.290840148925781 10.263374328613281
        10.382401466369629 10.550247192382812 10.559402465820312 10.64791202545166 10.666221618652344 10.541091918945312
        10.452589988708496 10.477005004882812 10.455642700195312 10.425125122070312 10.147408485412598 9.662162780761719
        9.436325073242188 9.591964721679688 9.87274169921875 10.165718078613281 10.412918090820312 10.837120056152344
        11.450547218322754 11.835075378417969 11.697747230529785 11.185035705566406 10.596023559570312 9.98565673828125
        9.350868225097656 8.957183837890625 9.121978759765625 9.662162780761719 10.205390930175781 10.541091918945312
        10.617385864257812 10.620437622070312 10.779136657714844 11.16672420501709 11.822869300842285 11.9998779296875
        11.453598022460938 10.473953247070312 9.91546630859375 10.345771789550781 11.035491943359375 11.468856811523438
        11.658073425292969 11.511581420898438 11.20639705657959 11.069061279296875 11.172828674316406 11.004974365234375
        10.11383056640625 8.999908447265625 8.432266235351562 8.313240051269531 8.478042602539062 8.981597900390625
        9.689628601074219 10.132148742675781 10.129096984863281 9.848320007324219 9.286781311035156 8.471939086914062
        7.9256591796875 8.0538330078125 8.691673278808594 9.192176818847656 9.241004943847656 9.384445190429688
        9.677421569824219 9.87274169921875 9.799491882324219 9.656059265136719 9.604171752929688 9.32034969329834
        8.832054138183594 8.774070739746094 8.987701416015625 8.758811950683594 8.389541625976562 8.304084777832031
        8.490249633789062 8.847312927246094 8.862571716308594 8.026366233825684 7.614365100860596 7.519760608673096
        7.388534069061279 7.086395740509033 6.961273193359375 7.092498779296875 7.263404846191406 7.391585826873779
        7.644889831542969 7.800529479980469 7.342750549316406 6.863609313964844 7.3915863037109375 7.788322448730469
        7.797477722167969 7.6082611083984375 7.025360107421875 6.509598255157471 6.241035461425781 6.204414367675781
        6.4272003173828125 6.729331970214844 7.043671131134033 6.695762634277344 6.11590576171875 7.107758045196533
        7.486190319061279 6.140326976776123 5.716118335723877 6.04266357421875 6.6011505126953125 6.970428466796875
        6.823936462402344 6.189155578613281 5.590987682342529 5.301063537597656 5.304115295410156 5.850395679473877
        6.256294250488281 6.125068664550781 11.877806663513184 12.0914306640625 12.076171875 12.173835754394531
        12.289802551269531 12.198249816894531 12.082275390625 11.9571533203125 11.960205078125 12.134162902832031
        12.359992980957031 12.414932250976562 12.143318176269531 11.9327392578125 11.94189453125 11.9571533203125
        11.780144691467285 11.612289428710938 11.420029640197754 11.340676307678223 11.468856811523438 11.453598022460938
        11.600082397460938 11.749626159667969 11.89306640625 11.810661315917969 11.600082397460938 11.218605041503906
        10.989715576171875 10.974456787109375 11.066009521484375 11.172828674316406 11.212501525878906 11.270484924316406
        10.998869895935059 10.736412048339844 10.470901489257812 10.516678810119629 10.715049743652344 10.855430603027344
        10.794395446777344 10.827964782714844 10.785240173339844 10.599075317382812 10.62960147857666 10.730308532714844
        10.730308532714844 10.745567321777344 10.690635681152344 10.415968894958496 10.132148742675781 9.973450660705566
        9.94598388671875 10.11993408203125 10.516677856445312 11.014129638671875 11.493270874023438 11.682486534118652
        11.304054260253906 10.687583923339844 10.187080383300781 9.503463745117188 8.652000427246094 8.169807434082031
        8.615371704101562 9.347816467285156 9.836112976074219 10.138252258300781 10.397659301757812 10.528884887695312
        10.681480407714844 10.950042724609375 11.340676307678223 11.404769897460938 11.029389381408691 10.251167297363281
        9.836112976074219 10.272529602050781 10.971405029296875 11.529891967773438 11.835075378417969 11.706901550292969
        11.459701538085938 11.462753295898438 11.581772804260254 11.148414611816406 10.11383056640625 9.054840087890625
        8.529922485351562 8.481094360351562 8.798484802246094 9.353919982910156 10.03753662109375 10.586868286132812
        10.730308532714844 10.290840148925781 9.332557678222656 8.191169738769531 7.342750549316406 7.3824310302734375
        8.0751953125 8.270515441894531 7.770012378692627 7.779167175292969 8.362068176269531 8.954132080078125
        9.164710998535156 9.167762756347656 9.079254150390625 8.862571716308594 8.450576782226562 8.459733009338379
        8.697776794433594 8.526870727539062 8.438369750976562 8.597061157226562 8.75576114654541 9.173866271972656
        9.463790893554688 8.664207458496094 7.864616394042969 7.5197601318359375 7.4465179443359375 7.336647033691406
        7.4160003662109375 7.5746917724609375 7.574691295623779 7.4800872802734375 7.6174163818359375 7.751701354980469
        7.5350189208984375 7.342750549316406 7.974487781524658 8.395645141601562 8.224739074707031 7.727287292480469
        7.031463623046875 6.711021423339844 6.631675720214844 6.6652445793151855 6.912445068359375 7.177955627441406
        7.522812366485596 7.4312591552734375 7.071135997772217 7.260353088378906 7.156593322753906 6.4943389892578125
        6.421096324920654 6.5614776611328125 6.659141540527344 6.781211853027344 6.845299243927002 6.698814392089844
        6.271553039550781 5.832084655761719 5.6978068351745605 5.90228271484375 5.87481689453125 5.700859069824219
        12.045654296875 12.08837890625 11.938841819763184 11.816764831542969 11.746574401855469 11.667229652404785
        11.648918151855469 11.728262901306152 11.920533180236816 12.08837890625 12.268441200256348 12.295906066894531
        12.088377952575684 11.9449462890625 11.923583984375 11.865592956542969 11.673332214355469 11.600082397460938
        11.590927124023438 11.642815589904785 11.670280456542969 11.694695472717285 11.91748046875 11.9937744140625
        11.9296875 11.755729675292969 11.658073425292969 11.505477905273438 11.285743713378906 10.943939208984375
        10.739463806152344 10.873748779296875 11.206398010253906 11.459701538085938 11.401718139648438 11.380355834960938
        11.319314002990723 11.288795471191406 11.20944881439209 11.038543701171875 10.974456787109375 11.066009521484375
        10.980560302734375 10.84322452545166 10.870689392089844 10.834068298339844 10.629600524902344 10.534987449645996
        10.672325134277344 10.72115421295166 10.592971801757812 10.336615562438965 10.10467529296875 10.119933128356934
        10.449539184570312 11.023284912109375 11.377304077148438 11.313210487365723 10.867637634277344 10.275582313537598
        9.729301452636719 9.030426025390625 8.145394325256348 7.858512878417969 8.334602355957031 8.865623474121094
        9.332557678222656 9.720146179199219 10.03753662109375 10.238960266113281 10.354927062988281 10.452590942382812
        10.519729614257812 10.397659301757812 10.135200500488281 9.717095375061035 9.485153198242188 9.836112976074219
        10.443435668945312 11.090423583984375 11.471908569335938 11.386459350585938 11.340676307678223 11.627554893493652
        11.655021667480469 11.001922607421875 9.97344970703125 9.018218994140625 8.407852172851562 8.374282836914062
        8.764915466308594 9.241004943847656 9.924622535705566 10.486160278320312 10.675376892089844 10.251167297363281
        9.561447143554688 8.594009399414062 7.580794811248779 7.284766674041748 7.730339050292969 7.8798828125
        7.174903869628906 6.872772216796875 7.367164611816406 7.9805908203125 8.386490821838379 8.471939086914062
        8.264411926269531 8.1148681640625 8.127082824707031 8.349861145019531 8.410903930664062 8.267463684082031
        8.539076805114746 8.923614501953125 9.125038146972656 9.591965675354004 9.91241455078125 9.210487365722656
        8.255256652832031 7.821891784667969 7.757804870605469 7.843254089355469 8.093505859375 8.395645141601562
        8.487197875976562 8.230842590332031 7.9775390625 7.770012378692627 7.6296305656433105 7.5777435302734375
        8.001953125 8.267463684082031 8.1209716796875 7.794425964355469 7.3763275146484375 7.116912841796875
        6.921600341796875 6.836143493652344 7.223731994628906 7.5533294677734375 7.776115417480469 7.7486491203308105
        7.550278186798096 7.5228118896484375 7.428206920623779 7.208473205566406 7.034514904022217 6.909393310546875
        6.762901306152344 6.701866149902344 6.872772216796875 7.058929443359375 6.750694751739502 6.3875274658203125
        6.277656555175781 6.03045654296875 5.7618937492370605 5.749687194824219
      </DataArray>
    </PointData>
    <CellData>
    </CellData>
  </Piece>
  </ImageData>
</VTKFile>
