<?xml version="1.0"?>
<VTKFile type="ImageData" version="0.1" byte_order="LittleEndian" header_type="UInt32" compressor="vtkZLibDataCompressor">
  <ImageData WholeExtent="0 159 0 159 0 0" Origin="0 0 0" Spacing="1 1 1" Direction="1 0 0 0 1 0 0 0 1">
  <Piece Extent="0 159 0 159 0 0">
    <PointData Scalars="wind_speed">
      <DataArray type="Float32" Name="wind_speed" format="ascii" RangeMin="0.15259552001953125" RangeMax="26.728111267089844">
        12.717063903808594 13.080230712890625 14.664146423339844 16.803489685058594 17.99676513671875 17.975400924682617
        18.204294204711914 18.845176696777344 19.226661682128906 19.235815048217773 19.299903869628906 19.70885467529297
        20.31616973876953 20.676292419433594 20.584732055664062 20.04150390625 20.072021484375 21.121854782104492
        20.508438110351562 17.346717834472656 15.100555419921875 14.246040344238281 14.639731407165527 16.425064086914062
        17.77092742919922 17.499313354492188 16.605117797851562 15.308082580566406 14.249092102050781 14.368110656738281
        15.085296630859375 15.347755432128906 15.527817726135254 16.15955352783203 16.12598419189453 14.603103637695312
        13.010041236877441 11.334572792053223 10.147407531738281 11.145362854003906 12.201301574707031 12.985626220703125
        12.387466430664062 11.328468322753906 9.99176025390625 8.880889892578125 9.21964168548584 10.141304016113281
        11.438339233398438 13.412887573242188 15.240943908691406 16.241952896118164 17.032379150390625 16.693626403808594
        15.808586120605469 15.414901733398438 14.383377075195312 11.365089416503906 7.4373626708984375 5.767997741699219
        9.051788330078125 13.037506103515625 15.274513244628906 15.048675537109375 13.544113159179688 12.378311157226562
        12.524794578552246 13.754692077636719 14.334541320800781 14.10565185546875 14.08734130859375 13.718070983886719
        13.031402587890625 12.76284122467041 11.767936706542969 9.485153198242188 7.867668151855469 8.313240051269531
        10.00091552734375 11.450547218322754 11.819816589355469 11.127052307128906 10.269476890563965 9.817802429199219
        8.392593383789062 6.164741516113281 5.075225830078125 5.273597717285156 5.359046936035156 5.645927429199219
        6.671349048614502 5.92059326171875 4.092529296875 4.293952941894531 5.322425842285156 6.09149169921875
        8.340705871582031 11.691641807556152 13.766899108886719 14.194160461425781 14.322334289550781 14.951019287109375
        15.134132385253906 14.673301696777344 14.700766563415527 15.29587459564209 15.710929870605469 15.582749366760254
        14.774008750915527 15.024262428283691 17.471847534179688 20.032346725463867 21.039459228515625 21.527755737304688
        21.36600685119629 20.105588912963867 18.497268676757812 17.426071166992188 17.014068603515625 16.809593200683594
        16.443376541137695 15.961181640625 15.146339416503906 13.641777038574219 11.850333213806152 10.879852294921875
        11.398666381835938 12.475966453552246 12.643821716308594 12.0670166015625 11.581771850585938 10.568557739257812
        8.987702369689941 8.307136535644531 8.429214477539062 8.374281883239746 8.346809387207031 8.563491821289062
        8.923614501953125 9.353919982910156 9.90936279296875 10.452590942382812 10.815757751464844 11.230812072753906
        11.688591003417969 11.850334167480469 11.798455238342285 12.042603492736816 12.506484985351562 12.894073486328125
        13.241981506347656 13.324378967285156 13.199257850646973 13.336585998535156 13.550216674804688 13.473922729492188
        13.165687561035156 12.74453067779541 12.454605102539062 12.521743774414062 11.737420082092285 11.999878883361816
        12.906280517578125 14.929656982421875 16.30298614501953 15.9398193359375 15.9825439453125 17.575607299804688
        19.315162658691406 19.8797607421875 20.435195922851562 21.512496948242188 22.04962158203125 21.75664520263672
        21.140174865722656 20.114744186401367 19.379257202148438 17.86248207092285 15.073090553283691 15.298927307128906
        17.545089721679688 19.089324951171875 19.18088722229004 18.860435485839844 18.805503845214844 18.35993194580078
        17.145301818847656 15.146339416503906 13.15958309173584 12.591933250427246 13.687553405761719 15.491195678710938
        16.85231590270996 17.288734436035156 16.693626403808594 14.587844848632812 11.648918151855469 9.091461181640625
        8.166755676269531 10.06500244140625 11.487167358398438 12.256233215332031 12.149420738220215 11.490219116210938
        10.693687438964844 9.87579345703125 9.833061218261719 10.150459289550781 10.806602478027344 12.033448219299316
        14.185006141662598 15.598007202148438 15.411849975585938 15.9276123046875 15.723136901855469 15.13107967376709
        14.725181579589844 13.30606746673584 10.293891906738281 6.772057056427002 7.696769714355469 11.020233154296875
        13.156532287597656 13.623466491699219 12.677391052246094 11.630607604980469 12.08837890625 13.22977352142334
        13.418992042541504 13.272499084472656 13.663139343261719 13.840140342712402 13.364051818847656 12.521742820739746
        11.603133201599121 10.657066345214844 10.367134094238281 10.974456787109375 12.0487060546875 12.732322692871094
        11.862541198730469 9.915467262268066 8.737449645996094 8.413955688476562 7.4221038818359375 6.317329406738281
        5.789360046386719 5.188148498535156 4.654075622558594 5.545211315155029 6.353950500488281 4.791404724121094
        3.4028167724609375 3.8453292846679688 4.705955505371094 6.057922840118408 8.407852172851562 10.760825157165527
        12.265387535095215 13.397628784179688 14.426102638244629 15.628532409667969 16.53797721862793 16.15650177001953
        15.366065979003906 15.515609741210938 16.0496826171875 16.1046142578125 15.985595703125 16.730249404907227
        18.625452041625977 20.35279083251953 21.192054748535156 21.87261962890625 21.579635620117188 20.0445556640625
        18.35382843017578 17.261268615722656 16.992706298828125 17.020172119140625 17.16666603088379 17.282630920410156
        16.1015625 13.693656921386719 12.442398071289062 12.897125244140625 13.565475463867188 13.855400085449219
        13.974427223205566 13.849296569824219 13.055817604064941 11.584824562072754 10.434280395507812 10.269477844238281
        10.354928016662598 10.09552001953125 9.762870788574219 9.695731163024902 9.768974304199219 9.92462158203125
        10.04669189453125 10.043641090393066 10.226752281188965 10.867637634277344 11.636711120605469 12.0059814453125
        12.0487060546875 12.082275390625 12.128059387207031 12.353888511657715 12.762839317321777 12.930695533752441
        12.921539306640625 13.031403541564941 13.364051818847656 13.666191101074219 13.650932312011719 13.541061401367188
        13.568527221679688 13.711966514587402 13.88287353515625 14.398635864257812 14.102599143981934 14.239937782287598
        14.526809692382812 14.206366539001465 14.969329833984375 17.74040985107422 20.20630645751953 20.34058380126953
        20.429092407226562 21.466720581054688 21.82378387451172 21.359901428222656 20.911285400390625 20.0872802734375
        17.142250061035156 12.228767395019531 12.128059387207031 16.0771484375 19.63561248779297 21.66814422607422
        22.30597686767578 21.72307586669922 20.24292755126953 18.21954917907715 15.726188659667969 12.915435791015625
        10.800498008728027 10.09552001953125 10.525833129882812 11.91748046875 13.950013160705566 15.295875549316406
        14.828940391540527 12.81472110748291 10.412918090820312 7.116912841796875 4.06201171875 7.7089762687683105
        11.117889404296875 12.662131309509277 12.863548278808594 12.558364868164062 12.1158447265625 11.239967346191406
        10.559403419494629 9.96429443359375 10.303047180175781 11.053802490234375 11.868643760681152 14.04461669921875
        13.937806129455566 14.999847412109375 16.614273071289062 16.580703735351562 15.442366600036621 13.583785057067871
        11.798455238342285 9.479048728942871 7.5136566162109375 8.581801414489746 10.357979774475098 11.566513061523438
        11.642814636230469 11.810662269592285 12.808616638183594 13.592940330505371 13.715019226074219 13.794364929199219
        14.05682373046875 13.476974487304688 11.841178894042969 11.038543701171875 11.474960327148438 11.987669944763184
        12.472915649414062 12.958160400390625 13.32742977142334 12.610244750976562 9.91546630859375 7.6662516593933105
        7.922607898712158 8.609268188476562 8.151496887207031 7.7791666984558105 7.8829345703125 7.4556732177734375
        7.300025939941406 7.94091796875 7.049774169921875 4.724266052246094 3.3997650146484375 3.3082046508789062
        4.730369567871094 7.272560119628906 8.944976806640625 9.030425071716309 10.254219055175781 13.159584045410156
        15.485092163085938 16.32434844970703 16.26636505126953 15.152442932128906 14.200263977050781 14.789268493652344
        16.0924072265625 16.986602783203125 17.532882690429688 17.80144691467285 18.27753448486328 19.019134521484375
        19.9957275390625 20.981475830078125 21.073028564453125 20.358896255493164 19.339576721191406 18.546096801757812
        18.31720733642578 17.93878173828125 17.166664123535156 16.629539489746094 16.06494140625 14.938811302185059
        13.940855979919434 13.806571960449219 14.00494384765625 14.03851318359375 14.218575477600098 14.499344825744629
        14.346748352050781 13.959166526794434 13.95611572265625 14.145332336425781 14.011046409606934 13.577681541442871
        12.750633239746094 11.615342140197754 10.843223571777344 10.330513000488281 9.601119995117188 9.039581298828125
        9.201332092285156 10.03753662109375 11.230812072753906 12.179939270019531 12.503433227539062 12.356941223144531
        12.198249816894531 12.378312110900879 12.601089477539062 12.68349552154541 12.851341247558594 13.15042781829834
        13.525801658630371 13.916441917419434 14.145332336425781 14.200263977050781 14.145332336425781 13.98663330078125
        15.930663108825684 16.0435791015625 15.283668518066406 13.97747802734375 12.958160400390625 12.732322692871094
        14.169746398925781 17.169715881347656 19.489120483398438 19.556259155273438 19.553207397460938 20.36804962158203
        20.76479148864746 20.35279083251953 19.995725631713867 18.875701904296875 16.0679931640625 13.815727233886719
        14.209420204162598 16.107667922973633 18.988616943359375 21.66509246826172 23.245946884155273 23.73119354248047
        22.879728317260742 20.926544189453125 18.402664184570312 15.137185096740723 11.636710166931152 9.033477783203125
        7.821891784667969 8.224739074707031 10.016175270080566 11.520736694335938 11.423080444335938 10.769980430603027
        10.937835693359375 11.26438045501709 7.211524486541748 4.763938903808594 8.255256652832031 11.133155822753906
        12.323371887207031 12.500381469726562 12.805564880371094 11.890013694763184 10.492263793945312 9.634696960449219
        10.208442687988281 10.965301513671875 10.071106910705566 11.697746276855469 12.909332275390625 13.400680541992188
        15.564437866210938 16.24805450439453 15.201271057128906 12.524795532226562 8.963287353515625 7.4282073974609375
        7.638786315917969 8.1209716796875 8.713035583496094 9.601119995117188 10.272529602050781 11.365089416503906
        12.521743774414062 13.025299072265625 13.36710262298584 13.733329772949219 13.589888572692871 12.707908630371094
        11.578721046447754 11.487167358398438 12.366096496582031 13.223670959472656 13.287757873535156 12.219613075256348
        10.211494445800781 7.275611877441406 5.6123504638671875 7.2695088386535645 9.99176025390625 11.221656799316406
        10.882904052734375 10.800498962402344 11.075164794921875 10.299995422363281 9.268470764160156 8.337654113769531
        6.091492176055908 4.745628356933594 5.810722351074219 6.143378734588623 6.421097278594971 8.166755676269531
        9.176918029785156 8.456680297851562 9.646903991699219 12.634665489196777 14.404739379882812 14.444412231445312
        14.242988586425781 13.748589515686035 13.443404197692871 14.566482543945312 16.730249404907227 17.99981689453125
        17.68852996826172 17.526779174804688 18.482009887695312 18.744468688964844 17.984556198120117 17.95098876953125
        18.778038024902344 19.62340545654297 19.888916015625 19.84008026123047 19.577621459960938 18.564407348632812
        17.481002807617188 17.303993225097656 17.267372131347656 16.599014282226562 15.692619323730469 15.021209716796875
        14.606155395507812 14.542069435119629 14.654991149902344 14.920501708984375 15.283668518066406 15.552230834960938
        15.613265991210938 15.411849975585938 15.009002685546875 14.642784118652344 13.96832275390625 13.095489501953125
        12.762840270996094 12.457656860351562 11.362037658691406 10.379348754882812 10.419022560119629 11.108734130859375
        12.015135765075684 12.845237731933594 13.211463928222656 13.183998107910156 13.330482482910156 13.501387596130371
        13.263343811035156 13.019194602966309 13.235877990722656 13.687553405761719 14.023255348205566 14.288764953613281
        14.590896606445312 14.523756980895996 13.769950866699219 13.086334228515625 12.851341247558594 13.168740272521973
        11.709953308105469 9.564497947692871 9.323402404785156 10.907318115234375 13.312171936035156 15.9276123046875
        17.89300537109375 18.909269332885742 19.418930053710938 19.55626106262207 19.269386291503906 18.21344757080078
        16.525772094726562 15.280616760253906 15.066986083984375 14.963226318359375 15.042572021484375 16.0618896484375
        17.84111785888672 19.901123046875 21.84819793701172 23.041473388671875 22.876678466796875 21.64067840576172
        20.19409942626953 18.979461669921875 17.85942840576172 16.479995727539062 15.643792152404785 14.822836875915527
        12.619400024414062 11.014129638671875 11.456649780273438 12.75368595123291 14.358955383300781 16.0008544921875
        16.50440788269043 13.827934265136719 8.523818969726562 7.232887268066406 9.387496948242188 10.711997032165527
        11.691642761230469 11.297950744628906 10.284736633300781 9.414962768554688 9.659110069274902 10.01007080078125
        8.713035583496094 9.079254150390625 10.785239219665527 11.127052307128906 11.911376953125 10.840171813964844
        7.4526214599609375 5.355995178222656 5.902282238006592 8.096556663513184 9.692680358886719 9.860526084899902
        9.515670776367188 8.984649658203125 9.015167236328125 9.872742652893066 10.550247192382812 11.035491943359375
        11.557357788085938 11.908324241638184 12.070068359375 12.1036376953125 12.0914306640625 12.265388488769531
        12.665184020996094 12.775047302246094 11.014129638671875 8.0782470703125 6.4760284423828125 6.387527942657471
        7.657096862792969 9.701835632324219 11.185035705566406 11.618392944335938 11.9632568359375 13.110748291015625
        13.962220191955566 12.872710227966309 10.69368839263916 8.594009399414062 7.095550537109375 7.6204681396484375
        9.424118041992188 9.866630554199219 9.228798866271973 9.231849670410156 8.996856689453125 8.65810489654541
        10.281684875488281 12.579728126525879 13.452560424804688 13.467820167541504 13.641777038574219 13.669242858886719
        14.03240966796875 15.674307823181152 17.89605712890625 18.427078247070312 17.023223876953125 16.861473083496094
        18.31110382080078 18.16461944580078 16.916412353515625 17.096466064453125 18.46064567565918 19.586774826049805
        19.605085372924805 19.067962646484375 18.613235473632812 18.14936065673828 18.22870635986328 18.36908721923828
        17.33756446838379 16.29077911376953 16.23889923095703 15.9703369140625 15.097503662109375 14.941864013671875
        15.421005249023438 15.729240417480469 15.784171104431152 15.768913269042969 15.506454467773438 15.039520263671875
        14.758750915527344 14.841148376464844 14.86251163482666 14.807579040527344 14.951019287109375 14.911346435546875
        14.120909690856934 13.126014709472656 12.726219177246094 12.646873474121094 12.686546325683594 12.836081504821777
        13.040557861328125 13.483078002929688 14.148383140563965 14.371162414550781 14.05682373046875 13.760796546936035
        13.748588562011719 13.849296569824219 13.950013160705566 13.983582496643066 13.98358154296875 13.534957885742188
        12.744529724121094 12.302009582519531 7.184059143066406 7.129127502441406 4.693748474121094 3.097625732421875
        4.333625793457031 7.3915863037109375 11.502426147460938 15.762810707092285 18.442337036132812 19.7363224029541
        20.16663360595703 19.013031005859375 16.022216796875 13.23587703704834 12.942901611328125 14.267402648925781
        15.277565002441406 14.920500755310059 14.676353454589844 15.393539428710938 16.22669219970703 17.087310791015625
        18.33856964111328 19.568466186523438 20.31922149658203 20.554214477539062 20.0537109375 19.278541564941406
        18.848228454589844 19.281593322753906 19.77599334716797 16.953033447265625 13.501388549804688 14.06292724609375
        16.492202758789062 18.10662841796875 18.27753448486328 18.082212448120117 18.18903160095215 17.88690185546875
        16.16565704345703 12.64382266998291 9.326454162597656 9.717094421386719 10.821861267089844 10.815757751464844
        10.635704040527344 9.695732116699219 9.500411987304688 8.658102989196777 7.4831390380859375 7.6601481437683105
        8.688621520996094 8.658103942871094 6.01519775390625 2.5055694580078125 3.3906097412109375 6.360054016113281
        8.062987327575684 9.387496948242188 10.940887451171875 11.767936706542969 11.841178894042969 11.407821655273438
        10.980560302734375 10.773032188415527 10.596022605895996 10.654014587402344 10.821861267089844 10.763876914978027
        10.599075317382812 10.470901489257812 10.629600524902344 11.078216552734375 11.075164794921875 10.184028625488281
        7.922607421875 6.866661548614502 7.715080261230469 8.685569763183594 9.491256713867188 10.452590942382812
        11.520736694335938 12.619400024414062 13.96832275390625 15.350807189941406 15.643791198730469 14.212471008300781
        11.685539245605469 8.896149635314941 7.605208873748779 8.804588317871094 10.827964782714844 11.883912086486816
        11.868644714355469 11.258277893066406 10.315255165100098 10.10162353515625 11.197242736816406 12.286750793457031
        12.576675415039062 12.659080505371094 12.85744571685791 13.190101623535156 14.08123779296875 15.9093017578125
        17.81060028076172 17.85332489013672 16.50745964050293 16.684471130371094 18.16767120361328 18.497268676757812
        18.09136962890625 17.87163543701172 17.575607299804688 17.313148498535156 16.879793167114258 16.806543350219727
        17.313146591186523 17.792287826538086 17.93267822265625 17.126991271972656 16.022216796875 15.710929870605469
        15.555282592773438 15.088348388671875 14.990692138671875 15.704826354980469 16.440322875976562 16.629539489746094
        16.26636505126953 15.845207214355469 15.579696655273438 15.33249568939209 15.247048377990723 15.668205261230469
        16.33960723876953 16.730247497558594 16.858421325683594 16.998809814453125 16.895050048828125 16.058837890625
        14.731285095214844 13.614303588867188 12.915435791015625 12.329474449157715 12.186042785644531 13.107696533203125
        14.136177062988281 14.389479637145996 14.11480712890625 13.739433288574219 13.312171936035156 13.147377014160156
        13.129066467285156 13.138221740722656 12.982573509216309 12.460708618164062 12.143319129943848 12.341682434082031
        3.5645601749420166 2.7710800170898438 1.3183975219726562 0.32044222950935364 0.8362045288085938 2.6642684936523438
        7.913451671600342 14.212471008300781 18.01812744140625 18.579666137695312 17.91436767578125 15.265357971191406
        11.789299011230469 11.420029640197754 13.373214721679688 14.792320251464844 14.883880615234375 14.496292114257812
        14.853355407714844 15.958130836486816 16.922515869140625 17.355873107910156 18.10357666015625 19.373153686523438
        20.490127563476562 21.332435607910156 21.75359344482422 21.185951232910156 20.389419555664062 20.389419555664062
        16.595962524414062 10.962249755859375 12.0059814453125 17.062896728515625 21.054718017578125 21.576583862304688
        19.473861694335938 17.340614318847656 17.462690353393555 18.961149215698242 19.122901916503906 18.14936065673828
        15.912353515625 12.195199012756348 10.220648765563965 10.257270812988281 11.148415565490723 10.827964782714844
        10.534987449645996 8.468887329101562 7.4190521240234375 7.879882335662842 7.6631999015808105 5.92364501953125
        1.4282684326171875 2.6062774658203125 3.360084295272827 5.4384002685546875 7.9073486328125 9.91851806640625
        11.636711120605469 12.63466739654541 12.958160400390625 13.388474464416504 13.852348327636719 14.246040344238281
        14.539016723632812 14.352850914001465 13.93780517578125 13.336585998535156 11.725212097167969 10.132148742675781
        9.463790893554688 8.923614501953125 8.191169738769531 7.364112854003906 5.774101257324219 6.292915344238281
        8.261360168457031 9.591965675354004 10.296943664550781 11.642814636230469 13.083282470703125 14.148385047912598
        14.920501708984375 15.552230834960938 15.668205261230469 15.005950927734375 12.198249816894531 7.763908386230469
        6.07623291015625 7.626579284667969 10.202339172363281 12.427138328552246 13.641777038574219 13.684501647949219
        13.104644775390625 12.643821716308594 11.9815673828125 11.017181396484375 10.705894470214844 11.117889404296875
        11.557357788085938 11.856437683105469 12.530899047851562 14.06903076171875 16.00390625 16.769920349121094
        16.06494140625 16.26941680908203 17.581710815429688 18.137155532836914 17.86248207092285 17.538986206054688
        17.38640022277832 17.560348510742188 17.438278198242188 16.949981689453125 16.724143981933594 16.711936950683594
        16.513565063476562 15.997802734375 15.903197288513184 16.08935546875 15.860466003417969 15.9398193359375
        16.672264099121094 17.099517822265625 16.925567626953125 16.882843017578125 16.913360595703125 16.763816833496094
        16.705833435058594 16.846216201782227 16.782129287719727 17.017120361328125 17.603073120117188 17.89605712890625
        17.92352294921875 18.005918502807617 17.91436767578125 17.148353576660156 15.900146484375 14.777061462402344
        13.995787620544434 13.144325256347656 12.521744728088379 12.842185974121094 13.431198120117188 13.538009643554688
        13.339637756347656 13.046661376953125 12.768943786621094 12.561417579650879 12.448500633239746 12.70180606842041
        12.781149864196777 12.280648231506348 11.9144287109375 12.0853271484375 1.2909317016601562 0.6317368149757385
        0.29907989501953125 0.4058990478515625 1.025421142578125 1.449630856513977 4.773094177246094 10.489212036132812
        14.062926292419434 15.088348388671875 14.841148376464844 13.583786964416504 12.198249816894531 11.890013694763184
        12.863547325134277 14.11175537109375 15.298927307128906 16.620376586914062 18.063905715942383 19.129005432128906
        19.69969940185547 20.0384521484375 20.36804962158203 20.426040649414062 20.429092407226562 21.179847717285156
        22.32733917236328 22.10760498046875 20.645774841308594 16.620376586914062 10.08026123046875 9.32034969329834
        12.454605102539062 16.898101806640625 19.69054412841797 18.625450134277344 16.818748474121094 16.898101806640625
        18.73836326599121 21.579633712768555 23.169652938842773 22.461624145507812 20.828880310058594 18.07611083984375
        13.006988525390625 8.526871681213379 9.848320007324219 11.215553283691406 10.901214599609375 8.920562744140625
        8.203375816345215 7.8768310546875 6.5889434814453125 3.8575363159179688 1.031524658203125 3.2746353149414062
        4.5014801025390625 7.205421447753906 10.211494445800781 11.584823608398438 11.920533180236816 13.153480529785156
        14.880828857421875 16.31824493408203 17.261268615722656 17.508468627929688 17.404708862304688 17.474899291992188
        17.581710815429688 17.267372131347656 16.0252685546875 14.10870361328125 12.195198059082031 10.632652282714844
        9.021270751953125 6.329536437988281 4.275642395019531 5.786308288574219 8.612319946289062 10.379348754882812
        11.508528709411621 13.287757873535156 14.767906188964844 15.536972045898438 15.796379089355469 15.784173011779785
        15.723137855529785 15.790274620056152 12.594985961914062 7.119964599609375 5.850395202636719 7.5502777099609375
        9.637748718261719 11.935791015625 14.157540321350098 15.124977111816406 14.654991149902344 14.05682373046875
        13.092436790466309 11.343727111816406 10.559402465820312 11.111785888671875 11.459701538085938 11.581771850585938
        12.576675415039062 14.221626281738281 15.237893104553223 14.407791137695312 13.17179012298584 14.123970031738281
        15.906249046325684 15.485092163085938 14.10870361328125 14.752647399902344 16.861473083496094 18.454544067382812
        18.402664184570312 17.612228393554688 17.15140724182129 16.827903747558594 16.605117797851562 16.531875610351562
        16.406753540039062 16.428115844726562 16.837059020996094 17.31315040588379 17.172767639160156 16.40980339050293
        16.15039825439453 16.931671142578125 17.69158363342285 17.85943031311035 17.81975555419922 17.85332489013672
        17.82586097717285 17.90216064453125 18.02117919921875 17.86858367919922 17.569503784179688 17.291786193847656
        17.004913330078125 16.714988708496094 16.281625747680664 15.579695701599121 14.700766563415527 13.541061401367188
        12.396621704101562 11.832023620605469 11.874755859375 12.213508605957031 12.640769958496094 12.961212158203125
        12.897125244140625 12.482069969177246 12.314216613769531 12.616348266601562 12.677391052246094 12.359992980957031
        12.140266418457031 12.131111145019531 1.2726211547851562 1.5289764404296875 1.7975387573242188 1.8341598510742188
        1.8768919706344604 1.2909317016601562 2.01422119140625 4.6052398681640625 7.217628479003906 10.11688232421875
        12.341681480407715 13.162636756896973 12.903228759765625 12.482070922851562 13.110748291015625 14.621414184570312
        16.083251953125 17.023223876953125 17.600021362304688 18.14936065673828 19.064910888671875 20.157480239868164
        20.929595947265625 20.523698806762695 19.421979904174805 18.61018180847168 18.03948974609375 17.447433471679688
        15.363014221191406 11.413925170898438 9.90020751953125 10.995819091796875 12.622459411621094 14.883880615234375
        14.798423767089844 13.504440307617188 15.387435913085938 18.823814392089844 20.981475830078125 22.452470779418945
        23.813589096069336 23.529769897460938 22.64168357849121 21.402633666992188 19.425033569335938 13.88287353515625
        7.6174163818359375 9.646904945373535 10.608230590820312 9.799492835998535 8.847311973571777 7.477035045623779
        5.4658660888671875 3.7354660034179688 1.3977508544921875 4.5075836181640625 6.094543933868408 9.186073303222656
        10.800498008728027 10.901214599609375 11.709953308105469 14.230780601501465 17.358924865722656 19.156471252441406
        19.84008026123047 19.733266830444336 19.034393310546875 19.107637405395508 19.9530029296875 20.22156524658203
        20.14832305908203 19.214452743530273 15.756707191467285 9.793388366699219 5.304115295410156 3.643913507461548
        3.4913177490234375 6.518752574920654 9.457687377929688 10.736412048339844 11.996826171875 14.059874534606934
        15.820793151855469 16.580703735351562 16.498306274414062 15.96728515625 15.640740394592285 15.335549354553223
        12.0120849609375 7.867668628692627 7.5167083740234375 8.694725036621094 9.753714561462402 11.230812072753906
        13.190101623535156 14.459671020507812 14.477981567382812 14.224677085876465 13.724173545837402 12.408829689025879
        11.526840209960938 11.526840209960938 11.511580467224121 11.9327392578125 13.034454345703125 13.443404197692871
        12.585830688476562 11.545150756835938 11.825919151306152 13.794364929199219 15.231789588928223 14.252143859863281
        13.299964904785156 14.566482543945312 16.431167602539062 17.172767639160156 17.120880126953125 17.50847053527832
        18.07611083984375 17.499313354492188 16.602066040039062 16.711938858032227 17.175819396972656 17.584762573242188
        18.26227569580078 18.518630981445312 17.56950569152832 16.63869285583496 16.867576599121094 17.804494857788086
        18.23786163330078 18.25922393798828 18.402664184570312 18.61628532409668 18.646812438964844 18.28058624267578
        17.560348510742188 16.739404678344727 15.99169921875 15.631584167480469 15.811637878417969 16.15955352783203
        15.961181640625 15.189064025878906 13.928650856018066 12.0364990234375 10.382399559020996 9.89105224609375
        10.190132141113281 10.898163795471191 11.9327392578125 12.768943786621094 13.022247314453125 12.939849853515625
        12.915435791015625 12.790306091308594 12.720115661621094 12.839134216308594 12.958161354064941 12.823874473571777
        1.9135130643844604 1.486251711845398 1.6998825073242188 1.1749649047851562 0.7263413071632385 0.979644775390625
        0.4486236572265625 0.955230712890625 3.3600845336914062 7.4434661865234375 11.420028686523438 13.97137451171875
        14.780113220214844 14.227729797363281 13.293861389160156 12.887969970703125 12.799461364746094 12.381362915039062
        11.700798034667969 12.186041831970215 14.471878051757812 16.748558044433594 18.17377471923828 19.220558166503906
        19.76378631591797 19.232765197753906 17.70989227294922 15.601058959960938 12.314216613769531 10.592971801757812
        11.139259338378906 11.664176940917969 12.134162902832031 11.484115600585938 9.738456726074219 11.072113037109375
        15.155494689941406 19.84618377685547 21.64983367919922 21.582685470581055 22.794273376464844 24.2713680267334
        24.478897094726562 24.033327102661133 22.559280395507812 20.175790786743164 11.636711120605469 6.3386921882629395
        9.698783874511719 10.501419067382812 9.262367248535156 7.751701354980469 5.053863525390625 4.840232849121094
        3.1250991821289062 5.594039440155029 8.267463684082031 10.849327087402344 9.646903991699219 9.686576843261719
        11.9449462890625 15.488143920898438 18.958099365234375 21.005889892578125 21.399581909179688 21.051666259765625
        20.032346725463867 19.260231018066406 19.6264591217041 20.29175567626953 20.78005027770996 20.746482849121094
        18.482009887695312 13.333534240722656 7.129127025604248 3.3997647762298584 5.038604736328125 8.603164672851562
        10.745567321777344 11.334572792053223 12.359992980957031 14.224678039550781 16.119873046875 16.827903747558594
        16.556289672851562 16.31214141845703 15.854361534118652 14.175849914550781 11.014129638671875 8.178962707519531
        7.873779296875 8.944976806640625 10.260322570800781 11.456650733947754 12.112792015075684 12.668235778808594
        13.531906127929688 14.087340354919434 13.556320190429688 12.598038673400879 11.91748046875 11.374252319335938
        10.983612060546875 11.261329650878906 11.655021667480469 11.178932189941406 11.032440185546875 12.335579872131348
        14.175849914550781 15.833000183105469 16.022216796875 14.447464942932129 13.528854370117188 14.09039306640625
        14.346748352050781 14.459671020507812 15.778068542480469 17.386396408081055 17.74956512451172 17.007965087890625
        16.461685180664062 17.075103759765625 18.21344757080078 18.894012451171875 19.205297470092773 19.028289794921875
        18.018125534057617 17.142250061035156 17.056793212890625 17.40776252746582 17.609176635742188 17.66411590576172
        17.81975555419922 18.04559326171875 18.05474853515625 17.441329956054688 16.470840454101562 15.628531455993652
        15.002900123596191 14.615310668945312 14.575637817382812 14.691612243652344 14.383377075195312 13.501389503479004
        12.512588500976562 11.459701538085938 10.498367309570312 10.04974365234375 10.06805419921875 10.574661254882812
        11.615342140197754 12.665184020996094 13.260292053222656 13.464766502380371 13.361000061035156 13.113800048828125
        13.299964904785156 13.730278968811035 13.785209655761719 13.452560424804688 2.7100448608398438 2.877898931503296
        2.09051513671875 0.5767974853515625 1.025421142578125 1.7334518432617188 1.8433152437210083 1.2665177583694458
        0.997955322265625 5.084381103515625 10.11993408203125 13.92559814453125 15.231789588928223 13.953063011169434
        11.157569885253906 8.993804931640625 8.511611938476562 8.539077758789062 8.450576782226562 9.393600463867188
        12.561416625976562 16.21753692626953 18.762781143188477 21.024200439453125 22.525711059570312 21.90924072265625
        19.519638061523438 16.0374755859375 11.716056823730469 9.015167236328125 8.423110961914062 8.487197875976562
        8.444473266601562 8.560441017150879 9.23795223236084 10.882904052734375 13.577682495117188 17.392501831054688
        19.84313201904297 20.459609985351562 22.269357681274414 24.857322692871094 25.449386596679688 24.33545684814453
        22.904144287109375 21.420944213867188 16.0313720703125 4.910430908203125 7.91650390625 8.514663696289062
        6.8361430168151855 4.849388122558594 4.934845447540283 6.5767364501953125 6.787315368652344 7.312232971191406
        10.370185852050781 10.895111083984375 8.447525024414062 9.564498901367188 12.015135765075684 16.473892211914062
        19.69664764404297 21.54301643371582 21.88482666015625 21.588790893554688 20.996734619140625 19.98046875
        19.159523010253906 18.836023330688477 18.918426513671875 19.196144104003906 18.512529373168945 16.25415802001953
        12.628562927246094 9.543136596679688 9.88494873046875 11.566514015197754 12.619399070739746 12.872711181640625
        13.657035827636719 14.819786071777344 15.955077171325684 16.443374633789062 16.565444946289062 16.599014282226562
        15.9306640625 14.343696594238281 12.231818199157715 8.645896911621094 7.3000264167785645 8.468888282775879
        10.260323524475098 11.658073425292969 12.143317222595215 12.302009582519531 12.81472110748291 13.006988525390625
        12.366096496582031 11.749626159667969 11.716055870056152 11.841179847717285 11.786247253417969 11.856437683105469
        11.923584938049316 11.539047241210938 11.890015602111816 13.354896545410156 14.734335899353027 15.338600158691406
        14.419998168945312 12.997833251953125 13.025299072265625 13.687553405761719 13.538009643554688 13.98358154296875
        15.381333351135254 16.577651977539062 17.044586181640625 17.337562561035156 17.63054656982422 17.86858367919922
        18.03948974609375 18.18292999267578 18.31415557861328 18.25922393798828 17.303993225097656 16.373184204101562
        16.486099243164062 17.050689697265625 17.258216857910156 16.995758056640625 16.684471130371094 16.550186157226562
        16.31519317626953 15.826897621154785 15.430161476135254 15.146339416503906 14.777061462402344 14.157539367675781
        13.34268856048584 12.683493614196777 12.298957824707031 12.280646324157715 12.594985961914062 12.878814697265625
        12.814720153808594 12.616349220275879 12.497329711914062 12.479019165039062 12.732322692871094 13.26944637298584
        13.626517295837402 13.666191101074219 13.638725280761719 13.803520202636719 14.252143859863281 14.609207153320312
        14.66414737701416 14.572587013244629 1.083404541015625 2.5696563720703125 2.8199081420898438 0.32349395751953125
        1.7273483276367188 1.99591064453125 1.8036423921585083 1.3397598266601562 1.3183975219726562 4.971466064453125
        9.646903991699219 12.179939270019531 12.338629722595215 11.188087463378906 9.024322509765625 7.296974182128906
        7.235939025878906 8.175910949707031 9.088409423828125 9.683525085449219 11.423080444335938 14.725181579589844
        17.618331909179688 18.985565185546875 19.486068725585938 19.547103881835938 18.750572204589844 16.946931838989258
        13.309120178222656 7.705924987792969 4.3794097900390625 4.5167388916015625 6.796470642089844 9.826957702636719
        10.806602478027344 10.550247192382812 11.517684936523438 14.618362426757812 18.35382843017578 20.929595947265625
        23.017059326171875 24.747459411621094 24.503311157226562 22.80342674255371 21.92449951171875 21.320228576660156
        20.13306427001953 14.712974548339844 6.3875274658203125 3.1556167602539062 2.877899169921875 2.3041458129882812
        6.790367126464844 10.464797973632812 10.980560302734375 10.153511047363281 10.336616516113281 8.142341613769531
        7.4404144287109375 8.578751564025879 10.794395446777344 16.28162384033203 19.315162658691406 20.32532501220703
        20.902130126953125 21.366004943847656 21.73833465576172 21.79631805419922 21.173744201660156 20.23682403564453
        19.544052124023438 19.165626525878906 18.436233520507812 16.995758056640625 14.520705223083496 12.613296508789062
        12.982574462890625 14.365058898925781 15.500351905822754 15.436264038085938 15.515610694885254 15.8970947265625
        16.17481231689453 16.479995727539062 16.934722900390625 16.647850036621094 16.0252685546875 15.750601768493652
        15.057830810546875 12.378311157226562 10.483108520507812 8.783226013183594 7.910400390625 8.792381286621094
        10.385453224182129 11.612289428710938 12.0029296875 11.999876976013184 11.996826171875 12.1158447265625
        12.622459411621094 13.25418758392334 13.577682495117188 13.565476417541504 13.138222694396973 12.225716590881348
        11.435287475585938 10.788291931152344 10.190132141113281 10.141304016113281 10.446487426757812 11.548202514648438
        13.580734252929688 14.621414184570312 14.621414184570312 15.756706237792969 17.419967651367188 18.616287231445312
        19.464704513549805 20.14221954345703 19.971311569213867 18.735313415527344 17.215492248535156 16.403701782226562
        16.022216796875 15.564437866210938 15.329444885253906 15.695671081542969 16.36096954345703 16.861473083496094
        16.916412353515625 16.714988708496094 16.580705642700195 16.507461547851562 16.27552032470703 15.713982582092285
        14.807579040527344 13.98358154296875 13.657036781311035 13.31217098236084 12.619400024414062 12.021239280700684
        11.999878883361816 12.744529724121094 13.754692077636719 14.453567504882812 14.810630798339844 14.914398193359375
        14.767906188964844 14.401687622070312 14.206368446350098 14.352851867675781 14.438308715820312 14.291816711425781
        14.215522766113281 14.539017677307129 14.896086692810059 15.219581604003906 15.518662452697754 15.713981628417969
        1.9562376737594604 1.6266402006149292 1.3672255277633667 1.2512588500976562 1.5411834716796875 1.480148196220398
        1.2512588500976562 1.1719131469726562 2.7039413452148438 5.874817371368408 8.487197875976562 9.92462158203125
        10.928680419921875 11.285743713378906 10.556350708007812 9.289833068847656 8.517715454101562 8.719139099121094
        9.460739135742188 9.765922546386719 10.165717124938965 12.033447265625 14.508499145507812 16.0435791015625
        17.526779174804688 19.980466842651367 21.94586181640625 21.356849670410156 18.646812438964844 10.190132141113281
        2.948089599609375 3.4516448974609375 7.1810078620910645 10.815757751464844 11.572616577148438 10.180976867675781
        10.03143310546875 12.952056884765625 17.66716766357422 21.66509246826172 23.191017150878906 23.67626190185547
        23.8319034576416 23.249000549316406 22.35175323486328 21.866506576538086 21.628469467163086 20.532852172851562
        17.346717834472656 11.813712120056152 5.789360046386719 4.5899810791015625 8.200325012207031 11.612289428710938
        12.283699035644531 9.543136596679688 6.09759521484375 3.98876953125 6.286811828613281 6.204414367675781
        7.6418375968933105 13.071075439453125 17.77703094482422 20.14527130126953 20.935701370239258 21.109649658203125
        21.90924072265625 22.968231201171875 22.754600524902344 21.686452865600586 20.783103942871094 19.82787322998047
        18.558303833007812 16.525772094726562 13.629570007324219 12.665184020996094 13.751639366149902 15.216529846191406
        16.647850036621094 17.221595764160156 17.374191284179688 17.740407943725586 17.923521041870117 17.535934448242188
        17.178871154785156 16.852317810058594 17.029327392578125 17.71904754638672 18.20124053955078 17.227699279785156
        15.29282283782959 11.328468322753906 6.335639953613281 5.551314830780029 7.672355651855469 9.622489929199219
        10.693686485290527 11.358985900878906 12.195199012756348 13.269447326660156 14.093445777893066 14.557327270507812
        14.731284141540527 14.468826293945312 13.641777992248535 12.472915649414062 10.998870849609375 9.259315490722656
        8.438369750976562 9.414962768554688 11.236915588378906 13.122963905334473 14.630577087402344 14.484085083007812
        14.188055992126465 15.8726806640625 18.17987823486328 19.382308959960938 20.435195922851562 21.77800750732422
        21.65288543701172 20.13306427001953 18.573564529418945 17.661062240600586 16.675317764282227 15.646842956542969
        15.753653526306152 16.571548461914062 16.623435974121094 16.388442993164062 16.449478149414062 16.63564109802246
        16.974395751953125 17.206336975097656 16.824851989746094 15.616318702697754 13.513596534729004 11.807608604431152
        11.526841163635254 11.639762878417969 11.752677917480469 12.414932250976562 13.431198120117188 14.413894653320312
        15.265357971191406 16.0374755859375 16.449478149414062 16.34265899658203 16.04052734375 15.750603675842285
        15.445419311523438 15.402695655822754 15.256202697753906 14.700767517089844 14.389479637145996 14.667198181152344
        14.926605224609375 15.329445838928223 15.726187705993652 15.799430847167969 2.945037841796875 2.6734237670898438
        2.3590774536132812 2.11492919921875 1.8555221557617188 1.4099578857421875 1.040679931640625 2.10882568359375
        3.7141036987304688 4.406875133514404 5.89007568359375 8.929718017578125 11.508528709411621 12.0609130859375
        11.377304077148438 10.751670837402344 10.296942710876465 10.03753662109375 9.95208740234375 9.921570777893066
        10.144355773925781 11.154519081115723 13.388474464416504 16.15039825439453 18.836023330688477 21.329381942749023
        23.123878479003906 22.437210083007812 19.9285888671875 12.631614685058594 4.031494140625 3.7446212768554688
        6.903289794921875 9.555343627929688 9.88494873046875 8.975494384765625 8.963287353515625 11.542099952697754
        15.814689636230469 19.507431030273438 21.131019592285156 22.26325225830078 23.81969451904297 24.533828735351562
        23.63658905029297 22.446365356445312 21.79021453857422 21.015047073364258 19.559310913085938 17.91131591796875
        15.298927307128906 11.139259338378906 7.641838073730469 6.878875732421875 7.074188232421875 6.726280212402344
        5.188148498535156 4.0650634765625 5.282752990722656 4.348884582519531 5.023345947265625 9.604171752929688
        14.902190208435059 18.436233520507812 19.85228729248047 19.64781951904297 19.63866424560547 20.752586364746094
        21.506393432617188 20.929595947265625 20.42298698425293 19.79735565185547 18.411819458007812 15.210426330566406
        11.404769897460938 11.081268310546875 12.591935157775879 14.148383140563965 15.9093017578125 17.456588745117188
        18.378250122070312 19.095426559448242 19.293800354003906 18.30500030517578 17.67937469482422 17.97845458984375
        18.561355590820312 19.046600341796875 19.64781951904297 19.421979904174805 17.84111785888672 15.689567565917969
        11.978514671325684 8.652000427246094 7.770012378692627 8.578750610351562 10.296942710876465 11.993775367736816
        13.086334228515625 13.92559814453125 14.563430786132812 14.783164978027344 14.774009704589844 14.560379028320312
        14.11175537109375 13.519699096679688 12.485122680664062 11.200294494628906 11.020232200622559 12.247077941894531
        13.196205139160156 13.541061401367188 13.806571960449219 13.684500694274902 13.95916748046875 15.27756404876709
        16.946929931640625 18.11883544921875 19.315160751342773 20.383316040039062 19.9896240234375 19.217506408691406
        19.15952491760254 19.45860481262207 18.909273147583008 17.563400268554688 16.617324829101562 16.107666015625
        15.198219299316406 14.83199405670166 15.421005249023438 16.1168212890625 16.714988708496094 16.968292236328125
        16.3182430267334 14.847250938415527 13.086334228515625 11.807608604431152 11.322364807128906 11.218605041503906
        11.700798034667969 13.061920166015625 14.514601707458496 15.338600158691406 16.0008544921875 16.626487731933594
        16.702781677246094 16.44337272644043 16.461685180664062 16.565444946289062 16.26941680908203 15.952025413513184
        15.607162475585938 14.911346435546875 14.441361427307129 14.551223754882812 14.828941345214844 15.237892150878906
        15.417953491210938 15.094450950622559 2.4384307861328125 2.4079132080078125 2.3926546573638916 2.3560256958007812
        2.044738531112671 1.5381317138671875 1.6693649291992188 3.097625970840454 3.054901123046875 2.06610107421875
        4.07421875 8.401748657226562 11.136207580566406 10.455642700195312 8.386489868164062 7.864616394042969
        9.039581298828125 10.290840148925781 10.965302467346191 10.992766380310059 11.127052307128906 11.774040222167969
        13.501388549804688 16.50745964050293 19.171730041503906 20.117799758911133 20.36804962158203 19.937744140625
        18.10052490234375 13.568527221679688 6.5126495361328125 4.232917785644531 5.172889709472656 6.128120422363281
        6.125068664550781 6.4363555908203125 8.127082824707031 10.821861267089844 13.608199119567871 16.638694763183594
        19.74852752685547 21.80547523498535 22.836997985839844 23.13913917541504 22.27545928955078 20.676292419433594
        19.507429122924805 19.223608016967773 19.83702850341797 20.725120544433594 20.728172302246094 18.713953018188477
        13.96832275390625 7.107758045196533 3.5126800537109375 4.043701171875 4.0894775390625 4.07421875
        5.288856506347656 4.861595153808594 5.328529357910156 8.740501403808594 11.706902503967285 13.965270042419434
        16.785179138183594 18.533889770507812 18.781091690063477 19.168678283691406 19.87059783935547 19.75768280029297
        19.544052124023438 19.351783752441406 17.90216064453125 14.419998168945312 10.992767333984375 10.168769836425781
        10.916474342346191 12.189094543457031 13.614302635192871 14.944915771484375 16.412857055664062 17.606124877929688
        17.508468627929688 17.242958068847656 18.19208526611328 18.900115966796875 19.211402893066406 19.397567749023438
        19.78820037841797 20.0201416015625 19.7759952545166 18.594924926757812 16.34876251220703 14.572586059570312
        13.90118408203125 13.312171936035156 13.061920166015625 13.504440307617188 13.840142250061035 13.90423583984375
        14.02020263671875 13.95611572265625 13.748588562011719 13.693656921386719 13.809623718261719 13.809623718261719
        13.437301635742188 12.881866455078125 12.665184020996094 12.80251407623291 12.399673461914062 12.0517578125
        12.70180606842041 14.06903076171875 15.573593139648438 16.736351013183594 17.358924865722656 17.73430633544922
        18.19818878173828 18.21344757080078 17.78923797607422 18.16156768798828 19.513534545898438 20.657981872558594
        20.04150390625 18.03338623046875 16.501358032226562 15.9794921875 15.594956398010254 15.283668518066406
        15.759757041931152 16.507461547851562 16.916412353515625 16.830955505371094 16.13819122314453 15.27146053314209
        14.831993103027344 14.551222801208496 14.05377197265625 13.501389503479004 13.306068420410156 13.635673522949219
        14.014100074768066 14.06597900390625 14.444412231445312 15.033416748046875 15.311134338378906 15.591903686523438
        16.15955352783203 16.406755447387695 16.20227813720703 16.074098587036133 16.0679931640625 15.729240417480469
        14.996795654296875 14.368110656738281 14.252143859863281 14.502395629882812 14.648887634277344 14.505446434020996
        1.93487548828125 1.6418991088867188 1.455734372138977 1.4648895263671875 1.4099578857421875 1.7029342651367188
        2.3590774536132812 2.3163528442382812 1.6296920776367188 1.116973876953125 2.7497177124023438 6.4272003173828125
        7.705924987792969 5.6184539794921875 3.7080001831054688 4.641868591308594 7.684562683105469 10.544142723083496
        12.057861328125 12.280646324157715 11.89306640625 11.838128089904785 12.466813087463379 13.956114768981934
        15.677360534667969 16.82179832458496 17.249061584472656 17.279579162597656 16.864526748657227 15.793327331542969
        13.443406105041504 8.508560180664062 4.6082916259765625 4.6021881103515625 5.313270568847656 5.8076701164245605
        7.330543518066406 9.073151588439941 11.236915588378906 14.972381591796875 18.997772216796875 21.069976806640625
        21.85124969482422 22.29987335205078 21.884828567504883 20.624412536621094 19.75463104248047 20.34973907470703
        21.97943115234375 23.004852294921875 23.154396057128906 22.30292510986328 20.0262451171875 16.36402130126953
        13.299964904785156 9.039581298828125 3.933837890625 4.2146077156066895 6.4882354736328125 7.147438049316406
        7.742546558380127 9.524827003479004 11.062958717346191 12.359993934631348 14.868614196777344 17.578659057617188
        18.37824821472168 17.865530014038086 17.88995361328125 18.518630981445312 18.790245056152344 18.558303833007812
        17.355873107910156 14.917449951171875 12.356942176818848 10.876800537109375 10.403762817382812 10.565505981445312
        10.946990966796875 11.505477905273438 12.613296508789062 13.577683448791504 13.97442626953125 15.14633846282959
        16.693626403808594 17.352821350097656 18.378250122070312 19.69359588623047 20.722068786621094 21.344642639160156
        21.506393432617188 20.706809997558594 19.266334533691406 17.490158081054688 16.0679931640625 15.216529846191406
        14.703819274902344 14.69466495513916 14.777061462402344 14.551223754882812 13.98968505859375 13.122962951660156
        12.353889465332031 12.173835754394531 12.463759422302246 12.805564880371094 13.006988525390625 13.098541259765625
        12.884918212890625 12.292854309082031 11.532942771911621 11.487167358398438 12.582779884338379 14.398635864257812
        16.394546508789062 17.96624755859375 18.820762634277344 19.586774826049805 19.992673873901367 19.135108947753906
        17.74956512451172 17.529830932617188 18.36908721923828 18.509475708007812 17.496261596679688 16.19007110595703
        15.710929870605469 16.119873046875 16.718040466308594 16.916412353515625 17.081207275390625 17.365026473999023
        17.45048713684082 17.029327392578125 16.638694763183594 16.666160583496094 16.895050048828125 16.919464111328125
        16.565444946289062 16.15345001220703 15.839103698730469 15.320289611816406 14.438308715820312 13.418992042541504
        12.845236778259277 12.808616638183594 13.257240295410156 14.127021789550781 15.039519309997559 15.744499206542969
        16.13513946533203 16.467790603637695 16.757713317871094 16.611223220825195 15.744499206542969 14.444412231445312
        13.327430725097656 12.979522705078125 13.437301635742188 13.739433288574219 0.5157623291015625 0.4974517822265625
        1.6724168062210083 2.1546096801757812 2.07525634765625 2.3834991455078125 2.3316116333007812 1.7670211791992188
        1.4770965576171875 1.107818603515625 1.88299560546875 3.8483808040618896 3.085418701171875 1.419113278388977
        1.95623779296875 4.370246887207031 8.264411926269531 11.951050758361816 13.715019226074219 14.00799560546875
        13.089385986328125 12.131111145019531 12.305061340332031 13.15958309173584 14.490188598632812 15.884888648986816
        16.321298599243164 16.406753540039062 17.584762573242188 18.32636070251465 17.096467971801758 12.308113098144531
        6.949065685272217 5.5604705810546875 5.5269012451171875 5.627616882324219 6.170845031738281 6.875823974609375
        9.027374267578125 12.823875427246094 16.071044921875 17.593917846679688 18.717002868652344 19.8736572265625
        20.407730102539062 20.06591796875 19.440290451049805 19.69969940185547 21.173744201660156 22.644737243652344
        23.554183959960938 23.688467025756836 22.751548767089844 20.24292755126953 16.29077911376953 10.147407531738281
        5.3987274169921875 6.6133575439453125 8.630638122558594 8.801535606384277 8.374282836914062 9.140297889709473
        10.766929626464844 12.03955078125 13.611251831054688 16.17786407470703 18.04254150390625 17.63054847717285
        16.19922637939453 15.582748413085938 15.869621276855469 16.01611328125 15.787223815917969 14.969329833984375
        13.534958839416504 12.537002563476562 11.807609558105469 10.834068298339844 10.10467529296875 10.02227783203125
        10.528884887695312 11.096526145935059 11.9510498046875 13.150428771972656 13.470871925354004 14.227729797363281
        16.617324829101562 19.116790771484375 20.2002010345459 20.30091094970703 20.584732055664062 20.587783813476562
        20.29785919189453 19.501327514648438 18.57050895690918 18.13105010986328 17.72209930419922 17.096466064453125
        16.623435974121094 16.18396759033203 15.253150939941406 14.014100074768066 12.591934204101562 11.383407592773438
        11.023284912109375 11.511582374572754 12.292854309082031 13.129066467285156 13.690605163574219 13.620406150817871
        13.202308654785156 12.958160400390625 13.220619201660156 14.276557922363281 15.836051940917969 17.349769592285156
        18.768884658813477 20.16358184814453 20.599990844726562 19.376205444335938 17.361976623535156 16.30603790283203
        16.476943969726562 16.31214141845703 15.646842956542969 15.274513244628906 15.485092163085938 15.500349998474121
        15.335548400878906 15.820793151855469 16.516616821289062 16.754661560058594 16.971343994140625 17.041534423828125
        17.432174682617188 18.04864501953125 18.36908721923828 18.469802856445312 18.16766929626465 17.609176635742188
        17.261266708374023 16.782127380371094 15.997802734375 15.140235900878906 13.95306396484375 12.564468383789062
        12.0517578125 12.524795532226562 13.519699096679688 14.789268493652344 15.799430847167969 16.223642349243164
        16.30298614501953 16.19007110595703 15.778069496154785 14.578689575195312 12.924591064453125 12.11279296875
        12.265387535095215 12.234870910644531 1.3702774047851562 1.6693649291992188 1.6388473510742188 0.930816650390625
        1.2482070922851562 2.5574493408203125 3.8941650390625 1.9562379121780396 1.3000868558883667 0.8331528306007385
        0.6195220947265625 1.1413955688476562 0.5127105712890625 1.046783447265625 1.91046142578125 5.108795166015625
        9.601119041442871 12.884917259216309 14.145332336425781 14.249092102050781 13.476974487304688 12.964264869689941
        13.742485046386719 14.627525329589844 15.231789588928223 16.504409790039062 17.319252014160156 17.374191284179688
        18.079160690307617 18.036439895629883 15.601058959960938 11.740471839904785 7.9317626953125 5.96636962890625
        4.919586658477783 5.221717834472656 6.03656005859375 6.10675048828125 7.190162181854248 9.411911010742188
        11.590927124023438 13.16568660736084 14.941864013671875 17.426071166992188 19.672231674194336 20.422990798950195
        19.9346923828125 19.70580291748047 20.719017028808594 22.602005004882812 24.22254180908203 24.619277954101562
        23.72203826904297 21.527755737304688 17.74346160888672 11.548203468322754 7.696769714355469 9.668266296386719
        11.984619140625 12.387466430664062 11.053802490234375 9.201332092285156 9.131141662597656 10.550247192382812
        12.775047302246094 15.8787841796875 18.32025909423828 17.981504440307617 15.512557983398438 13.357949256896973
        13.174842834472656 14.346748352050781 15.243995666503906 15.396591186523438 14.539017677307129 13.681449890136719
        13.299964904785156 12.619400024414062 11.420028686523438 10.406814575195312 10.11688232421875 10.333563804626465
        11.365089416503906 12.100584983825684 11.21860408782959 11.642813682556152 14.200263977050781 16.428115844726562
        16.769920349121094 16.635643005371094 17.62749481201172 18.762779235839844 19.409774780273438 19.82482147216797
        19.9407958984375 19.901124954223633 19.63866424560547 18.845176696777344 18.00592041015625 17.349769592285156
        16.687522888183594 16.0252685546875 14.395584106445312 11.853385925292969 10.348824501037598 10.299996376037598
        10.928680419921875 12.445449829101562 14.203315734863281 15.240943908691406 15.475936889648438 15.155494689941406
        14.517654418945312 14.423048973083496 15.228737831115723 16.476943969726562 17.65496063232422 18.22565460205078
        17.92962646484375 17.166664123535156 16.30908966064453 15.799431800842285 15.860466003417969 15.848258972167969
        15.500350952148438 15.149391174316406 15.009002685546875 14.597000122070312 13.861503601074219 13.89508056640625
        14.728233337402344 15.588850975036621 16.705833435058594 17.90216064453125 18.713951110839844 19.000823974609375
        19.119842529296875 19.257179260253906 18.735313415527344 17.737356185913086 17.136146545410156 16.922515869140625
        16.693626403808594 16.098512649536133 14.935760498046875 13.446456909179688 11.825919151306152 10.834068298339844
        11.566513061523438 13.367103576660156 14.661093711853027 14.960174560546875 14.926605224609375 15.051727294921875
        15.002899169921875 14.142280578613281 12.717063903808594 11.960205078125 11.566512107849121 11.145362854003906
        1.2909317016601562 1.89825439453125 1.062042236328125 1.4130096435546875 1.4618377685546875 2.8412702083587646
        3.2349624633789062 1.5137176513671875 1.2360000610351562 1.590011715888977 0.7385482788085938 0.8484115600585938
        1.602218508720398 1.2085342407226562 1.3580703735351562 4.5899810791015625 8.990753173828125 12.851340293884277
        14.67940616607666 14.609207153320312 13.773001670837402 13.135169982910156 13.312171936035156 13.592941284179688
        13.97137451171875 15.662100791931152 17.105623245239258 16.458633422851562 15.100555419921875 14.300971984863281
        13.476974487304688 12.949005126953125 10.464797973632812 6.851402282714844 5.8137736320495605 6.173896789550781
        6.512650012969971 6.08843994140625 5.746635437011719 6.3966827392578125 7.507553577423096 8.865623474121094
        11.767935752868652 15.9154052734375 19.312108993530273 20.746482849121094 20.560317993164062 19.782094955444336
        19.547103881835938 20.484024047851562 21.80242156982422 22.379226684570312 21.82683563232422 20.16663360595703
        16.34265899658203 9.95208740234375 7.266456127166748 9.518722534179688 12.509536743164062 14.352851867675781
        14.572586059570312 13.211463928222656 10.827964782714844 9.735404968261719 11.532944679260254 14.838096618652344
        17.255165100097656 17.236854553222656 15.311134338378906 13.162635803222656 12.994781494140625 14.688560485839844
        15.588850975036621 15.665153503417969 15.228736877441406 14.365058898925781 13.90118408203125 13.779106140136719
        13.083282470703125 11.9693603515625 11.154519081115723 10.840171813964844 11.584824562072754 11.374252319335938
        9.778129577636719 9.92462158203125 11.453598022460938 11.545151710510254 10.968353271484375 12.021240234375
        14.203315734863281 16.20532989501953 17.508468627929688 18.631553649902344 19.534896850585938 20.0506591796875
        20.050661087036133 19.421981811523438 18.604080200195312 18.021181106567383 17.600019454956055 17.340614318847656
        16.519668579101562 14.722129821777344 12.695701599121094 10.608231544494629 9.442428588867188 10.437332153320312
        12.695701599121094 14.844200134277344 16.022216796875 16.21448516845703 15.546128273010254 15.005951881408691
        15.411850929260254 16.33960723876953 16.684473037719727 16.31214141845703 16.058837890625 16.17481231689453
        16.428115844726562 16.705833435058594 16.885894775390625 16.956085205078125 16.879791259765625 16.41590690612793
        16.0740966796875 15.9093017578125 15.170753479003906 14.621414184570312 15.402694702148438 16.653953552246094
        17.64275360107422 18.454544067382812 18.781089782714844 18.80855369567871 19.101531982421875 19.339576721191406
        18.701744079589844 17.612228393554688 16.971343994140625 16.861473083496094 16.675315856933594 15.860466003417969
        14.658042907714844 13.629570007324219 12.033447265625 10.217597961425781 10.370185852050781 12.0975341796875
        13.498336791992188 14.09954833984375 14.456619262695312 14.804527282714844 14.835044860839844 14.197212219238281
        13.174842834472656 12.332527160644531 11.551254272460938 11.188087463378906 0.885040283203125 1.4648895263671875
        1.095611572265625 1.058990478515625 1.4404754638671875 1.089508056640625 0.5920562744140625 0.946075439453125
        0.8392563462257385 1.2634658813476562 2.5971221923828125 2.3804476261138916 1.97149658203125 0.5218659043312073
        1.6663131713867188 3.903320550918579 7.2359395027160645 10.873748779296875 13.26639461517334 13.965271949768066
        13.983582496643066 13.821830749511719 13.595992088317871 13.403732299804688 13.681449890136719 14.459671974182129
        14.194160461425781 12.829977989196777 12.65908145904541 14.261300086975098 15.646843910217285 16.11376953125
        13.336585998535156 7.9561767578125 5.89617919921875 5.221717834472656 4.886016845703125 5.127113342285156
        5.221717834472656 5.304115295410156 5.4078826904296875 7.123023509979248 10.968353271484375 14.569534301757812
        17.294837951660156 19.64781951904297 20.780052185058594 20.578628540039062 19.85228729248047 19.449447631835938
        19.66918182373047 19.8797607421875 19.122901916503906 17.090362548828125 13.898133277893066 11.160621643066406
        9.653007507324219 8.740501403808594 9.512619018554688 12.070068359375 14.673301696777344 15.854362487792969
        14.636679649353027 12.338630676269531 11.89306640625 13.99578857421875 16.495254516601562 17.099517822265625
        15.918457984924316 13.599044799804688 12.125007629394531 12.845237731933594 14.310127258300781 15.427108764648438
        16.0191650390625 15.375227928161621 14.383377075195312 14.007994651794434 13.96527099609375 13.815726280212402
        13.348793029785156 12.433243751525879 11.9388427734375 10.086363792419434 8.752708435058594 9.503463745117188
        9.613327980041504 7.7852702140808105 7.037567138671875 8.05078125 10.257270812988281 13.092437744140625
        15.591903686523438 17.267372131347656 18.31415557861328 19.000823974609375 19.205299377441406 18.875699996948242
        18.454544067382812 18.09136962890625 17.69768714904785 17.542037963867188 17.79534149169922 17.935728073120117
        17.459640502929688 15.439314842224121 11.667228698730469 9.308143615722656 10.296942710876465 12.710960388183594
        14.667198181152344 15.839103698730469 16.14734649658203 16.010009765625 16.052734375 15.848258972167969
        14.670249938964844 13.95916748046875 14.841148376464844 16.17176055908203 17.209388732910156 18.09747314453125
        18.588821411132812 18.710899353027344 18.659019470214844 18.24091339111328 18.04559326171875 17.86248016357422
        16.837059020996094 15.811637878417969 16.12903594970703 17.166664123535156 17.74346160888672 18.08526611328125
        18.35993194580078 18.594924926757812 18.951995849609375 19.183937072753906 18.799400329589844 18.09442138671875
        17.71599578857422 17.557296752929688 17.038484573364258 16.0496826171875 15.048674583435059 14.267402648925781
        13.138221740722656 11.545150756835938 10.699790954589844 11.124000549316406 12.314216613769531 13.611250877380371
        14.499342918395996 14.957122802734375 14.911346435546875 14.487136840820312 14.093445777893066 13.17789363861084
        11.880860328674316 11.535996437072754 0.6592025756835938 0.5676422119140625 0.7385482788085938 1.1413955688476562
        0.9247130751609802 2.1729202270507812 1.6663131713867188 0.3936920166015625 2.5147247314453125 1.1322402954101562
        1.571701169013977 2.1698684692382812 2.01727294921875 0.4913482666015625 2.7436141967773438 3.933837652206421
        5.298011779785156 6.805626392364502 8.764915466308594 11.252174377441406 13.504440307617188 14.996795654296875
        15.585800170898438 15.118866920471191 13.687553405761719 12.463760375976562 12.250129699707031 12.829978942871094
        14.02630615234375 15.652946472167969 16.779075622558594 16.592910766601562 14.645835876464844 9.985655784606934
        6.326484680175781 5.313270568847656 5.4506072998046875 5.597092151641846 6.4149932861328125 7.101654529571533
        6.842247009277344 7.058929920196533 8.386489868164062 10.08331298828125 13.229775428771973 17.65801429748535
        20.64577293395996 21.362953186035156 20.960113525390625 19.67833709716797 17.633596420288086 15.155494689941406
        12.927641868591309 12.155525207519531 12.573623657226562 12.924591064453125 12.308113098144531 9.796440124511719
        8.407852172851562 9.942931175231934 12.744529724121094 14.825889587402344 15.259254455566406 14.355903625488281
        13.632621765136719 14.181953430175781 15.558333396911621 16.33960723876953 15.936767578125 14.05682373046875
        11.395614624023438 10.446487426757812 12.332527160644531 14.801475524902344 16.25110626220703 16.27552032470703
        15.189064025878906 13.96832275390625 13.748588562011719 14.499344825744629 14.960175514221191 14.127021789550781
        12.64992618560791 9.442428588867188 8.291877746582031 9.546188354492188 9.372238159179688 7.153541088104248
        5.743583679199219 6.1830525398254395 8.426162719726562 11.835075378417969 14.68550968170166 16.107666015625
        16.745506286621094 17.212438583374023 17.514572143554688 17.69768524169922 17.76177215576172 17.64275360107422
        17.310096740722656 17.081205368041992 17.392501831054688 18.21649932861328 18.973358154296875 18.03338623046875
        14.993744850158691 12.530899047851562 12.311164855957031 12.659079551696777 13.91949462890625 16.01611328125
        17.438278198242188 17.569503784179688 16.760765075683594 15.19821834564209 13.711966514587402 14.273507118225098
        16.18701934814453 17.392501831054688 17.77092742919922 18.26837921142578 18.753623962402344 19.122901916503906
        19.403671264648438 19.223609924316406 18.814659118652344 18.24091339111328 17.355873107910156 16.20838165283203
        15.390487670898438 15.649893760681152 16.589859008789062 17.361976623535156 17.874696731567383 18.561355590820312
        19.272438049316406 19.534894943237305 19.055753707885742 18.573562622070312 18.515579223632812 18.298898696899414
        17.78923797607422 17.346717834472656 16.809593200683594 15.961181640625 14.902191162109375 13.556320190429688
        11.792350769042969 10.650962829589844 11.142311096191406 12.463759422302246 13.507491111755371 14.08428955078125
        14.154488563537598 14.11480712890625 14.252142906188965 13.449509620666504 12.11279296875 11.716056823730469
        3.036590576171875 2.4140167236328125 2.4231722354888916 3.4516448974609375 3.024383544921875 0.7385483384132385
        1.6541061401367188 0.6714096069335938 0.7202377915382385 0.8514633178710938 0.708030641078949 1.058990478515625
        0.4120025634765625 2.3682327270507812 3.759880304336548 2.5818634033203125 2.6184844970703125 3.5431976318359375
        5.221717834472656 8.740501403808594 12.451553344726562 14.76485538482666 15.787222862243652 15.225685119628906
        13.034454345703125 12.240974426269531 13.513594627380371 14.801475524902344 15.024261474609375 14.719078063964844
        14.389480590820312 14.181953430175781 13.858451843261719 11.590926170349121 8.01416015625 5.5024871826171875
        5.096588611602783 4.5381011962890625 4.284797668457031 5.114898681640625 6.3844757080078125 7.324440002441406
        7.672356128692627 8.227790832519531 10.959197998046875 15.552230834960938 19.125953674316406 20.404678344726562
        20.48097038269043 19.360939025878906 16.385391235351562 12.363044738769531 10.190132141113281 11.050750732421875
        12.771994590759277 13.696708679199219 13.17789363861084 11.520736694335938 11.072112083435059 11.694694519042969
        12.1097412109375 12.820822715759277 13.882874488830566 15.076140403747559 15.839103698730469 15.427108764648438
        15.173805236816406 16.18396759033203 16.934722900390625 16.24195098876953 13.94696044921875 10.904266357421875
        10.357977867126465 12.729270935058594 15.085297584533691 15.9825439453125 15.613265991210938 14.404739379882812
        13.620407104492188 14.166694641113281 15.009002685546875 14.636680603027344 13.327430725097656 10.08331298828125
        8.279670715332031 8.749656677246094 8.63063907623291 6.976531982421875 5.4567108154296875 5.597091197967529
        7.275611400604248 10.538040161132812 13.354896545410156 14.593948364257812 15.30197811126709 16.0008544921875
        16.519668579101562 16.766868591308594 16.931671142578125 17.053741455078125 16.919464111328125 16.507461547851562
        16.34571075439453 16.946929931640625 17.270423889160156 16.33045196533203 15.741447448730469 16.046630859375
        16.638694763183594 16.12598419189453 16.766868591308594 18.85127830505371 20.313119888305664 20.474868774414062
        20.120849609375 19.281593322753906 18.442337036132812 18.518630981445312 18.494216918945312 17.76787567138672
        17.078155517578125 17.197181701660156 17.85942840576172 18.601028442382812 19.055755615234375 18.939788818359375
        18.442338943481445 17.914369583129883 17.584762573242188 17.096467971801758 16.34876251220703 16.107666015625
        16.589859008789062 17.197181701660156 17.64275360107422 18.466753005981445 19.516586303710938 19.86449432373047
        19.116790771484375 18.494216918945312 18.637657165527344 18.787193298339844 18.826866149902344 18.878755569458008
        18.356882095336914 17.438278198242188 16.599014282226562 15.381332397460938 13.000885009765625 10.425125122070312
        9.756767272949219 10.629600524902344 11.838127136230469 12.891021728515625 13.476974487304688 13.821830749511719
        14.02630615234375 13.641777038574219 12.973419189453125 11.847282409667969 5.8412394523620605 4.5838775634765625
        3.088470458984375 2.4231719970703125 3.1891863346099854 1.98370361328125 1.3672256469726562 3.2593765258789062
        2.8443222045898438 2.2522659301757812 1.510666012763977 1.3031387329101562 1.2176895141601562 2.6856307983398438
        2.4750518798828125 0.8209457397460938 2.00811767578125 2.945037841796875 4.119994640350342 7.770012378692627
        12.1158447265625 14.246041297912598 14.10565185546875 12.390518188476562 10.940887451171875 11.801506996154785
        13.849296569824219 15.167701721191406 14.999846458435059 14.343696594238281 14.148383140563965 14.337592124938965
        14.404740333557129 13.904234886169434 11.91748046875 7.4282073974609375 4.593032360076904 3.5706634521484375
        2.6459579467773438 3.4028167724609375 6.103698253631592 8.996855735778809 10.361029624938965 10.428176879882812
        11.233863830566406 13.797416687011719 16.876737594604492 18.521682739257812 18.860435485839844 18.26532745361328
        16.24805450439453 13.107696533203125 10.458695411682129 9.860527038574219 11.401717185974121 13.116850852966309
        12.982575416564941 11.810660362243652 11.716056823730469 12.088379859924316 12.0364990234375 12.787254333496094
        14.322334289550781 15.637687683105469 16.409805297851562 16.650903701782227 16.351816177368164 16.537979125976562
        17.044586181640625 16.23889923095703 14.401688575744629 12.198249816894531 10.361030578613281 10.879852294921875
        12.909332275390625 14.212471008300781 14.807579040527344 15.042572021484375 14.630577087402344 14.06903076171875
        13.873719215393066 13.904236793518066 13.473922729492188 11.145362854003906 7.4495697021484375 5.471970081329346
        5.89312744140625 6.5309600830078125 6.08843994140625 5.099639892578125 5.4658660888671875 7.9805908203125
        10.849327087402344 12.411880493164062 13.455611228942871 14.423050880432129 15.109710693359375 15.472885131835938
        15.99169921875 16.580703735351562 16.754661560058594 16.25415802001953 15.768913269042969 15.607162475585938
        15.100555419921875 14.71907901763916 14.969328880310059 15.363014221191406 16.534927368164062 17.51152229309082
        18.979461669921875 20.865501403808594 22.13202667236328 22.23578643798828 21.91229248046875 21.112701416015625
        20.28260040283203 19.611190795898438 18.18598175048828 16.751609802246094 16.19922637939453 16.657005310058594
        17.612228393554688 18.414871215820312 18.768882751464844 18.634605407714844 18.21955108642578 17.85027313232422
        17.621383666992188 17.303993225097656 16.830955505371094 16.382339477539062 16.19007110595703 16.565444946289062
        17.361976623535156 18.32941436767578 19.046600341796875 19.083221435546875 18.607131958007812 18.494216918945312
        19.003875732421875 19.522689819335938 19.64171600341797 19.199195861816406 18.524734497070312 18.28668975830078
        18.03338623046875 17.014068603515625 15.323341369628906 12.65297794342041 9.457687377929688 8.349862098693848
        9.96124267578125 12.182991027832031 13.342689514160156 13.565474510192871 13.675346374511719 13.821830749511719
        13.183999061584473 10.251168251037598 7.4221038818359375 8.609268188476562 7.5441741943359375 4.1474690437316895
        1.9653929471969604 1.446578860282898 0.7141342163085938 3.2074966430664062 4.0833740234375 3.5523529052734375
        2.4475858211517334 1.5717010498046875 1.022369384765625 1.5778045654296875 1.2939834594726562 1.4740447998046875
        3.3234636783599854 2.7680280208587646 3.3906097412109375 6.08843994140625 9.430220603942871 11.017181396484375
        9.579757690429688 7.065032958984375 7.702873229980469 10.950042724609375 13.91339111328125 15.121917724609375
        15.005950927734375 14.505447387695312 14.337592124938965 14.539016723632812 15.036468505859375 15.036467552185059
        14.911345481872559 12.076171875 6.787315845489502 3.6713790893554688 2.923675298690796 3.4302825927734375
        6.5706329345703125 11.102630615234375 14.734336853027344 15.823845863342285 14.975434303283691 14.310127258300781
        15.118866920471191 16.431167602539062 16.965240478515625 16.895050048828125 16.17786407470703 14.477981567382812
        12.451552391052246 10.550248146057129 10.415969848632812 11.517684936523438 11.273536682128906 9.927674293518066
        9.360023498535156 10.129097938537598 11.853384971618652 13.91644287109375 15.573593139648438 16.13208770751953
        16.12293243408203 16.693626403808594 17.178871154785156 17.178871154785156 16.525772094726562 14.642784118652344
        12.927643775939941 12.720115661621094 12.179939270019531 10.803549766540527 10.956146240234375 12.421035766601562
        13.821830749511719 15.115813255310059 15.625480651855469 14.828940391540527 13.89813232421875 13.97137451171875
        14.02630615234375 13.321328163146973 8.05078125 2.2827835083007812 3.4302825927734375 5.533005237579346
        5.92364501953125 4.687644958496094 4.251228332519531 5.871757507324219 8.560440063476562 10.153511047363281
        10.794395446777344 11.569564819335938 12.601089477539062 13.647880554199219 14.831993103027344 15.784172058105469
        16.19312286376953 16.12598419189453 16.17786407470703 16.13513946533203 16.0435791015625 15.326393127441406
        13.577682495117188 12.814720153808594 13.782157897949219 15.604111671447754 17.618331909179688 19.360939025878906
        20.30091094970703 20.31006622314453 20.0628662109375 19.49827766418457 18.918426513671875 18.23175811767578
        17.246009826660156 16.666160583496094 16.815696716308594 17.340614318847656 17.96014404296875 18.616287231445312
        19.211402893066406 19.342628479003906 18.982513427734375 18.579666137695312 18.04254150390625 17.188026428222656
        16.425064086914062 15.8848876953125 15.622421264648438 16.14734649658203 17.151405334472656 18.09747314453125
        18.597976684570312 18.750572204589844 19.110687255859375 19.824819564819336 20.32227325439453 20.26734161376953
        19.87059783935547 19.248023986816406 18.955045700073242 19.092378616333008 18.625450134277344 17.554244995117188
        16.745506286621094 15.799430847167969 13.031402587890625 8.76491641998291 7.058929443359375 8.624534606933594
        10.742515563964844 12.244026184082031 13.183998107910156 13.257240295410156 12.033447265625 10.187080383300781
        6.369209289550781 9.741508483886719 11.8900146484375 10.501419067382812 4.815818786621094 1.4709930419921875
        1.2237929105758667 1.4130096435546875 3.1983413696289062 3.3539810180664062 2.5147247314453125 1.7120896577835083
        1.2085342407226562 1.3458633422851562 1.065093994140625 2.3529739379882812 3.2349624633789062 2.8595809936523438
        3.4669036865234375 2.996917724609375 3.3295669555664062 4.303108215332031 3.646965265274048 3.946044921875
        6.357002258300781 10.623497009277344 13.867607116699219 14.761802673339844 14.505447387695312 14.03851318359375
        14.02020263671875 14.600052833557129 15.469833374023438 16.14429473876953 16.22974395751953 14.816733360290527
        8.471939086914062 3.064056396484375 2.5727081298828125 3.7690351009368896 7.245094299316406 12.0487060546875
        16.235849380493164 17.98760986328125 17.542037963867188 15.9093017578125 14.673301696777344 14.770957946777344
        15.286720275878906 15.820793151855469 16.379287719726562 16.19007110595703 15.472885131835938 13.003936767578125
        9.775077819824219 8.316292762756348 7.358009338378906 7.306129455566406 8.371223449707031 9.982604026794434
        12.021240234375 14.154487609863281 15.811637878417969 16.577651977539062 16.556289672851562 16.666160583496094
        17.105621337890625 17.615280151367188 17.78313446044922 17.236854553222656 15.607162475585938 13.87677001953125
        12.366096496582031 10.477005004882812 10.431228637695312 12.323371887207031 14.017151832580566 14.877778053283691
        15.259254455566406 14.731284141540527 14.05377197265625 14.160591125488281 14.548171997070312 14.69161319732666
        11.767936706542969 6.241034984588623 3.9979248046875 4.248176574707031 4.6174468994140625 4.03759765625
        3.7079999446868896 4.751731872558594 6.811729431152344 8.0355224609375 7.98974609375 7.9256591796875
        8.954132080078125 10.782188415527344 12.668235778808594 14.258247375488281 15.280616760253906 15.826896667480469
        16.23584747314453 16.443374633789062 16.641746520996094 14.886932373046875 12.604141235351562 12.970367431640625
        14.02325439453125 14.658042907714844 15.637687683105469 16.31824493408203 16.425064086914062 16.708885192871094
        17.392499923706055 17.91436767578125 17.96929931640625 17.73125457763672 17.532882690429688 17.615280151367188
        17.96929931640625 18.27753448486328 18.524734497070312 19.031341552734375 19.72716522216797 20.04150390625
        19.82787322998047 19.409772872924805 18.750572204589844 17.83196258544922 16.949981689453125 15.9825439453125
        15.353858947753906 15.469833374023438 15.866569519042969 16.574600219726562 17.68242645263672 18.875701904296875
        19.9774169921875 20.712913513183594 20.80446434020996 20.490127563476562 20.16358184814453 19.907228469848633
        19.68138885498047 19.186988830566406 18.25312042236328 17.389450073242188 17.169715881347656 17.087310791015625
        16.574602127075195 15.048675537109375 11.435288429260254 7.9989013671875 7.705924987792969 9.643852233886719
        10.937835693359375 10.214546203613281 9.454635620117188 9.97955322265625 7.138282775878906 9.576705932617188
        11.377304077148438 12.0120849609375 9.561447143554688 4.159675598144531 2.4170684814453125 1.6693649291992188
        0.836204469203949 3.8697431087493896 3.96435546875 3.097625732421875 2.4903106689453125 2.1729202270507812
        1.8250045776367188 1.9043577909469604 2.2339556217193604 3.9124755859375 4.129158020019531 1.9043580293655396
        1.1841201782226562 1.3794403076171875 1.90435791015625 3.3967132568359375 5.5452117919921875 9.143348693847656
        12.384414672851562 13.693656921386719 13.678397178649902 13.437301635742188 13.812675476074219 14.822837829589844
        15.9215087890625 17.050689697265625 16.986602783203125 16.3548641204834 10.541091918945312 3.5828704833984375
        2.10882568359375 3.4974212646484375 6.671349048614502 11.224708557128906 15.402694702148438 17.706838607788086
        17.64580535888672 15.634635925292969 13.687553405761719 13.361000061035156 13.901183128356934 14.896087646484375
        16.25415802001953 17.154457092285156 17.19108009338379 15.9093017578125 12.140267372131348 7.217628479003906
        5.090484619140625 6.970428466796875 9.271522521972656 10.562454223632812 11.108734130859375 12.283699035644531
        14.719078063964844 16.998809814453125 18.30500030517578 18.482009887695312 17.87774658203125 17.316200256347656
        17.413864135742188 18.121889114379883 18.07305908203125 16.29383087158203 13.736381530761719 11.810661315917969
        11.090423583984375 12.329475402832031 13.97137451171875 14.154487609863281 13.90423583984375 13.87677001953125
        13.925599098205566 14.178901672363281 14.590896606445312 14.380325317382812 13.321327209472656 10.556350708007812
        6.772056579589844 5.4506072998046875 5.322425842285156 3.4882659912109375 3.048797369003296 4.5442047119140625
        6.00604248046875 6.442459583282471 6.01214599609375 5.703910827636719 6.625572204589844 8.0660400390625
        10.071106910705566 12.933746337890625 15.23789119720459 16.15955352783203 15.555282592773438 14.368110656738281
        13.147377014160156 11.304054260253906 11.410873413085938 13.672294616699219 15.390486717224121 15.271461486816406
        15.149391174316406 14.596999168395996 14.371161460876465 15.289772033691406 16.388442993164062 17.001861572265625
        17.456586837768555 17.99066162109375 18.424026489257812 18.781089782714844 19.122900009155273 19.324317932128906
        19.492172241210938 19.8156681060791 20.23072052001953 20.432144165039062 20.31311798095703 19.9285888671875
        19.437240600585938 18.805505752563477 17.87774658203125 16.595962524414062 15.616316795349121 15.253151893615723
        15.491195678710938 16.22364044189453 17.294837951660156 18.686485290527344 19.885862350463867 20.108642578125
        19.998779296875 20.23987579345703 20.2002010345459 19.75157928466797 19.327369689941406 18.866540908813477
        18.378250122070312 18.128000259399414 18.14325714111328 18.10662841796875 17.535934448242188 16.25110626220703
        14.227729797363281 11.090422630310059 8.484146118164062 7.892089366912842 7.626579284667969 7.766960144042969
        9.579758644104004 11.416976928710938 8.667259216308594 9.95819091796875 10.904266357421875 11.597030639648438
        12.411880493164062 11.572616577148438 8.72829532623291 4.953155517578125 1.046783447265625 1.7700729370117188
        3.5279388427734375 3.939941167831421 3.8514328002929688 3.5004730224609375 3.3997650146484375 2.902313232421875
        2.2431106567382812 3.839226007461548 3.5920257568359375 1.3031387329101562 0.900299072265625 1.6876754760742188
        2.7832870483398438 3.4363861083984375 4.770042419433594 8.206428527832031 11.9266357421875 13.815727233886719
        13.824881553649902 13.452561378479004 13.91644287109375 15.335549354553223 16.70277976989746 17.90216064453125
        17.70989227294922 16.974395751953125 11.526839256286621 4.5777740478515625 2.2278518676757812 3.1525650024414062
        6.247138500213623 10.382400512695312 13.437301635742188 14.880828857421875 14.828941345214844 13.760794639587402
        12.949005126953125 12.81472110748291 13.223670959472656 14.456619262695312 16.17481231689453 17.368080139160156
        17.72209930419922 17.545089721679688 14.615310668945312 8.285774230957031 5.533005237579346 7.455672740936279
        9.796440124511719 10.708946228027344 9.842216491699219 10.02838134765625 12.82692813873291 16.550186157226562
        19.388412475585938 20.120851516723633 19.370094299316406 17.67937469482422 15.640739440917969 14.877776145935059
        15.378280639648438 15.463729858398438 15.22263240814209 15.250099182128906 14.075135231018066 13.220620155334473
        13.507492065429688 13.345741271972656 13.229774475097656 13.90728759765625 14.401687622070312 14.578689575195312
        14.615310668945312 13.919493675231934 12.817771911621094 12.494277954101562 12.839134216308594 12.765891075134277
        10.614334106445312 6.164741516113281 4.785301208496094 5.816825866699219 5.063018798828125 4.196296691894531
        4.4343414306640625 5.993834972381592 7.6204681396484375 7.4465179443359375 8.444473266601562 12.0059814453125
        15.16770076751709 15.756706237792969 13.547164916992188 11.026336669921875 8.221687316894531 7.1932148933410645
        9.018218994140625 11.734367370605469 14.10870361328125 14.651939392089844 15.137184143066406 15.326394081115723
        15.222633361816406 15.491195678710938 15.759758949279785 15.991700172424316 16.86757469177246 17.97235107421875
        18.701744079589844 19.211402893066406 19.6935977935791 20.13916778564453 20.542007446289062 20.834983825683594
        20.865501403808594 20.67018699645996 20.392473220825195 19.986572265625 19.513534545898438 18.939788818359375
        18.240915298461914 17.410812377929688 16.736351013183594 16.446426391601562 16.766868591308594 17.288734436035156
        17.328407287597656 17.352821350097656 17.734304428100586 18.036436080932617 18.561355590820312 19.159523010253906
        18.884857177734375 18.25922393798828 18.478958129882812 19.077117919921875 19.238868713378906 19.18393898010254
        19.193092346191406 18.991670608520508 18.16767120361328 16.827903747558594 15.033415794372559 13.034454345703125
        11.517684936523438 10.898162841796875 11.023283958435059 11.670280456542969 12.723167419433594 13.461715698242188
        8.877838134765625 9.674368858337402 9.97344970703125 10.809654235839844 12.939848899841309 14.792319297790527
        14.877776145935059 10.544143676757812 4.223762512207031 1.9623411893844604 2.7191998958587646 3.3845062255859375
        3.814811944961548 3.8514328002929688 3.7415695190429688 3.6042325496673584 3.051849365234375 2.8626327514648438
        2.5421905517578125 1.2848281860351562 1.071197509765625 2.2095413208007812 3.4608001708984375 4.0284423828125
        4.757835388183594 7.559432506561279 11.297950744628906 13.681449890136719 13.98052978515625 13.434249877929688
        13.92864990234375 15.997802734375 17.828908920288086 18.982513427734375 18.82381248474121 17.78618621826172
        11.511581420898438 4.2939534187316895 3.039642333984375 4.757835388183594 7.1565937995910645 10.202339172363281
        13.348793983459473 15.451523780822754 16.0740966796875 15.662101745605469 13.91644287109375 12.317268371582031
        13.080231666564941 15.308082580566406 17.102571487426758 17.67937469482422 17.95404052734375 18.00592041015625
        15.717033386230469 11.017181396484375 8.551284790039062 8.661155700683594 9.729302406311035 9.805595397949219
        8.911407470703125 9.195228576660156 11.249122619628906 14.615310668945312 17.99676513671875 19.608139038085938
        19.71495819091797 18.750572204589844 16.28162384033203 13.190101623535156 11.459701538085938 11.938841819763184
        13.794364929199219 15.723136901855469 15.833000183105469 14.716026306152344 14.67330265045166 15.149391174316406
        15.027313232421875 15.088348388671875 15.094451904296875 14.554275512695312 13.834037780761719 12.979522705078125
        12.775046348571777 13.635673522949219 14.014100074768066 12.930694580078125 11.136207580566406 10.214546203613281
        10.190131187438965 9.054840087890625 5.044708251953125 2.932831048965454 3.5035247802734375 6.10064697265625
        8.0416259765625 6.930756092071533 7.028411865234375 10.09857177734375 12.768943786621094 12.448501586914062
        10.116883277893066 7.916503429412842 5.081329345703125 5.4384002685546875 7.025360107421875 8.847312927246094
        11.081268310546875 12.689597129821777 14.380325317382812 15.927611351013184 16.27857208251953 16.04052734375
        15.869621276855469 15.857414245605469 16.492202758789062 17.319252014160156 17.72515106201172 18.06085205078125
        18.890960693359375 20.108642578125 21.024200439453125 21.314125061035156 21.033353805541992 20.609146118164062
        20.25513458251953 19.80040740966797 19.321266174316406 19.064910888671875 19.074064254760742 18.829917907714844
        18.31110382080078 17.908266067504883 18.00286865234375 18.27448272705078 17.95404052734375 17.593917846679688
        17.74040985107422 17.99371337890625 18.14325714111328 17.91741943359375 17.267372131347656 17.447433471679688
        18.79329490661621 19.937744140625 20.1116943359375 19.9560546875 19.937744140625 19.9224853515625
        19.562362670898438 18.29584503173828 16.27246856689453 14.343696594238281 13.132118225097656 12.854393005371094
        13.28165340423584 13.675346374511719 13.97442626953125 14.273506164550781 7.681510925292969 8.130134582519531
        8.838157653808594 10.153511047363281 12.213508605957031 13.93170166015625 14.529861450195312 12.909332275390625
        7.635734558105469 3.6530685424804688 2.6123809814453125 3.2013931274414062 3.6286544799804688 3.7080001831054688
        3.91552734375 4.123054504394531 3.7476730346679688 2.5116729736328125 1.593063473701477 1.8097457885742188
        2.7436141967773438 3.4638519287109375 4.1077880859375 4.104736328125 4.4160308837890625 5.905334949493408
        9.219642639160156 12.210456848144531 13.336585998535156 13.333535194396973 13.93475341796875 16.21753692626953
        18.463701248168945 19.81871795654297 20.059814453125 19.199195861816406 12.958160400390625 4.5686187744140625
        3.167823553085327 5.4872283935546875 6.769004821777344 9.054840087890625 13.330482482910156 16.763816833496094
        17.252113342285156 15.887940406799316 13.107697486877441 11.535995483398438 12.964263916015625 15.857414245605469
        17.526779174804688 17.465744018554688 17.041534423828125 15.393539428710938 13.156532287597656 12.826927185058594
        13.080230712890625 12.125007629394531 9.87274169921875 7.5533294677734375 7.818840026855469 9.772026062011719
        11.37119197845459 12.842185974121094 15.155494689941406 17.70073890686035 18.863487243652344 19.15342140197754
        18.265329360961914 14.746542930603027 10.229804992675781 8.517715454101562 10.138252258300781 12.900177001953125
        14.569534301757812 14.792320251464844 16.21753692626953 18.408767700195312 18.45149040222168 16.855369567871094
        14.87166690826416 12.515640258789062 11.142311096191406 11.407822608947754 12.472916603088379 13.068022727966309
        11.822869300842285 10.02838134765625 9.500411987304688 10.525833129882812 11.542098999023438 11.740470886230469
        9.95513916015625 7.061981678009033 3.9429931640625 3.970458745956421 5.5207977294921875 5.5421600341796875
        5.94500732421875 7.638786315917969 8.688620567321777 8.166755676269531 7.5624847412109375 5.5665740966796875
        3.4028165340423584 5.121002197265625 6.869712829589844 8.218635559082031 9.744560241699219 11.200294494628906
        12.784202575683594 14.572586059570312 15.436264038085938 15.567489624023438 15.689567565917969 15.909300804138184
        16.3670711517334 16.528823852539062 16.412857055664062 16.476943969726562 17.532882690429688 19.431135177612305
        20.487075805664062 20.465713500976562 20.26734161376953 20.27649688720703 20.21546173095703 19.8736572265625
        19.534896850585938 19.64476776123047 19.96826171875 19.69969940185547 18.955045700073242 18.28974151611328
        18.27448272705078 18.503372192382812 18.07000732421875 17.346717834472656 17.355873107910156 17.79534149169922
        17.87163543701172 17.77703094482422 17.85942840576172 18.616287231445312 19.9407958984375 20.801414489746094
        20.917388916015625 20.984527587890625 21.280555725097656 21.433151245117188 20.874664306640625 19.446395874023438
        17.65496063232422 15.9276123046875 14.444412231445312 13.528854370117188 13.367103576660156 13.449507713317871
        13.391524314880371 13.788260459899902 6.857505798339844 7.138282775878906 8.243049621582031 9.289833068847656
        10.06805419921875 11.053802490234375 12.268440246582031 13.223670959472656 9.97344970703125 2.990814208984375
        2.2370071411132812 3.1556169986724854 3.2044451236724854 2.966399908065796 2.984710931777954 3.3570327758789062
        3.7049484252929688 3.1739273071289062 1.7944868803024292 2.4964141845703125 4.281745910644531 4.641868591308594
        3.8026046752929688 3.5523529052734375 3.7934494018554688 4.5747222900390625 6.3844757080078125 8.294929504394531
        10.00701904296875 11.749626159667969 13.187049865722656 14.865562438964844 17.047637939453125 19.147315979003906
        20.29480743408203 20.084228515625 16.67226219177246 7.6296305656433105 3.9490966796875 5.136268138885498
        5.92059326171875 7.4739837646484375 10.589920043945312 13.623466491699219 14.206367492675781 13.678398132324219
        12.802513122558594 11.9693603515625 12.674339294433594 14.996795654296875 16.71193504333496 17.108673095703125
        14.825889587402344 10.257270812988281 10.324409484863281 14.163641929626465 16.479995727539062 15.762810707092285
        11.935791015625 6.2013630867004395 5.868705749511719 9.048736572265625 11.624504089355469 12.210457801818848
        12.903229713439941 15.19821834564209 17.114776611328125 17.596969604492188 17.322303771972656 15.326393127441406
        11.285743713378906 7.5319671630859375 7.2206807136535645 9.070098876953125 10.992767333984375 12.375259399414062
        14.972380638122559 18.427080154418945 19.324317932128906 17.63665199279785 15.359962463378906 11.9632568359375
        9.399703979492188 9.576704978942871 10.519729614257812 10.681480407714844 10.02838134765625 9.863578796386719
        9.799492835998535 9.466842651367188 9.479049682617188 9.744560241699219 10.516677856445312 10.559402465820312
        7.089447021484375 3.6500167846679688 2.6123809814453125 2.7527694702148438 3.7202072143554688 5.142372131347656
        6.308174133300781 7.187110900878906 8.328498840332031 5.3834686279296875 3.1739273071289062 4.7242655754089355
        7.000946044921875 8.713035583496094 9.671318054199219 10.568557739257812 11.612289428710938 12.83608341217041
        13.571578979492188 13.904234886169434 14.401687622070312 15.079192161560059 15.424057006835938 15.408797264099121
        15.778069496154785 16.28772735595703 17.279579162597656 18.698692321777344 19.113739013671875 19.046600341796875
        19.580673217773438 20.20630645751953 20.273447036743164 20.06591796875 19.931640625 19.98046875
        20.1269588470459 19.80345916748047 18.897064208984375 18.19818878173828 18.25312042236328 18.15546417236328
        17.200233459472656 16.19617462158203 16.35791778564453 17.249061584472656 17.496261596679688 17.75261688232422
        18.662071228027344 19.476913452148438 20.13306427001953 20.960113525390625 21.634572982788086 22.03131103515625
        22.428054809570312 22.25409698486328 21.332435607910156 20.29785919189453 19.168678283691406 17.75261688232422
        16.2480525970459 14.969329833984375 14.316230773925781 14.08428955078125 13.498336791992188 13.583786964416504
        8.529922485351562 8.474990844726562 8.444473266601562 8.182014465332031 7.4129486083984375 7.5777435302734375
        9.561447143554688 11.816764831542969 12.076171875 6.7201762199401855 1.4282684326171875 2.2248001098632812
        2.4842071533203125 2.7832870483398438 2.725303888320923 2.5543973445892334 3.091522455215454 3.4394378662109375
        2.5055694580078125 3.033538818359375 3.097625732421875 3.2654800415039062 3.5431976318359375 3.6744308471679688
        4.0955810546875 4.193244934082031 3.6042327880859375 3.4302825927734375 5.059967041015625 8.786277770996094
        11.9876708984375 13.461715698242188 14.923552513122559 17.386398315429688 19.7363224029541 20.1940975189209
        18.82381248474121 13.217567443847656 6.347846984863281 4.705955505371094 6.021300792694092 7.181007385253906
        8.648948669433594 10.260322570800781 11.358985900878906 12.305060386657715 12.424088478088379 11.713006019592285
        12.530899047851562 15.100555419921875 17.267372131347656 18.10662841796875 14.944915771484375 9.710990905761719
        9.87884521484375 13.653984069824219 16.779075622558594 17.111724853515625 14.697715759277344 7.3946380615234375
        4.4984283447265625 6.4424591064453125 10.324409484863281 11.880859375 12.060914039611816 13.330483436584473
        15.335548400878906 15.973388671875 15.726187705993652 15.375228881835938 13.486129760742188 9.125038146972656
        6.756797790527344 7.5807952880859375 9.430221557617188 10.998870849609375 12.967315673828125 16.04052734375
        18.19208526611328 18.01812744140625 16.937774658203125 15.182961463928223 13.94696044921875 12.289803504943848
        9.88189697265625 9.283729553222656 10.07110595703125 10.995820045471191 10.510575294494629 8.227790832519531
        6.253242492675781 6.06402587890625 7.684562683105469 8.578750610351562 8.575698852539062 6.842247009277344
        3.003021240234375 0.909454345703125 2.8656842708587646 5.731376647949219 8.169807434082031 10.394607543945312
        11.377304077148438 7.6174163818359375 3.6530685424804688 3.8514328002929688 6.176948547363281 8.618423461914062
        9.768974304199219 10.769981384277344 11.999878883361816 12.84218692779541 13.043609619140625 12.710960388183594
        12.814720153808594 13.312171936035156 13.321328163146973 13.965271949768066 15.668205261230469 17.133094787597656
        18.27448272705078 19.043548583984375 18.964202880859375 18.958099365234375 19.62950897216797 19.83092498779297
        19.263282775878906 19.278541564941406 19.69969940185547 20.010986328125 20.33142852783203 20.14832305908203
        19.162574768066406 18.436233520507812 18.22260284423828 17.178871154785156 15.762810707092285 15.335549354553223
        15.99169921875 17.023225784301758 17.78008270263672 18.631553649902344 19.498275756835938 19.7851505279541
        20.084226608276367 21.222572326660156 22.391433715820312 22.507400512695312 22.22357940673828 21.65593910217285
        21.011993408203125 20.810569763183594 20.35279083251953 19.208351135253906 18.063905715942383 16.946929931640625
        15.808585166931152 15.115815162658691 14.688560485839844 14.453567504882812 10.898162841796875 9.857475280761719
        7.7791666984558105 6.4302520751953125 5.688652038574219 5.685600280761719 6.888031005859375 9.408859252929688
        11.9754638671875 11.700797080993652 7.4648284912109375 2.7375106811523438 1.6785202026367188 2.3987579345703125
        2.4414823055267334 2.352973699569702 2.984710931777954 3.7781906127929688 3.3417739868164062 3.5798187255859375
        3.3600845336914062 3.5279388427734375 4.025390625 4.5655670166015625 4.248176574707031 3.201392889022827
        1.97760009765625 1.3763885498046875 2.3224563598632812 6.894134521484375 11.621444702148438 13.760794639587402
        14.487136840820312 15.552230834960938 16.870628356933594 18.08221435546875 18.16156768798828 16.40980339050293
        10.553297996520996 5.87481689453125 5.5879364013671875 6.744590759277344 8.285774230957031 9.488204002380371
        10.577713966369629 10.916473388671875 10.156562805175781 10.571609497070312 12.845237731933594 15.729240417480469
        17.87469482421875 18.765830993652344 16.492202758789062 10.846275329589844 8.664207458496094 11.270485877990723
        14.84420108795166 16.617324829101562 16.577651977539062 11.001922607421875 3.9674072265625 3.1586685180664062
        7.266456127166748 11.081268310546875 11.865592956542969 11.709953308105469 12.463759422302246 13.403732299804688
        13.403732299804688 13.449508666992188 12.845237731933594 9.857475280761719 8.200325012207031 9.283729553222656
        11.105682373046875 12.506484985351562 13.370155334472656 14.801475524902344 16.827903747558594 17.81670379638672
        17.76177406311035 17.328407287597656 15.451522827148438 10.846275329589844 9.103668212890625 10.864584922790527
        12.347784996032715 12.613296508789062 11.365089416503906 8.355964660644531 6.3966827392578125 6.683555603027344
        7.6296305656433105 6.946014881134033 7.5624847412109375 8.0843505859375 4.986724853515625 3.283790349960327
        5.4689178466796875 7.6052093505859375 9.588912963867188 11.429183959960938 11.13620662689209 8.236946105957031
        4.641868591308594 3.006072998046875 5.813774108886719 8.160652160644531 9.268470764160156 10.406814575195312
        11.9998779296875 13.187049865722656 13.629570007324219 13.190101623535156 12.967315673828125 12.619400024414062
        11.938841819763184 12.894072532653809 15.18906307220459 17.386398315429688 19.000823974609375 19.73021697998047
        19.589828491210938 19.122901916503906 18.747520446777344 18.048643112182617 17.45048713684082 17.908266067504883
        18.927581787109375 19.62645721435547 19.9591064453125 19.78820037841797 18.976409912109375 18.03338623046875
        16.779077529907227 15.195167541503906 14.63668155670166 15.503402709960938 16.696678161621094 17.81365203857422
        18.802452087402344 19.525741577148438 19.82482147216797 19.96826171875 20.615249633789062 21.546064376831055
        21.87567138671875 21.442306518554688 21.018096923828125 20.624412536621094 20.462663650512695 20.722068786621094
        20.459609985351562 19.132057189941406 18.06390380859375 17.30704689025879 16.19617462158203 15.619369506835938
        15.945923805236816 15.744498252868652 10.415969848632812 9.155555725097656 6.875823974609375 5.96636962890625
        6.00299072265625 6.180000305175781 7.226783752441406 9.335609436035156 11.624504089355469 13.559370994567871
        11.667229652404785 4.055908203125 1.5839080810546875 2.966400146484375 3.2624282836914062 3.353980779647827
        3.7781906127929688 4.08642578125 4.1779866218566895 3.7934494018554688 3.5676116943359375 4.147468566894531
        4.168830871582031 3.8666915893554688 3.2441177368164062 1.5228729248046875 1.0437318086624146 1.089508056640625
        2.5086212158203125 6.4943389892578125 11.322364807128906 13.687553405761719 14.374221801757812 14.984588623046875
        15.485092163085938 16.33655548095703 17.267372131347656 17.300941467285156 14.651939392089844 8.777122497558594
        5.117950439453125 6.01519775390625 8.194221496582031 9.826958656311035 10.339668273925781 9.396652221679688
        8.865623474121094 10.693687438964844 13.403732299804688 15.555281639099121 17.322301864624023 18.500320434570312
        17.92352294921875 13.412887573242188 8.145393371582031 8.771018981933594 12.576675415039062 15.628531455993652
        17.059844970703125 13.89508056640625 4.336677551269531 2.7771835327148438 4.0498046875 9.845268249511719
        12.219612121582031 11.130104064941406 9.234901428222656 9.677421569824219 11.395615577697754 12.582779884338379
        12.649925231933594 10.629600524902344 9.469894409179688 10.956146240234375 13.400680541992188 15.796378135681152
        17.047637939453125 17.126991271972656 17.93878173828125 19.083221435546875 18.796350479125977 17.285682678222656
        12.604141235351562 7.9989013671875 9.167762756347656 12.033447265625 13.812675476074219 13.96221923828125
        11.911377906799316 6.897185802459717 4.5319976806640625 6.231879711151123 8.606216430664062 8.056884765625
        6.726280212402344 7.068084716796875 7.4007415771484375 6.741539478302002 5.670341491699219 5.92974853515625
        7.8829345703125 10.180976867675781 11.352882385253906 10.452591896057129 6.5187530517578125 3.8239669799804688
        5.883972644805908 7.7730631828308105 8.694725036621094 9.772026062011719 10.989715576171875 11.627556800842285
        12.265389442443848 13.095489501953125 14.05682373046875 13.739433288574219 12.869651794433594 13.397628784179688
        15.045624732971191 16.925567626953125 18.424026489257812 18.912322998046875 18.945892333984375 18.979461669921875
        18.964202880859375 18.631553649902344 18.24091339111328 18.10357666015625 18.27143096923828 18.622390747070312
        18.72920799255371 18.35382652282715 17.71904754638672 16.879793167114258 15.796380043029785 15.198219299316406
        15.616317749023438 16.510513305664062 17.30399513244629 18.25922393798828 19.223609924316406 19.69359588623047
        19.8858642578125 20.380264282226562 21.066925048828125 21.500289916992188 21.64067840576172 21.558273315429688
        21.103544235229492 20.584732055664062 20.3527889251709 19.79125213623047 18.25312042236328 16.821800231933594
        16.492202758789062 16.479995727539062 16.083251953125 15.9459228515625 16.06494140625 15.488142967224121
        7.229835510253906 6.6103057861328125 5.899231433868408 5.813774585723877 5.99993896484375 6.396682262420654
        7.449570178985596 9.170814514160156 11.273536682128906 12.729270935058594 11.365089416503906 4.199348449707031
        0.952178955078125 3.1525650024414062 3.7842941284179688 4.0223388671875 4.150520324707031 4.0223388671875
        3.6957929134368896 3.5096282958984375 3.8209152221679688 4.1138916015625 3.8148117065429688 3.3875579833984375
        2.975555419921875 2.4170684814453125 2.3102493286132812 2.03558349609375 2.880950927734375 5.011138916015625
        9.039581298828125 12.326422691345215 14.00189208984375 15.076140403747559 15.646842956542969 15.887939453125
        16.202280044555664 16.281625747680664 14.490188598632812 9.567550659179688 6.674400329589844 7.629631042480469
        9.540084838867188 10.522781372070312 9.756767272949219 8.447525024414062 8.566543579101562 10.174872398376465
        12.286750793457031 14.059874534606934 16.13819122314453 18.22260284423828 18.894012451171875 15.796379089355469
        8.859519958496094 7.1962666511535645 10.370185852050781 13.208412170410156 15.271462440490723 13.043609619140625
        3.6988449096679688 3.2502212524414062 3.103729248046875 8.0355224609375 10.876800537109375 9.625541687011719
        6.353950500488281 6.5309600830078125 9.567550659179688 11.9083251953125 11.862541198730469 10.156562805175781
        9.076202392578125 10.748619079589844 13.827934265136719 17.77703094482422 20.969268798828125 20.877716064453125
        19.562362670898438 19.220558166503906 18.805503845214844 16.800437927246094 12.991729736328125 10.03143310546875
        10.153511047363281 11.914427757263184 14.07818603515625 14.960175514221191 13.776054382324219 6.5645294189453125
        3.1952896118164062 5.4841766357421875 8.06298828125 8.804588317871094 6.140327453613281 4.733421325683594
        4.4984283447265625 3.96435546875 3.89111328125 4.748680114746094 6.5736846923828125 8.789329528808594
        11.514632225036621 13.223670959472656 12.292854309082031 9.063995361328125 7.4922943115234375 7.107757091522217
        7.5716400146484375 8.960235595703125 9.93988037109375 9.707939147949219 10.217597961425781 11.871696472167969
        13.452560424804688 13.495285034179688 13.635673522949219 14.639732360839844 15.829947471618652 16.647850036621094
        17.102569580078125 17.398605346679688 17.98455810546875 18.890960693359375 19.553205490112305 19.608139038085938
        19.458602905273438 19.318214416503906 18.839073181152344 18.15241050720215 17.63665008544922 17.151405334472656
        16.586807250976562 16.16260528564453 15.91845703125 15.909300804138184 16.22669219970703 16.699731826782227
        17.261268615722656 18.13105010986328 19.144262313842773 19.9957275390625 20.587783813476562 21.057771682739258
        21.192054748535156 20.926544189453125 20.838035583496094 20.767845153808594 20.38941764831543 20.27344512939453
        20.13001251220703 19.220558166503906 18.01202392578125 17.22159767150879 16.653953552246094 16.20838165283203
        15.866569519042969 15.625480651855469 15.366065979003906 15.158546447753906 5.108795166015625 6.06097412109375
        6.4790802001953125 6.07012939453125 5.780204772949219 5.98162841796875 6.756797790527344 8.600112915039062
        10.977508544921875 12.414932250976562 12.466813087463379 8.444472312927246 2.4933624267578125 1.2817764282226562
        3.7171554565429688 4.718162536621094 5.008086681365967 4.7425761222839355 4.199347972869873 4.123054504394531
        4.477065563201904 4.092529296875 3.5340423583984375 3.3845062255859375 3.3295669555664062 2.8656845092773438
        1.92266845703125 1.6418991088867188 2.960296392440796 3.872802734375 7.330543518066406 11.786247253417969
        14.535965919494629 15.598007202148438 15.9459228515625 15.713981628417969 15.124977111816406 14.450516700744629
        13.028350830078125 11.181983947753906 10.489212036132812 10.644859313964844 10.806601524353027 10.403762817382812
        9.256263732910156 8.169807434082031 8.117919921875 9.009064674377441 10.614334106445312 12.524795532226562
        14.896087646484375 17.148353576660156 18.05474853515625 14.822837829589844 8.636741638183594 7.113861560821533
        9.158607482910156 10.852378845214844 12.515641212463379 10.232856750488281 3.1250994205474854 3.030487060546875
        3.085418939590454 5.648979187011719 7.870719909667969 7.5838470458984375 5.679496765136719 5.734428405761719
        8.142341613769531 10.678428649902344 10.711997985839844 9.665214538574219 8.413955688476562 9.286781311035156
        12.057861328125 16.724143981933594 21.298866271972656 22.650840759277344 20.981477737426758 19.013031005859375
        17.581710815429688 14.886933326721191 11.819816589355469 11.755729675292969 12.771995544433594 13.638725280761719
        14.676353454589844 15.158546447753906 15.210426330566406 10.220649719238281 5.5146942138671875 4.898223400115967
        6.09454345703125 6.640830993652344 4.5747222900390625 2.969451904296875 2.5025177001953125 3.5828704833984375
        4.321418762207031 4.300056457519531 4.690696716308594 6.2013630867004395 9.466842651367188 12.485122680664062
        13.632621765136719 12.518692016601562 10.553298950195312 6.772057056427002 6.332588195800781 7.876831531524658
        9.201332092285156 9.302040100097656 9.439376831054688 9.91241455078125 10.516677856445312 11.160621643066406
        12.811668395996094 14.435256958007812 15.707878112792969 16.31519317626953 16.699729919433594 17.19108009338379
        18.00286865234375 19.049652099609375 19.901121139526367 20.13916778564453 20.120849609375 20.17884063720703
        19.86144256591797 19.214454650878906 18.802452087402344 18.265329360961914 17.484054565429688 17.035430908203125
        16.882843017578125 16.763816833496094 16.714988708496094 16.974395751953125 17.67022132873535 18.436233520507812
        19.046600341796875 19.73632049560547 20.35279083251953 20.52674674987793 20.33142852783203 20.0445556640625
        19.8828125 19.84923553466797 20.13306427001953 20.581680297851562 20.33753204345703 19.6569766998291
        19.144264221191406 18.21955108642578 17.050689697265625 16.36096954345703 15.726187705993652 14.841148376464844
        14.621414184570312 15.057830810546875 5.954162120819092 7.4922943115234375 8.435317993164062 8.499404907226562
        8.0416259765625 7.031463623046875 6.4363555908203125 7.373276233673096 9.802543640136719 12.475967407226562
        14.783164978027344 15.292823791503906 11.334571838378906 3.6469650268554688 2.902313470840454 5.114898681640625
        5.3895721435546875 5.282752990722656 5.154579162597656 5.017242431640625 4.745628356933594 4.132209777832031
        3.5157320499420166 3.3997652530670166 3.5401456356048584 4.147468566894531 3.2563247680664062 2.6978378295898438
        3.3509292602539062 4.5106353759765625 7.867668151855469 12.317267417907715 15.128028869628906 16.037473678588867
        16.031370162963867 15.387435913085938 14.328436851501465 13.351844787597656 12.793357849121094 12.747581481933594
        12.570571899414062 11.89306640625 10.699790954589844 9.237953186035156 8.133186340332031 7.776115417480469
        8.142341613769531 8.883941650390625 9.89410400390625 11.447494506835938 13.513594627380371 15.176856994628906
        14.792320251464844 10.531936645507812 7.1321797370910645 7.7700114250183105 8.801536560058594 9.506515502929688
        9.704887390136719 8.481094360351562 5.584884166717529 4.248176574707031 4.4190826416015625 4.925689697265625
        5.752738952636719 5.5665740966796875 5.5055389404296875 6.01824951171875 7.733390808105469 9.533981323242188
        10.208442687988281 10.180976867675781 8.667259216308594 7.858512878417969 9.707939147949219 13.91339111328125
        19.440292358398438 23.120819091796875 22.904144287109375 20.36499786376953 17.230751037597656 13.27249813079834
        11.374252319335938 13.052764892578125 14.593948364257812 15.189064025878906 15.143287658691406 14.828941345214844
        14.343696594238281 11.075164794921875 7.358009338378906 5.5574188232421875 5.017242431640625 4.4129791259765625
        2.7192001342773438 2.3071975708007812 2.2064898014068604 2.5177762508392334 2.5269317626953125 2.5238797664642334
        2.8382186889648438 3.6164398193359375 5.252235412597656 7.943970203399658 11.001921653747559 12.790306091308594
        11.89306640625 7.4922943115234375 6.3875274658203125 7.315284729003906 8.639793395996094 9.103668212890625
        8.658103942871094 7.751701831817627 7.9317626953125 9.576705932617188 11.734368324279785 13.238929748535156
        14.07818603515625 14.453567504882812 15.243995666503906 16.638694763183594 18.34162139892578 19.75157928466797
        20.648826599121094 20.886871337890625 20.737327575683594 20.441299438476562 20.0628662109375 19.74242401123047
        19.302955627441406 18.485063552856445 18.128000259399414 18.27753448486328 18.41181755065918 18.512527465820312
        18.677330017089844 19.025239944458008 19.577621459960938 19.82176971435547 19.64476776123047 19.431137084960938
        19.141212463378906 18.668174743652344 18.408767700195312 18.518630981445312 18.909271240234375 19.525741577148438
        20.383316040039062 21.054718017578125 21.054718017578125 20.590835571289062 20.0384521484375 18.951995849609375
        17.462692260742188 16.495254516601562 16.0069580078125 15.298927307128906 15.198219299316406 15.9825439453125
        6.949065685272217 7.7974772453308105 8.594009399414062 8.868675231933594 8.615371704101562 7.9439697265625
        6.820884704589844 6.125068664550781 7.492293834686279 10.760826110839844 14.362007141113281 16.16260528564453
        15.9825439453125 11.621444702148438 4.495376110076904 4.733421325683594 4.980621337890625 5.4780731201171875
        5.7954630851745605 5.178993225097656 4.5289459228515625 4.138313293457031 3.5920255184173584 3.5554046630859375
        3.5767669677734375 3.5157315731048584 2.7832870483398438 3.5737152099609375 4.5228424072265625 6.4790802001953125
        10.03448486328125 13.33658504486084 14.957121849060059 15.509507179260254 15.359963417053223 14.731285095214844
        14.05987548828125 13.638725280761719 13.626518249511719 13.791313171386719 13.498336791992188 12.466812133789062
        10.821861267089844 8.868675231933594 7.721184253692627 8.044677734375 8.902252197265625 9.472946166992188
        9.683526039123535 10.428176879882812 12.0670166015625 13.672294616699219 14.075133323669434 11.572616577148438
        8.575697898864746 7.4495697021484375 8.0294189453125 8.0904541015625 6.646934509277344 6.659142017364502
        7.882934093475342 7.9317626953125 7.055877685546875 6.4027862548828125 5.6123504638671875 4.248176097869873
        4.8463358879089355 5.914489269256592 7.345801830291748 8.676414489746094 10.293891906738281 11.017181396484375
        9.604172706604004 7.202369689941406 8.652000427246094 11.667229652404785 16.00390625 19.64781951904297
        21.237831115722656 20.651878356933594 18.655967712402344 15.796379089355469 14.456620216369629 15.024261474609375
        15.332496643066406 15.567489624023438 15.295875549316406 14.529860496520996 13.480027198791504 11.462752342224121
        7.727287292480469 5.4017791748046875 5.255287170410156 4.922637939453125 4.052856922149658 1.8372116088867188
        1.91656494140625 2.3255081176757812 4.2512288093566895 4.4862213134765625 4.092529296875 4.211555480957031
        4.6174468994140625 6.05487060546875 7.928711414337158 10.522782325744629 9.793388366699219 8.008056640625
        7.4526214599609375 7.5716400146484375 8.594009399414062 9.002960205078125 8.368171691894531 7.358008861541748
        8.099609375 10.05584716796875 11.938843727111816 13.248085021972656 13.339637756347656 12.710960388183594
        13.431198120117188 15.585800170898438 17.96319580078125 19.846181869506836 21.103544235229492 21.515548706054688
        21.109649658203125 20.27649688720703 19.486068725585938 18.710899353027344 17.81365203857422 17.313148498535156
        17.95404052734375 18.796348571777344 19.486066818237305 20.389419555664062 21.393478393554688 21.970273971557617
        22.04656982421875 21.460617065429688 20.557266235351562 19.76683807373047 18.845176696777344 17.80449676513672
        17.142250061035156 17.117826461791992 17.83501434326172 18.814659118652344 19.409774780273438 19.80345916748047
        20.0750732421875 19.937744140625 19.556259155273438 18.74141502380371 17.490158081054688 16.962188720703125
        17.365028381347656 17.300939559936523 17.011016845703125 17.474899291992188 6.970428466796875 7.428206920623779
        7.211524963378906 6.277656555175781 5.737480640411377 5.88702392578125 6.079284191131592 5.91448974609375
        6.3875274658203125 8.206428527832031 10.916473388671875 13.361001014709473 14.340644836425781 12.802512168884277
        7.742546081542969 4.4160308837890625 4.531998157501221 4.8554911613464355 5.337684631347656 4.724266052246094
        4.129158020019531 4.068115234375 3.5889742374420166 3.7385177612304688 3.96435546875 3.302100896835327
        2.5543975830078125 4.0528564453125 6.527907848358154 9.89105224609375 13.440354347229004 15.601059913635254
        16.21753692626953 15.707879066467285 14.563430786132812 13.830985069274902 13.95611572265625 14.511550903320312
        14.932708740234375 14.893035888671875 14.236885070800781 13.208412170410156 11.9022216796875 10.333564758300781
        9.070098876953125 8.829002380371094 9.411911010742188 9.92462158203125 10.223701477050781 10.763877868652344
        11.828971862792969 13.364051818847656 14.566482543945312 14.273506164550781 11.014129638671875 7.211524963378906
        7.168800354003906 7.293922424316406 7.327491760253906 7.199317932128906 7.3885345458984375 8.551284790039062
        9.659111022949219 9.616379737854004 6.5553741455078125 3.827018976211548 4.6204986572265625 4.959259033203125
        6.222724914550781 7.9012451171875 9.631645202636719 10.818809509277344 10.538041114807129 7.934814453125
        8.755760192871094 10.873748779296875 12.0853271484375 12.768943786621094 15.454574584960938 18.36298370361328
        18.915374755859375 17.78008270263672 17.175819396972656 17.566452026367188 17.230751037597656 17.044586181640625
        16.522720336914062 15.045622825622559 13.257240295410156 11.426132202148438 8.05078125 6.143378734588623
        6.00909423828125 5.4017791748046875 4.5869293212890625 3.2532732486724854 1.1841201782226562 0.921661376953125
        2.2614212036132812 3.3265154361724854 3.097625732421875 3.7568283081054688 5.038604736328125 5.99078369140625
        5.87786865234375 6.891082763671875 6.637779235839844 7.541121959686279 7.400742053985596 7.5868988037109375
        8.471939086914062 9.054840087890625 8.847312927246094 8.761863708496094 10.260322570800781 11.9998779296875
        13.544113159179688 14.242988586425781 13.583786964416504 12.744529724121094 13.379318237304688 15.066986083984375
        16.785179138183594 18.597976684570312 20.526748657226562 21.246986389160156 20.584732055664062 19.83092498779297
        18.942840576171875 17.194129943847656 15.936767578125 16.34876251220703 17.75566864013672 18.399612426757812
        19.144264221191406 20.871604919433594 22.623374938964844 22.937713623046875 22.400588989257812 21.472824096679688
        20.453506469726562 19.571517944335938 18.488113403320312 17.520675659179688 16.772972106933594 16.0374755859375
        15.546127319335938 15.710929870605469 16.489151000976562 16.980499267578125 16.898101806640625 17.297889709472656
        18.01202392578125 18.10968017578125 17.935728073120117 18.28363609313965 19.006925582885742 19.064910888671875
        18.482009887695312 18.25312042236328 6.146430492401123 6.5675811767578125 6.274604797363281 4.962310791015625
        4.5655670166015625 4.940948486328125 5.523849964141846 6.2990193367004395 7.168799877166748 8.203376770019531
        10.235908508300781 12.445448875427246 12.799461364746094 10.602127075195312 7.821891784667969 5.642876148223877
        4.043701171875 3.7903974056243896 4.263435363769531 4.364143371582031 3.750725030899048 4.043701648712158
        4.144416809082031 4.266486644744873 4.5472564697265625 4.232917785644531 3.015228033065796 4.797508239746094
        7.4526214599609375 11.243019104003906 14.551223754882812 15.655998229980469 14.722129821777344 13.046661376953125
        11.960204124450684 12.231819152832031 13.415939331054688 14.578689575195312 15.137185096740723 14.716026306152344
        13.727226257324219 12.845237731933594 12.1158447265625 11.124000549316406 9.723197937011719 8.496353149414062
        8.413955688476562 9.350868225097656 10.660118103027344 11.755729675292969 12.695701599121094 13.882874488830566
        15.201271057128906 16.0557861328125 15.564437866210938 13.357948303222656 9.97039794921875 6.311225891113281
        4.5381011962890625 4.5838775634765625 6.12200927734375 8.474990844726562 10.431228637695312 10.766929626464844
        5.890076160430908 4.138313293457031 5.2583394050598145 4.4312896728515625 5.236976623535156 7.248146057128906
        8.435317993164062 9.698784828186035 10.849327087402344 9.387496948242188 8.847312927246094 9.475997924804688
        8.032470703125 6.10064697265625 8.450576782226562 12.900177001953125 15.750602722167969 15.771965026855469
        15.775015830993652 17.590866088867188 18.973358154296875 19.415878295898438 19.098482131958008 17.282630920410156
        14.520706176757812 11.679435729980469 8.001953125 6.524857044219971 6.079284191131592 4.910430908203125
        3.4913179874420166 2.7710800170898438 2.5177762508392334 1.052886962890625 0.8209457397460938 1.7548141479492188
        2.2186965942382812 3.3021011352539062 5.072174072265625 5.764945983886719 4.968414306640625 3.689689874649048
        4.184089660644531 6.146430492401123 5.92364501953125 6.790367126464844 7.803581237792969 8.465835571289062
        8.969390869140625 9.842216491699219 11.648917198181152 13.116852760314941 13.87371826171875 13.559371948242188
        13.077178955078125 13.565475463867188 14.389480590820312 15.405746459960938 16.385391235351562 17.487106323242188
        18.860435485839844 19.409774780273438 19.183937072753906 19.345680236816406 19.077117919921875 17.83501434326172
        16.714988708496094 16.617324829101562 17.310096740722656 17.71599578857422 18.408767700195312 19.8736572265625
        21.231727600097656 21.350746154785156 21.036407470703125 20.654930114746094 20.04150390625 19.495223999023438
        19.211402893066406 19.223609924316406 18.915376663208008 18.13105010986328 17.239904403686523 16.614273071289062
        16.14734649658203 15.469834327697754 15.448472023010254 16.489151000976562 17.590866088867188 18.378250122070312
        19.006927490234375 19.293800354003906 19.345680236816406 19.031341552734375 18.478958129882812 18.25006866455078
        5.4963836669921875 5.655083179473877 5.691703796386719 5.4567108154296875 5.658134460449219 6.6072540283203125
        7.6998209953308105 8.755760192871094 9.146400451660156 9.442428588867188 10.861534118652344 12.076171875
        10.376296043395996 7.721183776855469 7.669303894042969 8.0477294921875 4.733421325683594 3.1830825805664062
        3.9307861328125 4.483170032501221 4.144416809082031 4.5533599853515625 5.117950916290283 5.334632873535156
        4.947052001953125 4.5381011962890625 4.126106262207031 4.904327392578125 6.11590576171875 8.85036563873291
        11.154518127441406 11.059906005859375 7.959228992462158 5.853446960449219 6.674400329589844 8.740500450134277
        10.800498962402344 12.0914306640625 12.537002563476562 12.518691062927246 12.192146301269531 12.0517578125
        11.9144287109375 11.462753295898438 10.07415771484375 7.9744873046875 7.4556732177734375 8.944976806640625
        10.879851341247559 12.128059387207031 12.863548278808594 13.711967468261719 14.856407165527344 15.985595703125
        16.36707305908203 15.323342323303223 12.613296508789062 8.182014465332031 5.096588134765625 4.699851989746094
        5.655082702636719 7.4465179443359375 9.515671730041504 10.623497009277344 6.4973907470703125 4.205451965332031
        5.5787811279296875 4.181037902832031 4.867698669433594 7.019256591796875 7.9561767578125 8.902252197265625
        10.06805419921875 9.701835632324219 7.9927978515625 6.292915344238281 4.187141418457031 3.6256027221679688
        6.329535961151123 8.932769775390625 11.316261291503906 12.869651794433594 13.824882507324219 16.33350372314453
        19.241920471191406 20.944854736328125 21.304967880249023 20.3558406829834 17.64885711669922 13.565476417541504
        8.627586364746094 6.8117289543151855 5.880920886993408 4.4068756103515625 3.3967132568359375 2.636802911758423
        1.486251950263977 1.6296920776367188 3.1830825805664062 4.281745910644531 2.1393508911132812 2.07525634765625
        4.3733062744140625 5.4597625732421875 5.218666076660156 3.4028167724609375 3.1373064517974854 5.209510803222656
        4.895172119140625 6.131171703338623 7.187110900878906 7.4953460693359375 8.117919921875 9.063995361328125
        10.528884887695312 11.804557800292969 11.819816589355469 11.001922607421875 11.758781433105469 13.437301635742188
        14.630577087402344 15.301979064941406 16.35486602783203 17.496261596679688 17.975404739379883 18.11578369140625
        18.555252075195312 19.214454650878906 19.348731994628906 19.244972229003906 18.671226501464844 17.96624755859375
        17.97540283203125 18.576614379882812 19.071014404296875 19.556259155273438 20.27344512939453 20.700706481933594
        20.877716064453125 21.033353805541992 20.950956344604492 20.941802978515625 21.62541961669922 22.559280395507812
        22.09234619140625 21.100494384765625 20.480972290039062 19.455551147460938 17.89300537109375 16.916412353515625
        17.22159767150879 18.24701690673828 18.881807327270508 19.009979248046875 18.805503845214844 18.485061645507812
        18.32636260986328 18.14936065673828 18.17072296142578 18.652915954589844 5.5635223388671875 5.871757984161377
        6.4455108642578125 7.119965076446533 7.901244640350342 8.819847106933594 9.91546630859375 10.724205017089844
        10.782188415527344 10.09552001953125 10.08026123046875 10.147407531738281 8.429214477539062 7.074188232421875
        7.803581237792969 8.124031066894531 5.4231414794921875 3.5981292724609375 3.885009765625 4.382461071014404
        4.2786946296691895 4.6143951416015625 4.940948486328125 5.008087158203125 4.983672618865967 5.359046936035156
        4.794456481933594 4.171882629394531 4.342781066894531 4.6082916259765625 5.099639892578125 4.235969543457031
        0.955230712890625 1.1566543579101562 2.08746337890625 3.7385177612304688 5.3041157722473145 5.920592784881592
        6.958221912384033 9.082305908203125 10.815757751464844 11.770988464355469 12.173835754394531 11.9541015625
        10.827964782714844 9.106719970703125 8.691673278808594 9.836112976074219 11.294898986816406 12.198249816894531
        12.76284122467041 13.495285034179688 14.294868469238281 14.917449951171875 15.134132385253906 14.566482543945312
        12.933746337890625 10.257269859313965 7.367164134979248 5.6337199211120605 5.841239929199219 7.300025939941406
        8.874786376953125 10.357978820800781 8.343756675720215 3.6133880615234375 5.5452117919921875 4.5869293212890625
        4.8036112785339355 6.6438822746276855 7.690666198730469 8.380386352539062 9.070098876953125 8.807640075683594
        7.068084239959717 4.324470520019531 2.5360870361328125 4.11083984375 7.123023986816406 7.937865734100342
        9.054840087890625 10.995819091796875 12.73842716217041 14.67330265045166 17.261268615722656 20.33142852783203
        21.86040496826172 22.26020050048828 20.862449645996094 17.331459045410156 10.800498008728027 6.10675048828125
        4.480117321014404 4.235969543457031 4.5716705322265625 4.266487121582031 3.4669036865234375 4.190193176269531
        6.225776195526123 7.1932148933410645 5.081329345703125 5.099639892578125 6.274604797363281 6.03045654296875
        7.065033435821533 6.628623962402344 4.721214294433594 6.131172180175781 5.636772155761719 6.161689281463623
        7.116912841796875 7.025360107421875 7.089447021484375 7.7852702140808105 8.276618957519531 8.70998477935791
        8.777122497558594 9.067046165466309 10.238960266113281 11.624504089355469 13.162636756896973 14.239936828613281
        15.765861511230469 17.346717834472656 17.65190887451172 17.85942840576172 18.601028442382812 18.936737060546875
        18.741416931152344 18.897064208984375 18.842124938964844 18.634605407714844 18.927581787109375 19.85533905029297
        20.447402954101562 20.480972290039062 20.954011917114258 21.613204956054688 21.93060302734375 22.09234619140625
        22.29071807861328 22.589797973632812 23.191017150878906 23.523666381835938 22.00384521484375 20.3070125579834
        20.26734161376953 20.621353149414062 19.89501953125 18.945892333984375 18.424026489257812 18.527786254882812
        18.393508911132812 17.307044982910156 16.376235961914062 16.693626403808594 17.70989227294922 18.521682739257812
        19.092376708984375 19.77904510498047 6.756797790527344 6.4424591064453125 6.811729907989502 7.794425964355469
        8.648948669433594 8.786277770996094 8.746604919433594 8.774070739746094 8.679466247558594 7.739494323730469
        7.025360107421875 6.744590759277344 5.95111083984375 5.694756031036377 6.10369873046875 6.295967102050781
        5.1667866706848145 3.5096282958984375 3.048797845840454 3.2807388305664062 3.646965265274048 4.071166515350342
        4.504532337188721 4.715110778808594 4.870750427246094 4.733421325683594 3.8453292846679688 2.768028497695923
        3.5126800537109375 2.899261713027954 2.05694580078125 0.8239974975585938 0.32959747314453125 1.1627578735351562
        1.8097457885742188 2.07830810546875 2.3163528442382812 1.99285888671875 3.106781005859375 6.5095977783203125
        10.06195068359375 12.344734191894531 13.309120178222656 12.991729736328125 11.899169921875 10.67232608795166
        10.10467529296875 10.437332153320312 11.130104064941406 11.719108581542969 12.305061340332031 13.098540306091309
        13.93780517578125 14.688560485839844 15.121917724609375 14.996795654296875 14.349800109863281 13.431198120117188
        11.398667335510254 7.693718433380127 6.549270153045654 7.7944254875183105 8.868674278259277 10.403762817382812
        10.522781372070312 6.021301746368408 5.090484619140625 4.849388122558594 5.053863525390625 6.320381164550781
        7.040618896484375 7.635734558105469 7.995849609375 7.8798828125 7.306129455566406 5.975524425506592
        4.336677551269531 5.307166576385498 7.440414905548096 7.2481465339660645 8.508560180664062 10.678428649902344
        12.967314720153809 14.249092102050781 15.634635925292969 18.622390747070312 21.390426635742188 22.75459861755371
        22.684412002563477 21.066925048828125 15.720085144042969 7.800529479980469 3.4394381046295166 3.6378097534179688
        5.328529357910156 6.891082763671875 7.650993347167969 8.285774230957031 9.088408470153809 9.335609436035156
        9.289833068847656 10.04058837890625 9.225746154785156 8.001953125 9.482101440429688 10.303047180175781
        9.060944557189941 9.143348693847656 8.1148681640625 7.116912841796875 7.5411224365234375 7.119964599609375
        6.173896789550781 6.772056579589844 7.589950084686279 6.7354350090026855 6.146430969238281 6.772056579589844
        7.303077697753906 7.98974609375 9.839164733886719 12.274543762207031 14.526810646057129 16.1107177734375
        16.776023864746094 17.63665008544922 18.564407348632812 18.32941436767578 17.459640502929688 17.349769592285156
        17.96624755859375 18.533889770507812 18.808555603027344 19.56236457824707 20.792259216308594 21.079132080078125
        21.317176818847656 22.05572509765625 22.577590942382812 22.568435668945312 22.85530662536621 23.300880432128906
        23.218482971191406 22.29987335205078 20.056764602661133 18.28668975830078 18.454544067382812 19.165624618530273
        18.811607360839844 18.23480987548828 17.97845458984375 17.712942123413086 16.86757469177246 15.805534362792969
        15.8818359375 17.209388732910156 19.019134521484375 20.3588924407959 20.688499450683594 20.929597854614258
        6.961273193359375 6.4088897705078125 6.283760070800781 6.949066162109375 7.406845569610596 7.107757568359375
        6.6103057861328125 6.344795227050781 6.4180450439453125 5.740531921386719 5.279701232910156 4.901275634765625
        3.973510503768921 3.311256170272827 4.0894775390625 5.95111083984375 6.344795227050781 3.363136053085327
        2.3926544189453125 2.8107528686523438 3.6683273315429688 4.132209300994873 4.763938903808594 5.111846923828125
        5.056915283203125 4.660179138183594 4.043701171875 3.256324529647827 2.3499221801757812 2.6337509155273438
        2.00201416015625 0.8026351928710938 0.6225814819335938 1.5961151123046875 2.3010940551757812 2.2766799926757812
        2.2125930786132812 1.7578659057617188 3.015228509902954 6.997893810272217 11.206398010253906 13.681449890136719
        14.346748352050781 13.888978004455566 12.82692813873291 11.664177894592285 10.837120056152344 10.736412048339844
        11.029388427734375 11.410873413085938 11.9541015625 12.720115661621094 13.657035827636719 14.65194034576416
        14.978485107421875 14.468826293945312 13.763847351074219 13.168740272521973 12.76284122467041 11.093475341796875
        9.561448097229004 8.587905883789062 8.716087341308594 9.98565673828125 10.858482360839844 8.133186340332031
        5.99383544921875 5.285804748535156 5.6092987060546875 6.347846984863281 6.799522399902344 7.4068450927734375
        7.177955627441406 7.321388244628906 8.413955688476562 9.244056701660156 8.661154747009277 8.0416259765625
        8.722190856933594 7.858512878417969 9.048736572265625 11.310157775878906 13.550216674804688 14.923553466796875
        16.17176055908203 18.11578369140625 20.636619567871094 22.510452270507812 23.267311096191406 22.626426696777344
        20.694604873657227 14.221625328063965 5.227821350097656 4.187141418457031 5.97247314453125 7.345801830291748
        9.558395385742188 11.285743713378906 12.0792236328125 12.445448875427246 12.134162902832031 10.660118103027344
        8.081298828125 7.650993824005127 8.743553161621094 9.521774291992188 10.428176879882812 10.885955810546875
        9.851372718811035 8.05078125 7.641838073730469 7.5014495849609375 6.979583740234375 6.11590576171875
        6.6682963371276855 7.025360107421875 6.5248565673828125 5.99383544921875 5.743583679199219 5.8229289054870605
        6.860557556152344 9.427169799804688 12.170783996582031 14.02935791015625 15.408798217773438 16.843162536621094
        17.270423889160156 16.681419372558594 16.644798278808594 17.64885711669922 18.884857177734375 19.360939025878906
        19.129005432128906 19.379257202148438 20.029296875 20.0506591796875 20.419937133789062 20.804466247558594
        20.679344177246094 20.984525680541992 21.872617721557617 22.05572509765625 21.610153198242188 20.777000427246094
        19.531845092773438 18.811607360839844 18.961149215698242 19.000823974609375 18.18598175048828 17.203285217285156
        16.681419372558594 16.577651977539062 16.837059020996094 17.255165100097656 18.05780029296875 19.400619506835938
        20.621353149414062 20.923492431640625 20.783103942871094 21.14017677307129 6.689659118652344 6.5065460205078125
        6.720176696777344 6.839195251464844 7.068084716796875 7.5106048583984375 8.282722473144531 8.700828552246094
        7.916503429412842 6.225776672363281 5.5330047607421875 5.3773651123046875 4.4282379150390625 3.6256027221679688
        4.864646911621094 6.4760284423828125 6.897186279296875 4.4526519775390625 3.5035245418548584 3.628654718399048
        4.129157543182373 4.4648590087890625 4.5747222900390625 4.950103759765625 4.898223876953125 4.321418762207031
        3.7202072143554688 2.981658935546875 2.2980425357818604 2.4109649658203125 1.8066940307617188 1.043731689453125
        1.4770965576171875 1.9989625215530396 2.5574493408203125 2.884002685546875 3.5370941162109375 3.5737154483795166
        4.202400207519531 7.650993347167969 11.380355834960938 13.025299072265625 13.190101623535156 13.000885009765625
        12.573623657226562 12.0914306640625 11.636711120605469 11.520736694335938 11.548203468322754 11.584823608398438
        11.911376953125 12.433241844177246 13.089385986328125 13.931702613830566 14.481033325195312 14.407791137695312
        14.114808082580566 13.95306396484375 13.89508056640625 12.366096496582031 9.286781311035156 7.3824310302734375
        7.644889831542969 8.554336547851562 9.317298889160156 8.1087646484375 6.6347270011901855 5.722221851348877
        5.98468017578125 6.5187530517578125 6.909393310546875 7.803581237792969 7.129127502441406 6.653038024902344
        8.08740234375 9.720145225524902 10.733360290527344 10.791343688964844 10.501420021057129 8.703880310058594
        9.192176818847656 11.655021667480469 13.333534240722656 14.810630798339844 17.099517822265625 18.857383728027344
        20.017091751098633 21.909238815307617 23.285619735717773 23.349708557128906 22.110658645629883 19.815664291381836
        11.658073425292969 4.910430908203125 4.535049915313721 5.97247314453125 8.758811950683594 11.542098045349121
        13.400680541992188 13.950013160705566 12.106690406799316 8.941925048828125 6.305122375488281 6.8025736808776855
        7.672355651855469 8.279671669006348 9.097564697265625 9.689628601074219 9.146400451660156 7.6113128662109375
        7.083343029022217 7.364112854003906 8.1148681640625 7.638786315917969 5.777153491973877 5.5696258544921875
        6.103699207305908 6.06402587890625 5.743584156036377 5.8503947257995605 6.256294250488281 7.489242076873779
        8.783226013183594 10.400711059570312 12.726219177246094 15.051726341247559 15.894042015075684 16.19617462158203
        17.291786193847656 18.997772216796875 19.956052780151367 19.66918182373047 19.302955627441406 19.415878295898438
        19.367042541503906 19.67833709716797 20.734275817871094 20.947906494140625 20.29175567626953 20.47791862487793
        21.246986389160156 20.981475830078125 20.563369750976562 20.712913513183594 21.008941650390625 21.015045166015625
        20.673240661621094 19.74852752685547 17.74346160888672 15.646843910217285 15.237892150878906 16.385391235351562
        17.85332489013672 18.894012451171875 19.71495819091797 20.667137145996094 21.231727600097656 21.152381896972656
        21.127967834472656 21.359901428222656 6.891083240509033 7.3732757568359375 8.0416259765625 8.154548645019531
        8.0294189453125 8.615371704101562 9.817802429199219 10.501419067382812 10.156562805175781 8.874786376953125
        7.300025463104248 6.192207336425781 5.301063537597656 4.745628356933594 5.6092987060546875 6.2013630867004395
        6.1922078132629395 5.810722351074219 5.627616882324219 4.3885650634765625 3.7446210384368896 4.470962047576904
        4.3855133056640625 4.5442047119140625 4.715110778808594 4.910430908203125 5.050811290740967 4.690696716308594
        2.2675247192382812 2.6856307983398438 3.091522216796875 1.9898070096969604 1.9776002168655396 1.89215087890625
        2.2248001098632812 2.8290634155273438 3.897216558456421 4.5075836181640625 4.907379150390625 4.986724853515625
        6.268501281738281 8.0355224609375 9.515670776367188 10.901214599609375 11.9998779296875 12.726219177246094
        12.991730690002441 12.83303165435791 12.369148254394531 11.868643760681152 11.786247253417969 11.880860328674316
        12.167732238769531 13.165688514709473 14.490188598632812 15.311134338378906 15.521714210510254 15.32639217376709
        14.871665954589844 14.566483497619629 13.834036827087402 11.047698974609375 7.5685882568359375 6.726280212402344
        7.5502777099609375 6.5858917236328125 5.4231414794921875 5.5391082763671875 6.134223937988281 6.4729766845703125
        6.872771739959717 7.953124523162842 7.4617767333984375 6.03350830078125 7.095550537109375 8.508560180664062
        9.772026062011719 10.748619079589844 10.776084899902344 9.350868225097656 9.442428588867188 11.819816589355469
        12.671287536621094 13.202308654785156 16.0130615234375 18.854331970214844 19.269386291503906 19.888917922973633
        21.546066284179688 22.696617126464844 22.15033721923828 21.353797912597656 15.985595703125 6.11285400390625
        3.952148675918579 5.865653991699219 8.926666259765625 11.496322631835938 12.906280517578125 12.671286582946777
        10.644859313964844 8.578750610351562 6.2044148445129395 6.186103820800781 6.964324951171875 7.3976898193359375
        6.982635974884033 6.4912872314453125 6.198310852050781 6.08843994140625 6.817832946777344 7.370216369628906
        8.188117980957031 8.789329528808594 6.793418884277344 5.316322326660156 5.645927429199219 5.3895721435546875
        5.697807312011719 6.463820934295654 6.994842529296875 7.016204833984375 5.87481689453125 6.854454040527344
        9.631645202636719 12.274543762207031 13.94390869140625 15.604110717773438 17.432174682617188 18.927581787109375
        19.049652099609375 18.497270584106445 18.405715942382812 18.686485290527344 19.156471252441406 20.474868774414062
        21.67729949951172 21.375167846679688 20.26734161376953 19.9530029296875 20.078125 19.333473205566406
        19.159523010253906 20.462661743164062 21.97637939453125 22.08013916015625 21.027252197265625 19.620346069335938
        18.20124053955078 17.117830276489258 17.45964241027832 18.903167724609375 20.029296875 20.441299438476562
        20.709861755371094 21.115755081176758 21.344642639160156 21.228675842285156 20.957061767578125 20.767845153808594
        6.357002258300781 7.138282775878906 8.630638122558594 9.488204956054688 8.944976806640625 8.471939086914062
        8.813743591308594 9.393600463867188 9.662163734436035 9.073150634765625 7.443466663360596 5.91448974609375
        4.815818786621094 4.300056457519531 4.632713317871094 4.6052398681640625 4.4129791259765625 4.837181091308594
        5.5269012451171875 4.818870544433594 3.7232589721679688 3.4699554443359375 3.7598800659179688 4.0101318359375
        4.593033313751221 4.992828369140625 4.828025817871094 3.973510980606079 2.5482940673828125 2.4658966064453125
        3.1830825805664062 2.4994659423828125 2.6123812198638916 2.1729202270507812 2.3010940551757812 2.4414825439453125
        3.036590337753296 3.8544843196868896 4.718162536621094 4.129158020019531 3.5523531436920166 3.5645599365234375
        5.4689178466796875 8.630638122558594 11.609238624572754 13.483078002929688 14.246040344238281 13.87677001953125
        12.86965274810791 12.015135765075684 11.786247253417969 11.783195495605469 11.911376953125 12.808616638183594
        14.133125305175781 15.213478088378906 15.585800170898438 15.057830810546875 14.535964965820312 15.250099182128906
        16.440322875976562 16.580703735351562 15.393539428710938 13.037506103515625 10.138252258300781 6.649986267089844
        4.953155517578125 5.676445007324219 6.01214599609375 6.186103820800781 6.765953540802002 8.0294189453125
        8.01416015625 6.3753204345703125 6.674400329589844 7.742546081542969 8.82595157623291 9.790336608886719
        10.495315551757812 10.296944618225098 10.165718078613281 11.822868347167969 12.363044738769531 12.140266418457031
        14.10565185546875 16.882843017578125 17.95404052734375 18.35688018798828 19.72106170654297 21.503341674804688
        22.00384521484375 21.399581909179688 19.91943359375 14.828941345214844 8.645896911621094 7.318336009979248
        9.793387413024902 10.980561256408691 10.342719078063965 9.17081356048584 8.819847106933594 9.21964168548584
        7.898193359375 6.3997344970703125 6.350898742675781 6.381423473358154 4.962310791015625 4.293952941894531
        4.5808258056640625 5.694755554199219 7.217628479003906 7.959228992462158 8.191169738769531 8.508560180664062
        7.141334533691406 5.728324890136719 5.96636962890625 6.04571533203125 6.5065460205078125 7.196266174316406
        7.5685882568359375 6.903289794921875 4.934844970703125 4.901275634765625 6.3905792236328125 8.810691833496094
        11.377304077148438 13.97747802734375 16.06494140625 16.644798278808594 16.56239128112793 17.221595764160156
        18.500322341918945 19.360939025878906 19.891965866088867 20.664085388183594 20.834983825683594 20.34973907470703
        19.959104537963867 19.85228729248047 19.77294158935547 19.571517944335938 19.571517944335938 20.120849609375
        20.725122451782227 20.13306427001953 18.448440551757812 17.95098876953125 19.17783546447754 20.13001251220703
        20.523696899414062 21.240882873535156 21.75359344482422 21.579635620117188 21.207313537597656 21.073030471801758
        20.944854736328125 20.554216384887695 20.099485397338867 19.73937225341797 6.247138977050781 6.881927490234375
        8.255255699157715 9.183021545410156 8.621475219726562 7.815788269042969 8.044677734375 8.438370704650879
        8.566543579101562 8.258308410644531 6.775108337402344 5.008087158203125 3.6072843074798584 3.4974215030670166
        3.915527582168579 3.4058685302734375 2.987762451171875 3.4119720458984375 4.229866027832031 4.730369567871094
        4.0650634765625 2.4964141845703125 2.914520502090454 3.6011812686920166 4.477065563201904 4.788352966308594
        4.354988098144531 3.6500167846679688 3.1739273071289062 2.2034378051757812 2.2858352661132812 2.6001739501953125
        2.4689483642578125 2.4781036376953125 2.5910186767578125 2.6123809814453125 2.8199081420898438 2.7771835327148438
        2.7466659545898438 2.911468505859375 3.6591720581054688 3.6683273315429688 3.9735107421875 6.222724914550781
        9.625541687011719 12.622459411621094 14.365059852600098 14.453567504882812 13.354896545410156 12.283699035644531
        11.96630859375 12.250130653381348 12.668235778808594 13.083283424377441 13.391524314880371 13.818779945373535
        13.97747802734375 13.382370948791504 13.177894592285156 14.825889587402344 17.178871154785156 17.77092742919922
        16.553237915039062 14.786216735839844 13.321327209472656 10.565506935119629 5.7527384757995605 5.4719696044921875
        5.355995178222656 6.021301746368408 7.159645080566406 8.462783813476562 8.352912902832031 7.312232971191406
        7.2023701667785645 8.008056640625 9.063995361328125 10.235908508300781 11.420028686523438 11.755729675292969
        10.797447204589844 11.200294494628906 12.045654296875 12.131111145019531 13.595993041992188 15.533920288085938
        17.343666076660156 18.31110382080078 18.878753662109375 20.2337703704834 21.555219650268555 21.582687377929688
        20.532852172851562 18.503372192382812 15.253150939941406 11.777091979980469 10.504470825195312 9.668266296386719
        8.621475219726562 8.429214477539062 9.323402404785156 9.95513916015625 9.628593444824219 7.9012451171875
        6.720176696777344 5.652030944824219 4.068115234375 4.123054504394531 5.264442443847656 6.649986267089844
        7.837150573730469 8.624534606933594 8.056884765625 8.166755676269531 6.839195251464844 5.816826343536377
        6.00299072265625 6.210517883300781 6.646934509277344 7.037567138671875 6.747642517089844 5.89923095703125
        4.953155517578125 4.0894775390625 4.0986328125 6.4272003173828125 9.491256713867188 12.134162902832031
        13.760796546936035 14.01104736328125 15.039519309997559 17.139198303222656 19.394515991210938 20.35584259033203
        20.197153091430664 20.014039993286133 20.096437454223633 20.30701446533203 20.664085388183594 20.76479148864746
        20.825828552246094 21.137123107910156 20.630516052246094 19.9163818359375 19.65697479248047 18.784141540527344
        17.78313446044922 18.27143096923828 20.14832305908203 21.543014526367188 21.573532104492188 21.481979370117188
        21.481977462768555 21.231727600097656 20.831932067871094 20.487075805664062 20.13611602783203 19.873655319213867
        19.68444061279297 19.473861694335938 6.845298767089844 7.168800354003906 7.925658702850342 8.404800415039062
        7.666252136230469 7.214576721191406 7.770011901855469 7.663200378417969 7.303077697753906 7.281715393066406
        6.5157012939453125 4.6082916259765625 3.2837905883789062 3.5523529052734375 3.845329523086548 2.8473739624023438
        2.05389404296875 2.3651809692382812 3.4974210262298584 4.181037902832031 3.2959976196289062 1.7731245756149292
        2.6062774658203125 3.3600845336914062 4.01318359375 4.2603840827941895 4.043700695037842 3.8300702571868896
        3.5340423583984375 3.2776870727539062 2.5971221923828125 1.431320071220398 1.5594940185546875 2.932830810546875
        3.3906097412109375 3.094573974609375 2.945037841796875 2.8626327514648438 2.7375106811523438 3.192237615585327
        4.3641438484191895 4.696800231933594 3.7934494018554688 4.199347972869873 6.6499857902526855 10.769981384277344
        13.98663330078125 14.838096618652344 14.145331382751465 13.037506103515625 12.485122680664062 12.686546325683594
        13.074126243591309 13.135169982910156 12.952056884765625 12.985626220703125 12.958160400390625 12.515639305114746
        12.518691062927246 14.133125305175781 16.394546508789062 16.959136962890625 16.19617462158203 15.686515808105469
        15.286720275878906 13.736381530761719 7.699821472167969 5.441451549530029 5.627616882324219 6.6621928215026855
        7.89208984375 8.810690879821777 8.587905883789062 7.922607421875 7.800529479980469 8.365119934082031
        9.472946166992188 10.718101501464844 11.761833190917969 11.832024574279785 10.263374328613281 9.662162780761719
        10.809654235839844 11.392561912536621 13.260292053222656 14.856407165527344 16.876739501953125 18.826866149902344
        19.373153686523438 19.235816955566406 19.76378631591797 20.0933837890625 19.272438049316406 18.555252075195312
        17.79228973388672 16.797386169433594 14.450515747070312 10.565506935119629 8.188117980957031 8.557388305664062
        9.564498901367188 10.08636474609375 10.11383056640625 9.311195373535156 8.334602355957031 6.06402587890625
        3.955200433731079 4.260383605957031 5.233924865722656 6.826988220214844 8.172859191894531 8.941925048828125
        7.809684753417969 7.791374683380127 6.4943389892578125 5.5909881591796875 5.655083179473877 5.685600757598877
        5.6520304679870605 5.560470104217529 4.7364726066589355 4.007080078125 3.7568283081054688 3.3112564086914062
        3.3906097412109375 5.89617919921875 8.551284790039062 9.97039794921875 10.254219055175781 11.142311096191406
        13.94390869140625 17.136146545410156 19.53184700012207 20.1055908203125 20.06591796875 20.26734161376953
        20.697654724121094 20.865503311157227 21.109649658203125 21.472824096679688 21.396530151367188 20.749534606933594
        19.483016967773438 18.808557510375977 19.116790771484375 19.8980712890625 20.691551208496094 21.011993408203125
        21.301918029785156 21.439254760742188 20.633567810058594 19.63561248779297 19.089324951171875 18.945892333984375
        19.067960739135742 19.293800354003906 19.602035522460938 19.946897506713867 20.17273712158203 20.474868774414062
        7.3946380615234375 7.586899280548096 7.5991058349609375 7.013153076171875 6.793418884277344 7.898193359375
        8.215583801269531 7.2573018074035645 6.5279083251953125 6.4485626220703125 6.5523223876953125 5.047760009765625
        3.9979248046875 3.9979248046875 3.4089200496673584 2.00201416015625 1.6510542631149292 2.127143621444702
        2.8382186889648438 2.917572021484375 2.6398544311523438 2.2064895629882812 2.3438186645507812 3.122039794921875
        3.3722994327545166 3.2837908267974854 3.2258071899414062 3.4211273193359375 3.5431973934173584 3.3265154361724854
        2.6306991577148438 1.2329483032226562 1.1291885375976562 1.8463668823242188 2.1942825317382812 2.6612167358398438
        3.2410659790039062 3.1586685180664062 2.7558212280273438 3.692741632461548 5.273597717285156 5.4353485107421875
        3.8392255306243896 3.6744308471679688 5.2003560066223145 8.688621520996094 12.631614685058594 14.331489562988281
        14.639732360839844 13.89202880859375 12.933746337890625 12.436293601989746 12.292854309082031 12.405776977539062
        12.73232364654541 13.086334228515625 13.354896545410156 13.220619201660156 13.040557861328125 13.730278968811035
        15.005950927734375 15.655998229980469 16.0557861328125 16.36402130126953 15.805535316467285 11.481063842773438
        4.5716705322265625 5.682548522949219 6.347846984863281 7.4312591552734375 8.575698852539062 9.463790893554688
        9.671318054199219 8.877838134765625 8.08740234375 8.124031066894531 8.795433044433594 9.637748718261719
        10.132148742675781 10.293892860412598 9.131141662597656 7.5533294677734375 8.404800415039062 8.377334594726562
        9.93682861328125 12.259284973144531 15.170754432678223 18.35687828063965 19.69359588623047 18.912322998046875
        17.81975746154785 16.846214294433594 16.25110626220703 16.891998291015625 18.14936065673828 18.744468688964844
        17.648855209350586 14.377273559570312 9.067047119140625 7.248146057128906 8.761863708496094 10.196235656738281
        10.583816528320312 9.94903564453125 9.390548706054688 7.5533294677734375 5.4811248779296875 4.123054504394531
        4.599135875701904 6.274604797363281 7.998901844024658 8.838157653808594 7.7852702140808105 7.287818908691406
        6.11895751953125 5.3743133544921875 5.224769592285156 5.087432861328125 4.174934387207031 3.6256027221679688
        2.969451904296875 2.990814208984375 3.048797607421875 3.3814544677734375 4.257331848144531 6.4272003173828125
        7.083343029022217 5.945006847381592 5.98162841796875 8.783226013183594 12.619400978088379 16.04052734375
        17.82891082763672 18.298898696899414 19.306007385253906 20.462661743164062 20.999786376953125 21.155433654785156
        21.69866180419922 22.35175323486328 21.95806884765625 20.618301391601562 19.293800354003906 18.982513427734375
        19.76683807373047 21.427047729492188 23.032318115234375 23.056730270385742 22.30597496032715 21.451461791992188
        19.99267578125 18.518630981445312 18.01507568359375 18.14630889892578 18.567459106445312 19.31821632385254
        20.23377227783203 20.963165283203125 21.481979370117188 22.08319091796875 7.5228118896484375 7.8890380859375
        8.020263671875 7.6204681396484375 7.721183776855469 8.249153137207031 8.157600402832031 7.6296305656433105
        7.144385814666748 6.836143493652344 6.619461536407471 5.5757293701171875 5.087432861328125 4.3641438484191895
        3.8087079524993896 2.4903106689453125 2.3285598754882812 2.6306991577148438 2.5147249698638916 2.5574493408203125
        3.3082046508789062 3.3722989559173584 2.4964141845703125 2.7893905639648438 2.963348388671875 2.8717880249023438
        3.2959976196289062 4.03759765625 4.193244934082031 3.8026044368743896 2.966400146484375 1.7578659057617188
        0.985748291015625 1.8066939115524292 2.08135986328125 2.6886823177337646 3.7324140071868896 3.2258071899414062
        3.006072998046875 3.8880615234375 5.4719696044921875 6.057922840118408 4.4190826416015625 3.4638519287109375
        4.501479625701904 6.6164093017578125 10.336616516113281 13.388473510742188 15.048675537109375 15.054779052734375
        13.97747802734375 12.546157836914062 11.413925170898438 11.365089416503906 12.253181457519531 13.345741271972656
        14.334541320800781 14.676352500915527 14.383377075195312 14.191108703613281 14.654990196228027 15.451521873474121
        16.13819122314453 15.872681617736816 12.994781494140625 7.138282775878906 4.4984283447265625 6.06097412109375
        6.802574157714844 8.041625022888184 9.292884826660156 10.409866333007812 10.885955810546875 10.220649719238281
        8.694725036621094 8.1148681640625 8.081298828125 8.511612892150879 8.679466247558594 9.039581298828125
        8.499404907226562 5.682548522949219 5.7313761711120605 5.905333995819092 6.866661071777344 9.057891845703125
        11.526840209960938 14.374222755432129 16.76686668395996 16.806541442871094 14.264351844787598 11.551254272460938
        11.896117210388184 14.560379028320312 17.30399513244629 19.119842529296875 19.116790771484375 16.440322875976562
        10.730308532714844 7.678459167480469 8.789329528808594 10.477005004882812 11.178933143615723 11.181983947753906
        11.258277893066406 11.114837646484375 10.901214599609375 5.93890380859375 4.6327128410339355 6.421096324920654
        7.971435546875 8.798484802246094 8.420059204101562 6.5767364501953125 5.298011779785156 5.041656017303467
        4.644920349121094 4.983673095703125 3.6744308471679688 2.7497177124023438 2.4323272705078125 2.4842071533203125
        3.1586687564849854 4.7853007316589355 6.213569641113281 6.659142017364502 4.3763580322265625 3.097625732421875
        4.715110778808594 8.1087646484375 11.239967346191406 13.064971923828125 14.419998168945312 16.522720336914062
        19.022186279296875 20.822776794433594 21.445358276367188 21.84209442138672 22.357858657836914 21.86040687561035
        20.648828506469727 19.65392303466797 19.040496826171875 19.156471252441406 20.31922149658203 22.08319091796875
        23.334449768066406 23.007904052734375 21.88177490234375 20.902130126953125 20.291757583618164 19.76378631591797
        19.467758178710938 19.449447631835938 19.766836166381836 20.3039608001709 21.106597900390625 21.91229248046875
        22.638633728027344 23.224586486816406 7.733390808105469 7.916503429412842 7.605208873748779 6.988739013671875
        7.248146057128906 7.8829345703125 8.0233154296875 8.008056640625 8.410903930664062 8.822898864746094
        8.349861145019531 6.5431671142578125 5.5574188232421875 4.940948486328125 4.141365051269531 3.8453292846679688
        3.7476730346679688 3.4852142333984375 3.112884521484375 3.6988449096679688 4.5533599853515625 3.9918212890625
        2.4750516414642334 2.6703720092773438 2.8382186889648438 3.106780767440796 3.872802734375 4.672386169433594
        4.702903747558594 3.9490966796875 3.2136001586914062 2.5818634033203125 1.1841201782226562 1.4038543701171875
        1.6724166870117188 3.030487298965454 4.309211730957031 3.2593765258789062 2.923675537109375 3.6256027221679688
        4.867698669433594 6.186103820800781 5.011138916015625 3.122040033340454 3.7659835815429688 5.679496765136719
        8.392593383789062 12.128059387207031 15.22568416595459 16.31824493408203 15.634636878967285 13.663139343261719
        11.478012084960938 10.638755798339844 11.667228698730469 13.415939331054688 14.883880615234375 15.573593139648438
        15.454574584960938 15.048675537109375 14.960175514221191 15.372170448303223 15.500350952148438 13.779106140136719
        9.830009460449219 6.09454345703125 5.3865203857421875 5.97552490234375 6.942962646484375 8.288825035095215
        9.506515502929688 10.678428649902344 11.294898986816406 11.096527099609375 9.234901428222656 8.517715454101562
        8.163703918457031 8.056884765625 8.291877746582031 8.532974243164062 8.355964660644531 6.225776672363281
        5.114898681640625 6.3997344970703125 7.821891784667969 9.466842651367188 10.379349708557129 10.596023559570312
        11.304054260253906 11.166726112365723 8.948028564453125 7.278663635253906 8.523818969726562 12.195198059082031
        15.668205261230469 17.471845626831055 17.59391975402832 16.1046142578125 12.839134216308594 10.412918090820312
        10.126045227050781 10.464797973632812 10.873748779296875 11.658073425292969 12.387467384338379 12.433242797851562
        11.673332214355469 7.089447498321533 6.1372761726379395 7.8768310546875 9.533981323242188 10.715049743652344
        10.916473388671875 8.349861145019531 6.250190258026123 4.968414306640625 4.3824615478515625 6.02740478515625
        5.948058605194092 3.909423589706421 2.2766799926757812 1.8677291870117188 3.3143081665039062 6.424148082733154
        7.9775390625 6.772056579589844 3.1922378540039062 3.045745849609375 5.224769592285156 7.797477722167969
        9.595015525817871 10.437332153320312 12.665184020996094 16.33655548095703 19.385360717773438 20.709861755371094
        21.195106506347656 21.613203048706055 21.427047729492188 19.78209686279297 18.463701248168945 18.33856964111328
        18.857383728027344 19.77294158935547 21.323280334472656 22.705772399902344 23.343605041503906 23.383285522460938
        23.035369873046875 22.220529556274414 21.393478393554688 20.899078369140625 20.29175567626953 19.9163818359375
        20.206308364868164 20.53285026550293 21.137121200561523 22.05572509765625 22.840049743652344 23.212377548217773
        7.760856628417969 7.538071155548096 7.229835510253906 7.251197814941406 7.745597839355469 8.133186340332031
        8.206428527832031 8.462783813476562 9.073150634765625 9.405807495117188 8.655052185058594 6.924652099609375
        5.786308288574219 5.648979187011719 5.5970916748046875 4.901275634765625 4.309211254119873 3.7141036987304688
        3.7018964290618896 4.4953765869140625 4.776145935058594 3.6561203002929688 2.1240921020507812 2.4384307861328125
        2.963348388671875 3.4669036865234375 4.1077880859375 4.675437927246094 4.989776611328125 4.330574035644531
        3.5340423583984375 3.1922378540039062 1.9531861543655396 2.1424026489257812 2.1759719848632812 3.2715835571289062
        4.092529773712158 3.3417739868164062 2.908416748046875 3.1250991821289062 3.8056564331054688 5.771049976348877
        5.3926239013671875 3.061004638671875 3.2563247680664062 6.640830993652344 9.060943603515625 12.588882446289062
        15.701774597167969 16.980499267578125 16.660057067871094 15.057829856872559 12.756736755371094 11.087371826171875
        11.481063842773438 13.235877990722656 14.990692138671875 15.955078125 16.0618896484375 15.674308776855469
        15.137184143066406 14.511551856994629 13.183998107910156 10.733360290527344 8.316291809082031 7.138282775878906
        7.037566661834717 7.153541564941406 7.4465179443359375 8.081298828125 9.057891845703125 10.434280395507812
        11.499374389648438 11.456650733947754 9.146400451660156 8.673362731933594 8.520767211914062 8.0111083984375
        8.093505859375 8.081298828125 8.255256652832031 8.340705871582031 7.702873229980469 7.998901844024658
        9.448532104492188 10.980560302734375 12.146369934082031 10.898162841796875 7.2267842292785645 4.766990661621094
        5.5604705810546875 8.0751953125 10.141304016113281 12.094483375549316 14.523758888244629 16.525772094726562
        17.355873107910156 17.072052001953125 15.503402709960938 13.318275451660156 11.429183959960938 9.91546630859375
        9.671318054199219 10.800498962402344 12.1005859375 12.747581481933594 12.094482421875 9.103668212890625
        7.174903869628906 7.757804870605469 10.11077880859375 12.457656860351562 13.779106140136719 13.275551795959473
        11.294898986816406 8.239997863769531 6.2013630867004395 7.654045104980469 8.261360168457031 6.6103057861328125
        4.159675598144531 2.6612167358398438 3.5187835693359375 6.485183238983154 6.985687255859375 5.285804748535156
        2.844322443008423 3.057952880859375 4.327522277832031 5.5024871826171875 6.6652445793151855 8.746604919433594
        12.1097412109375 15.848258972167969 18.640708923339844 19.82787322998047 20.18189239501953 19.6813907623291
        18.03643798828125 16.388442993164062 16.589859008789062 18.03948974609375 19.565414428710938 20.84718894958496
        22.36090850830078 23.532821655273438 24.488052368164062 25.63555145263672 25.846120834350586 24.0791015625
        21.451461791992188 19.882814407348633 19.202247619628906 18.494216918945312 18.567459106445312 19.534896850585938
        20.798362731933594 21.95501708984375 22.763755798339844 22.995697021484375 7.2359395027160645 6.964324951171875
        7.199317932128906 8.0172119140625 8.703880310058594 8.771018981933594 8.529922485351562 8.606216430664062
        9.067047119140625 8.987701416015625 8.194221496582031 7.306129455566406 6.936859607696533 7.229835510253906
        6.643882751464844 4.998931884765625 4.4129791259765625 4.324470520019531 4.715110778808594 5.011138916015625
        4.693748474121094 3.2990493774414062 2.02642822265625 2.3224563598632812 2.8321151733398438 3.3021011352539062
        4.135261535644531 4.745628356933594 5.316322326660156 5.166786193847656 4.669334411621094 4.260383605957031
        3.2807388305664062 3.4608001708984375 2.4658966064453125 2.6215362548828125 3.1800308227539062 2.935882568359375
        2.5971219539642334 2.6154327392578125 3.051849365234375 5.5665740966796875 5.941956043243408 3.256324529647827
        4.0498046875 7.4312591552734375 9.436324119567871 12.634666442871094 15.186013221740723 16.29688262939453
        16.632591247558594 16.1168212890625 14.426101684570312 12.225716590881348 11.358985900878906 12.271492004394531
        14.007994651794434 15.424056053161621 16.1015625 16.16260528564453 15.680411338806152 14.337594032287598
        12.1158447265625 9.808647155761719 7.934814453125 7.623527526855469 8.539077758789062 9.051788330078125
        8.664207458496094 7.8890380859375 8.0782470703125 9.701835632324219 11.377304077148438 11.420028686523438
        8.890045166015625 8.420059204101562 8.417007446289062 8.1087646484375 8.056884765625 7.8371500968933105
        8.1209716796875 9.170814514160156 9.863578796386719 9.265419006347656 9.576705932617188 10.742515563964844
        12.65297794342041 13.626518249511719 8.511611938476562 2.6673202514648438 4.0894775390625 8.758811950683594
        12.765891075134277 14.465775489807129 15.146339416503906 16.13208770751953 16.962188720703125 17.316200256347656
        16.794334411621094 14.850302696228027 12.0181884765625 9.265419006347656 8.389541625976562 9.29288387298584
        11.008026123046875 12.771995544433594 13.763847351074219 13.052764892578125 8.426162719726562 5.691703796386719
        7.391585826873779 10.196235656738281 12.698753356933594 13.782156944274902 13.122962951660156 11.328468322753906
        8.658102989196777 9.231849670410156 10.779136657714844 11.481063842773438 10.272529602050781 7.4404144287109375
        6.2379841804504395 5.209510803222656 3.6103363037109375 1.7365036010742188 1.1291884183883667 1.7517623901367188
        2.1881790161132812 2.4689483642578125 3.738517999649048 7.229835510253906 11.520737648010254 14.761802673339844
        16.660057067871094 18.33551788330078 19.458602905273438 18.31110382080078 15.509506225585938 14.462722778320312
        16.29383087158203 19.028289794921875 20.978424072265625 21.552169799804688 21.96722412109375 22.595901489257812
        23.261207580566406 23.422958374023438 22.23883819580078 20.603042602539062 19.156471252441406 18.24396514892578
        17.71294403076172 17.285682678222656 17.960145950317383 19.449447631835938 20.740379333496094 21.82988739013672
        22.791221618652344 23.325294494628906 7.153541564941406 7.049774169921875 7.4037933349609375 8.197273254394531
        8.990753173828125 9.146400451660156 9.002959251403809 9.021270751953125 9.012116432189941 8.603164672851562
        8.239997863769531 8.194221496582031 8.410903930664062 8.609268188476562 7.834098815917969 5.706962585449219
        4.5808258056640625 5.108795166015625 5.792411804199219 5.240028381347656 4.3763580322265625 3.4302825927734375
        2.5757598876953125 2.2675247192382812 2.3987579345703125 3.085418462753296 3.933837890625 4.7395243644714355
        5.5543670654296875 6.082336902618408 6.03656005859375 5.288856029510498 4.794456481933594 5.044708251953125
        3.2502212524414062 1.8311080932617188 2.3499221801757812 2.6154327392578125 2.4933624267578125 2.4414825439453125
        3.073211669921875 5.5085906982421875 6.3844757080078125 4.5258941650390625 6.332587718963623 7.864616394042969
        9.698783874511719 12.540054321289062 14.526809692382812 15.659049987792969 16.507461547851562 16.556289672851562
        15.494247436523438 13.748588562011719 12.222663879394531 12.0242919921875 13.409835815429688 15.21958065032959
        16.418962478637695 16.940826416015625 16.611221313476562 14.896087646484375 12.472916603088379 9.97650146484375
        7.910400390625 8.0843505859375 9.521774291992188 10.483108520507812 10.10772705078125 8.560441017150879
        7.5685882568359375 9.021270751953125 10.776084899902344 10.870689392089844 8.731346130371094 7.797477722167969
        7.8768310546875 8.224738121032715 8.697776794433594 8.307136535644531 8.410902976989746 9.054839134216309
        9.768974304199219 9.775077819824219 9.036529541015625 8.130134582519531 8.926666259765625 11.770988464355469
        9.176918029785156 2.6368026733398438 4.132209300994873 7.4739837646484375 12.430191040039062 15.436264038085938
        15.881834983825684 15.549179077148438 15.839103698730469 16.406753540039062 16.473892211914062 15.387435913085938
        12.787254333496094 8.560441017150879 6.894134521484375 8.175910949707031 10.391555786132812 12.305062294006348
        13.782157897949219 14.426102638244629 10.769980430603027 6.6072540283203125 6.6225199699401855 7.031463623046875
        8.743553161621094 10.04974365234375 10.721153259277344 10.589920043945312 8.813743591308594 9.054840087890625
        10.544143676757812 11.804557800292969 12.286750793457031 12.143318176269531 10.760826110839844 6.399734020233154
        3.112884759902954 0.7385482788085938 0.6469955444335938 1.5350799560546875 1.2848281860351562 0.9582824110984802
        2.02947998046875 5.6154022216796875 9.677421569824219 12.646873474121094 15.079192161560059 17.79228973388672
        19.330421447753906 17.267372131347656 13.861504554748535 13.162635803222656 15.189064979553223 17.569503784179688
        18.933683395385742 19.009979248046875 18.70174217224121 18.50031852722168 17.87469482421875 16.959138870239258
        17.346717834472656 19.144264221191406 20.0201416015625 19.400619506835938 18.549148559570312 17.99066162109375
        17.83501434326172 18.24091339111328 19.367042541503906 21.015045166015625 22.571487426757812 23.575544357299805
        7.745597839355469 7.708976745605469 7.687614440917969 8.233894348144531 9.091461181640625 9.564497947692871
        9.707940101623535 9.729302406311035 9.167762756347656 8.542129516601562 8.597061157226562 8.914459228515625
        8.86867618560791 8.673362731933594 8.258308410644531 6.6652445793151855 4.644920349121094 4.687644958496094
        5.111846923828125 4.266487121582031 3.872802734375 3.8453292846679688 3.6042330265045166 2.7771835327148438
        2.02642822265625 2.7893905639648438 3.3356704711914062 4.232917785644531 5.5635223388671875 6.790367126464844
        7.510604381561279 6.5767364501953125 5.905334949493408 6.03961181640625 4.577773571014404 2.1851272583007812
        1.88604736328125 2.884002685546875 2.975555419921875 2.7863388061523438 3.5889739990234375 5.178993225097656
        6.103698253631592 5.862602233886719 7.6937174797058105 8.0111083984375 9.680472373962402 12.250129699707031
        13.867607116699219 15.045623779296875 16.20532989501953 16.458635330200195 15.869620323181152 14.999847412109375
        13.858450889587402 13.165687561035156 13.98663330078125 15.579697608947754 16.599014282226562 17.023223876953125
        16.693626403808594 15.268409729003906 13.501388549804688 11.200294494628906 8.658103942871094 8.429214477539062
        9.765922546386719 10.992767333984375 11.096527099609375 9.808646202087402 7.965331554412842 8.352912902832031
        9.744560241699219 10.01922607421875 8.410903930664062 6.869712829589844 7.181007385253906 7.9287109375
        9.109771728515625 8.355964660644531 8.380386352539062 8.832054138183594 9.381393432617188 9.524826049804688
        9.231849670410156 9.106720924377441 9.271522521972656 10.983612060546875 11.178932189941406 5.5299530029296875
        3.6378095149993896 5.117950439453125 8.899200439453125 13.28470516204834 15.350808143615723 15.088348388671875
        14.584792137145996 14.905242919921875 15.262306213378906 15.027313232421875 13.397629737854004 8.001953125
        5.4506072998046875 7.257300853729248 10.449539184570312 12.524795532226562 13.303017616271973 12.396621704101562
        10.614334106445312 10.09552001953125 10.028380393981934 7.7486491203308105 6.338691234588623 6.683555603027344
        8.0751953125 8.743553161621094 7.663200378417969 6.747642517089844 7.4434661865234375 9.002959251403809
        10.10772705078125 11.111785888671875 11.856437683105469 11.22470760345459 9.524826049804688 5.529953479766846
        2.6306991577148438 2.04168701171875 1.95318603515625 1.6968306303024292 2.12103271484375 4.354988098144531
        7.104705810546875 10.019225120544434 13.522749900817871 16.425064086914062 16.0252685546875 13.132118225097656
        11.651969909667969 12.436294555664062 13.90118408203125 15.256202697753906 16.565444946289062 17.39250373840332
        17.66716766357422 17.731252670288086 16.943878173828125 15.790275573730469 16.12598419189453 17.84111785888672
        19.281593322753906 20.14832305908203 20.456558227539062 19.528793334960938 17.92962646484375 17.258216857910156
        18.14020347595215 19.800405502319336 21.051666259765625 21.405685424804688 7.4922943115234375 7.4831390380859375
        7.339698791503906 7.745597839355469 8.923614501953125 9.637748718261719 9.814750671386719 9.762871742248535
        9.482101440429688 9.26541805267334 9.183022499084473 8.917510986328125 8.197274208068848 7.5136566162109375
        7.1382832527160645 6.329536437988281 4.666282653808594 4.03759765625 4.193244934082031 3.7232589721679688
        3.872802734375 4.657127380371094 5.035553455352783 4.0467529296875 2.6764755249023438 2.6825790405273438
        3.018280029296875 4.007080078125 5.258338928222656 6.308174133300781 7.177955627441406 6.363105773925781
        5.291908264160156 5.432297229766846 4.635765075683594 3.061004638671875 2.7130963802337646 3.8178634643554688
        4.043701171875 4.281745910644531 5.081328868865967 5.4841766357421875 5.810722351074219 6.213569641113281
        7.934814929962158 7.635735034942627 9.247108459472656 11.453598022460938 12.771995544433594 14.139227867126465
        15.784173011779785 16.31519317626953 15.839103698730469 15.23483943939209 14.64583683013916 14.09649658203125
        14.239937782287598 15.002899169921875 15.750602722167969 16.32740020751953 16.373184204101562 15.659049987792969
        14.185004234313965 11.371192932128906 9.158607482910156 9.424118041992188 10.434280395507812 11.239967346191406
        11.603134155273438 11.066009521484375 9.103668212890625 7.8157877922058105 8.380386352539062 8.694725036621094
        7.5136566162109375 5.87481689453125 6.317329406738281 6.912444591522217 8.340706825256348 6.6103057861328125
        6.7293314933776855 7.5289154052734375 8.221687316894531 8.182014465332031 7.5502777099609375 8.423111915588379
        10.397659301757812 11.896117210388184 12.570571899414062 10.287788391113281 4.867698669433594 4.043701171875
        5.096588134765625 9.353919982910156 13.88897705078125 15.710930824279785 15.121917724609375 14.307075500488281
        14.392532348632812 14.413894653320312 14.020203590393066 9.173866271972656 4.791404724121094 6.06097412109375
        9.564498901367188 12.427139282226562 13.522750854492188 10.858482360839844 9.192176818847656 10.803550720214844
        12.347785949707031 11.557357788085938 9.237953186035156 7.867668151855469 7.922607421875 7.9134521484375
        7.437363147735596 5.771049976348877 5.3529438972473145 7.025360107421875 8.325447082519531 9.063996315002441
        10.007019996643066 11.087371826171875 11.871696472167969 10.129096984863281 5.3865203857421875 2.03863525390625
        0.7782211303710938 1.004058837890625 2.2034380435943604 3.7537763118743896 5.124061584472656 7.5289154052734375
        11.31931209564209 13.559371948242188 11.749627113342285 9.491256713867188 9.99786376953125 11.178932189941406
        12.1219482421875 13.739433288574219 16.119873046875 17.93572998046875 18.906217575073242 19.464706420898438
        18.814659118652344 17.69158172607422 17.328407287597656 17.83501434326172 19.116790771484375 20.673240661621094
        21.558273315429688 21.289710998535156 19.931640625 17.93267822265625 16.437271118164062 16.412857055664062
        17.29178810119629 18.14630889892578 7.4587249755859375 7.156593322753906 6.866661548614502 6.900238037109375
        8.1087646484375 9.088409423828125 9.277626037597656 9.265419006347656 9.454635620117188 9.625541687011719
        9.216590881347656 8.539077758789062 7.7883219718933105 6.915496826171875 6.204414367675781 5.792411804199219
        4.956207275390625 4.257331848144531 4.116943359375 3.952148675918579 4.135261535644531 4.834129810333252
        5.4322967529296875 5.075225830078125 4.0223388671875 3.100677490234375 2.951141357421875 3.7415695190429688
        4.635765075683594 4.962311267852783 5.4902801513671875 5.032501220703125 4.361091613769531 4.5167388916015625
        4.367195129394531 4.565567493438721 5.163733959197998 5.813774108886719 6.03656005859375 6.6408305168151855
        7.303077697753906 7.165748596191406 6.695763111114502 6.781211853027344 8.0263671875 7.089447021484375
        7.327491760253906 9.378341674804688 11.420027732849121 13.510543823242188 15.491195678710938 16.22058868408203
        15.778068542480469 15.179908752441406 14.981535911560059 14.862510681152344 14.734336853027344 15.073089599609375
        15.99169921875 16.458633422851562 16.23279571533203 15.598007202148438 13.571578979492188 10.687583923339844
        9.839165687561035 10.419021606445312 10.486160278320312 10.589920043945312 11.19419002532959 11.752677917480469
        10.928680419921875 9.094513893127441 7.953125 6.808677673339844 6.04876708984375 5.642875671386719
        5.5146942138671875 5.761894226074219 7.669303894042969 5.957214832305908 6.320381164550781 6.491287708282471
        6.964324951171875 7.196266174316406 5.99688720703125 5.337684631347656 7.5685882568359375 10.791343688964844
        12.128059387207031 12.228767395019531 9.775077819824219 6.3447957038879395 3.5065765380859375 5.053864002227783
        10.370184898376465 15.030364990234375 16.23279571533203 15.115813255310059 13.843192100524902 13.357948303222656
        13.519699096679688 10.11383056640625 5.188148498535156 5.4536590576171875 7.6174163818359375 10.09552001953125
        11.337623596191406 8.807640075683594 7.6082611083984375 9.070098876953125 11.169776916503906 13.083282470703125
        13.769950866699219 12.765892028808594 10.910369873046875 9.729301452636719 9.381393432617188 8.084351539611816
        5.6031951904296875 6.02130126953125 7.745597839355469 8.780174255371094 9.530929565429688 10.193183898925781
        10.904266357421875 11.514633178710938 10.650962829589844 8.151496887207031 4.916534423828125 3.079315185546875
        2.7222518920898438 3.1891860961914062 4.3977203369140625 6.433303356170654 9.280677795410156 10.510574340820312
        8.450576782226562 6.839195251464844 8.099609375 10.345771789550781 12.421035766601562 14.877777099609375
        17.88079833984375 19.9072265625 19.556259155273438 18.25617027282715 17.81060028076172 18.497268676757812
        19.449447631835938 19.9957275390625 20.395523071289062 20.719017028808594 20.657981872558594 20.401628494262695
        19.80345916748047 18.36908721923828 16.382339477539062 14.676352500915527 13.980530738830566 14.590896606445312
        7.5838470458984375 7.232886791229248 6.979583740234375 6.375319957733154 6.857505798339844 8.252204895019531
        9.143348693847656 9.250161170959473 9.067047119140625 8.758811950683594 8.362068176269531 8.03857421875
        7.367164611816406 6.5736846923828125 6.06402587890625 5.670341491699219 5.139320373535156 4.666282653808594
        4.4648590087890625 4.333625793457031 3.921631097793579 4.0101318359375 4.751731872558594 4.986724853515625
        4.5869293212890625 3.6683273315429688 3.012176513671875 3.3326187133789062 4.0040283203125 3.8392257690429688
        4.1016845703125 3.656120538711548 3.4974210262298584 4.287849426269531 5.121002197265625 6.170845031738281
        7.080291748046875 7.367164611816406 7.5807952880859375 8.139289855957031 8.432266235351562 8.291876792907715
        7.9500732421875 7.7974772453308105 7.940917491912842 7.061980724334717 6.237983703613281 7.6143646240234375
        10.077208518981934 12.619400024414062 14.728233337402344 15.744498252868652 15.729240417480469 15.436264038085938
        15.390487670898438 15.411849975585938 15.308082580566406 15.729239463806152 16.498306274414062 16.28467559814453
        15.213478088378906 13.620406150817871 11.380355834960938 10.296943664550781 10.617385864257812 10.538040161132812
        9.765922546386719 9.604172706604004 10.480056762695312 11.847282409667969 12.488174438476562 11.813713073730469
        8.478042602539062 4.5716705322265625 4.663230895996094 6.744590759277344 5.862602233886719 5.865653991699219
        8.310188293457031 7.693717956542969 6.683555603027344 6.5401153564453125 6.09149169921875 6.729331970214844
        6.469925403594971 4.901275634765625 4.4312896728515625 6.854454040527344 10.260322570800781 11.9205322265625
        12.0731201171875 11.291848182678223 6.649986743927002 3.024383544921875 6.05487060546875 11.255226135253906
        15.478989601135254 16.16260528564453 14.627525329589844 12.936798095703125 12.0426025390625 10.02838134765625
        8.075194358825684 8.0904541015625 8.633689880371094 9.491256713867188 9.689628601074219 6.976531982421875
        5.841239929199219 7.5594329833984375 9.717095375061035 11.612289428710938 11.755729675292969 11.239967346191406
        11.441391944885254 11.978515625 12.350838661193848 11.862541198730469 8.239997863769531 4.4221343994140625
        5.5269012451171875 7.892090320587158 9.500411987304688 10.461746215820312 11.584823608398438 12.665184020996094
        12.918486595153809 12.576675415039062 11.9449462890625 10.736412048339844 8.612320899963379 5.780204772949219
        4.0894775390625 5.023345947265625 6.347846984863281 6.683555603027344 5.560471057891846 5.026397705078125
        6.6103057861328125 10.434280395507812 14.325386047363281 16.772972106933594 18.11578369140625 17.941835403442383
        16.400650024414062 16.32434844970703 18.533889770507812 20.828880310058594 22.028261184692383 22.412796020507812
        22.08319091796875 21.430099487304688 20.920440673828125 20.572525024414062 20.398574829101562 20.209360122680664
        19.351783752441406 17.371131896972656 14.609207153320312 12.540054321289062 7.358009338378906 7.101654052734375
        6.994842052459717 6.6866068840026855 6.711021423339844 7.208473205566406 7.925659656524658 8.63369083404541
        8.978545188903809 8.764915466308594 8.478042602539062 8.163703918457031 7.4739837646484375 6.979583263397217
        6.830039978027344 6.5401153564453125 5.764945983886719 4.931793212890625 4.821922302246094 4.867698669433594
        4.3885650634765625 4.181037902832031 4.6723856925964355 4.882965087890625 4.5869293212890625 3.89111328125
        3.3478775024414062 3.4821624755859375 4.0467529296875 4.242073059082031 4.358039855957031 3.1312026977539062
        2.948089599609375 4.278694152832031 5.5970916748046875 6.170845031738281 6.131172180175781 6.274604797363281
        6.714073181152344 7.278663635253906 7.3854827880859375 7.4037933349609375 7.684563159942627 8.01416015625
        7.632683277130127 6.833091735839844 5.847343921661377 5.93585205078125 7.620467662811279 10.257270812988281
        12.875762939453125 14.441360473632812 15.106658935546875 15.234840393066406 15.375228881835938 15.726188659667969
        16.16870880126953 16.473894119262695 16.11376953125 14.905242919921875 12.961212158203125 10.834068298339844
        10.330513000488281 11.157569885253906 11.200295448303223 10.08636474609375 9.387496948242188 9.591965675354004
        10.422073364257812 11.749627113342285 12.829978942871094 12.949005126953125 7.4556732177734375 3.064056396484375
        4.135261535644531 7.614364147186279 7.074188232421875 6.924652099609375 7.983642578125 7.086395263671875
        6.775108814239502 6.5950469970703125 5.694755554199219 6.442458629608154 6.830039978027344 6.830040454864502
        4.239021301269531 4.287849426269531 6.457718372344971 10.376296997070312 12.445449829101562 13.14432430267334
        11.651969909667969 4.919586181640625 4.5594635009765625 6.448562145233154 12.060914039611816 16.26941680908203
        17.166664123535156 15.842155456542969 12.665184020996094 9.213539123535156 9.604172706604004 11.551254272460938
        12.991729736328125 13.718070030212402 13.116851806640625 9.341712951660156 5.365150451660156 5.789360523223877
        7.4953460693359375 9.616378784179688 8.117919921875 6.720176696777344 8.365119934082031 10.617386817932129
        12.524795532226562 13.586837768554688 12.259284973144531 6.12200927734375 3.4302825927734375 5.291908264160156
        7.806632995605469 9.579757690429688 11.117889404296875 12.552261352539062 13.333534240722656 13.202308654785156
        12.11279296875 10.586868286132812 9.433272361755371 9.088409423828125 8.432266235351562 7.205420970916748
        5.960265636444092 5.236976623535156 4.751731872558594 4.4343414306640625 6.05487060546875 9.726249694824219
        13.324378967285156 14.807579040527344 14.447463989257812 13.568528175354004 14.191108703613281 16.837059020996094
        20.33753204345703 22.754600524902344 23.761709213256836 24.28662872314453 24.0394287109375 23.355812072753906
        22.888885498046875 22.577590942382812 22.611162185668945 22.986539840698242 23.17576026916504 22.678306579589844
        21.393478393554688 19.473861694335938 7.4160003662109375 6.863609790802002 7.055878162384033 7.489243030548096
        7.742546081542969 7.5289154052734375 7.693717956542969 8.468887329101562 9.115875244140625 9.241004943847656
        8.899201393127441 8.346809387207031 8.03857421875 7.882935047149658 7.754753112792969 7.440414905548096
        6.781211853027344 5.929748058319092 5.4353485107421875 5.365150451660156 5.090485095977783 4.843284606933594
        4.849388122558594 4.937896728515625 4.4923248291015625 3.6225509643554688 3.6194918155670166 4.4770660400390625
        5.041656494140625 5.670341491699219 6.042663097381592 5.111846923828125 3.7903976440429688 3.6072847843170166
        4.5899810791015625 4.980621337890625 4.6540751457214355 5.096588134765625 5.185096263885498 5.346839904785156
        5.520797252655029 6.07012939453125 6.6164093017578125 7.123023986816406 7.025360107421875 6.6560893058776855
        6.10980224609375 6.158638000488281 7.205421447753906 9.195228576660156 11.554306030273438 13.299964904785156
        14.175849914550781 14.413894653320312 14.786216735839844 15.695671081542969 16.794334411621094 17.014070510864258
        15.96728515625 14.02630615234375 12.0792236328125 11.423079490661621 11.584823608398438 11.508529663085938
        10.415970802307129 9.063995361328125 9.204383850097656 10.159614562988281 10.980560302734375 11.847282409667969
        12.323371887207031 12.057861328125 5.758842468261719 3.067108154296875 4.171882629394531 6.955169677734375
        7.187110900878906 7.3732757568359375 5.88702392578125 3.912475347518921 5.047760009765625 5.4841766357421875
        5.700859546661377 7.061981678009033 6.952117443084717 7.9683837890625 7.058929443359375 4.0894775390625
        4.3794097900390625 6.759849548339844 10.782188415527344 13.27860164642334 14.337593078613281 11.508529663085938
        4.4404449462890625 5.5513153076171875 7.9073486328125 13.815727233886719 17.87469482421875 19.284645080566406
        17.416915893554688 11.151466369628906 6.6133575439453125 8.371223449707031 12.723167419433594 16.0283203125
        17.288734436035156 16.052734375 10.150459289550781 4.550308704376221 4.791404724121094 6.6103057861328125
        5.337684631347656 3.2288589477539062 5.4109344482421875 7.4190521240234375 9.488204956054688 11.825919151306152
        13.290809631347656 11.624504089355469 7.199317932128906 5.743583679199219 7.232887268066406 8.795433044433594
        10.162666320800781 11.517684936523438 12.692648887634277 13.327430725097656 13.083281517028809 12.0975341796875
        10.827964782714844 10.312202453613281 10.660117149353027 10.748619079589844 9.286781311035156 5.95416259765625
        3.9552001953125 4.4373931884765625 6.128119945526123 8.1209716796875 10.00396728515625 11.001923561096191
        10.684532165527344 10.599075317382812 12.942901611328125 16.391494750976562 19.077117919921875 20.935699462890625
        22.418899536132812 23.581649780273438 23.75865936279297 23.261207580566406 22.931610107421875 23.239845275878906
        23.9722900390625 24.793235778808594 25.443281173706055 25.74846649169922 25.482955932617188 24.887845993041992
        7.980590343475342 7.129127025604248 7.095550537109375 7.6052093505859375 8.224739074707031 8.536026000976562
        8.429214477539062 8.371223449707031 8.767967224121094 9.204384803771973 8.810691833496094 8.0721435546875
        7.864616394042969 7.9287109375 7.748649597167969 7.190162658691406 6.7293314933776855 6.347846984863281
        5.8626017570495605 5.722221851348877 5.87786865234375 5.822929859161377 5.5116424560546875 5.5482635498046875
        5.4933319091796875 4.4557037353515625 3.7171554565429688 5.264442443847656 6.04876708984375 6.613358020782471
        7.699821472167969 8.1087646484375 6.631675720214844 3.6927413940429688 3.6256024837493896 5.026397228240967
        5.368202209472656 5.5940399169921875 5.645927429199219 5.252235412597656 4.962311267852783 5.5421600341796875
        5.89007568359375 6.5889434814453125 6.631675720214844 6.6164093017578125 6.631675720214844 6.900237560272217
        8.05078125 9.860527038574219 11.862541198730469 13.29386043548584 13.849297523498535 14.001891136169434
        14.578689575195312 15.781120300292969 17.053741455078125 16.943878173828125 15.176856994628906 13.235877990722656
        12.460708618164062 12.289802551269531 11.587875366210938 10.522781372070312 8.877838134765625 7.821891784667969
        8.856468200683594 10.589920043945312 11.804557800292969 12.570571899414062 12.585830688476562 12.091429710388184
        7.058929443359375 3.5431976318359375 4.354988098144531 6.00909423828125 6.09149169921875 6.5614776611328125
        3.7171552181243896 3.5554046630859375 5.557419300079346 4.922637939453125 6.277656555175781 7.3854827880859375
        7.3763275146484375 7.831047058105469 8.835105895996094 6.463821887969971 3.3784024715423584 4.7608866691589355
        7.461777210235596 11.694694519042969 13.95916748046875 15.045623779296875 7.754753589630127 5.236976623535156
        5.99993896484375 8.441421508789062 13.721122741699219 17.99371337890625 19.138160705566406 16.29993438720703
        7.428206920623779 3.933837652206421 6.717124938964844 12.106689453125 15.9459228515625 17.120880126953125
        15.036467552185059 6.4302520751953125 3.8483808040618896 4.358039855957031 5.3865203857421875 3.997924566268921
        5.5330047607421875 6.891082763671875 8.160652160644531 10.153511047363281 11.9327392578125 12.949005126953125
        12.518691062927246 11.362037658691406 9.674368858337402 8.526870727539062 8.880889892578125 10.391555786132812
        12.0120849609375 12.878814697265625 12.988677978515625 12.985626220703125 12.945953369140625 12.527848243713379
        11.383407592773438 9.92156982421875 9.414962768554688 9.530929565429688 8.999908447265625 7.095550537109375
        5.429244518280029 5.359046936035156 6.213569641113281 6.7445902824401855 6.335639953613281 6.659142017364502
        9.436326026916504 12.555313110351562 14.523756980895996 16.888946533203125 19.330421447753906 20.810569763183594
        21.329383850097656 21.573532104492188 22.21137237548828 23.194068908691406 24.106569290161133 25.095369338989258
        26.16962242126465 26.728111267089844 26.34357452392578 25.86748504638672 8.536026000976562 7.675407409667969
        7.623527526855469 8.0538330078125 8.417007446289062 8.560440063476562 8.462783813476562 8.215583801269531
        8.316291809082031 8.76491641998291 8.539077758789062 7.809685230255127 7.531967639923096 7.736442565917969
        7.6143646240234375 7.043670654296875 6.5797882080078125 6.347846984863281 6.094542980194092 6.219673156738281
        6.5828399658203125 6.643882751464844 6.4882354736328125 6.4607696533203125 6.4027862548828125 5.563521862030029
        4.266487121582031 5.1362690925598145 5.725273609161377 5.88702392578125 6.5858917236328125 7.702873229980469
        8.0904541015625 5.810722351074219 3.3326187133789062 4.4709625244140625 5.139320373535156 5.282752990722656
        5.005035400390625 5.203407287597656 5.093536376953125 5.6520304679870605 5.706962585449219 6.173896789550781
        6.231880187988281 6.167792797088623 5.893126964569092 5.279701232910156 5.94805908203125 8.05078125
        10.400711059570312 11.990723609924316 12.726219177246094 13.339638710021973 14.249091148376465 15.002899169921875
        14.597001075744629 12.775047302246094 11.633659362792969 11.850334167480469 12.167733192443848 11.850334167480469
        11.368141174316406 10.827964782714844 8.749656677246094 7.5624847412109375 8.853416442871094 10.608230590820312
        12.140266418457031 13.132118225097656 13.29996395111084 12.701805114746094 9.121978759765625 5.215614318847656
        4.834129333496094 5.5146942138671875 4.989776611328125 5.050812244415283 2.7710800170898438 3.1678237915039062
        5.218666076660156 5.93280029296875 7.641838073730469 8.169807434082031 7.861564636230469 8.319343566894531
        8.413955688476562 9.085357666015625 5.310218811035156 4.202400207519531 4.4496002197265625 8.0263671875
        12.479019165039062 15.186012268066406 11.032440185546875 4.187141418457031 5.630668640136719 5.4506072998046875
        8.185066223144531 12.915435791015625 16.840110778808594 18.668176651000977 14.346749305725098 3.5065765380859375
        3.018280029296875 6.01519775390625 11.148414611816406 13.97442626953125 14.633628845214844 8.67946720123291
        3.7965011596679688 4.431289196014404 6.283760070800781 6.778160095214844 7.6113128662109375 8.291877746582031
        9.512619018554688 11.246070861816406 12.231819152832031 12.472914695739746 12.646873474121094 12.680442810058594
        11.819816589355469 10.01617431640625 8.536026000976562 8.798484802246094 10.391555786132812 11.755729675292969
        11.9510498046875 11.828971862792969 12.292854309082031 12.674339294433594 11.984619140625 10.592971801757812
        9.445480346679688 9.137245178222656 9.347816467285156 8.859519958496094 7.290870666503906 5.5299530029296875
        4.181037902832031 3.2990493774414062 3.085418701171875 3.93994140625 5.6459269523620605 7.4251556396484375
        9.997864723205566 14.349800109863281 18.539993286132812 20.578628540039062 21.176795959472656 21.295814514160156
        21.356847763061523 21.30802345275879 21.243934631347656 21.76580047607422 22.568435668945312 23.062835693359375
        23.416854858398438 24.26831817626953 8.554336547851562 7.96533203125 8.1148681640625 8.639792442321777
        8.883941650390625 8.862571716308594 8.688621520996094 8.423111915588379 8.215583801269531 8.349861145019531
        8.188117980957031 7.803581237792969 7.748649597167969 8.0172119140625 7.977538585662842 7.5197601318359375
        7.315284729003906 7.235939025878906 6.863609313964844 6.680504322052002 6.930755615234375 7.196266174316406
        7.251197814941406 6.952117443084717 6.4455108642578125 5.786308288574219 5.014191150665283 4.913483142852783
        5.246131896972656 5.212562561035156 5.249183654785156 5.633720397949219 6.646934509277344 6.646934509277344
        4.165779113769531 4.806663513183594 5.169837951660156 4.971466064453125 5.011138916015625 4.974517822265625
        5.151527404785156 5.3163228034973145 5.270545482635498 5.5726776123046875 5.8198771476745605 5.89312744140625
        5.4139862060546875 4.5045318603515625 4.367195129394531 5.804618835449219 8.389541625976562 10.739463806152344
        12.076171875 12.649925231933594 12.881866455078125 11.908324241638184 8.642845153808594 6.173896789550781
        7.174903392791748 9.445480346679688 11.001922607421875 11.804557800292969 12.234870910644531 11.661124229431152
        9.167762756347656 8.172859191894531 9.088409423828125 10.290840148925781 11.651969909667969 12.799461364746094
        13.327430725097656 12.976469993591309 10.855430603027344 7.296974182128906 5.97247314453125 6.836143970489502
        7.205420970916748 4.5533599853515625 0.6805648803710938 2.880951166152954 5.4109344482421875 7.5350189208984375
        8.743552207946777 9.546188354492188 9.302040100097656 9.070098876953125 7.8768310546875 8.243049621582031
        8.902252197265625 6.280708312988281 2.7863388061523438 4.132209777832031 9.674369812011719 13.580734252929688
        13.452560424804688 6.344795227050781 4.861595153808594 5.523849964141846 5.99383544921875 7.867668628692627
        11.828970909118652 15.8848876953125 17.712942123413086 11.783195495605469 2.2675247192382812 1.034576416015625
        5.200355529785156 9.286781311035156 10.809654235839844 7.458725452423096 4.846336841583252 5.368202209472656
        6.900237560272217 8.218635559082031 8.896148681640625 8.758811950683594 9.95208740234375 12.222664833068848
        13.364051818847656 12.564468383789062 11.175881385803223 10.84932804107666 11.462752342224121 11.807609558105469
        11.282691955566406 10.483108520507812 10.199288368225098 10.599076271057129 11.102630615234375 11.151466369628906
        10.495315551757812 9.87274169921875 9.96429443359375 10.434280395507812 10.263374328613281 9.12503719329834
        8.227790832519531 8.182014465332031 8.636741638183594 9.326454162597656 9.204383850097656 7.403793811798096
        4.800559997558594 3.933837652206421 4.2847981452941895 5.5848846435546875 7.745597839355469 10.968353271484375
        14.447463989257812 17.236854553222656 19.443344116210938 21.027252197265625 21.610153198242188 21.63152313232422
        21.87261962890625 22.36701202392578 22.583694458007812 22.907196044921875 23.435165405273438 23.551130294799805
        8.099609375 7.849357604980469 8.218635559082031 8.801536560058594 9.051788330078125 8.966339111328125
        8.798484802246094 8.652000427246094 8.462783813476562 8.258308410644531 8.0538330078125 8.0172119140625
        8.230842590332031 8.398695945739746 8.191169738769531 7.7333903312683105 7.663200855255127 7.855461120605469
        7.5807952880859375 7.095550537109375 7.116912841796875 7.3915863037109375 7.196266174316406 6.5523223876953125
        5.92669677734375 5.545212268829346 5.6001434326171875 5.4933319091796875 5.340736389160156 5.029449462890625
        5.188148498535156 5.5146942138671875 6.625572681427002 6.903289794921875 5.267494201660156 4.495376110076904
        4.461807727813721 4.208503723144531 4.354988098144531 5.032501220703125 5.215613842010498 5.078277587890625
        5.050811767578125 5.316322326660156 5.5787811279296875 5.627616882324219 5.1362690925598145 4.953155040740967
        4.5838775634765625 4.196296691894531 5.8015666007995605 8.603164672851562 10.318305969238281 9.030425071716309
        5.633720397949219 2.8168563842773438 1.87994384765625 1.602218508720398 2.966399908065796 6.311225891113281
        9.98565673828125 12.485122680664062 13.336585998535156 12.295906066894531 9.732353210449219 8.526870727539062
        8.774070739746094 9.677421569824219 10.895110130310059 12.021240234375 12.826927185058594 13.113801002502441
        12.71096134185791 10.425125122070312 8.334602355957031 9.573654174804688 11.984619140625 12.601089477539062
        8.325447082519531 1.7456589937210083 6.637779235839844 9.457687377929688 9.024322509765625 9.350868225097656
        10.226753234863281 10.391554832458496 8.310188293457031 6.5462188720703125 8.215583801269531 9.094512939453125
        4.5411529541015625 1.3580703735351562 5.175940990447998 10.388503074645996 13.248085021972656 6.955169677734375
        4.4190826416015625 5.3071675300598145 5.313270568847656 5.069122314453125 6.866661071777344 11.139259338378906
        15.271461486816406 16.25415802001953 8.545181274414062 0.979644775390625 1.8402633666992188 4.660179138183594
        6.5309600830078125 5.789360523223877 5.044708251953125 5.5482635498046875 7.5228118896484375 8.832054138183594
        9.402755737304688 8.490249633789062 8.0233154296875 10.03143310546875 12.570571899414062 13.168739318847656
        11.508529663085938 9.289833068847656 8.627586364746094 9.96429443359375 12.311164855957031 13.852348327636719
        13.91949462890625 13.010040283203125 11.890013694763184 10.385452270507812 8.532974243164062 8.209480285644531
        9.167762756347656 9.784233093261719 9.649955749511719 9.097565650939941 8.76796817779541 9.091461181640625
        9.530930519104004 9.89105224609375 10.01617431640625 9.241004943847656 6.271553039550781 3.9490966796875
        3.6957929134368896 5.032501220703125 7.144386291503906 9.18302059173584 10.821861267089844 12.558364868164062
        14.798423767089844 16.840112686157227 18.20734214782715 19.562362670898438 21.082183837890625 22.02215576171875
        22.17169761657715 22.29071807861328 22.431106567382812 22.03436279296875 8.069091796875 7.812736988067627
        7.9866943359375 8.334602355957031 8.536026000976562 8.575698852539062 8.536026000976562 8.487197875976562
        8.215583801269531 8.03857421875 8.194221496582031 8.600112915039062 8.813743591308594 8.572647094726562
        7.864616394042969 7.141334533691406 7.028411865234375 7.257301330566406 7.2786641120910645 6.665245056152344
        6.253242492675781 6.469924449920654 6.7506937980651855 6.866661071777344 6.756798267364502 6.671348571777344
        6.848350524902344 6.888031005859375 6.787315845489502 5.819877624511719 5.728324890136719 6.579788684844971
        8.273567199707031 9.085357666015625 8.334602355957031 4.651023864746094 3.5615081787109375 4.01318359375
        4.3946685791015625 4.7975077629089355 5.294960021972656 5.365150451660156 5.383468151092529 5.6215057373046875
        5.710014343261719 5.545211315155029 5.288856029510498 5.355995178222656 4.4282379150390625 2.8595809936523438
        2.8138046264648438 4.858543395996094 6.646934509277344 3.6957929134368896 1.599166989326477 2.4506378173828125
        2.1973342895507812 1.8341598510742188 1.4252166748046875 3.5920255184173584 8.0233154296875 12.125007629394531
        13.91339111328125 13.281654357910156 10.498367309570312 8.0782470703125 7.742546081542969 8.725242614746094
        10.144354820251465 11.435287475585938 12.439346313476562 12.900177001953125 12.656028747558594 11.160621643066406
        9.826957702636719 11.246070861816406 13.858450889587402 16.26636505126953 16.907257080078125 12.399673461914062
        3.3234634399414062 8.987701416015625 9.595015525817871 8.08740234375 8.142341613769531 10.05889892578125
        10.248115539550781 7.223731994628906 5.4200897216796875 7.7608561515808105 8.944976806640625 4.5014801025390625
        2.2644729614257812 6.265449523925781 9.472946166992188 4.916534900665283 3.3936614990234375 3.4394381046295166
        4.080322265625 4.5808258056640625 5.767997741699219 8.563491821289062 12.848289489746094 16.687522888183594
        16.443374633789062 9.93377685546875 2.7314071655273438 2.1729202270507812 4.754783630371094 5.572678089141846
        4.324470520019531 5.136268615722656 7.5899505615234375 8.63063907623291 9.408859252929688 9.521774291992188
        8.0233154296875 8.191169738769531 9.96429443359375 11.331520080566406 10.892059326171875 8.377334594726562
        6.1525349617004395 6.05181884765625 8.520767211914062 11.374252319335938 13.226722717285156 13.550216674804688
        12.344734191894531 8.728294372558594 5.304115295410156 6.03656005859375 8.490249633789062 9.836112022399902
        9.793388366699219 9.060943603515625 8.517715454101562 8.871726989746094 9.765922546386719 10.623497009277344
        11.035491943359375 10.702842712402344 7.4709320068359375 3.946044921875 3.3936614990234375 4.779197692871094
        6.4333038330078125 7.657096862792969 8.703880310058594 9.98260498046875 11.468856811523438 12.689598083496094
        13.693656921386719 14.862509727478027 15.8818359375 16.553237915039062 16.843162536621094 16.537979125976562
        15.961181640625 15.988648414611816 8.215583801269531 7.846305847167969 7.647941589355469 7.6143646240234375
        7.708976745605469 7.8768310546875 8.05078125 8.03857421875 7.788322448730469 7.5960540771484375
        7.9012451171875 8.673361778259277 9.210487365722656 8.829002380371094 7.4343109130859375 6.811729431152344
        7.205421447753906 7.7700114250183105 7.98974609375 7.333595275878906 6.503493785858154 6.4485626220703125
        7.058929443359375 7.910400390625 8.288825988769531 8.267463684082031 8.1209716796875 8.191169738769531
        8.526870727539062 7.5289154052734375 6.5614776611328125 6.863609790802002 7.995850086212158 9.289834022521973
        10.217597961425781 5.227821350097656 2.7985458374023438 4.132209777832031 5.020294189453125 4.608292102813721
        5.108794689178467 5.5299530029296875 5.4475555419921875 5.6428751945495605 5.6031951904296875 5.136268138885498
        5.233924865722656 5.319374084472656 3.9429931640625 2.929779052734375 2.6001739501953125 2.8077011108398438
        4.0772705078125 2.2858352661132812 1.4709930419921875 2.8412704467773438 2.948089599609375 2.7893905639648438
        2.02032470703125 1.8311080932617188 4.998931407928467 9.314248085021973 11.947997093200684 12.103636741638184
        10.01922607421875 7.641838073730469 7.016205310821533 7.727287292480469 8.966339111328125 10.403762817382812
        11.767935752868652 12.622459411621094 12.512588500976562 11.587874412536621 10.864585876464844 10.739463806152344
        11.328468322753906 13.797416687011719 16.14124298095703 17.340614318847656 12.359993934631348 5.6001434326171875
        8.008056640625 7.6815104484558105 6.375320911407471 7.141334533691406 10.132148742675781 9.830009460449219
        5.2980122566223145 5.841239929199219 9.570602416992188 11.102629661560059 8.0965576171875 4.6143951416015625
        5.5970916748046875 4.367195129394531 3.2593767642974854 2.05389404296875 1.8555221557617188 3.057952880859375
        5.4261932373046875 8.655052185058594 12.439347267150879 16.31519317626953 18.887908935546875 18.31110382080078
        13.269447326660156 8.291877746582031 7.681510925292969 7.5685882568359375 5.670341491699219 5.4872283935546875
        7.757804870605469 8.655052185058594 9.512619018554688 10.226753234863281 8.572647094726562 6.930755138397217
        6.967377185821533 7.486190319061279 7.907348155975342 6.4882354736328125 4.873809337615967 4.623558044433594
        5.169837951660156 6.674400329589844 8.279670715332031 9.106719970703125 8.673362731933594 5.4048309326171875
        2.5879669189453125 3.073211669921875 5.243080139160156 7.9256591796875 9.89410400390625 10.702842712402344
        10.434280395507812 9.89410400390625 9.96124267578125 10.885955810546875 11.987671852111816 12.417984008789062
        9.845268249511719 5.334632873535156 4.422134876251221 5.722221851348877 6.6011505126953125 7.251197814941406
        7.9866943359375 8.874786376953125 9.732353210449219 10.409866333007812 11.041595458984375 11.648917198181152
        12.231819152832031 13.275550842285156 14.358955383300781 14.465774536132812 13.943907737731934 13.773002624511719
        7.892089366912842 7.626579761505127 7.5685882568359375 7.422104358673096 7.217628479003906 7.4098968505859375
        7.718132019042969 7.849358081817627 8.0050048828125 8.0751953125 7.9195556640625 8.221687316894531
        8.560441017150879 8.487197875976562 7.486190319061279 7.1291279792785645 7.675407409667969 8.288825988769531
        8.474990844726562 8.0904541015625 7.528914928436279 7.181007385253906 7.5289154052734375 8.380386352539062
        8.764915466308594 8.716087341308594 8.603164672851562 8.603164672851562 8.944976806640625 8.615371704101562
        7.770012378692627 6.967376708984375 6.4790802001953125 6.897185802459717 8.584854125976562 5.905334949493408
        2.5116729736328125 4.4282379150390625 5.316322326660156 4.5808258056640625 4.5350494384765625 5.331580638885498
        5.4872283935546875 5.719169616699219 5.618453502655029 5.090485095977783 4.834129333496094 4.06201171875
        2.905364990234375 3.4180755615234375 4.623558044433594 4.870750427246094 3.970458984375 2.3957061767578125
        0.8239974975585938 2.4781038761138916 3.024383544921875 2.975555419921875 2.2827835083007812 1.8005905151367188
        2.5116729736328125 5.3712544441223145 7.837150573730469 8.560441017150879 8.337654113769531 7.934814929962158
        7.5533294677734375 7.3488545417785645 7.641838550567627 8.807640075683594 10.486160278320312 12.0853271484375
        12.866599082946777 12.656027793884277 11.96630859375 10.711997985839844 9.497360229492188 10.419021606445312
        12.979522705078125 14.075135231018066 12.033447265625 8.160652160644531 5.5909881591796875 6.750694751739502
        6.308174133300781 5.792411804199219 7.7486491203308105 10.467849731445312 7.019256114959717 4.770042419433594
        6.741539001464844 10.592971801757812 12.903228759765625 10.07415771484375 7.379378795623779 7.077239990234375
        7.809684753417969 3.326514959335327 1.605270504951477 2.2736282348632812 4.0772705078125 6.634727478027344
        10.07110595703125 13.650932312011719 16.629539489746094 17.94183349609375 17.184974670410156 15.448470115661621
        14.209418296813965 11.578721046447754 8.117919921875 6.671348571777344 8.560439109802246 10.654014587402344
        12.897125244140625 13.94696044921875 11.954102516174316 6.4577178955078125 3.7385177612304688 4.4892730712890625
        5.3804168701171875 4.693748474121094 3.1250991821289062 2.5971221923828125 3.5920255184173584 4.031494140625
        3.7690353393554688 3.8544845581054688 3.7171554565429688 2.3926544189453125 2.3407669067382812 2.829063653945923
        3.6469650268554688 5.362098693847656 7.7578043937683105 10.394607543945312 12.356941223144531 13.095489501953125
        12.906280517578125 12.646873474121094 12.878814697265625 13.104644775390625 12.237922668457031 8.340706825256348
        5.331581115722656 5.4109344482421875 6.814781188964844 7.96533203125 8.563491821289062 9.060943603515625
        9.714042663574219 10.266426086425781 10.434281349182129 10.354927062988281 10.885955810546875 12.643821716308594
        14.856407165527344 16.32740020751953 16.653953552246094 16.034423828125 7.5350189208984375 7.589951038360596
        7.9287109375 7.9683837890625 7.5411224365234375 7.4861907958984375 7.733391284942627 7.9256591796875
        8.0599365234375 8.239997863769531 8.194221496582031 7.6693034172058105 7.5136566162109375 7.995850086212158
        8.276618003845215 8.178962707519531 8.0172119140625 7.922607421875 7.8829345703125 7.8249430656433105
        7.773063659667969 7.6174163818359375 7.754753589630127 7.898192882537842 7.995850086212158 8.11181640625
        8.294929504394531 8.08740234375 8.0538330078125 8.163703918457031 7.9989013671875 7.074188232421875
        6.189155578613281 6.4455108642578125 8.203376770019531 9.149452209472656 4.5136871337890625 4.733421802520752
        5.597092151641846 4.977569580078125 4.147468566894531 4.998931884765625 5.359046936035156 5.731377124786377
        5.5848846435546875 5.087432861328125 4.3519368171691895 3.4333343505859375 2.8351666927337646 3.842277765274048
        6.247138977050781 8.374282836914062 6.881927490234375 2.6215362548828125 1.3489151000976562 2.4536893367767334
        3.2197036743164062 3.170875310897827 2.6368026733398438 2.1240921020507812 1.6998825073242188 2.4964141845703125
        4.214607238769531 4.919586181640625 5.6123504638671875 7.278663635253906 8.191169738769531 7.840202331542969
        7.4739837646484375 8.200325012207031 9.573654174804688 11.020233154296875 12.146369934082031 12.594985961914062
        12.265388488769531 11.23996639251709 10.229804992675781 10.135200500488281 9.97955322265625 7.773064136505127
        6.918548583984375 8.987702369689941 7.9256591796875 5.4780731201171875 5.99993896484375 5.5391082763671875
        5.630668640136719 8.099609375 8.163703918457031 5.200355052947998 5.432297229766846 7.220680236816406
        10.086363792419434 11.505477905273438 11.31015682220459 12.125007629394531 13.342689514160156 9.677421569824219
        2.4781033992767334 2.5177764892578125 3.2502214908599854 3.662224054336548 5.041656494140625 7.165748596191406
        10.01312255859375 13.422042846679688 15.747550964355469 16.440322875976562 16.632591247558594 15.887940406799316
        13.901183128356934 9.048736572265625 9.186073303222656 11.560410499572754 15.097502708435059 17.224647521972656
        16.638694763183594 13.238929748535156 10.318305969238281 9.500411987304688 7.4983978271484375 3.909424066543579
        3.6805343627929688 3.970458745956421 3.6164398193359375 2.914520263671875 2.5818634033203125 2.3682327270507812
        2.09356689453125 2.2186965942382812 3.988769292831421 4.962310791015625 5.4078826904296875 5.5238494873046875
        6.378372669219971 8.594009399414062 11.490220069885254 13.812675476074219 15.009002685546875 15.158546447753906
        15.079194068908691 15.402695655822754 15.826896667480469 15.29892635345459 13.602096557617188 11.551255226135254
        10.638755798339844 10.678428649902344 10.623497009277344 9.686576843261719 8.829002380371094 9.006011962890625
        9.695732116699219 10.083313941955566 10.623497009277344 12.549209594726562 15.887939453125 18.820762634277344
        20.0140380859375 19.452497482299805 7.5350189208984375 7.849357604980469 8.276618957519531 8.374282836914062
        8.032470703125 7.657096862792969 7.5472259521484375 7.5289154052734375 7.693718433380127 8.069091796875
        8.1148681640625 7.953124523162842 8.383438110351562 8.899201393127441 9.167762756347656 9.067046165466309
        8.453628540039062 7.971435546875 7.885986804962158 7.861564636230469 7.644889831542969 7.3671650886535645
        7.272560119628906 7.217628479003906 7.226783752441406 7.5197601318359375 7.687614440917969 6.903289794921875
        6.5157012939453125 6.6316752433776855 6.6805033683776855 6.381424427032471 6.4668731689453125 7.599105358123779
        9.408859252929688 11.407821655273438 9.259315490722656 5.099639892578125 5.758842468261719 5.652030944824219
        4.800559997558594 5.059967041015625 5.3956756591796875 5.7435832023620605 5.188148498535156 4.422133922576904
        3.9185791015625 3.7842941284179688 3.4272305965423584 4.0162353515625 4.8554911613464355 6.900237560272217
        8.499404907226562 3.939941644668579 1.4496307373046875 2.10272216796875 2.6398544311523438 2.8473739624023438
        2.6612167358398438 2.2827835083007812 1.7456587553024292 1.4557342529296875 2.1240921020507812 2.4781038761138916
        3.033538818359375 4.681541442871094 6.775108337402344 7.489242076873779 7.388534069061279 7.681510925292969
        8.487197875976562 9.329505920410156 10.101622581481934 10.916473388671875 10.66622257232666 9.485153198242188
        8.963287353515625 10.214546203613281 10.464797973632812 5.285804748535156 4.293952941894531 6.854454040527344
        9.283729553222656 5.3895721435546875 4.922637939453125 5.233924865722656 4.837181091308594 5.92974853515625
        7.6021575927734375 6.344795227050781 5.893127918243408 6.286811828613281 7.348854064941406 7.8829345703125
        8.313240051269531 9.457687377929688 11.624504089355469 13.138221740722656 9.225746154785156 2.978607177734375
        3.039642095565796 1.9989622831344604 1.8311080932617188 1.5076141357421875 3.064056396484375 7.818840026855469
        12.994781494140625 15.726188659667969 16.644798278808594 16.21753692626953 14.261299133300781 9.381393432617188
        8.572646141052246 9.518722534179688 11.947998046875 14.08428955078125 14.435256958007812 14.007996559143066
        14.545120239257812 15.268409729003906 13.88287353515625 6.5492706298828125 1.5686492919921875 1.5778045654296875
        2.1454544067382812 1.9287718534469604 2.3163528442382812 1.593063473701477 1.8036422729492188 3.9796142578125
        6.5126495361328125 7.9378662109375 8.0843505859375 6.649986743927002 5.1454243659973145 6.082335948944092
        8.505508422851562 11.484115600585938 14.09954833984375 15.247047424316406 15.106658935546875 14.893035888671875
        15.161598205566406 15.518660545349121 15.659049987792969 15.729240417480469 15.848258972167969 15.839103698730469
        16.1473445892334 15.99169921875 13.95306396484375 10.913422584533691 9.311195373535156 9.082305908203125
        9.375289916992188 10.995819091796875 14.404739379882812 17.63665008544922 19.037445068359375 18.982513427734375
        7.669303894042969 7.9927978515625 8.249153137207031 8.294929504394531 8.069091796875 7.553329944610596
        7.3763275146484375 7.754753112792969 8.124031066894531 8.169807434082031 7.9927978515625 8.0751953125
        8.468888282775879 8.890045166015625 9.021270751953125 8.966338157653809 8.691673278808594 8.532974243164062
        8.569595336914062 8.432266235351562 7.989746570587158 7.370216369628906 6.915496826171875 6.894134998321533
        6.8117289543151855 7.300025939941406 7.5106048583984375 6.375320911407471 5.4322967529296875 4.907379150390625
        5.136268615722656 5.4475555419921875 5.798515319824219 6.765953063964844 8.441421508789062 10.217597961425781
        10.190132141113281 6.491287708282471 5.212562561035156 5.8076701164245605 5.97552490234375 5.4750213623046875
        5.316322326660156 5.4963836669921875 4.651023864746094 3.8300704956054688 3.4730072021484375 3.4485933780670166
        3.775139093399048 3.8666915893554688 3.7018966674804688 4.0162353515625 6.3844757080078125 4.943999767303467
        1.110870361328125 1.7334518432617188 1.98980712890625 2.3377151489257812 2.5330352783203125 2.4231719970703125
        2.09967041015625 1.7731248140335083 1.7212448120117188 1.88299560546875 2.01727294921875 2.2522659301757812
        3.6469650268554688 4.754783630371094 4.855491638183594 4.983673095703125 5.4475555419921875 5.740531921386719
        5.98773193359375 6.845299243927002 6.826988220214844 5.5146942138671875 4.895172119140625 7.437362194061279
        10.608230590820312 7.245094299316406 4.0528564453125 4.858543395996094 6.845299243927002 5.014190196990967
        4.165779113769531 4.980621337890625 4.696800231933594 4.861595153808594 6.3264851570129395 6.860557556152344
        6.707969665527344 6.5065460205078125 7.4526214599609375 8.346809387207031 6.881927490234375 4.800559997558594
        5.6062469482421875 9.393600463867188 12.198249816894531 8.746604919433594 4.721214294433594 2.5971221923828125
        1.4465789794921875 0.6103668212890625 0.5798492431640625 2.929779052734375 7.882935047149658 12.527847290039062
        14.920501708984375 14.331489562988281 11.426132202148438 6.900238513946533 6.180000305175781 6.02435302734375
        7.098601818084717 7.910400390625 8.572647094726562 10.187080383300781 12.665184020996094 15.106657981872559
        16.693626403808594 16.0313720703125 10.757774353027344 5.719169616699219 3.2837905883789062 2.1759719848632812
        1.8066940307617188 0.8392563462257385 1.6693649291992188 4.660179138183594 7.278663635253906 9.448532104492188
        10.867637634277344 10.208442687988281 6.149482727050781 3.5950775146484375 4.278694152832031 6.7751078605651855
        10.11688232421875 12.936798095703125 13.367103576660156 11.447494506835938 9.591964721679688 10.092469215393066
        12.796409606933594 15.717033386230469 17.615280151367188 18.454544067382812 19.412826538085938 20.538955688476562
        20.554214477539062 19.452499389648438 17.368080139160156 14.236885070800781 11.450547218322754 10.605178833007812
        11.450546264648438 13.000885009765625 14.725181579589844 16.092409133911133 7.5136566162109375 7.763908386230469
        8.105712890625 8.206428527832031 8.08740234375 7.818840026855469 7.715080261230469 8.0721435546875
        8.478041648864746 8.606216430664062 8.362068176269531 7.995849609375 7.843254089355469 7.974487781524658
        8.212532043457031 8.514663696289062 8.70998477935791 8.865623474121094 8.832054138183594 8.682518005371094
        8.377334594726562 7.812736511230469 7.162696838378906 7.214576721191406 7.2267842292785645 7.4343109130859375
        7.007050037384033 5.526901721954346 4.760887145996094 4.4618072509765625 4.773094177246094 5.142372131347656
        5.4170379638671875 5.819877624511719 6.6133575439453125 8.0263671875 8.67031192779541 6.149482727050781
        4.654075622558594 5.520798206329346 6.234931945800781 6.03961181640625 5.319374084472656 5.121002674102783
        4.0589599609375 3.3173601627349854 3.4211275577545166 3.3631362915039062 3.6133880615234375 3.6744306087493896
        3.5554046630859375 2.984710693359375 3.265479803085327 3.3112564086914062 1.083404541015625 1.1841201782226562
        1.88299560546875 2.2125930786132812 2.2553176879882812 2.2614212036132812 2.2858352661132812 2.2370071411132812
        2.2400588989257812 2.3651809692382812 2.3926544189453125 2.05389404296875 1.6357954740524292 1.5137176513671875
        1.2878799438476562 1.3122940063476562 1.4099578857421875 0.915557861328125 0.7812729477882385 1.6815719604492188
        2.5696561336517334 2.3041458129882812 2.4964141845703125 4.770042419433594 8.06298828125 7.818840026855469
        4.730369567871094 4.165779113769531 4.693748474121094 4.165779113769531 4.181037902832031 4.751731872558594
        4.983673095703125 4.889068603515625 5.5726776123046875 6.878875732421875 7.2359395027160645 6.225776672363281
        7.141334533691406 9.640800476074219 7.715080261230469 2.2980422973632812 1.6724166870117188 4.4465484619140625
        7.275611877441406 8.157600402832031 7.669303894042969 6.10980224609375 3.4180755615234375 1.3702774047851562
        1.2665176391601562 1.4923553466796875 3.2136001586914062 6.952117919921875 10.577713012695312 11.9876708984375
        10.733360290527344 5.5604705810546875 4.278694152832031 4.055908679962158 3.1586685180664062 2.899261474609375
        3.4333341121673584 5.829032897949219 9.442429542541504 13.180946350097656 15.463729858398438 16.678367614746094
        17.184974670410156 16.879791259765625 13.93780517578125 7.028411865234375 1.8463668823242188 1.3916473388671875
        3.7324142456054688 5.670341491699219 6.4912872314453125 7.348854064941406 9.274574279785156 10.925628662109375
        9.87884521484375 7.071136474609375 4.5747222900390625 4.068114757537842 5.731376647949219 8.178962707519531
        9.283729553222656 7.953125 5.99078369140625 6.1403279304504395 9.076202392578125 12.939848899841309
        16.0374755859375 17.85027313232422 18.573562622070312 18.951995849609375 19.837026596069336 20.883821487426758
        20.688499450683594 19.006927490234375 17.062896728515625 15.665153503417969 14.633628845214844 14.456619262695312
        15.237892150878906 16.12293243408203 7.751701354980469 7.730339050292969 7.782218933105469 7.821891784667969
        7.959228515625 8.0477294921875 8.01416015625 8.133186340332031 8.319343566894531 8.590957641601562
        8.767967224121094 8.676414489746094 8.218635559082031 7.818840026855469 7.953125 8.377334594726562
        8.520767211914062 8.297981262207031 8.270515441894531 8.389541625976562 8.664207458496094 8.661155700683594
        8.218635559082031 7.864616394042969 7.690666198730469 7.3213887214660645 6.2746052742004395 4.727317810058594
        4.4831695556640625 4.803611755371094 5.117950439453125 5.4139862060546875 5.758842468261719 5.850395202636719
        5.5696258544921875 5.5513153076171875 5.856498718261719 5.075225353240967 4.983672618865967 5.5055389404296875
        5.5970916748046875 5.4231414794921875 5.142372131347656 4.895172119140625 3.89111328125 3.076263427734375
        3.1525650024414062 3.3448259830474854 3.302100896835327 3.3021011352539062 3.3082046508789062 2.7130966186523438
        2.03558349609375 1.5717010498046875 1.1291885375976562 1.0376282930374146 1.1322402954101562 2.01727294921875
        2.2125930786132812 2.10577392578125 1.95318603515625 1.6785202026367188 1.4648895263671875 1.6968307495117188
        2.4323272705078125 2.7314069271087646 2.3865506649017334 1.9165648221969604 1.614425778388977 1.446578860282898
        1.2512588500976562 1.2115861177444458 1.1993789672851562 0.5981597304344177 0.6134185791015625 1.6815719604492188
        3.3814544677734375 4.330573558807373 5.4078826904296875 6.714073181152344 5.8381876945495605 4.162727355957031
        3.8148117065429688 4.214607238769531 4.4892730712890625 4.5808258056640625 5.236976623535156 5.334632873535156
        5.017242431640625 6.00299072265625 7.193214416503906 6.3783721923828125 5.3834686279296875 6.860557556152344
        7.031464099884033 3.2288589477539062 1.1963272094726562 1.6998825073242188 2.6306991577148438 3.6439130306243896
        6.244087219238281 8.0965576171875 6.357002258300781 2.6734237670898438 1.7548141479492188 2.01422119140625
        2.3438186645507812 3.628654718399048 5.95111083984375 8.160652160644531 9.250160217285156 6.4363555908203125
        2.920624017715454 4.193244934082031 3.833122491836548 2.951141119003296 2.5391387939453125 2.4933624267578125
        4.196296691894531 7.519759654998779 10.544142723083496 12.567520141601562 14.011048316955566 15.259254455566406
        16.12293243408203 15.405746459960938 12.298957824707031 8.676414489746094 8.404800415039062 8.914459228515625
        8.362069129943848 7.348854064941406 7.150489807128906 6.946014404296875 7.162696838378906 8.246101379394531
        9.149452209472656 8.688621520996094 7.348854064941406 6.079284191131592 5.5299530029296875 5.5482635498046875
        5.703910827636719 6.07318115234375 6.936859607696533 8.783225059509277 11.752677917480469 14.969329833984375
        17.285682678222656 18.384353637695312 19.031341552734375 19.72411346435547 19.7027530670166 18.80855369567871
        17.294837951660156 15.503402709960938 14.575638771057129 15.094451904296875 16.19312286376953 16.959136962890625
        8.481094360351562 8.151496887207031 7.6937174797058105 7.483139514923096 7.672355651855469 7.9744873046875
        8.139289855957031 8.200325012207031 8.157600402832031 8.264411926269531 8.426162719726562 8.731345176696777
        8.917511940002441 8.697776794433594 8.490249633789062 8.68557071685791 8.676414489746094 8.203376770019531
        7.666252136230469 7.760856628417969 8.368171691894531 8.993804931640625 9.097564697265625 8.606216430664062
        8.157600402832031 7.583847522735596 6.689659118652344 5.218666076660156 4.5075836181640625 4.638816833496094
        5.047760009765625 5.5146942138671875 5.850395679473877 5.932799816131592 5.203407287597656 4.4923248291015625
        4.263435363769531 4.5808258056640625 5.4780731201171875 5.5085906982421875 4.965362548828125 4.724266052246094
        4.934844970703125 4.519790172576904 3.7018964290618896 2.8626327514648438 2.7832870483398438 3.3112564086914062
        3.5828704833984375 3.3936612606048584 3.036590576171875 2.3224563598632812 1.6632614135742188 1.3000869750976562
        1.2573623657226562 1.3061904907226562 0.8392562866210938 1.3367080688476562 1.8555221557617188 1.9714964628219604
        1.7639694213867188 1.5045623779296875 1.602218508720398 1.8646775484085083 2.3133010864257812 2.215644598007202
        1.9501343965530396 1.8433151245117188 1.7639694213867188 1.7975387573242188 1.8036423921585083 1.6571578979492188
        1.1871719360351562 0.5920562744140625 0.4547271728515625 3.2013931274414062 6.2715535163879395 5.145423889160156
        3.018280029296875 4.019287109375 5.417037487030029 4.657127380371094 3.921630859375 4.4770660400390625
        4.766990661621094 4.699851989746094 5.243080139160156 5.4719696044921875 4.773094177246094 4.715110778808594
        6.033507823944092 6.323432922363281 5.133216857910156 4.821922302246094 5.121002197265625 3.921630859375
        1.8524702787399292 0.5554351806640625 0.36621859669685364 1.3519669771194458 3.933837890625 6.845298767089844
        7.9317626953125 3.96435546875 1.98675537109375 2.142402410507202 1.8555221557617188 2.1973342895507812
        2.8168563842773438 3.3661880493164062 4.0650634765625 4.4648590087890625 2.8656842708587646 1.7426071166992188
        2.7008893489837646 3.112884521484375 3.3845062255859375 2.7619247436523438 1.3397598266601562 1.93792724609375
        3.8209152221679688 5.355995178222656 6.692710876464844 8.569595336914062 10.995819091796875 13.193153381347656
        13.779106140136719 12.479019165039062 11.935791015625 12.308113098144531 12.439346313476562 10.928680419921875
        7.6143646240234375 3.7873458862304688 3.146461248397827 4.681541442871094 7.010100841522217 9.399704933166504
        10.605178833007812 9.765922546386719 8.0721435546875 7.1962666511535645 7.226783752441406 7.522811412811279
        7.5991058349609375 7.739494323730469 8.658102989196777 10.449539184570312 12.866599082946777 15.057830810546875
        16.3335018157959 17.230749130249023 18.00897216796875 18.14020538330078 17.404708862304688 16.17786407470703
        15.356910705566406 15.570540428161621 16.495254516601562 17.117828369140625 8.951080322265625 8.581801414489746
        8.194221496582031 8.0263671875 7.934814453125 7.9622802734375 8.127082824707031 8.276618957519531
        8.368171691894531 8.423110961914062 8.459732055664062 8.474990844726562 8.609268188476562 8.862571716308594
        8.807640075683594 8.76796817779541 8.944976806640625 9.054841041564941 8.264411926269531 7.5716400146484375
        7.8371500968933105 8.645896911621094 9.128089904785156 8.880889892578125 8.441421508789062 8.136238098144531
        7.815788269042969 6.6194610595703125 5.136268615722656 4.4373931884765625 4.623558044433594 5.163734436035156
        5.4292449951171875 5.4567108154296875 5.188148498535156 4.647972106933594 4.2085041999816895 4.672386169433594
        5.3987274169921875 5.175941467285156 4.815818786621094 4.937896728515625 5.172889709472656 4.193244934082031
        3.5431976318359375 2.935882806777954 2.7893905639648438 3.082366704940796 3.3356704711914062 3.2502212524414062
        3.042694091796875 2.3133010864257812 1.5991668701171875 1.510666012763977 1.4618377685546875 1.3397599458694458
        1.1352921724319458 1.095611572265625 1.3275527954101562 1.6724166870117188 1.9135130643844604 2.3316116333007812
        2.8015975952148438 2.6764755249023438 2.5543975830078125 2.2461624145507812 1.8219528198242188 1.7975388765335083
        1.7029342651367188 1.7395553588867188 1.6327438354492188 1.3061904907226562 0.885040283203125 0.939971923828125
        1.1902236938476562 3.4241790771484375 5.789360523223877 4.654075622558594 2.3743438720703125 2.7893905639648438
        4.5197906494140625 5.310218811035156 4.699851989746094 4.654075622558594 4.681541442871094 4.913482666015625
        5.194252014160156 5.3743133544921875 5.188148498535156 4.5991363525390625 4.824974060058594 5.4689178466796875
        5.4475555419921875 4.660179138183594 4.257331848144531 4.06201171875 2.6062774658203125 0.8178940415382385
        0.4852447509765625 1.449630618095398 3.2746353149414062 5.6184539794921875 7.876831531524658 6.195259094238281
        3.4333343505859375 2.2248001098632812 1.7304000854492188 1.5198211669921875 0.991851806640625 1.013214111328125
        0.6408920288085938 0.5371246337890625 1.019317626953125 0.8575668931007385 1.92572021484375 2.1607131958007812
        2.6215362548828125 2.7100448608398438 1.6968306303024292 0.7690658569335938 0.988800048828125 1.6510543823242188
        1.4709930419921875 2.00811767578125 4.681541442871094 7.293921947479248 7.950072765350342 7.657096862792969
        8.740501403808594 11.236915588378906 13.776054382324219 15.005950927734375 13.766900062561035 9.96124267578125
        7.4404144287109375 6.4638214111328125 5.88397216796875 5.5482635498046875 6.268501281738281 7.89208984375
        9.094512939453125 9.219642639160156 8.587905883789062 8.569595336914062 9.598069190979004 10.348823547363281
        10.156562805175781 9.90325927734375 10.284736633300781 11.288795471191406 12.997833251953125 15.070037841796875
        16.574600219726562 17.184974670410156 17.249061584472656 16.714988708496094 15.732292175292969 15.634635925292969
        16.754661560058594 17.267372131347656 9.537033081054688 9.039581298828125 8.777122497558594 8.655052185058594
        8.438369750976562 8.276618957519531 8.334602355957031 8.468887329101562 8.545181274414062 8.627585411071777
        8.737449645996094 8.706932067871094 8.594008445739746 8.587905883789062 8.645896911621094 8.426162719726562
        8.426163673400879 8.917511940002441 9.039582252502441 8.499404907226562 8.0751953125 8.249153137207031
        8.670310974121094 8.618423461914062 8.172859191894531 7.885986328125 7.1688008308410645 6.216621398925781
        5.4597625732421875 4.724266052246094 4.348884582519531 4.5930328369140625 4.980620861053467 5.291908264160156
        5.310218811035156 4.971466064453125 4.641868591308594 5.008087158203125 5.4322967529296875 5.4658660888671875
        5.5299530029296875 5.719169616699219 5.4994354248046875 4.144416809082031 3.4760589599609375 3.1922378540039062
        2.984710931777954 2.954193353652954 2.926727294921875 2.8443222045898438 2.990814208984375 2.4384307861328125
        1.8158493041992188 1.88909912109375 1.7578659057617188 1.4679412841796875 1.4343719482421875 1.3611221313476562
        1.4252166748046875 1.6815719604492188 2.03863525390625 2.5818636417388916 2.8138043880462646 2.4872591495513916
        2.6337509155273438 2.2370071411132812 1.9531859159469604 1.99896240234375 1.9684447050094604 2.07525634765625
        1.7670211791992188 1.095611572265625 1.3275527954101562 1.8952027559280396 1.7883834838867188 1.88909912109375
        2.987762451171875 3.759880304336548 3.3387224674224854 2.8229598999023438 3.079315185546875 4.889068603515625
        5.468917369842529 4.980621337890625 4.4831695556640625 4.864646911621094 5.032501220703125 5.316322326660156
        6.189155101776123 6.5889434814453125 5.5146942138671875 5.017242431640625 5.89923095703125 5.749687194824219
        4.5808258056640625 3.8056564331054688 2.8443219661712646 1.8372116088867188 1.1993789672851562 1.602218508720398
        2.5086212158203125 4.211555480957031 6.207466125488281 6.6438822746276855 4.937896728515625 2.8138046264648438
        1.431320309638977 1.2878799438476562 1.010162353515625 0.921661376953125 1.095611572265625 1.4435272216796875
        2.04168701171875 2.8595809936523438 2.7253036499023438 2.3560256958007812 2.8534774780273438 3.3539810180664062
        2.7588729858398438 2.346870183944702 2.5360870361328125 2.8595809936523438 2.966399908065796 3.109832525253296
        3.5554046630859375 4.205451965332031 4.699851989746094 4.205451965332031 3.6927413940429688 5.026397705078125
        7.748649597167969 10.10467529296875 11.215553283691406 11.371192932128906 11.743521690368652 12.387466430664062
        11.069061279296875 6.213569164276123 3.109832763671875 3.7476727962493896 5.2491841316223145 6.341742992401123
        6.970428466796875 8.001953125 10.205390930175781 12.262337684631348 12.796409606933594 12.399673461914062
        11.606185913085938 11.066009521484375 11.517684936523438 12.561415672302246 13.669241905212402 14.990692138671875
        16.0557861328125 15.9886474609375 15.146339416503906 15.20432186126709 16.418962478637695 16.861473083496094
        9.88800048828125 9.350868225097656 8.960234642028809 8.868675231933594 8.841209411621094 8.880889892578125
        8.981597900390625 8.951080322265625 8.749656677246094 8.688621520996094 8.691672325134277 8.764915466308594
        8.932769775390625 9.088409423828125 9.134193420410156 8.75576114654541 8.163703918457031 8.209480285644531
        8.850364685058594 9.106719970703125 8.438369750976562 7.9805908203125 8.166755676269531 8.468887329101562
        8.410903930664062 7.5655364990234375 5.8198771476745605 4.748680114746094 4.690696716308594 4.5686187744140625
        4.03759765625 3.8758544921875 4.348884582519531 4.977569580078125 5.1637349128723145 5.026397705078125
        5.050811767578125 5.5452117919921875 6.189155578613281 6.6805033683776855 6.765953063964844 6.4607696533203125
        5.6947550773620605 4.333625793457031 3.6378097534179688 3.3570327758789062 3.1586685180664062 3.082366704940796
        2.8168563842773438 2.5360870361328125 2.8412702083587646 2.6703720092773438 2.3407671451568604 2.3071975708007812
        2.084411382675171 1.5503387451171875 1.6052703857421875 1.6174774169921875 1.7792282104492188 2.1973342895507812
        2.5543975830078125 2.929779052734375 3.103729248046875 2.7436139583587646 2.7558212280273438 2.3926541805267334
        2.3468704223632812 2.2949905395507812 2.09967041015625 2.1698684692382812 1.7914352416992188 1.095611572265625
        1.5167694091796875 1.7609176635742188 1.3946990966796875 1.120025634765625 1.5655975341796875 2.969451904296875
        4.3733062744140625 4.220710754394531 2.932830572128296 3.8636398315429688 4.898223876953125 5.258338928222656
        4.898224353790283 4.937896728515625 5.212562561035156 5.652030944824219 6.329536437988281 6.848350524902344
        6.5553741455078125 6.4973907470703125 8.139289855957031 8.584854125976562 5.758842468261719 3.5645599365234375
        3.4546966552734375 3.6957931518554688 3.3600845336914062 3.064056396484375 2.890106201171875 3.3356704711914062
        4.8005595207214355 5.887023448944092 5.710014343261719 4.937896728515625 2.4597933292388916 0.7019271850585938
        0.982696533203125 1.2482070922851562 1.6174774169921875 2.1393508911132812 2.3804473876953125 2.5177762508392334
        2.2705764770507812 2.7710800170898438 3.5859222412109375 3.7324142456054688 2.911468505859375 3.1525652408599854
        3.5645596981048584 3.5126802921295166 3.6408615112304688 3.6683273315429688 3.4943695068359375 3.204444646835327
        2.7314071655273438 2.00506591796875 1.522873044013977 1.89825439453125 2.941986083984375 4.803611755371094
        6.915496826171875 8.395645141601562 9.445480346679688 11.047698974609375 12.677391052246094 11.676384925842285
        8.908355712890625 6.622520923614502 6.231880187988281 7.077239513397217 7.968383312225342 8.716087341308594
        9.775077819824219 10.681480407714844 11.148414611816406 11.822868347167969 12.71096134185791 13.24503231048584
        13.144325256347656 12.582778930664062 12.601089477539062 13.351844787597656 13.769950866699219 13.693657875061035
        13.742484092712402 14.215522766113281 15.118865013122559 15.823845863342285 9.778129577636719 9.491256713867188
        9.167762756347656 9.002960205078125 8.902251243591309 8.731346130371094 8.444473266601562 8.197273254394531
        8.133186340332031 8.243050575256348 8.233894348144531 8.215583801269531 8.413954734802246 8.777122497558594
        9.167762756347656 9.314247131347656 9.021270751953125 8.368172645568848 8.182014465332031 8.542129516601562
        8.343757629394531 7.684562683105469 7.599106311798096 8.178962707519531 8.612318992614746 8.08740234375
        6.4485626220703125 4.834129810333252 4.239021301269531 3.9613037109375 3.5554046630859375 3.2227554321289062
        3.4730074405670166 4.0650634765625 4.5411529541015625 4.965363025665283 5.3743133544921875 5.94500732421875
        6.5187530517578125 6.949066162109375 7.031463623046875 6.686607360839844 5.87786865234375 4.4831695556640625
        3.7080001831054688 3.3234636783599854 3.070159912109375 3.042694091796875 2.6581649780273438 2.3804473876953125
        2.8077011108398438 2.902313470840454 2.8015975952148438 2.6490097045898438 2.2705764770507812 1.556442379951477
        1.4832000732421875 1.7822799682617188 2.3560256958007812 2.935882568359375 2.7741317749023438 2.7130966186523438
        2.978607177734375 3.027435541152954 2.8138046264648438 2.4231722354888916 2.352973699569702 2.2034378051757812
        2.1271438598632812 2.1393508911132812 1.8066940307617188 1.3061904907226562 1.602218508720398 1.5381317138671875
        1.2878799438476562 1.3672256469726562 1.5625457763671875 2.3651809692382812 4.0650634765625 5.011138439178467
        4.4831695556640625 4.126106262207031 4.129158020019531 5.053863525390625 5.4475555419921875 5.636772155761719
        6.381423473358154 6.924652099609375 6.5492706298828125 4.4740142822265625 4.785301208496094 6.695763111114502
        9.314247131347656 11.294898986816406 9.039581298828125 3.7354660034179688 2.966400146484375 4.6052398681640625
        5.310218811035156 4.910430908203125 4.1199951171875 3.7232589721679688 4.934844493865967 5.5818328857421875
        4.715110778808594 3.903320074081421 3.5065765380859375 2.252265691757202 0.9491271376609802 1.379440188407898
        1.8585737943649292 2.00506591796875 1.7303999662399292 2.05999755859375 1.4587860107421875 3.4852139949798584
        5.084381103515625 4.934844970703125 2.8443222045898438 3.076263427734375 4.4404449462890625 4.220710754394531
        2.4170684814453125 1.6998823881149292 1.7151412963867188 1.3519667387008667 0.7110824584960938 0.30518341064453125
        0.15564727783203125 0.3906402587890625 1.3397598266601562 3.4119720458984375 6.08843994140625 7.89208984375
        8.706932067871094 9.054840087890625 9.903260231018066 10.882904052734375 10.757774353027344 9.671319007873535
        8.990753173828125 9.634696960449219 10.599074363708496 11.301002502441406 12.176887512207031 13.107696533203125
        13.27860164642334 12.622459411621094 12.207406044006348 12.860496520996094 14.00494384765625 14.593948364257812
        13.98358154296875 12.149422645568848 10.589920043945312 11.084320068359375 13.077179908752441 14.517654418945312
        14.636680603027344 14.490188598632812 9.518722534179688 9.656059265136719 9.411911010742188 8.935821533203125
        8.429214477539062 8.001953125 7.602157115936279 7.4770355224609375 7.6631999015808105 7.9012451171875
        7.8768310546875 7.666252136230469 7.669303894042969 7.977538585662842 8.481094360351562 9.207435607910156
        9.787284851074219 9.497360229492188 8.700828552246094 8.474990844726562 8.569595336914062 8.0660400390625
        7.351905822753906 7.6021575927734375 8.188117980957031 8.413955688476562 7.4922943115234375 5.804618835449219
        4.5228424072265625 3.9735107421875 3.8056564331054688 3.4302825927734375 3.1952896118164062 3.5645599365234375
        4.403824329376221 5.203407287597656 5.6978068351745605 5.91754150390625 5.7527384757995605 5.670341491699219
        5.810722351074219 5.902283191680908 5.5391082763671875 4.339728832244873 3.4791107177734375 3.1495132446289062
        2.945037841796875 2.914520263671875 2.5757598876953125 2.3865509033203125 2.7008895874023438 2.7802352905273438
        2.8321151733398438 2.5788116455078125 2.10577392578125 1.4923553466796875 1.2298965454101562 1.7487107515335083
        2.8229598999023438 3.5706634521484375 3.176978826522827 2.8168563842773438 2.993865966796875 3.3967132568359375
        3.3204116821289062 2.4903106689453125 2.01422119140625 2.00811767578125 2.1607134342193604 2.2095413208007812
        2.08441162109375 1.7120896577835083 1.6541061401367188 1.5411834716796875 1.6235885620117188 1.9837037324905396
        1.8158494234085083 2.09051513671875 2.957244873046875 3.640861749649048 5.102691650390625 5.4628143310546875
        4.150520324707031 4.248176574707031 5.102691650390625 6.2471394538879395 7.5685882568359375 8.484146118164062
        8.554336547851562 5.639823913574219 2.7527694702148438 4.5197906494140625 7.5807952880859375 10.559402465820312
        11.166726112365723 5.868705749511719 3.167823553085327 3.9735107421875 4.947052001953125 5.108795166015625
        4.763938903808594 4.6693339347839355 5.5818328857421875 5.4170379638671875 3.2959976196289062 2.4140167236328125
        4.126106262207031 5.835136413574219 3.7324142456054688 1.3794403076171875 1.4221649169921875 2.05694580078125
        2.3682327270507812 2.2492141723632812 0.8270492553710938 4.309211730957031 6.640830993652344 7.037567138671875
        4.870750427246094 4.4526519775390625 6.204414367675781 6.03656005859375 2.4384307861328125 0.28992462158203125
        0.6012115478515625 0.7446517944335938 0.4974517822265625 0.22888946533203125 0.3875885009765625 0.973541259765625
        2.1393508911132812 3.6103363037109375 5.291908264160156 7.037566661834717 8.609268188476562 9.524826049804688
        9.665214538574219 8.871726989746094 7.6021575927734375 6.808677673339844 7.1230244636535645 8.948028564453125
        11.13620662689209 12.695701599121094 14.142281532287598 15.701775550842285 16.547134399414062 16.18091583251953
        14.783164024353027 13.147377014160156 12.79946231842041 13.92864990234375 14.597000122070312 13.238929748535156
        11.371192932128906 11.261329650878906 13.116851806640625 15.472885131835938 16.660057067871094 16.910308837890625
        9.857476234436035 10.162666320800781 9.87579345703125 9.271522521972656 8.609268188476562 8.139289855957031
        7.879883289337158 7.855461120605469 8.105712890625 8.294928550720215 8.117919921875 7.843254089355469
        7.7486491203308105 7.757805347442627 7.89208984375 8.322395324707031 9.006011962890625 9.692680358886719
        9.744560241699219 9.295936584472656 8.905303955078125 8.505508422851562 7.8157877922058105 7.5441741943359375
        7.898193836212158 8.178962707519531 7.361061096191406 6.09759521484375 5.270545959472656 4.803611755371094
        4.657127380371094 4.358039855957031 3.765983819961548 3.6622235774993896 4.342781066894531 5.114898681640625
        5.435348987579346 5.230873107910156 4.751731872558594 4.6204986572265625 4.644920349121094 4.837181091308594
        4.998931884765625 4.367195129394531 3.4760591983795166 3.2105484008789062 3.137305974960327 3.012176513671875
        2.7436141967773438 2.6398544311523438 2.6764755249023438 2.6093292236328125 2.5696561336517334 2.2553176879882812
        1.8463670015335083 1.6724168062210083 1.3519668579101562 1.9135130643844604 3.030487060546875 3.857536554336548
        4.0040283203125 3.7598800659179688 3.7690353393554688 4.2237629890441895 4.116943359375 3.067108154296875
        1.8585739135742188 1.7487106323242188 2.1485061645507812 2.3499221801757812 2.3957061767578125 2.4872589111328125
        2.01116943359375 1.6388473510742188 1.9623411893844604 2.2064895629882812 1.8036421537399292 1.98980712890625
        2.4262239933013916 2.6734235286712646 3.976562261581421 5.404831409454346 4.345832824707031 3.6042327880859375
        4.4984283447265625 6.027404308319092 7.318336486816406 8.520767211914062 9.98260498046875 10.02532958984375
        5.93280029296875 4.925689697265625 6.704917907714844 8.810690879821777 11.566512107849121 9.805595397949219
        5.453658580780029 3.2746353149414062 3.7049484252929688 4.254280090332031 4.321418762207031 4.232917785644531
        4.4038238525390625 4.126106262207031 3.076263427734375 2.5757598876953125 3.9613037109375 6.5706329345703125
        6.988739013671875 6.888031005859375 7.232887268066406 7.135231018066406 5.969420909881592 2.7161483764648438
        1.486251711845398 4.577774524688721 7.2573018074035645 8.716087341308594 8.902252197265625 8.243049621582031
        6.5309600830078125 4.5258941650390625 3.6164398193359375 2.3773956298828125 1.095611572265625 0.4608307182788849
        0.4486236572265625 0.5218658447265625 1.5411834716796875 2.905365228652954 4.168830871582031 3.9521484375
        3.4241790771484375 4.193244934082031 5.801567077636719 7.098602294921875 7.922607421875 7.898193359375
        6.7873148918151855 5.7557902336120605 5.93890380859375 7.129127025604248 8.792381286621094 10.229804992675781
        11.127052307128906 12.009033203125 13.434249877929688 15.091400146484375 16.211435317993164 16.138193130493164
        14.978485107421875 13.32742977142334 11.685539245605469 11.008027076721191 11.743521690368652 12.955108642578125
        14.05682373046875 15.680412292480469 17.57866096496582 19.27243995666504 9.595016479492188 9.848320007324219
        9.863578796386719 9.591964721679688 9.018218994140625 8.673361778259277 8.652000427246094 8.810691833496094
        8.847312927246094 8.609268188476562 8.331550598144531 8.255256652832031 8.273567199707031 8.0965576171875
        7.9683837890625 8.224739074707031 8.633688926696777 9.125038146972656 9.390548706054688 9.314247131347656
        9.063996315002441 8.911407470703125 8.578750610351562 8.212532043457031 8.03857421875 7.922607421875
        7.177955627441406 6.1830525398254395 5.676445007324219 5.206459045410156 4.709007263183594 4.284797668457031
        3.8697433471679688 3.4241793155670166 3.4760589599609375 3.946045160293579 4.4343414306640625 4.4618072509765625
        4.266486644744873 4.354988098144531 4.184089660644531 4.324470520019531 4.788352966308594 4.4099273681640625
        3.5981290340423584 3.5065765380859375 3.4669036865234375 3.3143081665039062 3.286842107772827 3.3204119205474854
        3.2288589477539062 3.015228271484375 2.5605013370513916 2.05694580078125 1.7426071166992188 1.97149658203125
        1.9470824003219604 2.5238800048828125 3.323463201522827 3.9765625 4.626610279083252 5.117949962615967
        4.922637939453125 4.138313293457031 3.8544843196868896 3.4058685302734375 2.1637649536132812 1.8189010620117188
        2.1729202270507812 2.4628448486328125 2.5605010986328125 2.7008895874023438 2.2614212036132812 1.7242965698242188
        1.9989622831344604 2.1607134342193604 1.8677291870117188 2.1362991333007812 2.4658966064453125 2.6642684936523438
        3.5004730224609375 4.312263488769531 4.1077880859375 3.7141036987304688 4.5442047119140625 5.630668640136719
        6.4058380126953125 7.003997802734375 7.96533203125 9.94293212890625 10.354926109313965 9.860527038574219
        8.462783813476562 7.315284729003906 9.98260498046875 12.402725219726562 10.550247192382812 4.757835388183594
        2.3285598754882812 3.323463201522827 3.8117599487304688 3.045745849609375 2.4536895751953125 2.2949905395507812
        2.963348388671875 4.455704212188721 6.906341552734375 10.165718078613281 11.468856811523438 11.352882385253906
        11.511580467224121 11.737419128417969 12.247076988220215 10.898162841796875 7.571640491485596 5.5177459716796875
        6.854454040527344 8.417007446289062 10.916473388671875 12.628561973571777 11.392562866210938 6.5980987548828125
        3.210548162460327 4.4434967041015625 5.316322326660156 3.3997650146484375 1.7212448120117188 1.98065185546875
        2.987762689590454 3.833122491836548 4.348884582519531 4.0101318359375 2.935882568359375 2.5666046142578125
        3.3753509521484375 4.367195129394531 5.111846923828125 5.5421600341796875 5.926696300506592 5.792411804199219
        5.240028381347656 5.658134460449219 6.778160572052002 8.0050048828125 9.042633056640625 10.205391883850098
        11.960206031799316 14.215522766113281 16.693626403808594 18.817710876464844 19.62645721435547 18.555253982543945
        15.405746459960938 11.185035705566406 8.749656677246094 9.405807495117188 11.947998046875 15.124977111816406
        18.14020347595215 20.587783813476562 8.764915466308594 9.176918029785156 9.601119995117188 9.506515502929688
        9.216590881347656 9.222694396972656 9.366127014160156 9.363076210021973 9.103668212890625 8.703880310058594
        8.517715454101562 8.471939086914062 8.468887329101562 8.398696899414062 8.249153137207031 8.310188293457031
        8.655052185058594 8.960235595703125 9.140297889709473 9.146400451660156 9.067046165466309 9.103668212890625
        9.32034969329834 9.26846981048584 8.523818969726562 7.818840026855469 7.177955627441406 6.259346008300781
        5.633720397949219 5.282752990722656 4.867698669433594 4.303108215332031 3.7293624877929688 3.1647720336914062
        2.969451904296875 3.048797607421875 3.4272308349609375 3.878906011581421 4.187141418457031 4.330574035644531
        4.174934387207031 4.306159973144531 4.635765075683594 4.126106262207031 3.5828704833984375 3.8178632259368896
        4.0101318359375 4.1779866218566895 4.293952941894531 4.3519368171691895 4.251228332519531 3.87890625
        2.975555419921875 2.10577392578125 2.03558349609375 2.4994657039642334 2.880950689315796 3.036590576171875
        3.5615081787109375 4.232917785644531 4.889068603515625 5.652030944824219 5.5238494873046875 3.6225509643554688
        2.978606939315796 2.902313232421875 2.3224563598632812 2.10577392578125 2.3804473876953125 2.4720001220703125
        2.5177767276763916 2.6215362548828125 2.2278521060943604 1.7517622709274292 1.8646774291992188 2.1942825317382812
        2.3102493286132812 2.5666043758392334 2.7863388061523438 3.1708755493164062 3.6225509643554688 3.689689874649048
        3.7354660034179688 3.9124755859375 4.6021881103515625 5.240028381347656 5.865653991699219 6.02435302734375
        5.642876148223877 6.967376232147217 9.527877807617188 11.328468322753906 9.317298889160156 6.335639953613281
        7.776115417480469 11.053802490234375 13.431198120117188 10.333564758300781 4.025390625 2.2827835083007812
        2.877899169921875 3.021331787109375 3.5920257568359375 4.693748474121094 6.4546661376953125 8.764915466308594
        11.542098045349121 13.879822731018066 14.847251892089844 13.522750854492188 9.979552268981934 8.829002380371094
        11.645866394042969 14.349800109863281 12.912384986877441 7.8707194328308105 7.162696361541748 7.5136566162109375
        8.841209411621094 11.572616577148438 13.345742225646973 11.26743221282959 6.631675720214844 5.95721435546875
        7.6174163818359375 6.692711353302002 3.6774823665618896 2.4781036376953125 2.7466659545898438 3.076263666152954
        3.1464614868164062 3.1373062133789062 3.4363861083984375 4.254280090332031 5.4322967529296875 6.106750965118408
        5.066071033477783 4.278694152832031 5.188148498535156 6.8330912590026855 6.997894287109375 5.734428405761719
        5.346839904785156 5.93890380859375 6.750694274902344 7.779167175292969 9.241004943847656 11.169776916503906
        13.528854370117188 16.037473678588867 18.06695556640625 19.440292358398438 20.0537109375 19.162574768066406
        15.707878112792969 11.450546264648438 10.440383911132812 12.591934204101562 15.616317749023438 18.08221435546875
        8.880890846252441 9.363075256347656 9.756768226623535 9.549240112304688 9.216590881347656 9.237954139709473
        9.347816467285156 9.323403358459473 9.18912410736084 9.051788330078125 8.883941650390625 8.685569763183594
        8.630638122558594 8.789329528808594 8.822898864746094 8.703880310058594 8.587905883789062 8.603163719177246
        8.716087341308594 8.700828552246094 8.652000427246094 8.844261169433594 9.247109413146973 9.411911010742188
        8.856467247009277 7.9927978515625 7.107757568359375 6.295966625213623 5.92669677734375 5.89923095703125
        5.978576183319092 5.798515319824219 5.136268615722656 4.1138916015625 3.5065765380859375 3.082366943359375
        2.8687362670898438 3.2349624633789062 3.8453292846679688 4.223762512207031 4.205451965332031 4.144416809082031
        4.251228332519531 4.06201171875 4.0498046875 4.4404449462890625 4.782249450683594 4.7669901847839355
        4.626609802246094 4.843284606933594 4.992828369140625 4.574721813201904 3.4272308349609375 2.5177764892578125
        2.5482940673828125 2.780235528945923 3.2837905883789062 3.3387224674224854 3.7873456478118896 4.5106353759765625
        4.950103759765625 5.716118335723877 6.07318115234375 4.132209777832031 2.6123809814453125 2.4323272705078125
        2.3926544189453125 2.4506378173828125 2.5452423095703125 2.4842071533203125 2.5391385555267334 2.7039413452148438
        2.5086212158203125 2.1454544067382812 2.00506591796875 2.4079132080078125 2.841270685195923 3.073211431503296
        3.170875310897827 3.5950775146484375 3.8056564331054688 3.6256027221679688 3.7537765502929688 4.080322265625
        4.654075622558594 5.221717357635498 5.368202209472656 5.471970081329346 5.514694690704346 6.02130126953125
        7.763908386230469 9.561447143554688 8.178962707519531 6.216621398925781 6.100646495819092 8.03857421875
        10.907318115234375 13.220619201660156 11.496322631835938 5.2644429206848145 1.6418992280960083 2.6856307983398438
        5.142372131347656 6.799522399902344 7.696769714355469 8.829002380371094 10.135200500488281 11.087371826171875
        11.313209533691406 9.701835632324219 5.92364501953125 4.165779113769531 5.371253967285156 7.058929920196533
        7.1840596199035645 6.08233642578125 6.6255717277526855 6.979583740234375 7.248146057128906 8.435317993164062
        10.287788391113281 10.831016540527344 8.386489868164062 6.744590759277344 7.614365100860596 7.5685882568359375
        4.1749348640441895 1.525924563407898 1.3153457641601562 2.7771835327148438 4.553360462188721 5.819877624511719
        5.758842468261719 6.1281208992004395 8.334602355957031 11.090423583984375 11.603135108947754 9.070098876953125
        5.685600280761719 4.980621337890625 6.5401153564453125 7.9622802734375 7.824943542480469 7.028411865234375
        6.5645294189453125 6.662193298339844 7.318336486816406 8.468887329101562 9.96124267578125 11.535995483398438
        13.083282470703125 14.542067527770996 15.99169921875 17.404708862304688 18.36298370361328 18.03643798828125
        15.9520263671875 13.293861389160156 12.475966453552246 13.318276405334473 9.244056701660156 9.268470764160156
        9.231849670410156 8.822898864746094 8.481094360351562 8.554336547851562 8.874786376953125 9.115875244140625
        9.259315490722656 9.387496948242188 9.33255672454834 8.957182884216309 8.597061157226562 8.594009399414062
        8.819847106933594 8.816794395446777 8.603164672851562 8.624534606933594 8.923614501953125 8.966339111328125
        8.639793395996094 8.471939086914062 8.471940040588379 8.658103942871094 8.639793395996094 8.307136535644531
        7.626579284667969 7.040619373321533 6.826988220214844 6.863609313964844 7.159644603729248 7.4465179443359375
        7.049774169921875 5.8687052726745605 4.742576599121094 3.8636398315429688 3.042694091796875 2.926727294921875
        3.3387224674224854 3.9368896484375 4.11083984375 3.9063720703125 3.982666015625 4.4618072509765625
        4.934844970703125 5.151527404785156 5.050811767578125 4.4282379150390625 3.924682855606079 4.129158020019531
        4.266487121582031 3.9979248046875 3.3326187133789062 3.1586687564849854 3.3845064640045166 3.207496404647827
        3.231910467147827 3.5950775146484375 4.1138916015625 4.678489685058594 4.632713317871094 5.471969127655029
        6.4119415283203125 5.835136413574219 3.7415695190429688 2.2736282348632812 2.3957061767578125 2.896209716796875
        2.7619247436523438 2.7436141967773438 2.999969482421875 3.3539810180664062 3.326514959335327 3.018280029296875
        2.5818631649017334 2.7222518920898438 3.1556167602539062 3.3845062255859375 3.4638516902923584 3.823967218399048
        4.007080078125 4.019287109375 4.168830871582031 4.483169078826904 4.950104236602783 5.4292449951171875
        5.5818328857421875 5.798515319824219 6.10980224609375 6.289863586425781 6.3844757080078125 7.8646159172058105
        8.069091796875 8.032470703125 7.046722412109375 7.318336486816406 8.380386352539062 11.050750732421875
        13.861502647399902 12.671287536621094 5.92974853515625 0.6653061509132385 1.8768922090530396 4.5899810791015625
        5.4902801513671875 5.99383544921875 7.2664570808410645 8.459732055664062 7.034515380859375 3.6652755737304688
        1.6571578979492188 1.2024307250976562 1.8799439668655396 2.8321151733398438 3.683586359024048 3.3387224674224854
        3.8209152221679688 5.279701232910156 6.256294250488281 6.961273193359375 8.224739074707031 9.88800048828125
        9.143348693847656 6.323432922363281 5.713066101074219 5.8687052726745605 3.4821624755859375 1.7609175443649292
        2.5757598876953125 4.647972106933594 6.579787731170654 8.67031192779541 9.295936584472656 8.255256652832031
        7.910400390625 9.466842651367188 12.112793922424316 14.10565185546875 13.562423706054688 10.275582313537598
        7.058929443359375 6.656089782714844 8.166755676269531 9.836112976074219 10.766929626464844 10.736412048339844
        10.171822547912598 9.671319007873535 9.320350646972656 9.399703979492188 10.07110595703125 10.974456787109375
        11.9449462890625 13.031402587890625 14.505446434020996 16.577651977539062 18.387405395507812 18.26532745361328
        15.820793151855469 12.640769004821777 8.880889892578125 8.343757629394531 7.650993347167969 7.3610615730285645
        7.388534069061279 7.788322448730469 8.325448036193848 8.996856689453125 9.591963768005371 9.949036598205566
        9.92767333984375 9.463790893554688 8.957183837890625 8.679466247558594 8.697776794433594 8.813743591308594
        9.012115478515625 9.186073303222656 9.170814514160156 8.688621520996094 8.255256652832031 8.185066223144531
        8.172859191894531 8.304085731506348 8.032470703125 7.8829345703125 7.727287292480469 7.4251556396484375
        7.168800354003906 7.190162658691406 7.4465179443359375 7.647941589355469 7.257301330566406 6.350898265838623
        5.5818328857421875 4.892120361328125 3.982665777206421 3.2288589477539062 3.118988275527954 3.6591720581054688
        3.96435546875 3.827018976211548 4.031494140625 4.660179138183594 5.185096740722656 5.279701232910156
        4.937896728515625 4.239021301269531 3.6286544799804688 3.3814544677734375 3.2807388305664062 3.1403579711914062
        3.122040033340454 3.6683273315429688 4.300056457519531 4.364143371582031 3.924682855606079 3.9490966796875
        4.266487121582031 4.733421325683594 4.382462024688721 4.766990661621094 5.227821350097656 6.057921886444092
        5.5818328857421875 3.2380144596099854 2.6276473999023438 3.131202459335327 3.1525650024414062 3.2227554321289062
        3.3387224674224854 3.869743585586548 3.836174249649048 3.5767669677734375 3.231910467147827 3.2959976196289062
        3.5157318115234375 3.5584564208984375 3.6256027221679688 3.967407464981079 4.217658519744873 4.3794097900390625
        4.6113433837890625 5.121002674102783 5.4841766357421875 5.7435832023620605 6.244087219238281 6.692710876464844
        6.4119415283203125 6.07012939453125 5.5879364013671875 6.5187530517578125 8.343757629394531 10.211494445800781
        10.388504028320312 10.330513000488281 9.546188354492188 10.541092872619629 12.442398071289062 14.438308715820312
        8.239997863769531 0.4669342339038849 1.1352920532226562 1.083404541015625 2.8321151733398438 3.9674072265625
        5.774101734161377 7.315284729003906 5.383468151092529 2.8229598999023438 2.3651809692382812 1.5137176513671875
        2.3621292114257812 2.5788116455078125 2.6886825561523438 2.6856307983398438 3.3692398071289062 5.92669677734375
        8.0294189453125 7.141334533691406 5.96636962890625 8.618423461914062 11.819816589355469 11.285744667053223
        5.526900768280029 0.5981597900390625 0.8362045288085938 2.8290634155273438 4.803611755371094 6.4760284423828125
        7.791374206542969 9.292884826660156 10.702842712402344 10.809654235839844 9.555343627929688 8.377334594726562
        8.926667213439941 11.124000549316406 13.464767456054688 14.587845802307129 13.602096557617188 11.648918151855469
        9.848320007324219 9.195228576660156 10.275581359863281 12.329475402832031 14.07818603515625 14.874725341796875
        14.633627891540527 14.03546142578125 13.635673522949219 13.34574031829834 13.043609619140625 12.527847290039062
        12.158577919006348 12.775047302246094 14.398635864257812 16.27857208251953 17.062896728515625 15.604110717773438
        8.590956687927246 8.130134582519531 7.4922943115234375 6.823936939239502 6.225776195526123 6.341743469238281
        7.104705810546875 8.11181640625 9.073151588439941 9.649955749511719 9.89410400390625 9.973450660705566
        9.802543640136719 9.436325073242188 9.143348693847656 8.981597900390625 8.862571716308594 8.624534606933594
        8.337654113769531 8.383438110351562 8.709983825683594 9.021271705627441 9.079254150390625 8.999908447265625
        8.395645141601562 7.574691295623779 6.747642993927002 6.305122375488281 6.237983226776123 6.363105773925781
        6.6377787590026855 6.8117289543151855 6.622520923614502 6.201362133026123 5.862602233886719 5.426193714141846
        4.797508239746094 3.8056561946868896 3.1617202758789062 3.3753511905670166 3.8331222534179688 4.080322265625
        4.08642578125 4.0101318359375 4.144416809082031 4.434340953826904 4.5167388916015625 4.336677551269531
        3.964355230331421 3.4760587215423584 3.2532730102539062 3.103729248046875 3.3112564086914062 3.9521484375
        4.699852466583252 5.3743133544921875 5.4078826904296875 4.7883524894714355 4.4282379150390625 4.687644958496094
        4.5289459228515625 4.303108215332031 3.5493011474609375 3.7263107299804688 4.837181091308594 4.5716705322265625
        3.3509292602539062 3.222755193710327 3.5462491512298584 3.8270187377929688 3.726310968399048 4.0986328125
        3.7873458862304688 3.5493011474609375 3.5248870849609375 3.9124755859375 3.939941167831421 3.6866378784179688
        3.91552734375 4.0650634765625 4.06201171875 4.269538879394531 4.812767505645752 5.5207977294921875
        5.679497241973877 5.7741007804870605 6.1464314460754395 6.3783721923828125 5.94195556640625 5.6184539794921875
        5.6154022216796875 6.546218395233154 7.983642578125 9.482101440429688 10.693687438964844 12.228767395019531
        13.006988525390625 13.806571960449219 14.197213172912598 14.163642883300781 6.4241485595703125 1.040679931640625
        0.958282470703125 0.9399718642234802 1.7120895385742188 2.5788116455078125 2.8565292358398438 1.9837037324905396
        2.3071975708007812 4.4984283447265625 5.734428405761719 5.319374084472656 4.306159973144531 2.7192001342773438
        2.7069931030273438 3.4211273193359375 4.678489685058594 7.547226428985596 10.510573387145996 7.922607421875
        4.01318359375 6.817833423614502 11.648919105529785 15.274514198303223 12.799461364746094 3.6072845458984375
        1.058990478515625 3.1342544555664062 5.835136890411377 7.1626973152160645 7.644889831542969 8.474990844726562
        10.06805419921875 11.856437683105469 12.537002563476562 11.468856811523438 9.87884521484375 9.033477783203125
        9.457687377929688 11.206398010253906 13.510543823242188 15.637687683105469 16.373184204101562 15.112762451171875
        12.857444763183594 11.307106018066406 11.249122619628906 12.152473449707031 13.379317283630371 14.334541320800781
        14.535964965820312 14.374221801757812 14.331489562988281 14.114806175231934 13.547164916992188 12.631614685058594
        11.822868347167969 12.0792236328125 12.949005126953125 12.964263916015625 9.314247131347656 8.75270938873291
        8.239997863769531 7.5441741943359375 6.5950469970703125 6.350898742675781 6.787315368652344 7.4037933349609375
        7.8676676750183105 8.212532043457031 8.453629493713379 8.801536560058594 9.152504920959473 9.259315490722656
        9.118927955627441 8.713035583496094 8.136238098144531 7.855461120605469 7.983642578125 8.459732055664062
        8.902252197265625 9.137245178222656 9.25321102142334 9.335609436035156 9.006011962890625 7.803581237792969
        6.4546661376953125 5.749687194824219 5.5207977294921875 5.4322967529296875 5.658134460449219 6.07318115234375
        6.286811828613281 6.237983226776123 5.856498718261719 5.236976623535156 4.672386169433594 3.9124755859375
        3.039642095565796 2.972503662109375 3.3570327758789062 3.8026046752929688 3.7629318237304688 3.3631362915039062
        3.4272308349609375 3.8026046752929688 3.9002685546875 4.202400207519531 4.4557037353515625 4.4129791259765625
        4.0772705078125 3.5554046630859375 3.662224054336548 4.0955810546875 4.452651500701904 5.011138916015625
        5.627616882324219 5.343787670135498 4.6632304191589355 4.620499134063721 4.690696716308594 4.324470520019531
        2.7436141967773438 2.5452425479888916 3.3173599243164062 4.0711669921875 4.068115234375 3.4943695068359375
        3.5676116943359375 3.939941644668579 3.979614496231079 4.174934387207031 3.6774826049804688 3.3265151977539062
        3.5279388427734375 4.0589599609375 4.116943359375 3.9185791015625 4.147468566894531 3.91552734375
        3.6713788509368896 4.187141418457031 5.124061584472656 5.5818328857421875 5.417038440704346 5.4322967529296875
        5.682548522949219 5.847343444824219 5.825981140136719 6.07623291015625 6.433304309844971 7.098602771759033
        7.6021575927734375 7.480087757110596 7.818840026855469 10.052796363830566 13.086334228515625 15.768913269042969
        16.27246856689453 14.920501708984375 8.767967224121094 2.8290634155273438 0.9277649521827698 2.4384307861328125
        2.6337509155273438 3.3448257446289062 3.097625732421875 1.8341599702835083 3.2502212524414062 5.111847400665283
        7.165748596191406 7.654045104980469 6.323432922363281 3.946044921875 3.5309903621673584 4.4892730712890625
        5.792411804199219 7.303077697753906 8.572647094726562 5.4597625732421875 2.1332473754882812 4.626609802246094
        9.387496948242188 13.278602600097656 12.747581481933594 5.114898681640625 1.8005905151367188 3.833122491836548
        6.4027862548828125 7.4434661865234375 6.982635498046875 7.095550537109375 8.221687316894531 9.640801429748535
        10.757773399353027 11.377304077148438 11.493269920349121 10.385452270507812 8.615371704101562 8.160652160644531
        9.93072509765625 13.214516639709473 16.666160583496094 18.924530029296875 19.144262313842773 16.974393844604492
        13.296914100646973 10.876801490783691 10.980559349060059 11.99072265625 12.848289489746094 13.595993041992188
        14.08734130859375 14.337594032287598 14.664146423339844 14.654991149902344 14.273506164550781 14.426101684570312
        15.158546447753906 16.12293243408203 9.595017433166504 8.996856689453125 8.594009399414062 8.124031066894531
        7.431259632110596 6.784263610839844 6.5492706298828125 6.784264087677002 6.952118396759033 6.851402282714844
        6.912445068359375 7.330543518066406 7.947021961212158 8.389541625976562 8.600111961364746 8.542129516601562
        8.194221496582031 7.757804870605469 7.806632995605469 8.136238098144531 8.044677734375 7.834098815917969
        8.08740234375 8.578751564025879 8.630638122558594 7.782218933105469 6.5126495361328125 5.844291687011719
        5.6917033195495605 5.371253967285156 5.105742931365967 5.4200897216796875 5.932799816131592 6.189155578613281
        5.93585205078125 5.319374084472656 4.684593200683594 3.96435546875 3.1861343383789062 2.7985458374023438
        2.8717880249023438 3.1556169986724854 3.2288589477539062 3.018280029296875 3.274635076522827 3.5981292724609375
        3.643913507461548 4.0528564453125 4.5136871337890625 4.876861572265625 4.647972106933594 4.068115234375
        4.116943359375 4.297004699707031 4.367195129394531 4.498427867889404 4.812767028808594 5.105743408203125
        5.035552978515625 5.212562561035156 5.4658660888671875 5.212562561035156 2.981658935546875 2.243110418319702
        2.5330352783203125 3.003021240234375 3.646965265274048 3.7995529174804688 3.3784027099609375 3.723259210586548
        3.952148199081421 4.159675121307373 3.888061761856079 3.5279386043548584 3.5279388427734375 3.8117599487304688
        4.0955810546875 4.168830871582031 4.116942882537842 3.8270187377929688 3.881958246231079 4.846336364746094
        5.5513153076171875 5.4292449951171875 5.148475646972656 5.148475646972656 5.145423889160156 5.346839904785156
        6.04571533203125 6.662193775177002 6.842247009277344 7.089447021484375 7.361061096191406 7.065032958984375
        7.1504902839660645 8.0294189453125 9.552291870117188 12.73232364654541 15.024261474609375 16.31519317626953
        16.388442993164062 12.182991981506348 3.1769793033599854 1.6480026245117188 3.5828702449798584 4.080322265625
        3.2746353149414062 3.2013931274414062 5.4780731201171875 5.98773193359375 5.96636962890625 4.913482666015625
        5.124061107635498 4.660179138183594 4.4038238525390625 5.792411804199219 7.196266174316406 6.884978771209717
        4.928741931915283 2.5727081298828125 2.08441162109375 3.808708429336548 8.056884765625 12.240974426269531
        13.083282470703125 8.682517051696777 4.898224353790283 5.212562561035156 6.717124938964844 7.077239513397217
        6.347846984863281 6.4973907470703125 7.629631042480469 8.746604919433594 9.170814514160156 8.877838134765625
        8.590958595275879 8.404800415039062 7.4953460693359375 6.732383728027344 7.3915863037109375 9.378341674804688
        12.375259399414062 15.689568519592285 17.75261688232422 17.96624755859375 16.895050048828125 15.387435913085938
        14.493241310119629 14.438308715820312 14.551222801208496 14.194161415100098 13.382369995117188 12.601089477539062
        12.131111145019531 11.789299011230469 12.11279296875 13.489181518554688 15.381332397460938 16.998809814453125
        8.508560180664062 8.359016418457031 8.209480285644531 8.020263671875 7.733390808105469 7.2878193855285645
        6.714073181152344 6.585891246795654 6.6988139152526855 6.5675811767578125 6.5370635986328125 6.881927490234375
        7.446518421173096 7.889038562774658 8.1209716796875 8.166755676269531 8.0263671875 7.6204681396484375
        7.4831390380859375 7.9805908203125 8.578750610351562 8.331550598144531 7.806632995605469 7.684562683105469
        7.339698314666748 6.808677673339844 5.99688720703125 5.767997741699219 5.908386707305908 5.761894226074219
        5.319374084472656 5.227821350097656 5.6184539794921875 6.09454345703125 6.3814239501953125 6.256294250488281
        5.5970916748046875 4.800559997558594 4.153572082519531 3.2776870727539062 2.7253036499023438 2.7619247436523438
        2.920623779296875 2.990814208984375 3.3448257446289062 3.4943692684173584 3.7141036987304688 3.967407464981079
        4.1077880859375 4.419083118438721 4.5411529541015625 4.5228424072265625 4.669334411621094 4.702903747558594
        4.684593200683594 4.663230895996094 4.785301208496094 5.224769592285156 5.5146942138671875 5.914489269256592
        6.176948547363281 6.140327453613281 4.669334411621094 2.847374200820923 2.3651809692382812 2.758873224258423
        3.2288589477539062 3.6927413940429688 3.4821627140045166 3.5798184871673584 3.91552734375 4.2786946296691895
        4.409926891326904 4.07421875 3.6622235774993896 3.872802734375 4.3183674812316895 4.391617298126221
        4.068115234375 4.287849426269531 4.882965087890625 5.639823913574219 5.5726776123046875 4.962310791015625
        4.757835388183594 5.087432861328125 5.218666076660156 5.4109344482421875 6.02740478515625 6.689659118652344
        6.939910888671875 7.159645080566406 7.3793792724609375 7.1810078620910645 7.312232971191406 6.747642517089844
        5.676445007324219 7.4831390380859375 11.062958717346191 14.191108703613281 16.806541442871094 18.06695556640625
        14.899139404296875 6.228828430175781 1.8677291870117188 2.7039413452148438 2.4628448486328125 3.7812423706054688
        7.455672740936279 8.0111083984375 6.5462188720703125 4.0040283203125 4.4282379150390625 5.3865203857421875
        5.786308288574219 6.964324951171875 7.965331554412842 6.726280212402344 3.9490966796875 2.8290634155273438
        3.2471694946289062 4.4007720947265625 7.1260762214660645 10.028380393981934 11.502426147460938 11.218605041503906
        9.585861206054688 7.177955627441406 5.801567077636719 5.5299530029296875 5.743583679199219 6.387527942657471
        6.900238037109375 7.8798828125 9.637748718261719 10.675375938415527 9.753715515136719 7.6204681396484375
        6.4973907470703125 6.732383728027344 7.071136474609375 7.889038562774658 9.408859252929688 11.435287475585938
        13.031402587890625 14.10565185546875 15.301980018615723 16.702781677246094 18.36908721923828 20.0201416015625
        20.33448028564453 18.44538688659668 14.548172950744629 9.97955322265625 7.275611877441406 7.370215892791748
        8.957183837890625 10.892059326171875 12.65297794342041 13.89508056640625 7.739494323730469 8.133186340332031
        8.151496887207031 8.1026611328125 8.0721435546875 7.953125 7.644889831542969 7.287818908691406
        7.187110900878906 7.019256591796875 6.808677673339844 7.034514904022217 7.5014495849609375 7.803581237792969
        7.922607421875 7.910400390625 7.745597839355469 7.351905822753906 7.092498779296875 7.394637584686279
        8.487197875976562 9.387496948242188 9.079254150390625 8.209480285644531 7.092498779296875 6.4668731689453125
        5.801567077636719 5.652031421661377 5.786308288574219 5.774101257324219 5.4200897216796875 5.148475170135498
        5.2980122566223145 5.725273609161377 6.204414367675781 6.500442028045654 6.335639953613281 5.87481689453125
        5.371253967285156 4.309211730957031 3.091522216796875 2.8015975952148438 2.911468505859375 3.033538818359375
        3.3082046508789062 3.4943695068359375 3.6500167846679688 3.6408615112304688 3.7385177612304688 3.988769292831421
        4.342781066894531 4.760887145996094 5.203407287597656 5.478072643280029 5.624565124511719 5.609299182891846
        5.5207977294921875 5.758842468261719 5.807670593261719 5.880920886993408 5.877868175506592 6.4760284423828125
        7.113861083984375 5.783256530761719 3.1586685180664062 2.957244873046875 3.161720037460327 3.5493011474609375
        3.6469650268554688 3.735466241836548 4.0894775390625 4.4099273681640625 4.513686656951904 4.416031360626221
        4.220710754394531 4.510634899139404 4.705955505371094 4.333625793457031 4.345832824707031 5.203407287597656
        5.816825866699219 5.832084655761719 5.221717357635498 4.5716705322265625 4.681541442871094 5.072174072265625
        5.020294189453125 5.075225830078125 5.5543670654296875 6.295967102050781 6.8452982902526855 7.010101318359375
        6.970428466796875 6.884979248046875 6.784264087677002 6.128119945526123 4.7730937004089355 3.811760187149048
        5.764945983886719 8.743553161621094 12.591934204101562 16.1961727142334 18.460647583007812 15.506454467773438
        4.739525318145752 3.9765625 1.4587860107421875 5.191200256347656 9.494308471679688 10.824913024902344
        10.02838134765625 7.647941589355469 6.183052062988281 6.189155578613281 6.704917907714844 7.229835510253906
        6.820884704589844 5.142372131347656 3.5035250186920166 3.189185857772827 3.8483810424804688 4.5167388916015625
        5.322425842285156 6.289863109588623 7.959228515625 10.571608543395996 11.856437683105469 10.803550720214844
        9.143348693847656 7.065032958984375 4.3794097900390625 3.3753507137298584 3.4852139949798584 4.876861572265625
        8.008056640625 11.337623596191406 13.028350830078125 11.667229652404785 6.213569164276123 4.217658996582031
        5.700859069824219 7.031463623046875 7.791374206542969 8.0843505859375 8.578750610351562 9.634696960449219
        11.624504089355469 14.749595642089844 18.33856964111328 20.868553161621094 21.41484260559082 20.493179321289062
        18.564407348632812 16.18701934814453 13.553268432617188 11.032440185546875 9.741508483886719 9.95819091796875
        10.968353271484375 11.825920104980469 6.1830525398254395 6.335639953613281 6.4516143798828125 6.814781188964844
        7.351905822753906 7.4861907958984375 7.4709320068359375 7.650993347167969 7.791374206542969 7.4221038818359375
        6.891082763671875 6.924651622772217 7.284767150878906 7.486191272735596 7.501450061798096 7.6143646240234375
        7.91650390625 7.998900890350342 7.7333903312683105 7.812736511230469 8.212532043457031 9.106719017028809
        9.762870788574219 9.579757690429688 8.127082824707031 6.756798267364502 5.902283191680908 5.6031951904296875
        5.5787811279296875 5.5238494873046875 5.178993225097656 4.794456481933594 4.785301208496094 5.075225830078125
        5.3773651123046875 5.6276164054870605 5.700859069824219 5.5391082763671875 5.322425842285156 4.800559997558594
        3.7903976440429688 3.1830825805664062 3.122039794921875 3.085418939590454 3.1586687564849854 3.3753509521484375
        3.4638519287109375 3.5248870849609375 3.769035577774048 3.9613037109375 4.3733062744140625 5.023345947265625
        5.774101257324219 6.277656555175781 6.6438822746276855 6.5919952392578125 6.317329406738281 6.289863586425781
        6.183052062988281 5.95416259765625 5.661186218261719 5.99078369140625 7.1321797370910645 7.678459167480469
        5.5207977294921875 3.7568283081054688 3.2258071899414062 3.3295669555664062 3.5493011474609375 3.842277765274048
        4.168830871582031 4.4984283447265625 4.5899810791015625 4.3031086921691895 4.2237629890441895 4.693748474121094
        4.7639384269714355 4.348884582519531 4.968414306640625 5.835136413574219 6.10369873046875 5.648979187011719
        4.855491638183594 4.293952941894531 4.531998157501221 4.953155517578125 4.950103759765625 5.124061584472656
        5.737480163574219 6.366157531738281 6.5157012939453125 6.347846984863281 6.277656555175781 6.347846984863281
        6.176948070526123 5.5024871826171875 4.7853007316589355 3.93994140625 3.7629318237304688 4.660179138183594
        7.824943542480469 13.635673522949219 17.282630920410156 18.75667381286621 12.714011192321777 3.1617205142974854
        2.6032259464263916 7.6113128662109375 10.04364013671875 10.483108520507812 10.284736633300781 9.344764709472656
        7.4495697021484375 6.625572204589844 7.077239513397217 6.7567973136901855 4.6174468994140625 2.5635526180267334
        2.1332473754882812 2.917572021484375 3.8117599487304688 4.214607238769531 4.251228332519531 4.348884582519531
        5.163734436035156 6.5340118408203125 7.330543518066406 8.362068176269531 10.513625144958496 12.417984008789062
        11.462752342224121 6.4302520751953125 2.2949905395507812 2.3743438720703125 4.5808258056640625 8.145393371582031
        12.668235778808594 16.21143341064453 16.29993438720703 10.04364013671875 4.315315246582031 4.0955810546875
        4.745628356933594 4.5655670166015625 4.977569580078125 5.92059326171875 7.354957580566406 9.95819091796875
        12.723167419433594 14.014098167419434 15.228737831115723 17.386398315429688 19.51658821105957 20.755638122558594
        20.426040649414062 18.924531936645508 17.273475646972656 15.497300148010254 13.068023681640625 10.467849731445312
        5.688652038574219 5.6001434326171875 5.652030944824219 5.95721435546875 6.4638214111328125 6.646934509277344
        6.476028919219971 6.558426380157471 6.717124938964844 6.5919952392578125 6.363105773925781 6.4058380126953125
        6.811729431152344 7.269508361816406 7.4770355224609375 7.5289154052734375 7.904297351837158 8.490249633789062
        8.471939086914062 8.093505859375 7.9073486328125 8.307136535644531 9.704887390136719 10.733360290527344
        9.93377685546875 8.291877746582031 6.790367126464844 5.94805908203125 5.6184539794921875 5.4719696044921875
        5.133216857910156 4.611343860626221 4.4282379150390625 4.5991363525390625 4.739524841308594 4.794456481933594
        4.733421325683594 4.5228424072265625 4.501479625701904 4.657127380371094 4.4618072509765625 3.9796142578125
        3.6744308471679688 3.3326187133789062 3.064056396484375 3.1739273071289062 3.4028165340423584 3.7720870971679688
        3.982666015625 4.150520324707031 4.4587554931640625 4.876861572265625 5.4506072998046875 6.07928466796875
        6.588943958282471 6.363105773925781 6.03045654296875 6.137275218963623 6.216621398925781 5.902283191680908
        5.246131896972656 5.191200256347656 5.6611857414245605 6.234931945800781 6.445510387420654 5.273597717285156
        3.6317062377929688 3.2685317993164062 3.4577481746673584 3.89111328125 4.2085041999816895 4.602188587188721
        4.940948963165283 4.647972106933594 4.141365051269531 4.4007720947265625 4.7395243644714355 5.136268615722656
        5.856498718261719 6.04266357421875 5.94500732421875 5.4963836669921875 4.858543395996094 4.4160308837890625
        4.635765075683594 5.111846923828125 5.4750213623046875 5.856498718261719 6.11590576171875 6.10980224609375
        5.94195556640625 5.713066101074219 5.719169616699219 5.93585205078125 6.02435302734375 5.682548522949219
        5.059967041015625 4.0498046875 3.006072998046875 2.6062774658203125 4.080322265625 8.774070739746094
        14.273506164550781 17.294837951660156 18.11883544921875 15.433212280273438 12.973419189453125 11.667228698730469
        10.013123512268066 9.112823486328125 8.932769775390625 7.678459167480469 6.338691711425781 6.225776195526123
        6.817832946777344 5.825981140136719 3.1647720336914062 1.4862518310546875 1.6602096557617188 2.7100448608398438
        3.5767669677734375 3.6256027221679688 3.106781005859375 2.920623779296875 2.7954940795898438 2.2736282348632812
        2.3041458129882812 4.290901184082031 7.318336486816406 10.06500244140625 12.503433227539062 10.687583923339844
        3.9979248046875 0.4821929931640625 1.4008026123046875 4.5136871337890625 9.485153198242188 14.523757934570312
        17.68547821044922 17.398605346679688 11.612289428710938 5.032501220703125 3.628654718399048 3.988769292831421
        3.3753509521484375 3.027435302734375 3.927734136581421 4.5411529541015625 5.215614318847656 7.7333903312683105
        11.526841163635254 14.343696594238281 15.430160522460938 16.0435791015625 17.246009826660156 18.832971572875977
        20.084228515625 20.712913513183594 20.14832305908203 18.36908721923828 7.867668151855469 6.7873148918151855
        6.155586242675781 6.271553039550781 6.790367126464844 6.915496826171875 6.5645294189453125 6.5370635986328125
        6.878875732421875 6.909393787384033 6.6103057861328125 6.537064075469971 6.775108337402344 7.1901631355285645
        7.794425964355469 8.175910949707031 8.380386352539062 8.673362731933594 8.996856689453125 8.801535606384277
        7.9775390625 7.788322925567627 8.929718017578125 10.541092872619629 10.629600524902344 9.494308471679688
        7.9439697265625 6.5614776611328125 5.786308288574219 5.661186218261719 5.5879364013671875 5.001983642578125
        4.4770660400390625 4.4343414306640625 4.4434967041015625 4.5075836181640625 4.745628356933594 4.864646911621094
        5.047760009765625 5.4292449951171875 5.5085906982421875 4.950103759765625 4.3641438484191895 3.7842938899993896
        3.1556167602539062 3.073211669921875 3.3570327758789062 3.848381280899048 4.07421875 4.260383605957031
        4.388564586639404 4.4984283447265625 4.849388122558594 5.563521862030029 5.90838623046875 5.111846923828125
        4.681541442871094 5.069122314453125 5.236976623535156 4.910430908203125 4.351936340332031 4.4007720947265625
        4.763938903808594 5.017241954803467 5.627616882324219 5.3956756591796875 4.232917785644531 3.5218353271484375
        3.5065765380859375 3.9246826171875 4.3794097900390625 4.815818786621094 5.3743133544921875 5.777153015136719
        5.4506072998046875 4.953155517578125 5.087432861328125 5.838188648223877 6.295967102050781 6.103699207305908
        5.749687671661377 5.294960021972656 4.797508239746094 4.690696716308594 5.169837474822998 5.6062469482421875
        5.941956043243408 6.11285400390625 6.015198230743408 5.746635437011719 5.4475555419921875 5.258338451385498
        5.334632873535156 5.5146942138671875 5.6031951904296875 5.4994354248046875 5.160682678222656 4.4404449462890625
        3.2837905883789062 2.02337646484375 1.025421142578125 3.3814544677734375 8.133186340332031 12.1158447265625
        14.355903625488281 15.546127319335938 15.002899169921875 13.074127197265625 11.615340232849121 10.742515563964844
        9.741508483886719 6.186103820800781 4.4312896728515625 4.770042419433594 5.230873107910156 4.281745910644531
        2.2705764770507812 1.8463668823242188 3.079314947128296 4.4099273681640625 5.270545959472656 4.956206798553467
        4.0406494140625 3.6225509643554688 3.8483808040618896 3.4485929012298584 3.076263427734375 3.2959976196289062
        4.0467529296875 5.215614318847656 7.641838073730469 9.866630554199219 7.812736511230469 2.887054681777954
        0.7782211303710938 1.94097900390625 4.660179138183594 8.761863708496094 12.601089477539062 14.835044860839844
        15.036468505859375 14.001891136169434 12.512588500976562 10.07720947265625 6.8178324699401855 5.139320373535156
        5.267494201660156 4.2634358406066895 3.3906097412109375 5.221717834472656 7.672355651855469 8.328498840332031
        8.600113868713379 9.869682312011719 11.685539245605469 13.791314125061035 16.412857055664062 19.412824630737305
        21.509445190429688 21.893980026245117 10.443435668945312 8.652000427246094 7.3854827880859375 7.107757568359375
        7.278663635253906 7.290870666503906 7.058929443359375 6.988739013671875 7.199317932128906 7.232887268066406
        6.955169677734375 6.689659118652344 6.6835551261901855 6.997894287109375 7.785270690917969 8.557389259338379
        8.771018981933594 8.539076805114746 8.664207458496094 9.231849670410156 8.789329528808594 7.4831390380859375
        7.3824310302734375 8.444473266601562 8.822898864746094 8.560440063476562 7.9561767578125 6.988739013671875
        5.94500732421875 5.645927429199219 5.93280029296875 5.810722351074219 5.182044982910156 4.663230895996094
        4.358039855957031 4.220710754394531 4.5381011962890625 5.066070556640625 5.5696258544921875 5.975524425506592
        6.07012939453125 5.5421600341796875 4.843285083770752 4.1138916015625 3.3143081665039062 3.067108154296875
        3.2074966430664062 3.5798184871673584 3.875854253768921 4.092529296875 4.260383605957031 4.4984283447265625
        4.809715270996094 5.273597717285156 5.023345947265625 4.092529773712158 3.9185791015625 4.345832824707031
        4.3702473640441895 4.1077880859375 3.9796142578125 4.0711669921875 4.4373931884765625 4.864646911621094
        5.258338928222656 4.989776611328125 4.4343414306640625 4.019287109375 3.8117599487304688 4.019287109375
        4.4923248291015625 4.904327392578125 5.334632873535156 6.186103820800781 7.074188232421875 6.5340118408203125
        5.5238494873046875 6.04876708984375 6.262397766113281 5.87786865234375 5.401778697967529 4.925689697265625
        4.620499134063721 4.818870544433594 5.3987274169921875 5.594039440155029 5.679496765136719 5.8381876945495605
        5.7435832023620605 5.4902801513671875 5.203407287597656 4.940948486328125 4.901275634765625 5.014190673828125
        4.901275634765625 4.678489685058594 4.312263488769531 3.683586359024048 3.003021240234375 2.4170682430267334
        1.6785202026367188 0.22888946533203125 2.884002923965454 5.716117858886719 7.5167083740234375 9.146400451660156
        10.01007080078125 10.388504028320312 12.353889465332031 14.560379028320312 15.243996620178223 11.041595458984375
        3.5737152099609375 1.6571578979492188 2.2278518676757812 2.945037841796875 3.1586685180664062 4.440445423126221
        5.960266590118408 7.049774169921875 7.232887268066406 6.6408305168151855 5.630668640136719 4.672386169433594
        4.297004699707031 3.769035577774048 3.4882659912109375 4.168830871582031 4.4434967041015625 3.2593765258789062
        3.5767669677734375 6.05487060546875 8.145393371582031 6.961273193359375 3.5065765380859375 1.8707809448242188
        2.7008895874023438 4.443497180938721 6.3997344970703125 7.742546081542969 8.493301391601562 9.305091857910156
        10.08941650390625 9.436325073242188 6.579787731170654 4.760887145996094 5.97247314453125 6.3905792236328125
        4.681541442871094 4.0223388671875 5.056915760040283 5.868706226348877 6.964324951171875 8.560441017150879
        9.164711952209473 9.234901428222656 10.72725772857666 13.812675476074219 16.537979125976562 17.371131896972656
        10.849327087402344 10.657066345214844 10.02227783203125 8.545181274414062 7.4709320068359375 7.370216369628906
        7.419052600860596 7.184058666229248 6.909393310546875 6.985686779022217 7.229835510253906 7.077239990234375
        6.903289794921875 6.900238037109375 7.3976898193359375 8.203376770019531 8.670310974121094 8.487197875976562
        8.200325012207031 8.426161766052246 8.584854125976562 7.8951416015625 7.333595275878906 7.416000843048096
        7.5624847412109375 7.754753112792969 8.151496887207031 7.675407409667969 6.421097278594971 5.6062469482421875
        5.774101734161377 6.241035461425781 6.137275695800781 5.334632873535156 4.623558044433594 4.129158020019531
        4.0498046875 4.4892730712890625 4.983673095703125 5.194252014160156 5.243080139160156 5.182044982910156
        4.904327392578125 4.272590637207031 3.6133880615234375 3.210548162460327 3.1647720336914062 3.4089202880859375
        3.7080001831054688 4.07421875 4.510634899139404 4.916534423828125 5.117950439453125 5.1850972175598145
        4.342781066894531 3.6042327880859375 3.7842938899993896 4.0467529296875 3.875854730606079 3.8941650390625
        4.2939534187316895 4.193244934082031 4.4465484619140625 5.081329345703125 5.655082702636719 5.636772155761719
        4.940948486328125 4.452651500701904 4.208503723144531 4.168830394744873 4.4282379150390625 4.873809337615967
        5.117950439453125 5.581832408905029 6.427199840545654 6.640830993652344 5.652030944824219 6.207466125488281
        6.265449523925781 5.490279674530029 4.821922302246094 4.4709625244140625 4.4282379150390625 4.687644958496094
        5.1271138191223145 5.301063537597656 5.3804168701171875 5.5421600341796875 5.4292449951171875 5.1393208503723145
        4.995880126953125 4.766990661621094 4.699851989746094 4.831077575683594 4.672386169433594 4.370246887207031
        4.0833740234375 3.5798184871673584 2.890106201171875 2.4292755126953125 1.95013427734375 1.2604141235351562
        0.885040283203125 2.2034378051757812 3.5828704833984375 5.029449462890625 6.5279083251953125 8.0355224609375
        10.165718078613281 13.269447326660156 16.660057067871094 17.69463348388672 13.217567443847656 6.10675048828125
        2.6368026733398438 3.2227554321289062 4.693748474121094 5.4994354248046875 5.6917033195495605 6.09149169921875
        6.814781188964844 7.174903869628906 6.997894287109375 5.7435832023620605 3.9918212890625 3.3570327758789062
        3.6469650268554688 3.906371831893921 4.01318359375 3.8941650390625 3.89111328125 3.9063720703125
        4.4373931884765625 5.359046936035156 5.758842468261719 5.285804748535156 4.608291149139404 4.5350494384765625
        4.647972106933594 4.327522277832031 3.897216796875 3.9063720703125 4.181037902832031 3.878906011581421
        2.929779052734375 2.3621292114257812 3.2959978580474854 4.828025817871094 5.017242431640625 4.0498046875
        4.217658996582031 5.630668640136719 7.287818908691406 8.877838134765625 9.137245178222656 8.526871681213379
        8.877838134765625 10.855430603027344 13.94696044921875 16.141244888305664 9.90325927734375 10.318305969238281
        10.803550720214844 10.312202453613281 9.360023498535156 8.862570762634277 8.523818969726562 7.809684753417969
        6.875823974609375 6.5218048095703125 7.147438049316406 7.6082611083984375 7.6113128662109375 7.324439525604248
        7.4404144287109375 8.191169738769531 8.893096923828125 8.938873291015625 8.359016418457031 7.837150573730469
        7.910400390625 7.9805908203125 7.528914928436279 6.884979248046875 6.5584259033203125 6.8544535636901855
        7.5563812255859375 7.638786315917969 6.793418884277344 5.807670593261719 5.5665740966796875 5.88092041015625
        5.969420909881592 5.4078826904296875 4.766990661621094 4.330574035644531 4.251228332519531 4.6052398681640625
        4.815818786621094 4.5716705322265625 4.3916168212890625 4.696800231933594 5.203407287597656 5.221717834472656
        4.635765075683594 3.897216796875 3.4974210262298584 3.4791107177734375 3.7629318237304688 4.272590637207031
        4.876861095428467 5.172889709472656 5.142372131347656 5.008087158203125 4.0101318359375 3.4150238037109375
        3.5554046630859375 3.6896896362304688 3.7263107299804688 4.226814270019531 4.693748474121094 4.4770660400390625
        4.5625152587890625 5.056915283203125 5.734428405761719 5.829032897949219 5.127112865447998 4.638816833496094
        4.382462024688721 4.1810383796691895 4.339729309082031 4.5777740478515625 4.684593200683594 4.886016845703125
        4.968414306640625 5.053863525390625 5.212562561035156 5.636772155761719 5.6123504638671875 4.937896728515625
        4.205451965332031 4.0101318359375 4.0009765625 4.2512288093566895 4.760887145996094 5.038604259490967
        5.063018798828125 4.959259033203125 4.742576599121094 4.635765075683594 4.806663513183594 4.770042419433594
        4.791404724121094 4.895172119140625 4.757835388183594 4.5960845947265625 4.635765075683594 4.461807727813721
        3.7781906127929688 3.3753509521484375 3.2105486392974854 2.8565292358398438 2.1790237426757812 1.8402633666992188
        2.5238800048828125 3.3173599243164062 5.102691650390625 7.437362194061279 8.255256652832031 9.137245178222656
        12.03955078125 15.347756385803223 17.618331909179688 16.849266052246094 12.247077941894531 6.5645294189453125
        4.635765075683594 5.572678089141846 5.6062469482421875 5.4536590576171875 6.12200927734375 7.242042541503906
        8.490250587463379 8.829001426696777 7.229835510253906 4.4007720947265625 2.5452423095703125 2.2583694458007812
        2.3468704223632812 2.4658966064453125 2.5849151611328125 2.3010940551757812 2.08746337890625 2.1393508911132812
        2.2400588989257812 2.2186965942382812 2.1973342895507812 2.2766799926757812 2.4475860595703125 2.2827835083007812
        1.4801483154296875 0.799583375453949 0.5005035400390625 0.4333648681640625 0.6836166381835938 0.8941956162452698
        1.8768919706344604 3.5798187255859375 4.675437927246094 3.8239669799804688 3.2898941040039062 4.5442047119140625
        6.259346008300781 7.141334533691406 7.040618896484375 7.339698314666748 8.661155700683594 10.672325134277344
        14.02325439453125 17.108673095703125 8.1148681640625 8.429214477539062 8.822898864746094 9.442428588867188
        9.94598388671875 9.88494873046875 9.433273315429688 8.627586364746094 7.608261585235596 6.994842052459717
        7.306129455566406 7.763908386230469 7.858512878417969 7.5319671630859375 7.461777210235596 8.130135536193848
        9.021270751953125 9.308143615722656 8.79238224029541 7.983642578125 7.632682800292969 7.8096842765808105
        7.8463053703308105 7.4648284912109375 7.040618896484375 6.875823497772217 7.058929443359375 6.973480224609375
        6.421096324920654 5.96331787109375 6.00299072265625 6.146430492401123 5.905334949493408 5.322425842285156
        4.849388122558594 4.730369567871094 4.895171642303467 5.029449462890625 5.008087158203125 4.800559997558594
        4.5747222900390625 4.647972106933594 5.233924865722656 5.87481689453125 5.6215057373046875 4.773094177246094
        4.055908203125 3.6835858821868896 3.7446212768554688 4.0711669921875 4.5930328369140625 4.922637939453125
        4.995880126953125 4.922637939453125 4.0772705078125 3.6256027221679688 3.7446212768554688 4.0345458984375
        4.3488850593566895 4.870750427246094 4.626609802246094 4.193244934082031 4.235969543457031 4.3946685791015625
        4.8707499504089355 5.191200256347656 4.950103282928467 4.861595153808594 4.770042419433594 4.3977203369140625
        4.327522277832031 4.162727355957031 4.184089660644531 4.351936340332031 4.168830871582031 4.232917785644531
        4.5899810791015625 4.5350494384765625 4.345832824707031 4.232917785644531 3.869743585586548 3.6286544799804688
        3.5523526668548584 4.03759765625 4.745628356933594 4.886017322540283 4.660179138183594 4.260383605957031
        4.0894775390625 4.351936340332031 4.828025817871094 5.008087158203125 5.053863525390625 5.059967041015625
        4.940948486328125 4.907379150390625 5.105743408203125 5.063019275665283 4.495376110076904 4.370246887207031
        4.864646911621094 4.5014801025390625 2.929779052734375 1.5778045654296875 1.94097900390625 2.935882568359375
        5.243080139160156 6.997894287109375 7.007049083709717 6.765953063964844 7.6113128662109375 10.168769836425781
        12.771994590759277 15.472885131835938 16.635643005371094 15.442367553710938 14.740440368652344 15.115815162658691
        13.837089538574219 9.021269798278809 6.4943389892578125 6.833091735839844 7.834099292755127 8.523818969726562
        8.239997863769531 6.295967102050781 4.4038238525390625 3.8819580078125 3.6011812686920166 3.106781005859375
        2.7497177124023438 2.4567413330078125 2.2186965942382812 1.87384033203125 1.2695693969726562 0.900299072265625
        0.9430237412452698 1.1505508422851562 1.2451553344726562 1.2360000610351562 1.049835205078125 0.7751693725585938
        0.7019271850585938 0.7324447631835938 0.7782211899757385 1.034576416015625 1.7944869995117188 2.902313232421875
        3.6347579956054688 3.5096285343170166 3.6286544799804688 4.4831695556640625 5.230873107910156 5.2308735847473145
        5.4261932373046875 6.683555603027344 8.520767211914062 10.534988403320312 13.074127197265625 14.981536865234375
        6.665245532989502 6.01214599609375 6.372268199920654 7.113861083984375 7.779167175292969 8.316292762756348
        8.639793395996094 8.389541625976562 7.715080261230469 7.119965076446533 7.184059143066406 7.5014495849609375
        7.675407409667969 7.538070201873779 7.309181213378906 7.559433460235596 8.355964660644531 8.932769775390625
        8.713035583496094 8.008056640625 7.5228118896484375 7.696769714355469 8.212532043457031 8.297981262207031
        7.870719909667969 7.284767150878906 7.065033435821533 6.869712829589844 6.326484680175781 6.027404308319092
        6.289863586425781 6.585892200469971 6.4027862548828125 5.731376647949219 5.1637349128723145 5.136268615722656
        5.359046936035156 5.328529357910156 5.087432861328125 4.892120361328125 4.712059020996094 4.4984283447265625
        4.5472564697265625 4.928741931915283 5.035552978515625 4.736473083496094 4.336677551269531 3.9307861328125
        3.6133880615234375 3.7141036987304688 4.019286632537842 4.705955505371094 5.200355529785156 5.1850972175598145
        4.5411529541015625 4.162727355957031 4.4465484619140625 4.910430908203125 5.246131896972656 5.3804168701171875
        4.718162536621094 4.11083984375 4.235969543457031 4.3855133056640625 4.754783630371094 5.178993225097656
        5.172889709472656 5.212562561035156 5.230873107910156 4.940948486328125 4.626609802246094 4.242073059082031
        4.208503723144531 4.370246887207031 3.970458984375 3.8819580078125 4.138313293457031 4.214607238769531
        4.025390625 4.0467529296875 3.98876953125 3.6530685424804688 3.640861749649048 4.318367004394531
        4.742577075958252 4.4587554931640625 4.138313293457031 3.8056564331054688 3.7354660034179688 4.07421875
        4.675437927246094 5.053863525390625 5.185096740722656 5.218666076660156 5.145423889160156 5.191200256347656
        5.191200256347656 4.934844970703125 4.4282379150390625 4.312263488769531 4.882964611053467 4.666282653808594
        3.012176513671875 1.0650938749313354 1.507614016532898 3.1373062133789062 4.821922302246094 6.00604248046875
        6.115905284881592 5.639823913574219 5.526900768280029 5.865653991699219 7.6143646240234375 10.10162353515625
        12.509536743164062 14.880829811096191 16.949981689453125 17.86248016357422 17.239906311035156 13.19315242767334
        5.4994354248046875 4.153572082519531 4.898223876953125 5.236976623535156 5.99688720703125 6.00604248046875
        5.163734436035156 4.5442047119140625 4.3977203369140625 4.165779113769531 3.747673273086548 3.143409490585327
        2.5879669189453125 2.298042058944702 2.029480218887329 1.5686492919921875 1.3031387329101562 1.3153457641601562
        1.3428115844726562 1.3977508544921875 1.3580703735351562 1.3245010375976562 1.4679412841796875 1.8372116088867188
        1.99591064453125 1.8311079740524292 1.99591064453125 2.5727081298828125 2.938934326171875 3.082366943359375
        3.5615084171295166 4.220710754394531 4.5686187744140625 4.635765075683594 4.953155517578125 5.825981140136719
        7.168800354003906 8.896148681640625 10.452589988708496 10.885955810546875 6.5462188720703125 5.716117858886719
        5.810722351074219 6.161689758300781 6.289863586425781 6.646934509277344 7.046722412109375 7.171852111816406
        7.095550060272217 6.900238037109375 6.891082763671875 7.074188232421875 7.254249572753906 7.342750072479248
        7.196266174316406 7.1718525886535645 7.5716400146484375 8.044677734375 8.261360168457031 7.995849609375
        7.3793792724609375 7.263404846191406 7.992797374725342 8.517715454101562 8.297981262207031 7.687614440917969
        7.1962666511535645 6.820884704589844 6.170845031738281 5.722221851348877 6.10064697265625 6.805625915527344
        6.979583740234375 6.305122375488281 5.542160511016846 5.4109344482421875 5.7283244132995605 5.758842468261719
        5.133216857910156 4.321418762207031 3.927734375 3.8605878353118896 3.9429931640625 4.0284423828125
        4.055908203125 4.013183116912842 4.0498046875 3.96435546875 3.6591718196868896 3.5584564208984375
        3.7354660034179688 4.4160308837890625 5.157630920410156 5.230873107910156 4.5991363525390625 4.345832824707031
        4.754783630371094 5.240028381347656 5.4933319091796875 5.633720397949219 5.4200897216796875 4.4343414306640625
        4.245124816894531 4.4770660400390625 4.876861572265625 5.261390686035156 5.4658660888671875 5.594039440155029
        5.5574188232421875 5.3987274169921875 5.182044982910156 4.937896728515625 4.788352966308594 4.940948486328125
        4.675437927246094 4.269538879394531 4.126106262207031 4.028441905975342 3.89111328125 4.193244934082031
        4.312263488769531 3.952148675918579 3.9674072265625 4.4038238525390625 4.4831695556640625 4.058960437774658
        3.8087079524993896 3.6927413940429688 3.7141034603118896 4.055908203125 4.657127380371094 4.861595153808594
        4.931793212890625 5.154579162597656 5.185096740722656 5.2064595222473145 5.124061584472656 4.831077575683594
        4.3794097900390625 4.010132312774658 4.138313293457031 4.199348449707031 2.877899408340454 0.8484115600585938
        1.3641738891601562 2.7253036499023438 3.5645599365234375 5.114899158477783 5.893126964569092 5.230873107910156
        5.3865203857421875 5.4384002685546875 6.213569641113281 7.971435546875 10.492263793945312 13.284706115722656
        15.454574584960938 17.093414306640625 17.75872039794922 17.67327117919922 11.014129638671875 3.7812423706054688
        3.7415695190429688 2.5330352783203125 2.3468704223632812 3.4302825927734375 4.312263488769531 4.348884582519531
        4.205451965332031 3.8697431087493896 3.2929458618164062 2.5330352783203125 2.11798095703125 2.1485061645507812
        1.92266845703125 1.7639694213867188 1.6510543823242188 1.5350799560546875 1.507614254951477 1.6815719604492188
        2.2034378051757812 2.4475860595703125 2.5666046142578125 2.987762689590454 3.054901123046875 2.6703720092773438
        2.4597928524017334 2.4475860595703125 2.4567413330078125 2.6123809814453125 3.030487060546875 3.5798187255859375
        4.08642578125 4.669334411621094 5.325477600097656 5.99993896484375 6.875823974609375 8.032470703125
        8.78017520904541 9.143349647521973 6.1647419929504395 5.914489269256592 5.98162841796875 5.93890380859375
        6.131172180175781 6.4272003173828125 6.4546661376953125 6.3783721923828125 6.659141540527344 6.961273193359375
        7.135231018066406 7.162696838378906 7.083343505859375 7.065032958984375 7.013153553009033 6.869712829589844
        6.753746032714844 7.104705333709717 7.669303894042969 7.9012451171875 7.358009338378906 6.711021423339844
        6.982635498046875 7.702873229980469 7.934814453125 7.5502777099609375 6.976531982421875 6.393630504608154
        5.93585205078125 5.746635437011719 6.143379211425781 6.897186756134033 7.309180736541748 7.022308349609375
        6.253242492675781 5.804618835449219 5.829032897949219 5.774101734161377 5.038604259490967 4.0009765625
        3.4302825927734375 3.3600845336914062 3.4150238037109375 3.4974215030670166 3.6194915771484375 3.6133878231048584
        3.6835858821868896 3.8117599487304688 3.7598800659179688 3.5248868465423584 3.4913179874420166 3.9124755859375
        4.5411529541015625 4.770042419433594 4.3916168212890625 4.3916168212890625 4.849388122558594 5.191200256347656
        5.355995178222656 5.5482635498046875 5.624565124511719 4.5075836181640625 3.8575363159179688 4.007080078125
        4.3885650634765625 4.773094177246094 5.041656494140625 5.206459045410156 5.273597717285156 5.4841766357421875
        5.835136413574219 5.758842468261719 5.4048309326171875 5.4872283935546875 5.5055389404296875 5.2980122566223145
        4.6418681144714355 3.897216796875 3.4882662296295166 3.7598800659179688 3.9185791015625 3.915527105331421
        4.104736328125 4.351936340332031 4.525893688201904 4.043701171875 3.6744308471679688 3.5798187255859375
        3.6347577571868896 4.01318359375 4.5289459228515625 4.5503082275390625 4.5106353759765625 4.754783630371094
        5.1454243659973145 5.252235412597656 5.056915283203125 4.739524841308594 4.4343414306640625 4.257331371307373
        4.205451965332031 3.909423828125 2.7619247436523438 0.979644775390625 1.4496307373046875 2.288886785507202
        2.4689483642578125 4.0284423828125 5.822929859161377 5.4170379638671875 5.819877624511719 5.920593738555908
        6.128120422363281 6.973480224609375 8.777122497558594 12.350837707519531 16.0802001953125 18.52778434753418
        19.483016967773438 19.223609924316406 16.12903594970703 9.323402404785156 3.5462491512298584 1.95318603515625
        1.2390516996383667 1.3397598266601562 2.5727083683013916 3.2776870727539062 3.1891860961914062 2.2583694458007812
        1.87384033203125 1.6785203218460083 1.5869598388671875 2.3224565982818604 2.5177764892578125 2.4323272705078125
        2.3743438720703125 2.3682327270507812 2.5299832820892334 3.1342544555664062 3.8361740112304688 4.0589599609375
        3.793449640274048 3.5035245418548584 3.3448257446289062 3.3692398071289062 3.2929461002349854 3.122039556503296
        2.877899169921875 2.7069931030273438 2.8473739624023438 3.305152654647827 3.9124755859375 4.5411529541015625
        5.130165100097656 5.7283244132995605 6.463821887969971 7.2237324714660645 7.654045581817627 8.423110961914062
        5.5879364013671875 5.456710338592529 5.6123504638671875 5.7771525382995605 5.853446960449219 5.807671070098877
        5.838188648223877 6.2013630867004395 6.631675720214844 6.994843006134033 7.242042541503906 7.5472259521484375
        7.809684753417969 7.913451671600342 7.715080261230469 7.351905822753906 6.936859130859375 6.769004821777344
        7.007050037384033 7.226783275604248 6.912444591522217 6.3173298835754395 6.149482727050781 6.567580699920654
        7.031463623046875 7.037567615509033 6.7720561027526855 6.146430969238281 5.639823913574219 5.710014820098877
        6.271553039550781 7.003997325897217 7.5685882568359375 7.6845622062683105 7.187110900878906 6.4607696533203125
        5.887024402618408 5.426192760467529 4.971466064453125 4.4038238525390625 3.87890625 3.5645599365234375
        3.2105486392974854 3.097625732421875 3.4394378662109375 3.7263107299804688 3.753776788711548 3.6866378784179688
        3.5248870849609375 3.2837905883789062 3.115936279296875 3.3997650146484375 3.6835861206054688 3.872802495956421
        3.9613037109375 4.4343414306640625 4.879913330078125 4.824974060058594 4.785301208496094 5.056915283203125
        5.240028381347656 4.422134876251221 3.3906097412109375 3.4302825927734375 3.8148117065429688 4.2207112312316895
        4.5197906494140625 4.5319976806640625 4.5930328369140625 5.032501220703125 5.4658660888671875 5.679496765136719
        5.774101734161377 5.887023448944092 5.810722351074219 5.5146942138671875 4.7151103019714355 3.7568283081054688
        3.4272305965423584 3.8056561946868896 4.03759765625 4.0009765625 4.211555480957031 4.586929798126221
        4.730369567871094 3.98876953125 3.4119720458984375 3.1647720336914062 3.2288589477539062 3.6805343627929688
        3.985718011856079 4.0101318359375 4.144416809082031 4.3977203369140625 4.739524841308594 4.971466064453125
        5.139320373535156 4.998931884765625 4.626609802246094 4.3183674812316895 4.092529296875 4.000977039337158
        3.4699552059173584 1.8738404512405396 1.8494186401367188 2.5879669189453125 2.1759719848632812 2.972503662109375
        5.4750213623046875 5.734428405761719 6.05792236328125 5.825981140136719 5.5391082763671875 5.8473429679870605
        6.558426380157471 9.109771728515625 13.620406150817871 17.584762573242188 19.580673217773438 20.18189239501953
        19.8919677734375 18.912322998046875 16.0283203125 10.724205017089844 6.09759521484375 2.1240923404693604
        1.5869598388671875 1.7639694213867188 1.6388473510742188 1.6876755952835083 1.99896240234375 1.6876755952835083
        1.022369384765625 2.3285598754882812 3.4302825927734375 3.5584564208984375 3.079315185546875 2.7985458374023438
        3.3753511905670166 4.324470520019531 5.059967041015625 5.380416393280029 4.916534423828125 3.6378095149993896
        3.061004638671875 3.5615081787109375 4.171882629394531 4.312263488769531 3.8819580078125 3.2715835571289062
        3.073211669921875 3.2959976196289062 3.7690351009368896 4.278694152832031 4.721214294433594 5.1850972175598145
        5.789360523223877 6.4424591064453125 7.132179260253906 8.200325012207031 4.922637939453125 5.050812244415283
        5.5238494873046875 5.771049499511719 5.673393249511719 5.365150451660156 5.536056041717529 6.2471394538879395
        6.802574157714844 7.043670177459717 7.229835510253906 7.5533294677734375 7.89208984375 8.328498840332031
        8.474990844726562 8.316291809082031 7.9622802734375 7.351905822753906 6.857506275177002 6.704917907714844
        6.6133575439453125 6.250190258026123 5.95416259765625 6.015198230743408 6.186103820800781 6.222724914550781
        6.2166218757629395 5.89923095703125 5.3865203857421875 5.346839904785156 5.91754150390625 6.5462188720703125
        7.077239990234375 7.4587249755859375 7.5868988037109375 7.309181213378906 6.613357067108154 5.798515319824219
        5.172889709472656 4.681541442871094 4.254280090332031 3.87890625 3.3234634399414062 2.8504257202148438
        3.097625732421875 3.7995529174804688 4.171882629394531 3.872802495956421 3.2990493774414062 2.905364751815796
        2.7802352905273438 2.8351666927337646 2.7314071655273438 3.024383306503296 3.4882659912109375 3.9918212890625
        4.345832824707031 4.5564117431640625 4.873809814453125 5.075225830078125 5.117950439453125 4.950103759765625
        3.7141034603118896 3.3417739868164062 3.3967132568359375 3.6011807918548584 3.9490966796875 4.150520324707031
        4.4251861572265625 4.858543395996094 4.943999767303467 5.005035400390625 5.325477600097656 5.679497241973877
        5.713066101074219 5.294960021972656 4.5106353759765625 4.177986145019531 4.318367004394531 4.361091613769531
        3.976562738418579 3.921630859375 4.2481770515441895 4.834129333496094 4.773094177246094 3.711052179336548
        3.048797369003296 2.6673202514648438 2.8473739624023438 3.4669036865234375 3.7415695190429688 3.921630859375
        4.309211730957031 4.5808258056640625 4.828025817871094 4.7822489738464355 4.837181091308594 5.038604736328125
        5.075225830078125 4.791404724121094 4.5106353759765625 4.547256946563721 4.4068756103515625 3.1922378540039062
        2.850425958633423 4.007080078125 3.921630859375 2.6917343139648438 4.715110778808594 5.789360046386719
        6.08843994140625 5.6978068351745605 5.182044982910156 5.282752990722656 5.4567108154296875 6.5279083251953125
        10.129097938537598 14.630577087402344 17.322303771972656 18.872650146484375 20.0079345703125 20.27649688720703
        19.876708984375 19.641714096069336 19.327367782592773 17.78923988342285 14.355903625488281 9.198280334472656
        4.797508239746094 2.932830572128296 2.5940704345703125 1.8372116088867188 0.979644775390625 1.6968307495117188
        2.5574493408203125 2.7436141967773438 2.6276473999023438 2.8351669311523438 3.8880615234375 4.809715270996094
        5.5665740966796875 6.271553039550781 6.3875274658203125 5.081329345703125 3.7598800659179688 3.93994140625
        4.843284606933594 5.032501220703125 4.541152477264404 3.897217035293579 3.5462493896484375 3.5462491512298584
        3.790397882461548 4.095581531524658 4.4801177978515625 4.916534423828125 5.355995178222656 5.95111083984375
        6.5980987548828125 7.4678802490234375 5.4200897216796875 5.615402698516846 5.932799816131592 5.88092041015625
        5.706962585449219 5.5421600341796875 5.636772155761719 6.03656005859375 6.4973907470703125 6.836143493652344
        7.058929920196533 7.159645080566406 7.2237324714660645 7.599106311798096 8.343757629394531 8.755760192871094
        8.548233032226562 8.0538330078125 7.4190521240234375 6.845298767089844 6.4455108642578125 6.271553039550781
        6.237983703613281 6.05181884765625 5.829032897949219 5.713066101074219 5.774101734161377 5.7710490226745605
        5.4048309326171875 5.145423889160156 5.3895721435546875 5.832084655761719 6.08538818359375 6.3997344970703125
        6.952118396759033 7.422104358673096 7.211524486541748 6.335639953613281 5.4750213623046875 4.843284606933594
        4.419083118438721 4.156623840332031 3.7568283081054688 3.2044448852539062 3.070159912109375 3.5981292724609375
        4.3885650634765625 4.5991363525390625 4.138313293457031 3.5126800537109375 3.048797607421875 2.7191998958587646
        2.4750518798828125 2.8534774780273438 3.2959976196289062 3.6072847843170166 3.994873046875 4.742576599121094
        5.490279674530029 5.789360046386719 5.719170093536377 5.6031951904296875 4.5625152587890625 3.7965011596679688
        3.3356704711914062 3.3784027099609375 3.897216796875 4.4801177978515625 4.867698669433594 4.934844970703125
        4.5960845947265625 4.5564117431640625 4.913483142852783 5.273597717285156 5.5513153076171875 5.5269012451171875
        5.011138916015625 4.699852466583252 4.727318286895752 4.5686187744140625 3.9246826171875 3.8178634643554688
        4.275642395019531 4.730369567871094 4.654075622558594 3.5431976318359375 2.7893905639648438 2.5269317626953125
        2.999969720840454 3.6774826049804688 4.202400207519531 4.6082916259765625 4.950103282928467 4.944000244140625
        4.864646911621094 4.6143951416015625 4.5197906494140625 4.760887622833252 5.102691650390625 5.203407287597656
        5.203407287597656 5.200355529785156 5.011138916015625 4.3946685791015625 4.199348449707031 5.4078826904296875
        6.924652099609375 6.299018383026123 4.5319976806640625 5.340736389160156 5.5818328857421875 5.233924865722656
        5.023345947265625 4.4862213134765625 4.055908679962158 4.873809814453125 7.7089762687683105 11.084320068359375
        12.881866455078125 13.519699096679688 14.664146423339844 16.24805450439453 17.200233459472656 17.603073120117188
        18.19818878173828 19.049652099609375 18.591873168945312 15.9459228515625 12.750632286071777 9.384445190429688
        5.4628143310546875 3.064056396484375 1.1780166625976562 1.89520263671875 2.3926544189453125 1.5900115966796875
        2.2858352661132812 3.5218353271484375 4.812767028808594 5.5574188232421875 6.03961181640625 6.512649059295654
        6.881927490234375 6.299018859863281 4.980621337890625 4.974517822265625 5.88092041015625 6.131171703338623
        5.432297229766846 4.480117321014404 3.9124755859375 3.888061285018921 4.07421875 4.208503723144531
        4.400771617889404 4.831077575683594 5.246131896972656 5.737480163574219 6.134223461151123 6.5370635986328125
        7.135230541229248 7.132179260253906 6.918548583984375 6.4119415283203125 6.143379211425781 6.01519775390625
        5.92364501953125 6.01214599609375 6.3936309814453125 7.071136474609375 7.559432506561279 7.501450061798096
        7.141334533691406 7.287818908691406 8.130134582519531 8.883941650390625 8.874786376953125 8.597062110900879
        8.236947059631348 7.7089762687683105 7.159645080566406 6.762901306152344 6.769004821777344 7.025360107421875
        7.086395263671875 6.881927490234375 6.537064075469971 6.305122375488281 6.09454345703125 5.804618835449219
        5.5909881591796875 5.5085906982421875 5.5085906982421875 5.758842468261719 6.271553039550781 6.912445545196533
        7.1718525886535645 6.4821319580078125 5.551314830780029 5.063018798828125 4.791404724121094 4.6174468994140625
        4.309211730957031 3.7446212768554688 3.3448257446289062 3.4150240421295166 4.0040283203125 4.815818786621094
        5.279701232910156 5.087432861328125 4.290901184082031 3.2776870727539062 2.6947860717773438 2.874847650527954
        3.2074966430664062 3.5889737606048584 4.208503723144531 4.828025817871094 5.166786193847656 5.642875671386719
        6.03961181640625 5.98162841796875 5.096588134765625 3.9185791015625 3.4211273193359375 3.698845148086548
        4.248176574707031 4.666282653808594 4.824974060058594 4.626609802246094 4.342781066894531 4.4953765869140625
        4.824974060058594 5.172889709472656 5.5574188232421875 5.792411804199219 5.789360523223877 4.7456278800964355
        3.8666915893554688 3.6011812686920166 3.5157318115234375 3.7690351009368896 4.239021301269531 4.571671009063721
        4.547256946563721 3.6072845458984375 2.7710800170898438 2.819908380508423 3.7049484252929688 4.4740142822265625
        4.937896728515625 5.334632873535156 5.3804168701171875 4.974517822265625 4.660179138183594 4.3855133056640625
        4.351936340332031 4.449599742889404 4.739524841308594 4.989776611328125 5.124061584472656 5.346839427947998
        5.5207977294921875 5.246131896972656 4.837181091308594 5.2552876472473145 6.472976207733154 7.806632995605469
        5.099639892578125 4.8005595207214355 4.944000244140625 4.324470520019531 4.4373931884765625 3.8300704956054688
        2.4506378173828125 1.7426071166992188 4.190193176269531 6.634727478027344 7.7791666984558105 7.9073486328125
        8.557388305664062 11.246071815490723 14.487136840820312 15.973388671875 16.516616821289062 16.19617462158203
        14.899139404296875 15.063934326171875 16.916412353515625 18.698692321777344 16.400650024414062 9.070097923278809
        1.532028079032898 1.7151412963867188 3.4485929012298584 3.094573974609375 2.6856307983398438 4.242073059082031
        5.648979187011719 6.4088897705078125 6.5004425048828125 6.4516143798828125 6.527907848358154 6.5736846923828125
        6.4638214111328125 6.686607360839844 6.933807849884033 6.8605570793151855 6.500442981719971 6.01824951171875
        5.4139862060546875 4.886017322540283 4.5289459228515625 4.324470520019531 4.4618072509765625 5.108794689178467
        5.91448974609375 6.5095977783203125 6.582839488983154 6.4882354736328125 8.0233154296875 7.9073486328125
        7.483139514923096 6.979583263397217 6.8208842277526855 6.888031005859375 6.973480224609375 7.068084239959717
        7.284767150878906 7.794425964355469 8.334602355957031 8.368171691894531 7.968383312225342 7.953125
        8.490249633789062 8.813743591308594 8.697776794433594 8.676414489746094 8.645896911621094 8.404800415039062
        7.9805908203125 7.4953460693359375 7.263404846191406 7.4037933349609375 8.236947059631348 9.253211975097656
        9.213539123535156 8.020263671875 7.2115254402160645 6.698814868927002 6.05181884765625 5.673393249511719
        5.664237976074219 5.725273132324219 5.94805908203125 6.3783721923828125 6.930755615234375 6.765953063964844
        5.743583679199219 4.870750427246094 4.669334411621094 4.791404724121094 4.5777740478515625 3.9796142578125
        3.5309903621673584 3.2624282836914062 3.1678237915039062 3.5462493896484375 4.370246887207031 4.965362548828125
        4.651023864746094 3.6652753353118896 2.8290634155273438 2.7497177124023438 3.094573974609375 3.7568283081054688
        4.370246887207031 4.5442047119140625 4.651023864746094 5.151527404785156 5.816825866699219 6.009094715118408
        5.584885120391846 4.3763580322265625 3.3784027099609375 3.4669036865234375 3.8941650390625 4.211555480957031
        4.306159973144531 4.123054504394531 4.1138916015625 4.4343414306640625 4.766990661621094 5.072174072265625
        5.355994701385498 5.725273609161377 5.98162841796875 4.547256946563721 3.1983413696289062 3.073211669921875
        3.4119720458984375 3.89111328125 4.193244934082031 4.4190826416015625 4.4343414306640625 3.8209152221679688
        3.2929458618164062 3.6744308471679688 4.4648590087890625 5.005035877227783 5.026397705078125 5.096588134765625
        5.032501220703125 4.675438404083252 4.455703258514404 4.168830871582031 4.110839366912842 4.080322265625
        4.174934387207031 4.4373931884765625 4.715110778808594 5.081329345703125 5.5177459716796875 5.4780731201171875
        4.858543395996094 4.0894775390625 3.2685320377349854 3.894164800643921 4.031494140625 4.4404449462890625
        3.8605880737304688 3.042694091796875 3.1800308227539062 2.929779291152954 2.5818634033203125 1.3946990966796875
        0.8148422241210938 2.6215362548828125 4.5136871337890625 5.5391082763671875 6.244087219238281 9.115875244140625
        13.010040283203125 14.914397239685059 14.432204246520996 11.8778076171875 11.084320068359375 14.151434898376465
        18.417924880981445 21.613204956054688 20.325326919555664 9.012115478515625 1.5778045654296875 2.4506378173828125
        4.980621337890625 6.5218048095703125 4.510634899139404 5.197303771972656 6.302070617675781 7.229835510253906
        7.5014495849609375 7.1718525886535645 6.7079691886901855 6.805626392364502 7.4709320068359375 8.08740234375
        8.151496887207031 7.5716400146484375 6.933807373046875 6.900238037109375 7.092498779296875 6.585891246795654
        5.526900768280029 4.834129333496094 4.916534423828125 5.5116424560546875 6.219673156738281 6.826988220214844
        7.022308349609375 7.055878162384033 7.8951416015625 7.8890380859375 7.9500732421875 7.9378662109375
        7.831047058105469 7.809684753417969 7.806633472442627 7.7852702140808105 7.870719909667969 8.1026611328125
        8.243050575256348 8.288825988769531 8.441421508789062 8.761863708496094 9.237953186035156 9.402756690979004
        9.143348693847656 8.716087341308594 8.453628540039062 8.557389259338379 8.612319946289062 8.600112915039062
        8.310189247131348 7.870719909667969 7.953124523162842 8.487197875976562 9.561447143554688 9.488204956054688
        8.532974243164062 7.4678802490234375 6.6835551261901855 6.219673156738281 6.09149169921875 5.94500732421875
        5.838188171386719 6.244087219238281 6.946013927459717 7.284767150878906 6.3966827392578125 4.730369567871094
        3.885009765625 4.055908203125 4.260383605957031 4.068115234375 3.662224054336548 3.2959978580474854
        2.926727294921875 2.874847412109375 3.2807388305664062 3.7873458862304688 3.8758544921875 3.3539810180664062
        2.7192001342773438 2.734459161758423 3.3265151977539062 4.01318359375 4.327522277832031 4.4587554931640625
        4.727317810058594 5.185096740722656 5.706963062286377 5.923645496368408 5.87786865234375 5.304115295410156
        4.019286632537842 3.146461248397827 3.103729009628296 3.4424896240234375 3.7141036987304688 3.7263104915618896
        3.885009765625 4.159675598144531 4.4190826416015625 4.641868591308594 4.809715270996094 5.142372131347656
        5.3987274169921875 4.4618072509765625 3.366187810897827 3.186134099960327 3.5126800537109375 4.126106262207031
        4.306159973144531 4.4038238525390625 4.3916168212890625 4.068114757537842 3.96435546875 4.5442047119140625
        5.114898681640625 5.240028381347656 4.861595153808594 4.5655670166015625 4.568619251251221 4.4190826416015625
        4.345832824707031 4.0589599609375 3.848381280899048 3.7354660034179688 3.650017023086548 3.7720870971679688
        4.0955810546875 4.510634899139404 5.212562561035156 5.5909881591796875 5.352943420410156 4.687644958496094
        3.6469650268554688 2.7405624389648438 2.941986083984375 3.3173599243164062 2.923675537109375 2.990814208984375
        2.951141595840454 2.7344589233398438 2.5696563720703125 2.4628448486328125 1.7304000854492188 0.5584869384765625
        2.09967041015625 3.088470458984375 5.4658660888671875 10.013123512268066 14.127021789550781 14.688560485839844
        11.371192932128906 8.136238098144531 8.578750610351562 12.836082458496094 17.773977279663086 20.429092407226562
        19.80345916748047 9.460739135742188 1.7395552396774292 3.3051528930664062 6.01214599609375 7.974486827850342
        7.4343109130859375 7.174903869628906 7.300025463104248 7.794425964355469 8.279670715332031 8.413955688476562
        8.0538330078125 7.791374206542969 8.0416259765625 8.584855079650879 8.990752220153809 8.871726989746094
        8.282722473144531 7.803581714630127 7.675407409667969 7.5014495849609375 6.967376708984375 6.381423473358154
        6.170845031738281 6.4272003173828125 6.933806896209717 7.4037933349609375 7.4312591552734375 7.232887268066406
        7.4587249755859375 7.6815104484558105 7.861564636230469 8.1087646484375 8.554336547851562 9.103668212890625
        9.350868225097656 9.027373313903809 8.529922485351562 8.172859191894531 7.873779296875 7.782218933105469
        8.0751953125 8.603164672851562 9.195228576660156 9.482101440429688 9.314248085021973 8.740500450134277
        8.294929504394531 8.343758583068848 8.71303653717041 9.097564697265625 9.051788330078125 8.523818969726562
        8.383438110351562 8.655052185058594 9.051788330078125 9.179969787597656 9.271522521972656 8.960234642028809
        7.9744873046875 6.936859130859375 6.5492706298828125 6.222724914550781 5.825981140136719 5.94500732421875
        6.2959675788879395 7.083343982696533 6.979583263397217 5.4933319091796875 3.927734375 3.4119718074798584
        3.634758234024048 3.7293624877929688 3.4455413818359375 3.094573974609375 2.7802352905273438 2.6856307983398438
        2.7497177124023438 2.972503900527954 3.2868423461914062 3.027435302734375 2.5269317626953125 2.5971221923828125
        3.1891860961914062 3.7568283081054688 4.266487121582031 4.919586181640625 5.4628143310546875 5.578781604766846
        5.4475555419921875 5.258338928222656 5.148475646972656 5.224769592285156 4.968414306640625 3.912475824356079
        2.978607177734375 2.938934326171875 3.1708757877349854 3.4028167724609375 3.5859222412109375 3.7995529174804688
        4.07421875 4.351936340332031 4.5228424072265625 4.834129333496094 5.053863525390625 4.730369567871094
        3.933837890625 3.5035247802734375 3.4577484130859375 3.9185791015625 4.08642578125 4.290901184082031
        4.4068756103515625 4.351936340332031 4.6174468994140625 5.139320373535156 5.352943420410156 5.240027904510498
        4.989776611328125 4.5014801025390625 4.4221343994140625 4.257331848144531 4.129158020019531 3.9674072265625
        3.6225509643554688 3.2776870727539062 3.106781005859375 3.1708757877349854 3.4516448974609375 3.7476730346679688
        4.132209777832031 4.205451965332031 4.397720813751221 4.4038238525390625 3.9674072265625 3.6286544799804688
        3.2258071899414062 2.7985458374023438 2.685631036758423 3.012176513671875 2.941986083984375 2.7588729858398438
        2.5330355167388916 1.96539306640625 1.3458633422851562 0.35706329345703125 1.6632614135742188 2.8717877864837646
        4.727317810058594 8.850364685058594 11.545150756835938 10.07110595703125 7.129127502441406 6.811729431152344
        8.819847106933594 12.131111145019531 15.387435913085938 17.15140724182129 15.848259925842285 8.11181640625
        4.217658996582031 5.130165100097656 5.752739429473877 6.7903666496276855 8.0111083984375 8.279670715332031
        7.8707194328308105 7.94091796875 8.450576782226562 8.911407470703125 8.886993408203125 8.603164672851562
        8.520767211914062 8.825949668884277 9.298988342285156 9.591964721679688 9.414962768554688 8.771018981933594
        8.08740234375 7.754753112792969 7.626579284667969 7.3854827880859375 7.138282775878906 7.159645080566406
        7.5838470458984375 8.209480285644531 8.505508422851562 8.093505859375 6.5645294189453125 6.826988220214844
        7.351905822753906 7.4007415771484375 7.266456604003906 7.626579284667969 8.444473266601562 9.231850624084473
        9.543136596679688 9.384445190429688 8.981597900390625 8.447525024414062 8.252204895019531 8.487197875976562
        8.856468200683594 9.024321556091309 8.944977760314941 8.764915466308594 8.560440063476562 8.578750610351562
        8.758811950683594 8.981597900390625 8.993804931640625 8.792381286621094 8.835104942321777 9.088409423828125
        8.938873291015625 8.932769775390625 9.131141662597656 9.320350646972656 9.289834022521973 8.868675231933594
        7.843254566192627 6.527908802032471 5.6184539794921875 5.298011779785156 5.89007568359375 6.4455108642578125
        6.549271106719971 6.02435302734375 4.739524841308594 3.6622235774993896 3.5248870849609375 3.628654718399048
        3.3722989559173584 2.8046493530273438 2.3834991455078125 2.3377151489257812 2.3407669067382812 2.4414827823638916
        2.7191998958587646 2.685631036758423 2.4842071533203125 2.6612164974212646 3.1525650024414062 3.7415695190429688
        4.5228424072265625 5.343788146972656 5.829032897949219 5.783256530761719 5.310218811035156 4.721214294433594
        4.4557037353515625 4.5655670166015625 4.998931884765625 4.889068603515625 3.7141036987304688 2.978606939315796
        2.920623779296875 3.1983413696289062 3.3600845336914062 3.5859220027923584 3.9796142578125 4.342781066894531
        4.635765075683594 4.947052001953125 5.059967041015625 4.934844493865967 4.11083984375 3.4730072021484375
        3.106781005859375 3.3234634399414062 3.4363861083984375 3.6957929134368896 3.994873046875 4.3733062744140625
        5.008087158203125 5.270545959472656 5.056915283203125 4.983673095703125 5.185096740722656 4.824974060058594
        4.419083118438721 4.068115234375 3.8117599487304688 3.646965265274048 3.2013931274414062 2.703941583633423
        2.5727081298828125 2.7130966186523438 3.048797369003296 3.5889739990234375 4.11083984375 4.1138916015625
        4.06201171875 4.354988098144531 4.281745433807373 3.970458984375 3.5493009090423584 3.1922378540039062
        3.036590337753296 3.018280029296875 2.963348388671875 2.887054443359375 2.6276473999023438 2.1485064029693604
        1.586959719657898 0.8209457397460938 1.6022186279296875 2.975555419921875 2.7558212280273438 4.025390625
        4.5197906494140625 4.736473083496094 6.04876708984375 8.865623474121094 12.256232261657715 14.322334289550781
        15.503403663635254 15.622420310974121 14.258247375488281 11.004974365234375 7.187110900878906 5.313270568847656
        5.5909881591796875 6.894134521484375 7.974487781524658 8.310188293457031 7.9195556640625 7.718132019042969
        8.0477294921875 8.548233985900879 8.859519958496094 8.963287353515625 8.990753173828125 9.054840087890625
        9.213539123535156 9.378341674804688 9.234901428222656 8.694725036621094 8.139289855957031 7.9927978515625
        8.130134582519531 8.212532043457031 8.230842590332031 8.243049621582031 8.249153137207031 8.377334594726562
        8.664207458496094 8.67031192779541 9.109771728515625 8.545181274414062 7.760856628417969 6.707970142364502
        5.710014343261719 5.3865203857421875 5.740531921386719 6.472976207733154 7.074188232421875 7.4831390380859375
        7.763908386230469 7.971435546875 8.178962707519531 8.532973289489746 8.697776794433594 8.444473266601562
        8.230842590332031 8.383438110351562 8.673362731933594 8.923614501953125 9.015167236328125 8.978546142578125
        8.810691833496094 8.572648048400879 8.673362731933594 8.981597900390625 9.076202392578125 9.015166282653809
        8.847312927246094 8.75881290435791 8.941925048828125 9.20438289642334 8.948028564453125 8.008056640625
        7.107757568359375 6.750694274902344 6.884979724884033 6.845298767089844 6.793418884277344 6.4668731689453125
        5.4048309326171875 4.159675121307373 3.6561200618743896 3.9246826171875 4.248176574707031 3.8392257690429688
        3.097625732421875 2.6398544311523438 2.4323272705078125 2.4079132080078125 2.5055694580078125 2.7649765014648438
        3.033538818359375 3.118988037109375 3.4424893856048584 4.0833740234375 4.745628356933594 5.352943420410156
        5.679496765136719 5.438399791717529 4.919586181640625 4.644920349121094 4.4251861572265625 4.0009765625
        4.220710754394531 4.4770660400390625 4.190193176269531 3.5004732608795166 2.954193353652954 3.085418701171875
        3.323463201522827 3.7080001831054688 4.03759765625 4.205451965332031 4.4465484619140625 4.635765075683594
        4.5716705322265625 4.281745910644531 3.5462491512298584 2.847374200820923 2.2888870239257812 2.5177767276763916
        3.106781244277954 3.5859220027923584 3.89111328125 4.196296215057373 4.339728832244873 4.3794097900390625
        4.297004699707031 4.4831695556640625 4.965362548828125 4.818870544433594 4.226814270019531 3.5218350887298584
        3.1647720336914062 2.899261474609375 2.4964141845703125 2.4353790283203125 2.4231717586517334 2.7100448608398438
        3.3539810180664062 4.025390625 4.1138916015625 3.961303472518921 3.9857177734375 4.162727355957031
        4.5411529541015625 4.3763580322265625 3.7629318237304688 3.5218353271484375 3.3387224674224854 3.036590576171875
        2.832115411758423 2.6001741886138916 2.3499221801757812 2.05389404296875 1.6785202026367188 1.4069061279296875
        1.4465789794921875 1.2482070922851562 0.25635528564453125 0.881988525390625 1.8005903959274292 3.5615084171295166
        6.967376708984375 10.08941650390625 12.268440246582031 14.859458923339844 17.258216857910156 17.578659057617188
        15.344703674316406 10.05279541015625 5.288856029510498 5.365150451660156 7.937865734100342 8.529922485351562
        7.843254089355469 8.0172119140625 8.319343566894531 8.313240051269531 8.374282836914062 8.624534606933594
        8.981596946716309 9.195229530334473 9.067047119140625 8.645896911621094 8.261360168457031 8.160652160644531
        8.0965576171875 7.831047534942627 7.5716400146484375 7.480086803436279 7.6113128662109375 8.038573265075684
        8.75576114654541 9.488204956054688 9.775077819824219 9.488204956054688 8.987701416015625 8.584854125976562
        9.701835632324219 9.317298889160156 9.34476375579834 9.591963768005371 9.173866271972656 7.931762218475342
        6.799522876739502 6.375320911407471 6.295967102050781 5.844291687011719 5.3773651123046875 5.786308288574219
        6.817832946777344 7.5685882568359375 7.852409362792969 7.8829345703125 7.8829345703125 8.0599365234375
        8.365119934082031 8.737448692321777 9.079255104064941 9.231850624084473 9.100617408752441 8.868675231933594
        8.935821533203125 9.186073303222656 9.283729553222656 9.088409423828125 8.816795349121094 8.603164672851562
        8.600112915039062 8.767966270446777 8.880889892578125 8.728294372558594 8.572648048400879 8.886993408203125
        9.170814514160156 8.767967224121094 8.059937477111816 7.5289154052734375 6.6133575439453125 5.2644429206848145
        4.01318359375 3.7903976440429688 4.6174468994140625 5.1942524909973145 4.782249450683594 3.985718011856079
        3.3784027099609375 3.042694091796875 2.975555419921875 3.4638519287109375 3.7629318237304688 3.4943695068359375
        3.3967132568359375 3.7965009212493896 4.321418762207031 4.873809814453125 5.206459045410156 5.017242431640625
        4.4953765869140625 4.4557037353515625 4.4953765869140625 3.6774826049804688 3.4424898624420166 3.6317059993743896
        3.7690353393554688 3.7049484252929688 3.3021011352539062 3.1434097290039062 3.4424898624420166 3.8544845581054688
        4.0162353515625 4.0772705078125 4.184089660644531 4.2756428718566895 4.153572082519531 3.643913507461548
        2.935882806777954 2.3071975708007812 1.7242966890335083 2.09967041015625 3.1525650024414062 3.830070734024048
        4.010132312774658 3.897216796875 3.5035247802734375 3.643913507461548 3.7995529174804688 4.226814270019531
        4.660179138183594 4.4557037353515625 3.933837652206421 3.082366943359375 2.7771835327148438 2.6581649780273438
        2.5177764892578125 2.679527521133423 2.874847173690796 3.3051528930664062 3.8758544921875 4.321418762207031
        4.2054524421691895 3.994872808456421 3.906372308731079 3.7263107299804688 3.7079999446868896 3.8422775268554688
        3.857536554336548 3.7476727962493896 3.5645596981048584 3.2807388305664062 3.067108154296875 2.6154327392578125
        2.2156448364257812 1.9074095487594604 1.6296920776367188 1.4587860107421875 1.1902236938476562 0.5340728759765625
        0.7660140991210938 1.062042236328125 0.924713134765625 3.231910467147827 6.4851837158203125 7.415999889373779
        7.025360107421875 11.026336669921875 16.879791259765625 19.202247619628906 18.692588806152344 14.770957946777344
        9.488204956054688 8.566543579101562 9.689628601074219 9.87274169921875 8.08740234375 7.4709320068359375
        8.0172119140625 8.703880310058594 9.100616455078125 9.137245178222656 9.103668212890625 9.057890892028809
        8.737449645996094 8.075194358825684 7.4007415771484375 7.010100841522217 6.909393310546875 6.933807373046875
        6.939910888671875 6.930755615234375 7.126075744628906 7.644889831542969 8.355964660644531 9.167762756347656
        9.863577842712402 10.028382301330566 9.353919982910156 8.139289855957031 9.784234046936035 9.533982276916504
        9.329505920410156 9.408859252929688 9.726249694824219 10.013123512268066 9.93682861328125 9.576705932617188
        8.829002380371094 7.483139514923096 6.241035461425781 5.880920886993408 6.302070617675781 6.5797882080078125
        6.5919952392578125 6.942962646484375 7.5319671630859375 8.160652160644531 8.590957641601562 8.725242614746094
        8.920562744140625 9.155555725097656 9.204383850097656 9.134193420410156 9.173866271972656 9.524826049804688
        9.805595397949219 9.530929565429688 8.966339111328125 8.694725036621094 8.685569763183594 8.734397888183594
        8.969390869140625 8.920562744140625 8.426162719726562 8.185066223144531 8.716087341308594 9.308143615722656
        9.067046165466309 8.328498840332031 7.315284729003906 6.146430492401123 5.124061107635498 4.593032360076904
        4.962311267852783 5.340736389160156 4.931793212890625 4.330574035644531 4.0162353515625 3.6591720581054688
        3.3326187133789062 3.7781906127929688 4.0772705078125 3.7018966674804688 3.2410659790039062 3.2654800415039062
        3.6774826049804688 4.287848949432373 4.7639384269714355 4.779197692871094 4.4434967041015625 4.4892730712890625
        4.791404724121094 4.239021301269531 3.3295669555664062 3.1525650024414062 3.3722991943359375 3.5157318115234375
        3.5157318115234375 3.4638519287109375 3.6347579956054688 3.8270184993743896 3.994873046875 4.193244934082031
        4.242073059082031 4.400772571563721 4.3885650634765625 3.8331222534179688 2.957244634628296 2.5574493408203125
        2.2675247192382812 2.5269317626953125 3.3173599243164062 3.7537763118743896 3.952148675918579 3.933837890625
        3.4760587215423584 3.6133880615234375 3.8087081909179688 4.318367004394531 4.651023864746094 4.6052398681640625
        4.4465484619140625 3.909423828125 3.109832525253296 2.7985458374023438 2.7375106811523438 2.8717877864837646
        3.2441177368164062 3.8361740112304688 4.214607238769531 4.223762512207031 4.11083984375 3.921630859375
        3.6774826049804688 3.3692398071289062 3.2227554321289062 3.3021011352539062 3.3875579833984375 3.5035247802734375
        3.3936614990234375 3.2715835571289062 3.1403579711914062 2.7558212280273438 2.4353790283203125 2.1546096801757812
        1.8707809448242188 1.6327438354492188 1.2726211547851562 0.6988754868507385 0.7721176147460938 0.964385986328125
        1.5839080810546875 3.4150238037109375 4.684593200683594 4.025390625 3.4699554443359375 6.125068187713623
        11.059906005859375 15.622421264648438 18.14936065673828 18.793296813964844 15.924561500549316 11.545150756835938
        10.641807556152344 11.230812072753906 9.836112976074219 7.4495697021484375 6.7293314933776855 7.870719909667969
        9.012115478515625 9.033477783203125 8.282723426818848 7.5411224365234375 7.229835510253906 7.187110900878906
        7.013153076171875 6.674400329589844 6.472976207733154 6.4882354736328125 6.625572204589844 6.765953540802002
        6.845298767089844 6.958221435546875 7.312232971191406 7.971435546875 8.557388305664062 8.920562744140625
        8.850364685058594 8.288825988769531 9.845268249511719 9.88189697265625 9.762871742248535 9.570602416992188
        9.451583862304688 9.378341674804688 9.329505920410156 9.295936584472656 8.902252197265625 7.809685230255127
        6.976531982421875 6.790367126464844 6.765953063964844 6.6194610595703125 6.10369873046875 6.009094715118408
        6.5645294189453125 7.849357604980469 8.948028564453125 9.265419006347656 9.021270751953125 8.914459228515625
        8.996856689453125 8.975494384765625 9.045684814453125 9.500411987304688 10.058899879455566 10.04058837890625
        9.341712951660156 8.917510986328125 9.103668212890625 9.234901428222656 9.19522762298584 8.786277770996094
        8.0660400390625 7.727287292480469 8.191169738769531 8.731346130371094 8.633689880371094 8.032470703125
        7.226783752441406 6.5950469970703125 6.057921886444092 5.563522815704346 5.273597717285156 5.105743408203125
        4.956207275390625 4.763938903808594 4.4099273681640625 3.8300704956054688 3.4241790771484375 3.5859222412109375
        3.8270187377929688 3.7812423706054688 3.3875579833984375 3.1708755493164062 3.4852142333984375 4.0467529296875
        4.5075836181640625 4.886017322540283 5.066070556640625 5.081329345703125 5.270545959472656 5.224769115447998
        4.162727355957031 3.5065765380859375 3.6988446712493896 3.7202072143554688 3.4638519287109375 3.5279388427734375
        3.6744308471679688 3.8605880737304688 3.98876953125 3.9918212890625 3.982666015625 4.275642395019531
        4.663230895996094 4.5747222900390625 3.6256027221679688 3.3814544677734375 3.3387222290039062 3.115936040878296
        3.3967132568359375 3.7110519409179688 4.0284423828125 4.257331848144531 3.976562261581421 4.01318359375
        4.092529296875 4.361091613769531 4.5411529541015625 4.623558044433594 4.889068603515625 4.928741455078125
        4.324470520019531 3.7324142456054688 3.180030584335327 2.8565289974212646 3.170875310897827 3.747673273086548
        3.96435546875 3.8453290462493896 3.6622238159179688 3.2837905883789062 2.978606939315796 2.8565289974212646
        2.8687362670898438 2.945037841796875 3.033538818359375 3.1769790649414062 3.2258071899414062 3.2837905883789062
        3.1312026977539062 2.7253036499023438 2.3438186645507812 2.108825922012329 1.8768919706344604 1.6266403198242188
        1.2817764282226562 0.9033508896827698 1.406906008720398 2.3285598754882812 2.7527694702148438 3.015228271484375
        2.2614214420318604 1.110870361328125 1.4801483154296875 1.8494186401367188 4.321418762207031 10.113829612731934
        15.042572021484375 16.0924072265625 11.487167358398438 8.508560180664062 9.588912963867188 12.103636741638184
        12.573623657226562 9.521774291992188 6.491287708282471 6.857505798339844 8.291877746582031 8.450576782226562
        7.156593322753906 6.152534484863281 6.558425426483154 7.260353088378906 7.232887268066406 6.634727478027344
        6.216621398925781 6.183051586151123 6.308174133300781 6.4668731689453125 6.314277648925781 6.12200927734375
        6.6286234855651855 8.020263671875 9.387496948242188 10.394607543945312 10.901215553283691 10.031434059143066
        9.91851806640625 10.040587425231934 10.03143310546875 10.01007080078125 10.10772705078125 9.97955322265625
        9.445480346679688 8.761863708496094 7.971436023712158 7.336646556854248 7.272560119628906 7.293922424316406
        7.336647033691406 7.226783752441406 6.848350524902344 6.244087219238281 5.95721435546875 6.5065460205078125
        7.7272868156433105 8.899200439453125 9.207435607910156 8.841209411621094 8.413955688476562 8.230842590332031
        8.383438110351562 8.835105895996094 9.265419960021973 9.402755737304688 9.231849670410156 9.292884826660156
        9.710990905761719 9.842216491699219 9.512619018554688 8.944976806640625 8.239997863769531 7.983642101287842
        8.169807434082031 8.532974243164062 8.474990844726562 8.0233154296875 7.4098968505859375 7.116912841796875
        7.010101318359375 6.7110209465026855 6.143379211425781 5.539108753204346 5.230873107910156 5.215614318847656
        5.032500743865967 4.602188587188721 4.0986328125 3.5676116943359375 3.2898943424224854 3.3173599243164062
        3.4058685302734375 3.3082046508789062 3.6133880615234375 3.976562738418579 4.199348449707031 4.651023864746094
        5.075225830078125 5.2034077644348145 5.258338928222656 5.4170379638671875 5.017241954803467 4.0589599609375
        3.894164800643921 4.0711669921875 3.7690353393554688 3.4730074405670166 3.3326187133789062 3.4089202880859375
        3.3448257446289062 3.3448259830474854 3.6103363037109375 4.141365051269531 4.791404724121094 4.766990661621094
        3.964355230331421 3.6072847843170166 3.4974212646484375 3.2410659790039062 3.3906097412109375 3.91552734375
        4.480117321014404 4.6113433837890625 4.226814270019531 4.177986145019531 4.239020824432373 4.336677551269531
        4.5197906494140625 4.5838775634765625 4.4465484619140625 4.0101318359375 3.7720870971679688 3.6988449096679688
        3.3570327758789062 2.896209716796875 2.981659173965454 3.3784027099609375 3.4119720458984375 3.4455413818359375
        3.3448259830474854 2.887054443359375 2.5391390323638916 2.4994659423828125 2.4048614501953125 2.5086212158203125
        2.8717877864837646 3.1800308227539062 3.2410659790039062 3.2105484008789062 3.064056396484375 2.7100448608398438
        2.2858352661132812 1.94403076171875 1.6602096557617188 1.3580703735351562 0.985748291015625 0.9979553818702698
        2.2431106567382812 4.474014759063721 5.7985148429870605 5.6092987060546875 4.812767028808594 2.932830810546875
        1.3733367919921875 1.2146377563476562 2.5788116455078125 5.847343444824219 9.146400451660156 8.774069786071777
        5.130165100097656 5.8595499992370605 6.341743469238281 9.646903991699219 13.617354393005371 14.954071044921875
        13.617355346679688 11.655021667480469 11.20944881439209 11.621444702148438 11.648918151855469 11.755729675292969
        11.658073425292969 10.76693058013916 9.460739135742188 7.5685882568359375 5.4414520263671875 5.4017791748046875
        6.01214599609375 6.167793273925781 5.801567077636719 5.6092987060546875 5.7832560539245605 7.065032958984375
        9.192177772521973 11.856436729431152 14.270455360412598 15.024261474609375 9.344764709472656 9.527877807617188
        9.707939147949219 9.87274169921875 10.135200500488281 10.379348754882812 10.473953247070312 10.126044273376465
        9.103668212890625 8.389541625976562 8.282722473144531 8.0233154296875 7.690666198730469 7.5594329833984375
        7.547226428985596 6.988739013671875 5.92059326171875 5.6031951904296875 6.07012939453125 7.138282775878906
        7.910400390625 7.870719909667969 7.559433460235596 7.5563812255859375 7.9256591796875 8.417007446289062
        8.886994361877441 9.109771728515625 9.146400451660156 9.28067684173584 9.793388366699219 10.211494445800781
        9.808647155761719 9.100616455078125 8.584854125976562 8.575698852539062 8.890045166015625 8.941926002502441
        8.691673278808594 8.276618957519531 7.849357604980469 7.5472259521484375 7.6235270500183105 7.867668151855469
        7.6143646240234375 6.524857044219971 5.5085906982421875 5.142372131347656 5.203407287597656 5.285804748535156
        4.916534423828125 4.019287109375 3.167823553085327 2.960296869277954 3.085418939590454 3.4028167724609375
        3.6896896362304688 3.6866378784179688 3.8544845581054688 4.321418762207031 4.754783630371094 5.001983642578125
        5.3102192878723145 5.6001434326171875 5.499435901641846 4.3977203369140625 3.6317062377929688 3.9002685546875
        3.9429931640625 3.4760591983795166 3.070159912109375 2.8321151733398438 2.7314071655273438 3.1312026977539062
        3.8422775268554688 4.623558044433594 5.301063537597656 4.632713317871094 3.4638519287109375 2.8077011108398438
        2.6154327392578125 2.8382186889648438 3.3448259830474854 4.0498046875 4.504532337188721 4.266487121582031
        3.9002685546875 3.8514328002929688 4.03759765625 4.248176574707031 4.281745910644531 4.0833740234375
        3.5340423583984375 3.2502212524414062 2.966400384902954 2.938934326171875 2.993865966796875 2.902313232421875
        2.960296869277954 3.115936517715454 2.975555419921875 2.941986083984375 3.006072998046875 2.905364751815796
        2.6703720092773438 2.5147247314453125 2.2675247192382812 2.2553176879882812 2.4140167236328125 2.7863388061523438
        3.048797369003296 2.978607177734375 2.7466659545898438 2.4414825439453125 2.2125930786132812 1.95623779296875
        1.6449508666992188 1.2665176391601562 0.793479859828949 0.6439437866210938 1.6724166870117188 3.5554049015045166
        4.840232849121094 5.3315815925598145 5.349891662597656 3.9185791015625 1.7731248140335083 1.031524658203125
        1.7853317260742188 3.097625732421875 4.626609802246094 5.175940990447998 4.3794097900390625 4.879912853240967
        5.197303771972656 6.01214599609375 10.303047180175781 14.667198181152344 16.568496704101562 16.714988708496094
        16.21753692626953 15.247048377990723 14.490187644958496 15.024260520935059 15.598007202148438 16.0374755859375
        16.708885192871094 15.710929870605469 11.127052307128906 4.895172119140625 3.1861345767974854 3.7629318237304688
        4.263435363769531 4.5167388916015625 4.5289459228515625 4.937896728515625 6.3905792236328125 9.167762756347656
        12.094482421875 14.337593078613281 8.133186340332031 8.392593383789062 8.68557071685791 8.981597900390625
        9.466842651367188 10.174873352050781 10.696739196777344 10.754722595214844 10.528884887695312 10.184027671813965
        9.653007507324219 8.908355712890625 8.160652160644531 7.602157115936279 7.315284729003906 6.897186279296875
        6.128120422363281 5.4689178466796875 5.316322326660156 5.630668640136719 5.880920886993408 6.07318115234375
        6.433304309844971 7.013153076171875 7.754753589630127 8.395644187927246 8.774070739746094 8.880889892578125
        8.902252197265625 9.063995361328125 9.399703979492188 9.753715515136719 9.710990905761719 9.146400451660156
        8.706932067871094 9.085357666015625 9.750664710998535 9.622489929199219 8.774070739746094 8.319343566894531
        8.319343566894531 8.566542625427246 8.590957641601562 8.166755676269531 7.754753112792969 7.013153076171875
        5.98773193359375 5.221717357635498 4.913483142852783 5.008087635040283 5.090484619140625 4.6082916259765625
        3.7812423706054688 3.1983413696289062 3.091522455215454 3.3112564086914062 3.4272308349609375 3.4516448974609375
        3.7324140071868896 4.1199951171875 4.336677551269531 4.5899810791015625 5.008087158203125 5.3895721435546875
        5.5757293701171875 5.142372131347656 4.019287109375 3.4791107177734375 3.4974212646484375 3.3082046508789062
        3.070159912109375 2.7802352905273438 2.938934326171875 3.5645599365234375 4.4373931884765625 5.197303771972656
        5.5482635498046875 4.5686187744140625 3.003021240234375 1.98370361328125 1.7883834838867188 2.4903106689453125
        3.1922378540039062 3.637809991836548 3.5370941162109375 3.1891860961914062 3.1891860961914062 3.015228509902954
        3.2227556705474854 3.6042327880859375 3.5340423583984375 3.3875579833984375 2.874847412109375 3.048797369003296
        3.161720037460327 3.2105484008789062 3.3112566471099854 3.3021011352539062 3.1678237915039062 2.972503662109375
        2.7527694702148438 2.6734237670898438 2.7039413452148438 2.929779052734375 3.106781005859375 2.899261474609375
        2.5025177001953125 2.3071975708007812 2.1759722232818604 2.2705764770507812 2.5360870361328125 2.697838068008423
        2.4689486026763916 2.02032470703125 1.7731245756149292 1.6541061401367188 1.4221649169921875 1.1597061157226562
        0.8850403428077698 0.5371246337890625 1.074249267578125 1.7578659057617188 1.8158491849899292 1.7700730562210083
        1.7609176635742188 1.5259246826171875 1.019317626953125 0.9552306532859802 1.394699215888977 2.00506591796875
        3.012176513671875 4.351936340332031 4.5075836181640625 4.144416809082031 5.035552978515625 4.5747222900390625
        5.124061584472656 9.219642639160156 13.348793029785156 15.109711647033691 14.374221801757812 11.456649780273438
        9.90936279296875 12.134162902832031 15.060882568359375 17.468795776367188 19.138160705566406 18.482009887695312
        16.913360595703125 14.691612243652344 10.800498962402344 5.853446960449219 4.1077880859375 4.4068756103515625
        4.644920349121094 4.992828369140625 5.557418346405029 6.4821319580078125 7.629631042480469 9.140296936035156
        7.6082611083984375 7.650993347167969 7.785270690917969 8.081298828125 8.648948669433594 9.475996971130371
        10.174874305725098 10.501419067382812 10.599074363708496 10.684532165527344 10.797447204589844 10.376296997070312
        9.295937538146973 7.953125476837158 6.567580699920654 5.5330047607421875 5.240028381347656 5.4322967529296875
        5.4628143310546875 5.1484761238098145 4.846336364746094 5.017242431640625 5.6154022216796875 6.396682262420654
        7.119964599609375 7.675407409667969 8.154548645019531 8.389541625976562 8.407852172851562 8.548233032226562
        8.758811950683594 8.981597900390625 9.265419006347656 9.091461181640625 8.709983825683594 8.911407470703125
        9.546187400817871 9.537033081054688 8.838157653808594 8.432266235351562 8.465835571289062 8.636741638183594
        8.75270938873291 8.352912902832031 7.580794811248779 7.043670654296875 6.6072540283203125 6.06707763671875
        5.4963836669921875 5.111846923828125 4.892120361328125 4.5014801025390625 4.0894775390625 3.7903976440429688
        3.3417739868164062 3.039642333984375 3.073211669921875 3.3539810180664062 3.7171554565429688 3.909423828125
        3.89111328125 3.8056564331054688 4.0467529296875 4.647972106933594 5.288856506347656 5.719169616699219
        4.886016845703125 3.3478775024414062 2.935882329940796 2.999969482421875 2.981658935546875 2.7436141967773438
        3.112884521484375 3.9307861328125 4.5594635009765625 5.029449939727783 5.133216857910156 4.3763580322265625
        2.896209716796875 1.5564422607421875 1.5228729248046875 2.3010940551757812 3.079315185546875 3.6042327880859375
        3.030487060546875 2.4567413330078125 2.04168701171875 1.8158494234085083 2.2217483520507812 2.926727294921875
        2.960296630859375 3.1281509399414062 2.978607177734375 3.2624285221099854 3.720207452774048 3.6774823665618896
        3.7141036987304688 3.6164398193359375 3.2166519165039062 2.7039413452148438 2.4323272705078125 2.4414825439453125
        2.5574495792388916 2.716148614883423 2.8595809936523438 2.920623779296875 2.8351669311523438 2.5543975830078125
        2.3041458129882812 2.1546096801757812 2.1240921020507812 2.1424026489257812 2.1820755004882812 1.8768919706344604
        1.6418991088867188 1.5655975341796875 1.5594940185546875 1.2787246704101562 0.7629623413085938 1.5411834716796875
        3.3661880493164062 4.303108215332031 3.1678237915039062 1.049835205078125 0.24414826929569244 0.4516754448413849
        0.7171859741210938 1.4862518310546875 2.5330352783203125 3.048797607421875 3.1647722721099854 3.1922378540039062
        2.7405624389648438 3.5401458740234375 4.4007720947265625 4.5228424072265625 3.3478775024414062 3.4638519287109375
        7.776115417480469 12.436294555664062 12.71401309967041 7.098602294921875 5.4445037841796875 8.194221496582031
        11.777091979980469 14.389480590820312 16.19312286376953 17.069000244140625 17.88690185546875 18.637659072875977
        18.01202392578125 11.838127136230469 3.8300704956054688 2.978607177734375 3.2929458618164062 4.599136829376221
        5.4628143310546875 5.444503307342529 5.5909881591796875 6.476028919219971 6.7903666496276855 6.784263610839844
        6.765953063964844 6.848350524902344 7.113861083984375 7.586899280548096 8.325447082519531 9.326454162597656
        10.187080383300781 10.550248146057129 10.608230590820312 10.660118103027344 10.345771789550781 9.070098876953125
        7.147437572479248 5.758842468261719 5.233924865722656 4.971466064453125 4.5014801025390625 4.290900707244873
        4.5564117431640625 5.075225830078125 5.5696258544921875 5.94500732421875 6.155586242675781 6.4149932861328125
        7.037567138671875 7.5838470458984375 7.849357604980469 7.974487781524658 8.172859191894531 8.453628540039062
        8.862571716308594 9.076202392578125 8.944976806640625 8.923614501953125 9.094512939453125 8.944976806640625
        8.697776794433594 9.012115478515625 9.533982276916504 9.259315490722656 8.847312927246094 8.874786376953125
        8.825950622558594 8.420059204101562 7.898193359375 7.4892425537109375 6.906341552734375 6.128119945526123
        5.4322967529296875 4.980621337890625 4.681541442871094 4.278694152832031 3.6622238159179688 3.039642333984375
        2.871788263320923 3.2044451236724854 3.5309906005859375 3.5859222412109375 3.5462493896484375 3.5157320499420166
        3.9429931640625 4.760887145996094 5.4567108154296875 5.98773193359375 5.710014343261719 3.9063720703125
        2.893157958984375 2.877898931503296 2.8443219661712646 2.5025174617767334 3.048797845840454 3.9124755859375
        4.229866027832031 4.678489685058594 4.672386169433594 3.909423828125 2.957244634628296 1.7487107515335083
        1.7517623901367188 2.3621292114257812 3.277686834335327 3.9307861328125 3.2685317993164062 2.3773956298828125
        1.6602096557617188 1.6480026245117188 2.2614212036132812 2.874847412109375 2.6306991577148438 2.6520614624023438
        2.966400384902954 3.5554046630859375 3.888061761856079 3.4638519287109375 3.3814544677734375 3.4424896240234375
        3.1250991821289062 2.4475858211517334 2.1790239810943604 2.3041458129882812 2.4323272705078125 2.5666046142578125
        2.6551132202148438 2.7741317749023438 2.972503662109375 2.938934326171875 2.700889825820923 2.4262239933013916
        2.2522661685943604 2.108825922012329 2.11492919921875 2.1759719848632812 2.1668167114257812 1.90130615234375
        1.6998826265335083 1.6113739013671875 1.593063235282898 2.4994659423828125 4.0162353515625 5.4384002685546875
        4.870750904083252 1.92266845703125 0.4821929931640625 0.8087387084960938 0.8056869506835938 2.3865511417388916
        4.1779866218566895 4.824974060058594 4.779197692871094 3.9674072265625 2.1424026489257812 2.874847650527954
        3.4852142333984375 3.8026046752929688 3.4546968936920166 2.3010940551757812 2.6856307983398438 7.510605335235596
        10.05279541015625 5.352943420410156 3.881958246231079 4.196296215057373 5.713066101074219 7.287818908691406
        9.759819030761719 13.501387596130371 16.699729919433594 18.387405395507812 18.567461013793945 15.036468505859375
        5.200355529785156 1.8494186401367188 2.3621292114257812 3.079315185546875 4.4373931884765625 5.206459045410156
        5.5055389404296875 6.3844757080078125 7.818840026855469 7.580794811248779 7.028411865234375 6.4699249267578125
        5.960265636444092 5.792411804199219 6.302070617675781 7.3793792724609375 8.490249633789062 9.28983211517334
        9.668266296386719 9.909361839294434 10.04974365234375 9.579758644104004 8.273567199707031 6.924651622772217
        6.134223461151123 5.645927429199219 5.203407287597656 5.191200256347656 5.352943420410156 5.4261932373046875
        5.557418346405029 5.7527384757995605 5.786308288574219 5.786308288574219 6.07928466796875 6.5431671142578125
        7.061981678009033 7.3732757568359375 7.593002796173096 7.9287109375 8.371222496032715 8.792381286621094
        8.957183837890625 8.981597900390625 8.896148681640625 8.520767211914062 8.526870727539062 9.573654174804688
        10.678428649902344 10.284736633300781 9.323402404785156 9.134193420410156 9.418014526367188 9.396652221679688
        8.838156700134277 8.215583801269531 7.785270690917969 7.242042541503906 6.4210968017578125 6.131172180175781
        6.06707763671875 5.6123504638671875 4.5899810791015625 3.4577484130859375 2.887054443359375 3.021331787109375
        3.3784027099609375 3.5004730224609375 3.6225509643554688 3.8270184993743896 4.263435363769531 4.956207275390625
        5.6001434326171875 5.99383544921875 6.012146472930908 4.751731872558594 3.4241790771484375 2.896209716796875
        2.7588729858398438 2.5666046142578125 3.1739275455474854 4.132209777832031 4.864646911621094 5.258338928222656
        4.672386169433594 3.7232589721679688 3.1739273071289062 2.4353790283203125 2.2644729614257812 2.5238800048828125
        3.289893865585327 3.738517999649048 3.2959976196289062 2.5421905517578125 2.02337646484375 2.05084228515625
        2.7680282592773438 3.1739275455474854 3.1891860961914062 3.015228271484375 3.061004638671875 3.3997650146484375
        3.4363861083984375 2.941986083984375 2.981658935546875 3.1800308227539062 3.036590576171875 2.4689483642578125
        2.1912307739257812 2.3194048404693604 2.3712844848632812 2.3926544189453125 2.4140167236328125 2.3957061767578125
        2.5391387939453125 2.7710800170898438 2.829063653945923 2.8015975952148438 2.6368026733398438 2.4994659423828125
        2.4201202392578125 2.4781036376953125 2.4811553955078125 2.2186965942382812 2.026428461074829 2.1271438598632812
        2.3468704223632812 2.4475860595703125 2.04473876953125 2.6001739501953125 3.4943695068359375 2.10272216796875
        0.31128692626953125 0.698875367641449 0.8056869506835938 2.285835027694702 4.232917785644531 5.935852527618408
        7.165748596191406 7.6082611083984375 5.084381580352783 2.3010940551757812 2.896209716796875 3.1678240299224854
        3.051849365234375 2.3773956298828125 1.2909317016601562 2.6062774658203125 4.876861572265625 3.042694091796875
        2.877898931503296 2.4689483642578125 1.7883833646774292 2.03253173828125 4.055908203125 8.441421508789062
        13.507493019104004 16.855369567871094 17.98760986328125 18.25006866455078 14.246040344238281 5.94500732421875
        2.3804473876953125 3.5523529052734375 4.4801177978515625 4.971466064453125 5.2797017097473145 6.237983703613281
        7.4434661865234375 7.818840026855469 8.142341613769531 8.124031066894531 7.5228118896484375 6.527907848358154
        5.819878101348877 5.682548522949219 5.96636962890625 6.527908802032471 7.287818908691406 8.197273254394531
        9.060943603515625 9.472946166992188 9.112823486328125 8.151496887207031 7.153541564941406 6.753746032714844
        7.235939025878906 8.081298828125 8.276618957519531 7.699821472167969 7.165748119354248 6.946014404296875
        6.5462188720703125 5.98468017578125 5.792411804199219 5.96942138671875 6.5004425048828125 6.958221435546875
        7.220680236816406 7.4678802490234375 7.818840503692627 8.279670715332031 8.575698852539062 8.691673278808594
        8.618422508239746 8.325448036193848 8.429214477539062 9.527877807617188 10.373245239257812 9.817802429199219
        8.838157653808594 8.557388305664062 9.097564697265625 9.552291870117188 9.381393432617188 8.883941650390625
        8.551284790039062 8.081298828125 7.354957580566406 7.046722412109375 7.043670654296875 6.906341552734375
        6.176948070526123 5.078277587890625 4.193244934082031 3.958251953125 4.025390625 3.91552734375
        3.9002685546875 4.06201171875 4.324470043182373 4.647972106933594 5.127113342285156 5.5360565185546875
        5.5299530029296875 4.852439880371094 3.7629318237304688 2.945037841796875 2.850425958633423 3.1312026977539062
        3.7476730346679688 4.684593200683594 5.5330047607421875 5.734428405761719 5.102691650390625 4.242073059082031
        3.7476730346679688 2.905364990234375 2.6032257080078125 2.5879666805267334 3.015228033065796 3.012176513671875
        2.7008895874023438 2.4475858211517334 2.3712844848632812 2.1546096801757812 2.935882329940796 3.216651678085327
        3.662224054336548 3.729362726211548 3.6500165462493896 3.5737152099609375 3.3936614990234375 3.100677490234375
        3.2197036743164062 2.969451904296875 2.902313232421875 2.7283554077148438 2.4719998836517334 2.3590774536132812
        2.2919387817382812 2.233955144882202 2.06304931640625 1.7578659057617188 1.7609177827835083 1.9776002168655396
        2.2217485904693604 2.4262237548828125 2.5971221923828125 2.7222518920898438 2.7558212280273438 2.7466659545898438
        2.6032259464263916 2.3407669067382812 2.1790237426757812 2.2583694458007812 2.3560256958007812 2.1698684692382812
        1.5015106201171875 1.004058837890625 1.5015106201171875 1.2939834594726562 0.3875885307788849 0.5859527587890625
        0.4058990478515625 1.004058837890625 2.774132013320923 4.693748474121094 6.497391223907471 7.9195556640625
        6.790367126464844 2.6856307983398438 2.2675247192382812 2.8382186889648438 2.6917343139648438 2.4384305477142334
        1.89825439453125 1.1963272094726562 1.431320071220398 1.4130096435546875 1.544235348701477 1.8341598510742188
        1.94403076171875 2.6001739501953125 3.3204119205474854 4.181037902832031 6.756797790527344 10.348824501037598
        13.455613136291504 15.982544898986816 17.560348510742188 16.422012329101562 11.835075378417969 6.01824951171875
        4.937896728515625 5.276649475097656 5.279701232910156 5.209510803222656 6.769004821777344 7.086395263671875
        7.4434661865234375 7.821891784667969 8.163703918457031 8.343757629394531 8.157600402832031 7.4556732177734375
        6.665245532989502 6.299018859863281 6.4699249267578125 6.964324951171875 7.824944019317627 8.713035583496094
        8.79848575592041 7.96533203125 7.226783752441406 7.1718525886535645 7.6265788078308105 8.355963706970215
        8.719139099121094 8.905303955078125 9.164710998535156 9.17081356048584 8.72524356842041 7.763908386230469
        6.4394073486328125 5.603195667266846 5.539107799530029 5.810722351074219 6.06097412109375 6.140327453613281
        6.323432922363281 6.811729907989502 7.4495697021484375 7.904296398162842 7.947021484375 7.763908386230469
        7.943969249725342 8.911407470703125 9.347816467285156 9.121978759765625 8.493301391601562 8.05078125
        8.352912902832031 8.969390869140625 9.195228576660156 9.201332092285156 9.384445190429688 9.305091857910156
        8.642845153808594 7.843254566192627 7.327491760253906 7.083343982696533 6.985687255859375 6.964324951171875
        6.674400329589844 6.033507823944092 5.319374084472656 4.559463977813721 4.043701171875 4.0009765625
        4.290901184082031 4.5594635009765625 4.858543395996094 5.005035400390625 4.696800231933594 4.229866027832031
        3.6408615112304688 3.1403579711914062 3.2685317993164062 3.6744306087493896 4.0894775390625 4.754783630371094
        5.4109344482421875 5.697807312011719 5.029449462890625 3.851433038711548 3.4272308349609375 2.887054443359375
        2.8534774780273438 3.079315185546875 3.4089202880859375 3.2837905883789062 3.067108154296875 2.890106201171875
        2.7924423217773438 2.5391387939453125 3.015228271484375 3.320411205291748 3.3570327758789062 3.039642095565796
        3.5340423583984375 3.769035577774048 3.7141036987304688 3.8056564331054688 3.903320074081421 3.097625732421875
        2.984710693359375 2.908416748046875 2.880950689315796 2.4933624267578125 2.1546099185943604 2.1485061645507812
        1.95013427734375 1.4038543701171875 1.2848281860351562 1.5594940185546875 1.8616255521774292 1.97149658203125
        2.1820755004882812 2.4658966064453125 2.6856307983398438 2.7954938411712646 2.7283554077148438 2.4658966064453125
        2.3071975708007812 2.3987579345703125 2.2003860473632812 1.9104615449905396 1.7151412963867188 1.5594940185546875
        1.3183975219726562 0.8239974975585938 0.7110824584960938 0.7263412475585938 0.6958236694335938 1.086456298828125
        1.7883834838867188 2.4231722354888916 3.6011812686920166 5.255287170410156 5.5085906982421875 2.905364751815796
        1.599166750907898 2.3468704223632812 2.5818634033203125 2.4597930908203125 2.2370071411132812 1.95318603515625
        1.8402632474899292 1.5808563232421875 1.489303469657898 2.2125933170318604 2.6734235286712646 3.8514328002929688
        2.8626327514648438 1.010162353515625 0.6073150634765625 3.036590337753296 7.5777435302734375 12.356941223144531
        16.415908813476562 18.854333877563477 18.411819458007812 11.886962890625 4.235969543457031 4.4709625244140625
        5.059967041015625 5.175941467285156 6.198310852050781 6.259346008300781 6.381423473358154 6.704918384552002
        7.123023986816406 7.4526214599609375 7.834098815917969 8.459732055664062 9.015166282653809 9.097564697265625
        8.850364685058594 8.392592430114746 8.450575828552246 9.143348693847656 9.424118041992188 8.420060157775879
        7.065032958984375 6.649986267089844 7.202369689941406 7.8188395500183105 7.9744873046875 8.185066223144531
        8.578750610351562 9.048736572265625 9.454636573791504 9.399703979492188 8.389541625976562 6.686607360839844
        5.371253967285156 4.7975077629089355 4.785301208496094 4.934844970703125 5.206459045410156 5.816825866699219
        6.6103057861328125 7.019256591796875 7.074188232421875 7.126075744628906 7.6174163818359375 8.697776794433594
        9.253211975097656 9.244056701660156 8.972442626953125 8.481094360351562 8.154548645019531 8.166755676269531
        8.288825988769531 8.389541625976562 8.734397888183594 9.219642639160156 9.253211975097656 8.511611938476562
        7.4739837646484375 7.080291271209717 7.251197814941406 7.5502777099609375 7.5167083740234375 6.674400329589844
        5.380416393280029 4.4068756103515625 3.885009765625 3.7629318237304688 4.0589599609375 4.5411529541015625
        5.026397705078125 5.169837951660156 4.763938903808594 4.126106262207031 3.6256027221679688 3.5462493896484375
        3.7171554565429688 3.7415695190429688 3.909423828125 4.330574035644531 4.641868591308594 4.715110778808594
        4.211555480957031 3.6347579956054688 3.2258071899414062 2.2583694458007812 2.4964141845703125 3.3051528930664062
        3.8056564331054688 4.232917785644531 4.217658996582031 4.007080078125 3.5706636905670166 3.5126800537109375
        2.8015975952148438 2.960296392440796 3.1647720336914062 2.948089599609375 3.7446212768554688 4.174934387207031
        4.321418762207031 4.0589599609375 3.982665777206421 3.8148117065429688 3.6774826049804688 3.4730072021484375
        3.5065765380859375 3.1708755493164062 2.6398544311523438 2.2370071411132812 1.7120895385742188 1.1902238130569458
        1.1719131469726562 1.4923553466796875 1.98370361328125 2.7832868099212646 3.6469650268554688 3.4455413818359375
        2.8351669311523438 2.6612167358398438 2.7039413452148438 2.6276473999023438 2.4323272705078125 2.4231722354888916
        2.2400588989257812 2.04168701171875 1.8524702787399292 1.7700730562210083 1.2970352172851562 1.110870361328125
        0.9674378037452698 0.875885009765625 1.91961669921875 3.5096282958984375 3.5370941162109375 1.98980712890625
        1.5594940185546875 2.7375106811523438 3.1952896118164062 2.346870183944702 1.4862518310546875 1.7334519624710083
        2.3743438720703125 2.4475860595703125 2.3041458129882812 2.2583694458007812 2.4811553955078125 2.4964141845703125
        2.2675247192382812 2.4384307861328125 1.99896240234375 1.89825439453125 1.3702774047851562 1.4587860107421875
        1.3061903715133667 1.2634658813476562 4.080322265625 7.733390808105469 12.866600036621094 17.593917846679688
        20.06591796875 19.70580291748047 14.291817665100098 6.167793273925781 3.1952898502349854 4.354988098144531
        5.3865203857421875 5.182044982910156 5.319374084472656 5.825981140136719 6.265449523925781 6.5187530517578125
        6.857505798339844 7.306129455566406 7.763908386230469 8.246101379394531 8.743553161621094 8.966340065002441
        8.923614501953125 9.051789283752441 9.265419006347656 9.094512939453125 8.407852172851562 7.574691295623779
        7.119964599609375 7.068084716796875 7.269508361816406 7.760857105255127 8.313240051269531 8.673362731933594
        9.13419246673584 9.662162780761719 9.500411987304688 8.435317039489746 7.040618896484375 5.98468017578125
        5.5330047607421875 5.5207977294921875 5.4750213623046875 6.03350830078125 6.631675720214844 6.8514018058776855
        7.165748596191406 7.626579284667969 8.276618957519531 8.905303955078125 9.176918029785156 9.204383850097656
        9.134193420410156 8.905303955078125 8.664207458496094 8.346809387207031 8.0538330078125 8.0416259765625
        8.404801368713379 8.978546142578125 9.396653175354004 9.152503967285156 8.069091796875 7.132179260253906
        7.010101318359375 7.257300853729248 7.321387767791748 6.5401153564453125 5.020294189453125 4.007080078125
        3.6225509643554688 3.5370938777923584 3.6530685424804688 4.1138916015625 4.696800231933594 5.032501220703125
        4.901275634765625 4.235969543457031 3.6744306087493896 3.729362726211548 3.6713790893554688 3.3478775024414062
        3.2837905883789062 3.6194918155670166 3.936889886856079 4.0101318359375 3.8270184993743896 3.3814544677734375
        2.877899408340454 1.96234130859375 2.4994659423828125 3.7873458862304688 4.315315246582031 4.4709625244140625
        4.0498046875 3.909423828125 3.634758234024048 3.4699554443359375 3.079315185546875 3.3234634399414062
        3.7293624877929688 3.4058682918548584 4.315315246582031 4.693748474121094 4.5411529541015625 3.7324142456054688
        3.5065762996673584 3.87890625 4.0223388671875 4.116943359375 4.0986328125 3.970458984375
        3.6591720581054688 2.7375106811523438 1.498458743095398 0.930816650390625 1.107818603515625 1.6266403198242188
        2.4445343017578125 3.6378097534179688 4.672386169433594 4.531998157501221 2.981658935546875 2.3468704223632812
        2.6642684936523438 2.8015975952148438 2.6123809814453125 2.3133010864257812 2.00811767578125 1.95318603515625
        1.9562376737594604 1.8097456693649292 1.4770965576171875 1.2878799438476562 1.052886962890625 0.9521788954734802
        2.1393508911132812 4.220710754394531 5.038605213165283 3.2959976196289062 1.1780166625976562 1.0803529024124146
        1.7181930541992188 1.8066939115524292 1.3580703735351562 1.4618377685546875 2.03863525390625 2.1271438598632812
        1.8494186401367188 1.89825439453125 2.3194046020507812 2.5116729736328125 2.7771835327148438 2.978606939315796
        2.5910186767578125 2.05389404296875 1.88909912109375 2.1485061645507812 1.87384033203125 1.91656494140625
        2.1515579223632812 3.909423828125 8.221687316894531 12.994781494140625 16.388442993164062 18.921478271484375
        21.021148681640625 20.33142852783203 16.052732467651367 9.634696960449219 6.11590576171875 5.7557902336120605
        6.115906238555908 6.5004425048828125 6.4821319580078125 6.329536437988281 6.570632457733154 6.997894287109375
        7.168800354003906 7.303077697753906 7.4587249755859375 7.657096862792969 7.9287109375 8.151496887207031
        8.447525024414062 8.844261169433594 9.225746154785156 9.14334774017334 8.209480285644531 7.306129455566406
        7.003997802734375 7.315284729003906 7.6998209953308105 8.0660400390625 8.728294372558594 9.552291870117188
        9.92462158203125 9.405807495117188 8.819847106933594 8.587905883789062 8.536026000976562 8.447525024414062
        8.105712890625 7.8829345703125 7.5624847412109375 7.312232971191406 7.5563812255859375 8.01416015625
        8.484146118164062 8.328498840332031 7.9500732421875 7.9195556640625 8.279670715332031 8.661155700683594
        8.807640075683594 8.783226013183594 8.621474266052246 8.517714500427246 8.539077758789062 8.624534606933594
        8.838157653808594 8.810691833496094 8.200325012207031 7.205421447753906 6.653038024902344 6.701866149902344
        7.037567138671875 7.049774169921875 6.03961181640625 4.754783630371094 4.126106262207031 4.007080078125
        3.89111328125 3.970458984375 4.4129791259765625 5.102691650390625 5.331581115722656 4.6052398681640625
        4.0894775390625 3.9765625 3.5706634521484375 3.3356704711914062 3.4730072021484375 3.955200433731079
        4.147468566894531 4.1016845703125 4.0009765625 3.8026046752929688 3.5859222412109375 3.2654800415039062
        3.8483810424804688 4.599136829376221 4.846336364746094 4.956207275390625 4.5533599853515625 4.4892730712890625
        4.318367004394531 3.8270184993743896 3.8514328002929688 4.367195129394531 4.904327392578125 3.5859224796295166
        4.831077575683594 5.255287170410156 4.309211730957031 3.7263107299804688 4.092529296875 4.605240345001221
        4.5960845947265625 3.988769769668579 3.7690353393554688 3.9674072265625 3.869743585586548 3.027435302734375
        1.7883834838867188 1.3550186157226562 1.6785202026367188 2.4353790283203125 3.103729248046875 3.2746353149414062
        3.3509292602539062 3.4852139949798584 2.4506378173828125 1.7151412963867188 2.2766802310943604 2.6154327392578125
        2.6123809814453125 2.4414825439453125 2.11492919921875 1.8707809448242188 1.8707809448242188 1.9104615449905396
        1.7822799682617188 1.5655975341796875 1.2939835786819458 0.8850402235984802 0.5890045166015625 1.1932754516601562
        2.6398544311523438 2.4994659423828125 0.7324447631835938 0.6653060913085938 1.4038543701171875 1.3061904907226562
        1.1749650239944458 1.3092422485351562 1.492355227470398 1.5167694091796875 1.2848281860351562 1.1841201782226562
        1.5198211669921875 2.5360870361328125 3.1617202758789062 3.1250991821289062 2.6398544311523438 2.1332473754882812
        2.05389404296875 2.05084228515625 1.88909912109375 1.95623779296875 1.5900115966796875 1.403854250907898
        3.2166521549224854 5.667289733886719 8.716087341308594 12.588882446289062 16.23279571533203 19.193092346191406
        20.883819580078125 20.535903930664062 8.447525024414062 8.325447082519531 8.526870727539062 8.325447082519531
        7.3732757568359375 6.649986267089844 6.985687255859375 7.6754069328308105 7.89208984375 7.7852702140808105
        7.5411224365234375 7.370215892791748 7.4037933349609375 7.4434661865234375 7.647941589355469 8.227790832519531
        8.868675231933594 9.228797912597656 9.347816467285156 8.731346130371094 7.638786315917969 7.324440002441406
        7.388534069061279 7.336647033691406 7.809684753417969 8.75881290435791 9.634696960449219 9.659110069274902
        9.363075256347656 9.35086727142334 9.479049682617188 9.497360229492188 9.332557678222656 8.893096923828125
        8.304085731506348 8.0294189453125 7.953125476837158 7.89208984375 7.855461120605469 7.4648284912109375
        6.900238037109375 6.695762634277344 6.997894287109375 7.727287292480469 8.337655067443848 8.651999473571777
        8.951080322265625 9.121978759765625 9.164710998535156 8.902252197265625 8.603164672851562 8.352912902832031
        7.873779296875 7.147438049316406 6.5218048095703125 6.286811828613281 6.500442981719971 6.631675720214844
        6.4607696533203125 5.813774108886719 5.172889709472656 4.882965087890625 4.730369567871094 4.892119884490967
        5.310218811035156 5.883971691131592 6.152534008026123 5.670341491699219 5.307167053222656 5.005035400390625
        4.4282379150390625 4.495376110076904 4.858543395996094 5.166786193847656 5.4231414794921875 5.841239929199219
        5.050811767578125 4.126106262207031 4.242073059082031 4.754783630371094 5.282752990722656 5.4139862060546875
        5.6184539794921875 5.673393249511719 5.767998218536377 5.664237976074219 5.4689178466796875 5.5909881591796875
        5.710014343261719 5.7161173820495605 5.819877624511719 4.986724376678467 5.273597717285156 5.630668640136719
        4.757835388183594 4.312263488769531 5.029449939727783 5.261390686035156 4.944000244140625 4.171882629394531
        3.7507247924804688 3.7232589721679688 3.915527105331421 3.8300702571868896 3.3753509521484375 3.3722991943359375
        3.8514328002929688 4.4038238525390625 4.3763580322265625 3.027435302734375 2.1546096801757812 1.7731245756149292
        1.5076141357421875 1.2390518188476562 1.3946990966796875 1.95623779296875 2.3499221801757812 2.3163528442382812
        2.1546096801757812 1.93487548828125 1.5717010498046875 1.2421035766601562 1.058990478515625 0.964385986328125
        0.906402587890625 0.9521790146827698 1.019317626953125 0.8331527709960938 0.9613342881202698 0.796531617641449
        0.33875274658203125 1.101715087890625 1.5808563232421875 1.7029342651367188 1.95013427734375 1.6907271146774292
        1.2085342407226562 0.924713134765625 0.878936767578125 0.912506103515625 1.028472900390625 1.88604736328125
        2.7832870483398438 2.908416509628296 2.5605008602142334 2.059997320175171 1.7670211791992188 1.7120895385742188
        1.7456588745117188 1.9196165800094604 1.8402634859085083 1.3733367919921875 0.6744613647460938 1.4770965576171875
        3.5737154483795166 6.015198230743408 8.197273254394531 10.809654235839844 14.258247375488281 17.74040985107422
        9.579756736755371 9.326455116271973 9.396652221679688 9.427169799804688 9.13114070892334 8.801536560058594
        8.645896911621094 8.493301391601562 8.194221496582031 7.9622802734375 7.666252136230469 7.116912841796875
        6.793418884277344 6.915496826171875 7.202369689941406 7.4800872802734375 7.9927978515625 8.664207458496094
        9.167762756347656 9.173866271972656 8.786277770996094 8.0782470703125 7.208473205566406 6.4180450439453125
        6.222724914550781 7.083343505859375 8.362068176269531 9.033477783203125 9.067047119140625 8.838157653808594
        8.685569763183594 8.615371704101562 8.465835571289062 8.182014465332031 8.0111083984375 8.0599365234375
        8.032470703125 7.7944254875183105 7.5014495849609375 7.168799877166748 6.653038024902344 6.268501281738281
        6.11590576171875 6.3539509773254395 6.769004821777344 7.5258636474609375 8.401748657226562 9.082305908203125
        9.515670776367188 9.488204956054688 8.896148681640625 8.224739074707031 7.797477722167969 7.5685882568359375
        7.123023986816406 6.4729766845703125 6.02130126953125 5.905334949493408 6.03961181640625 6.082336902618408
        5.685600757598877 5.050811767578125 4.712059497833252 4.770042419433594 5.267494201660156 5.96636962890625
        6.308174133300781 6.158638000488281 5.615402698516846 5.230873107910156 5.114898681640625 5.236976623535156
        5.279701232910156 5.044708251953125 5.4200897216796875 6.402785778045654 5.97552490234375 4.846336364746094
        5.001983642578125 5.252235412597656 5.490279674530029 5.597092151641846 5.7893595695495605 5.761894226074219
        5.862602233886719 5.938904285430908 6.164741516113281 6.677452564239502 6.714073181152344 6.506546497344971
        6.686607360839844 6.4821319580078125 5.053863525390625 4.6540751457214355 5.142372131347656 5.594039440155029
        6.204413890838623 5.96636962890625 5.313270568847656 4.4953765869140625 4.0406494140625 4.0345458984375
        4.4099273681640625 4.843284606933594 5.032501220703125 5.255287170410156 5.563521862030029 5.6154022216796875
        5.145423889160156 3.3082046508789062 1.95623779296875 1.6480026245117188 1.3672256469726562 1.2176895141601562
        1.1383438110351562 1.2329483032226562 1.5655975341796875 1.8341598510742188 1.88909912109375 1.7761763334274292
        1.5900115966796875 1.2665176391601562 0.906402587890625 0.875885009765625 0.915557861328125 0.970489501953125
        1.1230849027633667 1.2176895141601562 1.3367080688476562 1.071197509765625 0.6561508178710938 0.875885009765625
        1.0589903593063354 1.9318236112594604 3.1983413696289062 2.6947860717773438 0.888092041015625 0.5218658447265625
        0.5676422119140625 0.6897201538085938 0.8514633178710938 1.4038543701171875 2.1607131958007812 2.5421905517578125
        2.3743438720703125 1.9440308809280396 1.6144256591796875 1.3916473388671875 1.3092422485351562 1.3916473388671875
        1.425216555595398 1.2115859985351562 0.7477035522460938 0.881988525390625 1.6327438354492188 2.1240923404693604
        2.5513455867767334 3.8148117065429688 6.08538818359375 8.877838134765625 10.266426086425781 10.01007080078125
        9.89715576171875 9.698782920837402 9.576705932617188 9.823904991149902 9.95513916015625 9.604171752929688
        9.097564697265625 9.021270751953125 8.587905883789062 7.278663158416748 6.299018859863281 6.698814392089844
        7.3396992683410645 7.589951038360596 7.864616870880127 8.1148681640625 8.221687316894531 8.136238098144531
        8.0172119140625 7.803581237792969 7.138282775878906 6.323432922363281 5.816825866699219 6.10064697265625
        6.964325428009033 7.678459167480469 8.056884765625 7.96533203125 7.855461120605469 7.89208984375
        7.724235534667969 7.4068450927734375 7.348854064941406 7.5685882568359375 7.766960144042969 7.708976745605469
        7.391585826873779 7.016204833984375 6.7751078605651855 6.631675720214844 6.5370635986328125 6.2227253913879395
        6.216621398925781 6.796470642089844 7.538070201873779 8.075194358825684 8.493302345275879 8.670310974121094
        8.474990844726562 8.0599365234375 7.812736988067627 7.7883219718933105 7.5777435302734375 6.830040454864502
        5.96026611328125 5.4841766357421875 5.438400745391846 5.368202209472656 4.831077575683594 4.330574035644531
        4.126106262207031 4.138313293457031 4.5716705322265625 5.307167053222656 5.6306681632995605 5.417037487030029
        4.846336364746094 4.5899810791015625 4.690696716308594 4.742576599121094 4.718162536621094 4.681541442871094
        5.014190673828125 5.694756031036377 5.633720397949219 4.849388122558594 5.075225830078125 4.901275634765625
        5.246131896972656 5.719169616699219 5.874817371368408 5.96636962890625 5.801567077636719 5.731377124786377
        6.161689758300781 6.5370635986328125 6.317328929901123 5.8687052726745605 5.688652038574219 5.722221851348877
        4.5747222900390625 4.3733062744140625 4.852439880371094 5.230873107910156 5.89923095703125 5.545211315155029
        5.182044982910156 4.699851989746094 4.092529296875 4.0589599609375 4.4129791259765625 4.794456481933594
        5.044708251953125 5.188148498535156 5.175941467285156 4.879913330078125 4.284797668457031 3.4211275577545166
        2.2003860473632812 1.6205291748046875 1.596114993095398 1.6205291748046875 1.480148434638977 1.3885955810546875
        1.4221649169921875 1.4221649169921875 1.388595700263977 1.3946990966796875 1.449630856513977 1.5137176513671875
        1.446579098701477 1.3977508544921875 1.4587860107421875 1.5259246826171875 1.6663132905960083 1.5167694091796875
        1.3306044340133667 1.120025634765625 1.074249267578125 1.1413955688476562 0.9765930771827698 0.9460754990577698
        1.8097457885742188 1.7761763334274292 0.8117904663085938 0.4303130805492401 0.34485626220703125 0.5279693603515625
        0.6530990600585938 0.982696533203125 1.5991668701171875 1.90435791015625 1.8097456693649292 1.6266402006149292
        1.4832000732421875 1.3122940063476562 1.1444473266601562 1.1017152070999146 1.1169737577438354 1.052886962890625
        0.7995834350585938 0.5859527587890625 0.20142364501953125 0.4394683837890625 0.6256332397460938 1.055938720703125
        1.89520263671875 3.6225509643554688 10.376296997070312 10.254219055175781 10.232856750488281 10.061949729919434
        9.869682312011719 10.01007080078125 10.10772705078125 9.87274169921875 9.585861206054688 9.598067283630371
        9.591964721679688 8.951080322265625 8.209480285644531 7.953124523162842 7.696769714355469 7.751701354980469
        8.239997863769531 8.502456665039062 8.200325012207031 7.815788269042969 7.7700114250183105 8.0111083984375
        8.099609375 7.7455973625183105 7.080292224884033 6.790367126464844 6.915496826171875 7.034515380859375
        7.052825927734375 7.101654052734375 7.211524963378906 7.4434661865234375 7.425155162811279 7.019256114959717
        6.692710876464844 6.860557556152344 7.3061299324035645 7.6265788078308105 7.620467662811279 7.303077697753906
        7.144386291503906 7.333595275878906 7.5289154052734375 7.3763275146484375 7.171852111816406 7.068084716796875
        6.973480224609375 6.952117443084717 7.2756123542785645 7.5289154052734375 7.4007415771484375 7.168800354003906
        7.1443867683410645 7.272559642791748 7.235939025878906 6.909393787384033 6.3875274658203125 5.758842468261719
        5.081329345703125 4.3580403327941895 3.8392257690429688 3.6988449096679688 3.7202069759368896 3.7415695190429688
        3.98876953125 4.5014801025390625 4.766990661621094 4.919586181640625 5.105743408203125 5.215614318847656
        5.136268138885498 5.050811767578125 5.111846923828125 5.175941467285156 5.148475646972656 5.276649475097656
        5.130165100097656 4.718162536621094 4.962310791015625 4.977569580078125 5.4017791748046875 5.6092987060546875
        5.362098693847656 5.4750213623046875 5.780204772949219 5.89617919921875 5.835136413574219 5.700859069824219
        5.294960021972656 4.7395243644714355 4.272590637207031 4.217658996582031 4.4923248291015625 4.367195129394531
        4.583878040313721 4.821922302246094 5.301063537597656 5.194252014160156 4.657127380371094 4.217658996582031
        3.7568283081054688 3.5950775146484375 3.6744306087493896 3.8209149837493896 4.0528564453125 4.1016845703125
        3.970458745956421 3.8056564331054688 3.5950777530670166 3.2258074283599854 2.4353790283203125 1.8158494234085083
        1.88299560546875 2.02337646484375 1.7853317260742188 1.6296920776367188 1.6785203218460083 1.6724166870117188
        1.6724165678024292 1.7456588745117188 1.7426071166992188 1.6388472318649292 1.6174774169921875 1.6815719604492188
        1.7975387573242188 1.89215087890625 1.9318238496780396 1.7151412963867188 1.4679412841796875 1.2451553344726562
        1.089508056640625 0.9369201064109802 0.845359742641449 0.8362045288085938 0.7019271850585938 0.15259552001953125
        0.6653060913085938 0.4058990478515625 0.4974517822265625 0.622581422328949 0.6195220947265625 0.778221070766449
        0.7263412475585938 0.5157623291015625 0.7934799194335938 1.113922119140625 1.2634658813476562 1.2726211547851562
        1.1505508422851562 1.1383438110351562 1.1474990844726562 1.019317626953125 0.7507553100585938 0.5188140869140625
        0.30213165283203125 0.4608307182788849 0.5615386962890625 1.065093994140625 2.4170684814453125 4.0833740234375
        10.303048133850098 10.07110595703125 10.10467529296875 10.159614562988281 10.177925109863281 10.205390930175781
        10.098570823669434 9.762870788574219 9.512619018554688 9.475997924804688 9.717093467712402 10.266426086425781
        10.931732177734375 10.824913024902344 9.851371765136719 8.813743591308594 8.441422462463379 8.679466247558594
        8.774070739746094 8.474990844726562 8.178963661193848 8.233894348144531 8.627585411071777 8.813743591308594
        8.709982872009277 8.536026000976562 7.831047534942627 6.695762634277344 5.755790710449219 5.5330047607421875
        5.710014343261719 6.11285400390625 6.347846984863281 6.180000305175781 5.969420909881592 6.155586242675781
        6.628623962402344 7.049774646759033 7.220680236816406 7.162696361541748 7.159644603729248 7.351905822753906
        7.4098968505859375 7.538070201873779 7.718132019042969 7.6174163818359375 7.235939025878906 7.007049083709717
        7.000946044921875 6.851402282714844 6.274604797363281 5.6215057373046875 5.633720397949219 6.10980224609375
        6.4027862548828125 6.299018859863281 5.835136413574219 5.3346333503723145 4.644920349121094 3.7568283081054688
        3.4119720458984375 3.5065765380859375 3.4638519287109375 3.3143081665039062 3.4363861083984375 3.8544845581054688
        4.293952941894531 4.889068603515625 5.749687194824219 6.180000305175781 5.88397216796875 5.627616882324219
        5.792412281036377 5.874817371368408 5.88702392578125 5.856499195098877 5.5207977294921875 5.288856506347656
        5.102691650390625 5.105743885040283 5.352943420410156 5.270545959472656 4.956207275390625 5.334632873535156
        5.4109344482421875 5.322425842285156 5.3407368659973145 5.404831409454346 5.117950439453125 4.770042419433594
        4.5503082275390625 4.3824615478515625 4.342781066894531 4.4709625244140625 4.919586181640625 5.072174072265625
        4.901275634765625 4.5808258056640625 4.007080078125 3.930785894393921 3.9552001953125 3.4669036865234375
        2.6612167358398438 2.4567413330078125 2.6856307983398438 2.999969482421875 3.112884521484375 3.1495132446289062
        3.115936040878296 2.7039413452148438 2.1332473754882812 1.8066940307617188 1.97760009765625 2.07525634765625
        1.7548141479492188 1.6632614135742188 1.7700729370117188 1.7609176635742188 1.8066940307617188 1.8402634859085083
        1.7822799682617188 1.6754683256149292 1.5839080810546875 1.593063235282898 1.7029342651367188 1.7548141479492188
        1.6693649291992188 1.5411834716796875 1.4282684326171875 1.2390518188476562 0.970489501953125 0.5859527587890625
        1.120025634765625 1.6480025053024292 1.2939834594726562 0.6439437866210938 0.7751693725585938 0.7751693725585938
        0.4974517822265625 0.6042633056640625 0.5737457275390625 0.4821929931640625 0.3784331977367401 0.5218658447265625
        0.7904281616210938 0.885040283203125 0.9216614365577698 0.9002990126609802 0.9308167099952698 1.046783447265625
        1.1383438110351562 0.933868408203125 0.5584869384765625 0.22888946533203125 0.4730377495288849 0.6866683959960938
        1.080352783203125 1.9135133028030396 3.1312026977539062 4.153572082519531 9.820854187011719 9.430222511291504
        9.564498901367188 9.863579750061035 10.04974365234375 10.187080383300781 10.180976867675781 9.96429443359375
        9.610275268554688 9.607223510742188 10.257270812988281 11.14536190032959 11.780142784118652 11.914427757263184
        11.535995483398438 10.779136657714844 9.87579345703125 9.302040100097656 9.201332092285156 9.112824440002441
        8.816795349121094 8.346809387207031 8.349862098693848 8.691672325134277 8.877838134765625 9.121978759765625
        9.054839134216309 7.675407886505127 5.636772155761719 4.834129810333252 5.084381103515625 5.465865612030029
        5.5787811279296875 5.636772155761719 5.764945983886719 5.996887683868408 6.2837605476379395 6.4394073486328125
        6.5034942626953125 6.5736846923828125 6.6805033683776855 6.802574157714844 6.897186756134033 7.156593322753906
        7.5533294677734375 7.8402018547058105 7.992798328399658 8.230842590332031 8.0751953125 7.303077697753906
        6.3386921882629395 5.4506072998046875 4.806663513183594 4.635765075683594 4.702903747558594 4.623558044433594
        4.229866027832031 3.9185791015625 3.8361737728118896 3.7781906127929688 3.6042327880859375 3.4211273193359375
        3.149513006210327 2.874847650527954 2.932830572128296 3.3906097412109375 4.043701171875 5.008087158203125
        6.027404308319092 6.292914867401123 6.094543933868408 6.07012939453125 6.03045654296875 5.96636962890625
        6.155586242675781 6.149482727050781 5.4963836669921875 5.008087158203125 5.075225830078125 5.151527404785156
        4.809715270996094 4.910430908203125 5.066071033477783 5.4506072998046875 5.169837951660156 5.005035400390625
        4.876861572265625 4.843284606933594 5.029449462890625 5.313270568847656 5.5482635498046875 5.679496765136719
        5.4017791748046875 5.249183654785156 5.4384002685546875 5.807671070098877 5.5635223388671875 4.879913330078125
        4.681541442871094 4.4068756103515625 4.4953765869140625 3.976562261581421 2.4567413330078125 1.7151412963867188
        1.6876754760742188 1.9501341581344604 2.1820755004882812 2.3438186645507812 2.3865509033203125 1.98675537109375
        1.6022186279296875 1.4954071044921875 1.611374020576477 1.7334518432617188 1.5137176513671875 1.4832000732421875
        1.5259246826171875 1.4557342529296875 1.556442379951477 1.577804446220398 1.434372067451477 1.3245010375976562
        1.2176895141601562 1.1444473266601562 1.1749649047851562 1.2024307250976562 1.1566544771194458 1.113922119140625
        1.1017149686813354 0.9186096787452698 0.5401763916015625 0.4608306884765625 1.3641738891601562 2.1759719848632812
        3.045745849609375 2.7161483764648438 0.918609619140625 1.1597061157226562 1.434372067451477 1.1810684204101562
        0.674461305141449 0.27161404490470886 0.36316677927970886 0.5310211181640625 0.7354965209960938 0.7934799194335938
        0.872833251953125 1.046783447265625 1.3550186157226562 1.6418991088867188 1.577804446220398 0.946075439453125
        0.33264923095703125 0.4486236572265625 0.8026351928710938 0.9399719834327698 1.3122940063476562 1.8860472440719604
        2.5879669189453125 3.2959976196289062 9.457687377929688 8.932769775390625 8.951080322265625 9.274574279785156
        9.707940101623535 10.174872398376465 10.461746215820312 10.324409484863281 9.97039794921875 9.95513916015625
        10.354927062988281 10.769981384277344 11.14231014251709 11.517684936523438 11.658073425292969 11.444443702697754
        11.014129638671875 10.437331199645996 9.93072509765625 9.421066284179688 8.816795349121094 8.166755676269531
        7.760856628417969 7.736442565917969 7.7303385734558105 7.837150573730469 8.264411926269531 8.182014465332031
        7.028412342071533 5.951110363006592 5.4322967529296875 4.944000244140625 4.489272594451904 4.4862213134765625
        4.812767505645752 5.1332173347473145 5.349891662597656 5.639823913574219 6.08233642578125 6.4821319580078125
        6.6255717277526855 6.634727478027344 6.634727478027344 6.6835551261901855 6.918548107147217 7.321388244628906
        7.840202808380127 8.239997863769531 8.319344520568848 7.9134521484375 6.991791248321533 6.09149169921875
        5.761894226074219 5.8381876945495605 5.835136890411377 5.4200897216796875 5.008087158203125 5.020294189453125
        5.047760009765625 4.831077575683594 4.5075836181640625 4.2237629890441895 3.9918212890625 3.7812421321868896
        3.7781906127929688 4.214607238769531 4.977569580078125 5.804618835449219 6.250190258026123 6.1464314460754395
        6.192207336425781 6.3478474617004395 5.890075206756592 5.4841766357421875 5.645927429199219 5.5726776123046875
        5.136268615722656 4.867698669433594 5.005035877227783 5.2552876472473145 5.2980122566223145 5.4750213623046875
        5.3346333503723145 5.011138916015625 4.947052001953125 5.087432861328125 5.023345947265625 4.687644958496094
        4.739524841308594 5.236976623535156 5.8717570304870605 6.4607696533203125 6.338691234588623 5.975524425506592
        6.07012939453125 6.4424591064453125 6.5065460205078125 6.03656005859375 5.252235412597656 4.727317810058594
        5.121002197265625 4.4984283447265625 3.4455411434173584 2.3896026611328125 1.8127975463867188 1.6907272338867188
        1.7761764526367188 1.8646774291992188 1.7578660249710083 1.3733367919921875 1.077301025390625 1.043731689453125
        1.1413955688476562 1.3702774047851562 1.3306045532226562 1.2298965454101562 1.1810684204101562 1.095611572265625
        1.2024307250976562 1.2756729125976562 1.080352783203125 0.8697738647460938 0.6683578491210938 0.6317367553710938
        0.6775131821632385 0.7812728881835938 0.8392562866210938 0.8331528306007385 0.7446517944335938 0.4760894775390625
        0.5127105712890625 0.808738648891449 1.1505509614944458 1.3367080688476562 1.5747528076171875 1.7120896577835083
        1.1749649047851562 0.9765929579734802 1.3519668579101562 1.1566543579101562 0.8362045288085938 0.7446517944335938
        0.4486236572265625 0.23499298095703125 0.4242095947265625 0.3875885009765625 0.6012115478515625 1.2024307250976562
        1.6022186279296875 1.92266845703125 1.8341598510742188 1.095611572265625 0.4547271728515625 0.6378402709960938
        0.875885009765625 1.031524658203125 1.2756729125976562 1.6510543823242188 2.3987579345703125 3.4028167724609375
        9.884949684143066 9.427168846130371 9.378341674804688 9.588912963867188 9.90020751953125 10.293891906738281
        10.690634727478027 10.946990966796875 10.797447204589844 10.394607543945312 10.09246826171875 10.095520973205566
        10.202339172363281 10.605178833007812 11.160622596740723 11.386459350585938 11.221656799316406 10.852378845214844
        10.419021606445312 9.811698913574219 9.012115478515625 8.423110961914062 8.307136535644531 8.215583801269531
        7.702873229980469 7.290870666503906 7.4068450927734375 7.773063659667969 7.797477722167969 7.5106048583984375
        7.022308349609375 6.430252552032471 5.682548999786377 4.794456481933594 4.235969066619873 4.2512288093566895
        4.672386169433594 5.3895721435546875 6.11895751953125 6.4516143798828125 6.6103057861328125 6.796470642089844
        6.997894287109375 7.177955627441406 7.4160003662109375 7.8768310546875 8.328498840332031 8.456680297851562
        8.297981262207031 8.117920875549316 7.96533203125 7.89208984375 7.7700114250183105 7.486190319061279
        7.144386291503906 6.735435485839844 6.653038024902344 7.013153076171875 7.260353088378906 7.129127025604248
        6.936859130859375 6.759849548339844 6.5034942626953125 6.158637523651123 5.97247314453125 6.311225891113281
        6.985687732696533 7.5380706787109375 7.5624847412109375 7.190162658691406 7.034515380859375 6.973480701446533
        6.244087219238281 5.4139862060546875 5.203407287597656 4.916534900665283 4.992828369140625 5.368202209472656
        5.865653991699219 6.4638214111328125 6.5950469970703125 6.311225891113281 5.98468017578125 5.743583679199219
        5.621506214141846 5.2583394050598145 4.821922302246094 4.666282653808594 4.751731872558594 5.139320373535156
        5.594039440155029 6.186103820800781 6.308174133300781 6.03350830078125 6.03961181640625 6.326484680175781
        6.6133575439453125 6.8086771965026855 6.601150989532471 6.01519775390625 5.719169616699219 5.221717834472656
        4.6143951416015625 3.8636395931243896 3.1250991821289062 2.5482940673828125 2.3102493286132812 2.1271438598632812
        1.7273483276367188 1.1352920532226562 0.4669342041015625 0.5798492431640625 0.6714096069335938 0.8209457397460938
        0.8301010131835938 0.7385482788085938 0.7080307602882385 0.6927719712257385 0.973541259765625 1.2695693969726562
        1.1536027193069458 0.4303131103515625 0.5706939697265625 0.30213165283203125 0.5493317246437073 0.5890045166015625
        0.6683578491210938 0.6592026352882385 0.5188140869140625 0.5218659043312073 0.8484115600585938 1.1261367797851562
        1.074249267578125 0.7049789428710938 0.29297637939453125 0.3875885009765625 0.4852447509765625 0.939971923828125
        1.019317626953125 0.744651734828949 0.5127105712890625 0.6286849975585938 0.5340728759765625 0.6805648803710938
        0.5706939697265625 0.35706329345703125 0.5737457871437073 0.8575668334960938 1.3519668579101562 1.87384033203125
        1.7242966890335083 1.004058837890625 0.35095977783203125 0.6164702773094177 0.7110824584960938 0.973541259765625
        1.2909317016601562 1.8189010620117188 2.5574493408203125 3.5401458740234375 9.793388366699219 10.06805419921875
        10.376296997070312 10.583816528320312 10.599075317382812 10.553298950195312 10.562454223632812 10.73030948638916
        10.77608585357666 10.409866333007812 9.845268249511719 9.360023498535156 8.874786376953125 8.862571716308594
        9.546188354492188 10.10162353515625 10.238959312438965 10.357978820800781 10.675376892089844 10.858482360839844
        10.693687438964844 10.293891906738281 10.126045227050781 10.122993469238281 9.775077819824219 8.908355712890625
        8.160651206970215 7.971436023712158 7.873779296875 7.348854064941406 6.787315368652344 6.6042022705078125
        6.381424427032471 5.804618835449219 5.291908264160156 5.276649475097656 5.6031951904296875 5.948059558868408
        6.216621398925781 6.357002258300781 6.5614776611328125 6.8147807121276855 7.089447021484375 7.452620983123779
        7.940917491912842 8.520766258239746 8.771018981933594 8.664207458496094 8.404800415039062 8.389540672302246
        8.771018028259277 9.402755737304688 9.826957702636719 9.494308471679688 8.478042602539062 7.4312591552734375
        7.327491283416748 7.849358081817627 8.191169738769531 8.200325012207031 8.243049621582031 8.255256652832031
        7.9866943359375 7.4129486083984375 7.113861560821533 7.4465179443359375 8.124031066894531 8.731346130371094
        8.829002380371094 8.514663696289062 8.264411926269531 8.01416015625 7.364112854003906 6.5340118408203125
        6.00604248046875 5.630668640136719 5.960265636444092 6.5157012939453125 7.000946521759033 7.370216369628906
        7.290870666503906 6.765953063964844 6.6133575439453125 6.964324951171875 7.232887268066406 7.058929443359375
        6.5004425048828125 5.91754150390625 5.563522815704346 5.5726776123046875 5.758842468261719 6.131172180175781
        6.219673156738281 6.01824951171875 5.5513153076171875 5.526900768280029 5.945006847381592 6.363105773925781
        6.4424591064453125 6.317329406738281 5.871757984161377 5.188148498535156 4.895172119140625 4.886016845703125
        4.647972583770752 3.9521484375 3.3753509521484375 3.057952880859375 2.5330352783203125 1.7365036010742188
        0.6439437866210938 0.5829010009765625 0.34790804982185364 0.4486236572265625 0.4150543212890625 0.5493316650390625
        0.5920562744140625 0.5310211777687073 0.5096588134765625 0.973541259765625 0.912506103515625 0.6256332397460938
        0.720237672328949 0.7019271850585938 0.5767974853515625 0.3997955322265625 0.4699859619140625 0.4852447509765625
        0.4547271728515625 0.7416000366210938 1.2970352172851562 1.4801483154296875 1.028472900390625 0.28382107615470886
        0.4944000244140625 0.4211578369140625 0.25330355763435364 0.8301010131835938 0.939971923828125 2.5299832820892334
        3.3936614990234375 2.3926544189453125 0.8545150756835938 0.6195220947265625 0.6012115478515625 0.708030641078949
        0.897247314453125 1.025421142578125 1.4557342529296875 1.7761764526367188 1.480148434638977 0.915557861328125
        0.6561508178710938 0.26551058888435364 0.6439438462257385 1.074249267578125 1.3672256469726562 1.7395553588867188
        2.2827835083007812 2.996917486190796 8.389541625976562 8.154548645019531 8.331550598144531 8.899201393127441
        9.540084838867188 9.927672386169434 10.122993469238281 10.324409484863281 10.425126075744629 10.187080383300781
        9.747611999511719 9.247109413146973 8.612319946289062 7.660148620605469 7.074188232421875 7.440413951873779
        8.239997863769531 8.941925048828125 9.488204956054688 9.866630554199219 10.068053245544434 10.08636474609375
        10.184028625488281 10.583816528320312 11.008026123046875 10.974456787109375 10.296944618225098 9.515670776367188
        8.86867618560791 7.910400390625 6.985687255859375 6.5095977783203125 6.329536437988281 6.03350830078125
        6.161689758300781 6.5401153564453125 6.5401153564453125 6.286811828613281 6.137275695800781 6.241035461425781
        6.5309600830078125 6.924652099609375 7.354957580566406 7.791374206542969 8.389541625976562 8.868675231933594
        8.877838134765625 8.548233032226562 8.346809387207031 8.441421508789062 8.731346130371094 9.131141662597656
        9.512619018554688 9.591964721679688 8.929718971252441 7.8951416015625 7.7181315422058105 8.136238098144531
        8.462783813476562 8.590957641601562 8.838157653808594 9.115875244140625 8.963287353515625 8.197273254394531
        7.687614440917969 7.89208984375 8.404800415039062 8.908355712890625 9.067047119140625 9.015166282653809
        8.859519958496094 8.438369750976562 7.8951416015625 7.5838470458984375 7.5258636474609375 7.3915863037109375
        7.309180736541748 7.293922424316406 7.290870666503906 7.193214416503906 6.845298767089844 6.4455108642578125
        6.6438822746276855 7.287818908691406 7.9317626953125 8.288825988769531 8.221687316894531 7.727287292480469
        7.144385814666748 6.701866149902344 6.4546661376953125 6.207466125488281 6.10369873046875 5.89617919921875
        4.983673095703125 4.672386169433594 5.005034923553467 5.307166576385498 5.4292449951171875 5.4261932373046875
        5.093536376953125 4.5869293212890625 4.724266052246094 5.331581115722656 5.642876148223877 5.059967041015625
        4.229866027832031 3.7202072143554688 3.100677490234375 2.5299837589263916 2.01727294921875 1.3122941255569458
        0.4058990478515625 0.5615386962890625 0.5951080322265625 0.8087387084960938 0.9216614365577698 0.762962281703949
        0.5371246337890625 0.3906402587890625 0.6775131225585938 0.894195556640625 0.988800048828125 1.2085342407226562
        0.9643859267234802 0.6500473022460938 0.4913482666015625 0.5584869384765625 1.040679931640625 1.562545895576477
        1.8433151245117188 1.7487105131149292 1.2848283052444458 0.8026351928710938 0.6134185194969177 0.3814849853515625
        0.36316677927970886 0.640891969203949 0.6164702773094177 1.9165650606155396 3.8087079524993896 4.788353443145752
        3.958251953125 2.4720001220703125 1.3061904907226562 0.888092041015625 1.2054826021194458 1.5472869873046875
        1.6724166870117188 1.5228729248046875 1.3000870943069458 1.071197509765625 0.8911438584327698 0.762962281703949
        0.808738648891449 1.1017149686813354 1.3489151000976562 1.4252166748046875 1.7181930541992188 2.07220458984375
        7.879883289337158 7.791374206542969 7.9073486328125 7.94091796875 7.663200378417969 7.434310436248779
        7.736442565917969 8.328499794006348 8.996855735778809 9.500411033630371 9.805594444274902 10.147407531738281
        10.339668273925781 9.753715515136719 8.200325012207031 6.811729907989502 6.5492706298828125 7.123023509979248
        7.858512878417969 8.478042602539062 9.021270751953125 9.433274269104004 9.756767272949219 10.04974365234375
        10.583816528320312 11.28879451751709 11.603134155273438 11.120941162109375 10.052796363830566 8.996856689453125
        7.9683837890625 7.2084736824035645 6.692710876464844 6.5950469970703125 6.952118396759033 7.290870666503906
        7.342750549316406 7.333595275878906 7.3732757568359375 7.5319671630859375 7.834098815917969 8.099609375
        8.239997863769531 8.310188293457031 8.520767211914062 8.621476173400879 8.554336547851562 8.563491821289062
        8.648948669433594 8.709983825683594 8.807640075683594 8.844261169433594 8.847312927246094 8.865623474121094
        8.612319946289062 7.742546081542969 6.946014404296875 6.915497303009033 7.263404846191406 7.760856628417969
        8.395645141601562 8.999908447265625 9.237953186035156 8.941925048828125 8.539077758789062 8.377334594726562
        8.389541625976562 8.496353149414062 8.752708435058594 8.981597900390625 8.920562744140625 8.474990844726562
        8.0263671875 7.98974609375 8.377334594726562 8.615371704101562 8.288825988769531 7.7364420890808105
        7.434310436248779 7.290870666503906 6.970428466796875 6.6072540283203125 6.506545543670654 6.6072540283203125
        6.903289794921875 7.3763275146484375 7.882935047149658 8.166755676269531 8.001953125 7.4587249755859375
        6.884979248046875 6.390578746795654 6.244087219238281 5.91143798828125 4.821922302246094 4.196296691894531
        4.092529296875 4.1199951171875 4.318367004394531 4.4099273681640625 4.174933910369873 3.96435546875
        4.364143371582031 5.279701232910156 5.807670593261719 5.417037487030029 4.632713317871094 3.869743585586548
        3.1830825805664062 3.027435302734375 3.1800308227539062 3.088470458984375 2.5849151611328125 1.8921509981155396
        1.1627578735351562 0.5645904541015625 0.7019271850585938 0.5829010009765625 0.3967437744140625 0.4516754150390625
        0.6897201538085938 0.955230712890625 1.2543106079101562 1.5411834716796875 1.2085343599319458 0.8636703491210938
        0.8056870102882385 1.1841201782226562 1.7242966890335083 1.98980712890625 1.9623411893844604 1.7944868803024292
        1.2665176391601562 0.946075439453125 0.5737457275390625 0.21363066136837006 0.32959747314453125 0.4608306884765625
        0.6164703369140625 1.1474990844726562 2.07525634765625 3.5462491512298584 4.7242655754089355 4.5533599853515625
        3.5309906005859375 2.884002923965454 2.5177764892578125 2.230903387069702 1.97760009765625 1.3489151000976562
        0.7324447631835938 0.4516754448413849 0.4028472900390625 0.36621856689453125 0.4181060791015625 0.6714096069335938
        0.976593017578125 1.2421035766601562 1.4526824951171875 1.5961151123046875 9.164710998535156 8.340705871582031
        8.496353149414062 8.795433044433594 8.713035583496094 8.563491821289062 8.661155700683594 8.706932067871094
        8.700828552246094 8.890046119689941 9.256263732910156 9.683525085449219 10.281684875488281 10.843223571777344
        10.299995422363281 8.413955688476562 6.5401153564453125 5.719169616699219 5.813774108886719 6.274604797363281
        6.933807373046875 7.834098815917969 8.722190856933594 9.369178771972656 9.833061218261719 10.650962829589844
        11.481063842773438 11.661124229431152 11.343728065490723 10.68758487701416 9.677421569824219 8.655052185058594
        7.9989013671875 7.8676676750183105 8.0477294921875 8.194221496582031 8.444473266601562 8.786277770996094
        9.164710998535156 9.448532104492188 9.704887390136719 9.732353210449219 9.475997924804688 9.121978759765625
        8.731346130371094 8.374283790588379 8.307136535644531 8.603164672851562 8.856468200683594 8.880889892578125
        8.780174255371094 8.767967224121094 8.902252197265625 9.076202392578125 9.13114070892334 8.438369750976562
        7.220680236816406 6.509597301483154 6.5279083251953125 7.110809803009033 7.904296398162842 8.600112915039062
        9.262367248535156 9.787285804748535 9.811698913574219 9.228797912597656 8.755760192871094 8.65505313873291
        8.819847106933594 9.024321556091309 9.048736572265625 8.771018981933594 8.420059204101562 8.252204895019531
        8.499404907226562 8.883941650390625 8.859519958496094 8.438369750976562 8.157600402832031 7.8829345703125
        7.531967639923096 7.089447021484375 6.5492706298828125 6.11895751953125 5.93280029296875 5.97247314453125
        6.3997344970703125 7.016204833984375 7.5014495849609375 7.5380706787109375 7.226783275604248 6.680504322052002
        6.4241485595703125 6.234931945800781 5.182044982910156 4.297004699707031 3.894164800643921 3.6744308471679688
        3.799553155899048 3.9918212890625 3.830070734024048 3.628654718399048 4.0284423828125 4.8127665519714355
        5.233924865722656 4.971465587615967 4.3916168212890625 4.235969543457031 4.3733062744140625 4.4312896728515625
        4.150520324707031 3.5859222412109375 3.2105484008789062 2.905364990234375 2.6398544311523438 2.1912307739257812
        1.6754683256149292 1.431320071220398 1.1963270902633667 0.7904281616210938 0.4852447509765625 0.903350830078125
        1.1902236938476562 1.4557342529296875 1.1658096313476562 0.897247314453125 1.052886962890625 1.510666012763977
        1.7487107515335083 1.6876754760742188 1.556442141532898 1.449630618095398 0.976593017578125 0.6134185791015625
        0.5371246337890625 0.5218658447265625 0.4303131103515625 0.5249176025390625 0.7843246459960938 0.7629624009132385
        0.8514633178710938 1.3702774047851562 2.4781036376953125 3.9368896484375 5.273597717285156 5.7679972648620605
        4.4984283447265625 2.4994659423828125 2.03863525390625 2.06915283203125 1.388595700263977 0.8026351928710938
        0.8453598022460938 1.037628173828125 1.1627578735351562 1.2482070922851562 1.3550186157226562 1.4526824951171875
        1.5655975341796875 1.6876753568649292 10.840171813964844 9.802543640136719 9.152503967285156 8.795433044433594
        8.542129516601562 8.514662742614746 8.832054138183594 9.350868225097656 9.677421569824219 9.714042663574219
        9.527877807617188 9.27762508392334 9.286781311035156 9.823905944824219 10.419022560119629 9.96124267578125
        8.282723426818848 6.463820934295654 5.233924865722656 4.803611755371094 4.956207752227783 5.4475555419921875
        6.09149169921875 7.119964599609375 8.200325965881348 9.399703979492188 10.348823547363281 10.82796573638916
        10.785240173339844 10.504471778869629 10.324409484863281 10.06805419921875 9.546188354492188 8.990753173828125
        8.804588317871094 9.149452209472656 9.659111022949219 9.98260498046875 10.220649719238281 10.596023559570312
        10.919525146484375 11.081268310546875 10.931731224060059 10.480056762695312 9.787285804748535 9.149452209472656
        8.743552207946777 8.66726016998291 8.679466247558594 8.624534606933594 8.581801414489746 8.774070739746094
        9.17691707611084 9.570602416992188 9.744560241699219 9.418014526367188 8.633689880371094 7.657096862792969
        7.1382832527160645 7.263404846191406 7.4922943115234375 7.9195556640625 8.771018981933594 9.729301452636719
        10.141304016113281 9.787285804748535 9.683526039123535 9.625541687011719 9.381393432617188 9.225746154785156
        9.222694396972656 9.125038146972656 8.865623474121094 8.471938133239746 8.429214477539062 8.774070739746094
        9.079254150390625 8.941925048828125 8.590957641601562 8.313240051269531 8.175910949707031 7.858512878417969
        7.187110900878906 6.598098278045654 6.06097412109375 5.716117858886719 5.719170093536377 6.244087219238281
        6.952118396759033 7.626579284667969 8.130134582519531 8.127082824707031 7.623527526855469 6.912445068359375
        5.96331787109375 4.986724853515625 4.0589599609375 3.3631362915039062 3.2349624633789062 3.4974212646484375
        3.5462491512298584 3.3936614990234375 3.6561203002929688 4.208503723144531 4.5838775634765625 4.5777740478515625
        4.275642395019531 4.4740142822265625 5.325477600097656 5.429244518280029 4.287848949432373 3.360084295272827
        3.030487060546875 2.877898931503296 2.975555419921875 2.972503662109375 2.6612167358398438 2.3651809692382812
        2.04168701171875 1.559494137763977 0.924713134765625 1.022369384765625 1.065093994140625 1.1871719360351562
        0.955230712890625 0.894195556640625 1.2756729125976562 1.7639694213867188 1.6876754760742188 1.2573623657226562
        0.9704894423484802 0.885040283203125 0.836204469203949 0.7110824584960938 0.6317367553710938 0.6012115478515625
        0.5645904541015625 0.921661376953125 1.049835205078125 0.967437744140625 0.8056870102882385 0.7751693725585938
        1.1536027193069458 2.1332473754882812 3.7873458862304688 5.365150451660156 5.328529357910156 3.085418462753296
        1.7059860229492188 1.6449508666992188 1.6815719604492188 1.431320071220398 1.2543104887008667 1.3275527954101562
        1.5655975341796875 1.90740966796875 2.111877202987671 1.98065185546875 1.7059860229492188 1.5655975341796875
        10.818809509277344 10.498368263244629 10.174873352050781 9.616378784179688 9.085357666015625 8.905303955078125
        8.987701416015625 9.344764709472656 9.653007507324219 9.93682861328125 10.287789344787598 10.385452270507812
        10.141304016113281 10.000916481018066 10.364082336425781 10.889008522033691 10.846275329589844 9.87274169921875
        8.313241004943848 6.912445068359375 6.00604248046875 5.688652038574219 5.850395202636719 6.497390270233154
        7.129127502441406 7.339698791503906 7.248146057128906 7.382430553436279 7.791374206542969 8.438369750976562
        9.298988342285156 9.99176025390625 10.153511047363281 9.93072509765625 9.735404968261719 9.710990905761719
        9.88494873046875 10.10162353515625 10.400711059570312 10.931733131408691 11.426132202148438 11.593977928161621
        11.404768943786621 10.977508544921875 10.455642700195312 9.96124267578125 9.454636573791504 8.999908447265625
        8.703880310058594 8.652000427246094 8.780174255371094 8.984649658203125 9.262368202209473 9.549240112304688
        9.656059265136719 9.433273315429688 9.021270751953125 8.700828552246094 8.691673278808594 8.334602355957031
        7.6479411125183105 7.3396992683410645 7.766960144042969 8.468887329101562 9.027374267578125 9.500411987304688
        10.171820640563965 10.251167297363281 9.87274169921875 9.530928611755371 9.366127014160156 9.329505920410156
        9.222694396972656 8.816795349121094 8.606216430664062 8.920562744140625 9.241004943847656 9.085357666015625
        8.709983825683594 8.545181274414062 8.767967224121094 8.774070739746094 8.328497886657715 7.9775390625
        7.5258636474609375 6.952118396759033 6.6103057861328125 6.720176696777344 7.251197814941406 8.0233154296875
        8.847312927246094 9.158607482910156 8.752708435058594 7.995850086212158 6.942962646484375 5.91754150390625
        4.925689697265625 3.9063720703125 3.3722991943359375 3.326514959335327 3.2685320377349854 3.1647720336914062
        3.3509292602539062 3.6805343627929688 3.952148199081421 4.159675598144531 4.2237629890441895 4.135261535644531
        4.269538879394531 4.284797668457031 3.7812423706054688 3.4119720458984375 3.1373064517974854 2.8138046264648438
        2.7161483764648438 2.8168563842773438 2.7283554077148438 2.4658966064453125 2.1637649536132812 1.7212449312210083
        1.2115859985351562 1.1780166625976562 1.1688613891601562 1.1963270902633667 1.1627578735351562 1.2726211547851562
        1.6571578979492188 2.05389404296875 1.8219528198242188 1.1505509614944458 0.7416000366210938 0.6439438462257385
        0.7721176147460938 0.7416000366210938 0.6744613647460938 0.7446517944335938 0.909454345703125 1.1536026000976562
        1.1841201782226562 1.1536027193069458 1.1230850219726562 1.1291884183883667 1.2421035766601562 1.5900115966796875
        2.3377151489257812 3.353980779647827 4.171882629394531 3.5676116943359375 2.1881790161132812 1.1627577543258667
        1.1505507230758667 1.477096438407898 1.6327438354492188 1.6205291748046875 1.6510543823242188 1.7883834838867188
        2.02642822265625 2.1729202270507812 1.99591064453125 1.7487105131149292 11.078216552734375 11.420027732849121
        11.755729675292969 11.761833190917969 11.32541561126709 10.846275329589844 10.602127075195312 10.553298950195312
        10.547196388244629 10.681480407714844 10.959197998046875 11.276588439941406 11.661126136779785 11.9144287109375
        11.9998779296875 12.179938316345215 12.576675415039062 12.613296508789062 11.862541198730469 10.788291931152344
        9.863578796386719 9.012115478515625 8.301033020019531 8.0751953125 8.221687316894531 8.127082824707031
        7.708976745605469 7.3763275146484375 7.077240467071533 6.949065685272217 7.5106048583984375 8.499404907226562
        9.402755737304688 10.00091552734375 10.348823547363281 10.348823547363281 10.180976867675781 10.162666320800781
        10.470901489257812 10.989715576171875 11.343727111816406 11.313209533691406 10.965301513671875 10.565505981445312
        10.321357727050781 10.315255165100098 10.190132141113281 9.87579345703125 9.692680358886719 9.665215492248535
        9.485153198242188 9.292884826660156 9.164710998535156 9.216590881347656 9.183021545410156 9.024323463439941
        8.966339111328125 8.990752220153809 9.103667259216309 9.079254150390625 8.606216430664062 7.971435546875
        7.553328990936279 7.266456604003906 7.791374206542969 8.621475219726562 9.073150634765625 9.454635620117188
        9.866629600524902 10.00701904296875 10.00396728515625 10.03448486328125 9.900208473205566 9.347816467285156
        8.960235595703125 9.152503967285156 9.353919982910156 9.271522521972656 9.091461181640625 9.042632102966309
        9.210487365722656 9.332557678222656 9.195229530334473 9.201332092285156 9.112823486328125 8.700828552246094
        8.218635559082031 7.800529479980469 7.7120280265808105 8.273567199707031 8.789329528808594 8.673362731933594
        8.313240051269531 8.0843505859375 7.3000264167785645 6.366157531738281 5.853446960449219 5.236976623535156
        4.748680114746094 4.123054504394531 3.4821624755859375 3.1312026977539062 3.085418701171875 3.2959976196289062
        3.5584564208984375 3.7659835815429688 3.8819580078125 3.6561203002929688 3.2776873111724854 3.1586685180664062
        3.3814542293548584 3.5676116943359375 3.3448259830474854 2.7802352905273438 2.3377151489257812 2.3163528442382812
        2.5086212158203125 2.5574493408203125 2.3255081176757812 1.9806517362594604 1.6418991088867188 1.4374237060546875
        1.492355465888977 1.449630618095398 1.5106658935546875 1.7181930541992188 2.01422119140625 2.2766799926757812
        2.04168701171875 1.2939834594726562 0.6530990600585938 0.5279693007469177 0.6653060913085938 0.7690659165382385
        0.930816650390625 1.2237930297851562 1.4801483154296875 1.6144256591796875 1.6083221435546875 1.5564422607421875
        1.5625457763671875 1.6144256591796875 1.6052703857421875 1.6174774169921875 1.6846237182617188 1.9806519746780396
        2.5849151611328125 3.1464614868164062 2.938934326171875 1.8768922090530396 1.3702774047851562 1.5869598388671875
        1.8463668823242188 1.92877197265625 1.7639694213867188 1.5472869873046875 1.5686492919921875 1.7456589937210083
        1.8433151245117188 2.02947998046875 11.871695518493652 12.186042785644531 12.594985961914062 12.949006080627441
        13.000884056091309 12.878814697265625 12.771994590759277 12.512588500976562 12.222663879394531 12.0548095703125
        11.9632568359375 11.978515625 12.274543762207031 12.741477966308594 13.104643821716309 13.284706115722656
        13.504440307617188 13.693656921386719 13.364051818847656 12.442398071289062 11.407821655273438 10.675376892089844
        10.171821594238281 9.732352256774902 9.372237205505371 9.253211975097656 9.356971740722656 9.445480346679688
        9.054840087890625 7.8157877922058105 6.704917907714844 6.918548583984375 7.827995777130127 8.874786376953125
        9.723198890686035 10.217597961425781 10.373245239257812 10.348823547363281 10.541091918945312 10.831016540527344
        11.066009521484375 10.889007568359375 10.409866333007812 10.09552001953125 10.116883277893066 10.522781372070312
        10.763877868652344 10.754722595214844 10.864585876464844 10.983612060546875 10.672325134277344 10.058899879455566
        9.350868225097656 8.838157653808594 8.508560180664062 8.325447082519531 8.441421508789062 8.658102989196777
        8.990753173828125 9.173866271972656 9.152503967285156 9.085357666015625 8.76491641998291 7.8798828125
        7.843254089355469 7.7486491203308105 7.6021575927734375 8.11181640625 8.957183837890625 9.649955749511719
        10.220650672912598 10.617385864257812 10.699790954589844 10.226753234863281 9.649956703186035 9.579757690429688
        9.421066284179688 9.360023498535156 9.607223510742188 9.854423522949219 9.854423522949219 9.707939147949219
        9.662162780761719 9.89715576171875 10.01312255859375 9.842216491699219 9.497360229492188 8.822898864746094
        8.0355224609375 8.148445129394531 8.508560180664062 8.297981262207031 7.895142078399658 7.461776256561279
        6.6682963371276855 5.975525379180908 5.743583679199219 5.728324890136719 5.810722351074219 4.974518299102783
        3.927734136581421 3.4089205265045166 3.2593765258789062 3.2593765258789062 3.3509292602539062 3.3906097412109375
        3.4119720458984375 3.2136001586914062 3.003021240234375 2.990814208984375 3.103729248046875 3.109833002090454
        2.8107528686523438 2.4170684814453125 2.2339556217193604 2.4048614501953125 2.6673202514648438 2.7893905639648438
        2.7436139583587646 2.5543975830078125 2.2064895629882812 1.6998825073242188 1.446578860282898 1.3702774047851562
        1.4923553466796875 1.8768922090530396 2.10882568359375 2.1424026489257812 2.04473876953125 1.7242966890335083
        1.1993788480758667 0.625633180141449 0.6927719712257385 1.1078187227249146 1.5289764404296875 1.8463668823242188
        2.02947998046875 2.2278518676757812 2.3438186645507812 2.2675247192382812 2.1790237426757812 1.98980712890625
        1.5686492919921875 1.3061904907226562 1.3580703735351562 1.6663131713867188 2.298042058944702 3.137305974960327
        3.6957929134368896 3.5126800537109375 2.8321151733398438 2.1332473754882812 1.87384033203125 1.8829954862594604
        1.88299560546875 1.8189010620117188 1.6998823881149292 1.6083221435546875 1.6510543823242188 1.91046142578125
        12.137215614318848 12.189094543457031 12.469863891601562 12.955108642578125 13.409835815429688 13.803520202636719
        14.133125305175781 14.072083473205566 13.815727233886719 13.525802612304688 13.23892879486084 13.061920166015625
        13.147377014160156 13.278603553771973 13.348793029785156 13.403732299804688 13.486129760742188 13.611250877380371
        13.370155334472656 12.652976036071777 11.783195495605469 11.288795471191406 11.362037658691406 11.645866394042969
        11.673332214355469 11.267433166503906 10.730308532714844 10.452590942382812 10.202339172363281 9.729301452636719
        9.15860652923584 8.551284790039062 7.968383312225342 7.702873229980469 7.91650390625 8.484146118164062
        9.158607482910156 9.680473327636719 10.171822547912598 10.556350708007812 10.693687438964844 10.324409484863281
        9.91851806640625 9.88800048828125 10.196234703063965 10.657065391540527 10.922576904296875 11.197242736816406
        11.487167358398438 11.713005065917969 11.532944679260254 10.83406925201416 9.93072509765625 9.021270751953125
        8.206428527832031 7.657096862792969 7.6021575927734375 7.864616870880127 8.389541625976562 8.871726989746094
        9.173866271972656 9.482101440429688 9.665214538574219 9.106719970703125 8.829002380371094 8.221687316894531
        7.330543518066406 7.162696838378906 7.705924987792969 8.508560180664062 9.390548706054688 10.11077880859375
        10.547195434570312 10.589920043945312 10.473953247070312 10.388503074645996 9.701835632324219 8.993804931640625
        9.302040100097656 9.90631103515625 9.91546630859375 9.530929565429688 9.347816467285156 9.549240112304688
        9.89105224609375 10.02227783203125 9.91546630859375 9.356971740722656 8.252204895019531 7.885985851287842
        8.349861145019531 8.569595336914062 8.0782470703125 7.086395263671875 6.06097412109375 5.5360565185546875
        5.413985729217529 5.3956756591796875 5.4750213623046875 5.185096740722656 4.3733062744140625 3.9307861328125
        3.9979248046875 3.9063720703125 3.5584564208984375 3.2532730102539062 3.085418462753296 2.7039413452148438
        2.4811556339263916 2.2125930786132812 2.1546096801757812 2.105773687362671 1.96539306640625 1.98370361328125
        2.2797317504882812 2.6490097045898438 2.7314071655273438 2.6764755249023438 2.8229598999023438 2.984710693359375
        2.7283554077148438 2.1424026489257812 1.7365034818649292 1.8189010620117188 2.2736282348632812 2.636802911758423
        2.5543975830078125 2.2248001098632812 2.05389404296875 2.02947998046875 2.03253173828125 2.08135986328125
        2.075256109237671 2.2797317504882812 2.4720001220703125 2.5452423095703125 2.7069931030273438 2.972503662109375
        3.021331787109375 2.7680282592773438 2.4781036376953125 2.1362993717193604 1.6357955932617188 1.2817763090133667
        1.3306046724319458 1.7426071166992188 2.3468704223632812 3.036590337753296 3.8605880737304688 4.6143951416015625
        4.6479716300964355 3.87890625 2.884002923965454 2.05084228515625 1.8219528198242188 1.92572021484375
        1.9531861543655396 1.8372116088867188 1.7792280912399292 1.9470824003219604 11.963257789611816 11.978516578674316
        12.289801597595215 12.80556583404541 13.248085021972656 13.690604209899902 14.151435852050781 14.557327270507812
        14.859457969665527 14.993744850158691 14.831993103027344 14.398634910583496 14.123970031738281 13.870658874511719
        13.522749900817871 13.281654357910156 13.214515686035156 13.23282527923584 12.988677978515625 12.558364868164062
        12.0426025390625 11.716056823730469 11.761833190917969 12.268440246582031 12.604141235351562 12.271492004394531
        11.478012084960938 10.827964782714844 10.519729614257812 10.547195434570312 10.718101501464844 10.583816528320312
        9.820853233337402 8.532974243164062 7.4007415771484375 7.156593322753906 7.846305847167969 8.975495338439941
        10.00091552734375 10.394607543945312 10.187080383300781 9.744560241699219 9.634696960449219 9.94598388671875
        10.336616516113281 10.733360290527344 11.056854248046875 11.487167358398438 11.804556846618652 11.9388427734375
        11.764884948730469 11.291847229003906 10.669272422790527 9.95513916015625 9.018218994140625 8.08740234375
        7.4587249755859375 7.327491760253906 7.770011901855469 8.328498840332031 8.825950622558594 9.256263732910156
        9.427168846130371 9.543136596679688 9.839164733886719 9.378341674804688 8.230842590332031 7.5197601318359375
        7.461777210235596 7.812736511230469 8.380385398864746 8.890045166015625 9.363075256347656 9.866630554199219
        10.385452270507812 10.650962829589844 9.729301452636719 7.947021484375 7.815788269042969 8.584855079650879
        8.743553161621094 8.447525978088379 8.294928550720215 8.423110961914062 8.865623474121094 9.598068237304688
        9.92156982421875 9.530929565429688 8.603164672851562 8.020263671875 8.117919921875 8.166755676269531
        7.589951038360596 6.649986267089844 5.90533447265625 5.4384002685546875 5.221717357635498 5.093536853790283
        5.151527404785156 5.240028381347656 4.730369567871094 4.4099273681640625 4.5594635009765625 4.5442047119140625
        4.08642578125 3.5828704833984375 3.079315185546875 2.6245956420898438 2.1362991333007812 1.3977508544921875
        1.4221649169921875 1.586959719657898 1.6235885620117188 1.6266403198242188 1.8280564546585083 2.1301956176757812
        2.2186965942382812 2.1881790161132812 2.4781033992767334 2.8626327514648438 2.771080255508423 2.3834991455078125
        2.3865509033203125 2.8138043880462646 3.115936279296875 3.1617202758789062 2.972503900527954 2.6062774658203125
        2.3194046020507812 2.2980422973632812 2.6032257080078125 3.1586685180664062 3.5798187255859375 3.7018966674804688
        3.7598800659179688 3.9002685546875 4.129157543182373 4.342780590057373 4.284797668457031 3.885009527206421
        3.3509292602539062 2.8290634155273438 2.4384305477142334 2.2339553833007812 2.3224563598632812 2.6062774658203125
        2.8717880249023438 3.085418701171875 3.3265151977539062 3.7781906127929688 4.4221343994140625 4.785301208496094
        4.3275227546691895 3.2197036743164062 2.4353790283203125 2.087463617324829 1.9257200956344604 1.88604736328125
        2.04168701171875 2.5086212158203125 11.920531272888184 11.999878883361816 12.204352378845215 12.500382423400879
        12.619399070739746 12.704855918884277 13.028350830078125 13.745536804199219 14.505446434020996 15.268409729003906
        15.503403663635254 14.981536865234375 14.340644836425781 13.843193054199219 13.452560424804688 13.257240295410156
        13.260292053222656 13.12296199798584 12.66518497467041 12.146370887756348 11.807609558105469 11.572616577148438
        11.569563865661621 11.923583984375 12.167732238769531 12.012084007263184 11.575667381286621 11.194190979003906
        11.001923561096191 11.026336669921875 11.166725158691406 11.017181396484375 10.501419067382812 9.97039794921875
        9.155555725097656 7.9989013671875 7.770011901855469 8.734397888183594 9.860527038574219 10.226752281188965
        10.08331298828125 10.04974365234375 10.184028625488281 10.187079429626465 10.177925109863281 10.498367309570312
        11.041595458984375 11.603134155273438 12.0120849609375 12.210456848144531 12.097533226013184 11.761833190917969
        11.368142127990723 10.937835693359375 10.440383911132812 9.759819030761719 8.801536560058594 7.922607421875
        7.821891784667969 8.191169738769531 8.719139099121094 9.067047119140625 9.109771728515625 9.527877807617188
        9.842216491699219 9.500411987304688 8.862571716308594 8.398696899414062 8.1087646484375 7.9195556640625
        7.843254089355469 7.89208984375 8.200325012207031 8.871726989746094 9.668267250061035 10.193183898925781
        9.326454162597656 7.303077697753906 6.802574157714844 7.214576721191406 7.3915863037109375 7.3732757568359375
        7.3366475105285645 7.370216369628906 7.849357604980469 8.658103942871094 9.396652221679688 9.591964721679688
        9.320350646972656 9.006011962890625 8.728294372558594 8.273567199707031 7.5502777099609375 6.726280212402344
        6.079284191131592 5.539107799530029 5.227821350097656 5.014190673828125 4.864646911621094 4.721214294433594
        4.425185680389404 4.208503723144531 4.281745910644531 4.351936340332031 4.162727355957031 3.8117599487304688
        3.3143081665039062 2.8565289974212646 2.5055694580078125 2.102722406387329 1.605270504951477 0.769065797328949
        0.8514633178710938 1.5961151123046875 1.8616255521774292 1.8372114896774292 1.7761764526367188 1.91046142578125
        2.1759719848632812 2.3926544189453125 2.4231719970703125 2.2309036254882812 2.3438186645507812 2.6398541927337646
        2.6703720092773438 2.5360870361328125 2.5238800048828125 2.4597930908203125 2.157661199569702 2.2644729614257812
        2.929779052734375 3.6103363037109375 4.03759765625 4.150520324707031 4.239021301269531 4.4892730712890625
        4.864646911621094 5.163734436035156 5.2522358894348145 5.133216857910156 4.657127380371094 3.994873046875
        3.5096280574798584 3.2654800415039062 3.350929021835327 3.6591720581054688 3.836174249649048 3.8514328002929688
        3.6896896362304688 3.4302828311920166 3.4974210262298584 3.7812423706054688 3.96435546875 4.217658996582031
        4.306159973144531 3.4089202880859375 2.11187744140625 1.6235885620117188 1.97149658203125 2.6154327392578125
        12.198249816894531 12.256232261657715 12.399673461914062 12.378311157226562 12.250129699707031 12.192147254943848
        12.353889465332031 12.768943786621094 13.409835815429688 14.127021789550781 14.654991149902344 14.597000122070312
        14.157539367675781 13.739433288574219 13.507492065429688 13.422042846679688 13.284706115722656 12.979522705078125
        12.384414672851562 11.761833190917969 11.395614624023438 11.178932189941406 11.056854248046875 11.14536190032959
        11.203346252441406 11.130104064941406 11.185035705566406 11.331520080566406 11.239967346191406 11.194190979003906
        11.215553283691406 11.169776916503906 11.044647216796875 10.937834739685059 10.794395446777344 10.00701904296875
        8.929718017578125 8.551284790039062 8.606216430664062 8.941925048828125 9.591964721679688 10.324410438537598
        10.776084899902344 10.620437622070312 10.254219055175781 10.303047180175781 10.763877868652344 11.310157775878906
        11.9296875 12.329475402832031 12.408828735351562 12.140266418457031 11.731316566467285 11.438339233398438
        11.218605041503906 10.977508544921875 10.431229591369629 9.27457332611084 8.386489868164062 8.368171691894531
        8.639793395996094 8.722190856933594 8.63674259185791 8.874786376953125 9.012115478515625 8.969390869140625
        8.926667213439941 8.838157653808594 8.587905883789062 8.249153137207031 7.9256591796875 7.742546081542969
        7.9073486328125 8.481094360351562 9.109771728515625 9.552291870117188 8.929718017578125 7.821891784667969
        7.568587779998779 7.4739837646484375 7.361061096191406 7.4831390380859375 7.5655364990234375 7.3793792724609375
        7.361061096191406 7.766960144042969 8.529922485351562 9.167762756347656 9.384445190429688 9.414962768554688
        9.399703979492188 9.195228576660156 8.648948669433594 7.730339050292969 6.7110209465026855 5.94195556640625
        5.523849964141846 5.130165100097656 4.733421325683594 4.159675598144531 3.7354660034179688 3.5889739990234375
        3.7293624877929688 3.946044921875 3.9735107421875 3.7507247924804688 3.3234634399414062 3.045746088027954
        2.960296869277954 2.8077011108398438 2.6184844970703125 2.4140169620513916 1.95318603515625 1.7914352416992188
        2.2125933170318604 2.3987579345703125 2.07220458984375 2.05694580078125 2.2583694458007812 2.3346633911132812
        2.4231719970703125 2.4231719970703125 2.3621292114257812 2.11798095703125 1.6937788724899292 1.3977508544921875
        1.5289764404296875 1.6327438354492188 1.5472869873046875 2.03558349609375 2.8321151733398438 3.3051528930664062
        3.6072845458984375 3.8666915893554688 4.080322265625 4.4587554931640625 4.8066630363464355 4.995880126953125
        5.114898204803467 5.185096740722656 4.974517822265625 4.5350494384765625 4.132209777832031 3.936889886856079
        4.025390625 4.242073059082031 4.354988098144531 4.345832824707031 4.251228332519531 3.9246826171875
        3.5431976318359375 3.4363858699798584 3.8117599487304688 4.6204986572265625 5.2034077644348145 4.736473083496094
        3.2319107055664062 1.9318236112594604 1.7487105131149292 2.2888870239257812 12.317267417907715 12.417983055114746
        12.637718200683594 12.689598083496094 12.695701599121094 12.823875427246094 12.973419189453125 13.159584045410156
        13.248085021972656 13.449508666992188 13.757743835449219 13.96221923828125 13.861502647399902 13.721122741699219
        13.721122741699219 13.571578979492188 13.190101623535156 12.732322692871094 12.344734191894531 11.960204124450684
        11.554306030273438 11.059906005859375 10.824913024902344 10.757774353027344 10.730308532714844 10.620437622070312
        10.620437622070312 10.773033142089844 10.818809509277344 11.053802490234375 11.529891967773438 11.94189453125
        12.082275390625 11.91748046875 11.603135108947754 11.200294494628906 10.681480407714844 9.680473327636719
        8.328498840332031 7.678459167480469 8.130134582519531 9.112823486328125 9.90020751953125 10.135200500488281
        10.245062828063965 10.379348754882812 10.67537784576416 11.032440185546875 11.670279502868652 12.335578918457031
        12.656028747558594 12.375259399414062 11.755729675292969 11.420029640197754 11.310157775878906 11.181983947753906
        10.849327087402344 9.759819030761719 8.395645141601562 8.133186340332031 8.386489868164062 8.239997863769531
        8.0721435546875 8.1087646484375 8.1209716796875 8.307136535644531 8.575698852539062 8.609268188476562
        8.435317993164062 8.252204895019531 8.0355224609375 7.855461120605469 7.940917491912842 8.383438110351562
        8.786277770996094 9.024322509765625 8.526870727539062 8.239997863769531 8.444473266601562 8.239997863769531
        7.9744873046875 8.056884765625 8.160652160644531 8.11181640625 7.7303385734558105 7.370216369628906
        7.696770191192627 8.362068176269531 8.612319946289062 8.688621520996094 8.856468200683594 9.048736572265625
        9.128089904785156 8.709982872009277 7.824943542480469 6.936859607696533 6.250190734863281 5.5269012451171875
        4.699851989746094 3.8575363159179688 3.4211273193359375 3.4028167724609375 3.6317062377929688 3.872802495956421
        4.019287109375 4.0162353515625 3.946044683456421 3.7903976440429688 3.5950775146484375 3.4211270809173584
        3.118987798690796 2.905364990234375 2.7558212280273438 2.3651809692382812 2.2064895629882812 2.2186965942382812
        2.1301956176757812 2.1607131958007812 2.3743438720703125 2.4811553955078125 2.5940704345703125 2.6856307983398438
        2.6001739501953125 2.1881790161132812 1.6235885620117188 1.1108704805374146 1.016265869140625 1.074249267578125
        1.3275527954101562 1.93182373046875 2.3957061767578125 2.6154327392578125 2.984710693359375 3.4424896240234375
        3.7751388549804688 4.165779113769531 4.4740142822265625 4.4831695556640625 4.3275227546691895 4.229866027832031
        4.144416809082031 4.03759765625 4.0467529296875 4.190193176269531 4.3305745124816895 4.306159973144531
        4.278694152832031 4.333625793457031 4.3733062744140625 4.1932454109191895 3.909423828125 3.827018976211548
        4.239021301269531 4.763938903808594 4.812767028808594 4.745628356933594 4.849388122558594 4.278694152832031
        3.2685320377349854 2.6337509155273438 12.08837890625 12.222663879394531 12.442398071289062 12.692648887634277
        12.991729736328125 13.324379920959473 13.574631690979004 13.565474510192871 13.394577026367188 13.241981506347656
        13.382369995117188 13.547164916992188 13.595992088317871 13.681449890136719 13.785209655761719 13.672294616699219
        13.388473510742188 13.064971923828125 12.881866455078125 12.552260398864746 11.850334167480469 11.233863830566406
        11.084320068359375 11.246070861816406 11.273536682128906 10.959197998046875 10.519730567932129 10.437332153320312
        10.763877868652344 11.325417518615723 11.91748046875 12.387467384338379 12.729270935058594 12.732322692871094
        12.308113098144531 11.886962890625 11.755729675292969 11.444442749023438 10.309150695800781 8.761863708496094
        8.160652160644531 8.526870727539062 8.783226013183594 8.911407470703125 9.247108459472656 9.772026062011719
        10.223701477050781 10.568557739257812 11.230812072753906 12.237922668457031 12.848289489746094 12.622459411621094
        11.9296875 11.404769897460938 11.230812072753906 11.139259338378906 10.806602478027344 9.802543640136719
        8.255256652832031 7.5655364990234375 7.611312389373779 7.8188395500183105 7.779167652130127 7.5746917724609375
        7.5319671630859375 7.840202808380127 8.175910949707031 8.288825988769531 8.188117980957031 8.1148681640625
        8.044677734375 7.953125 8.069091796875 8.407852172851562 8.746604919433594 8.990753173828125
        8.633689880371094 8.667259216308594 8.902252197265625 8.648948669433594 8.398696899414062 8.401748657226562
        8.465835571289062 8.600112915039062 8.264411926269531 7.287818908691406 6.976531982421875 7.336647033691406
        7.5960540771484375 7.745597839355469 7.9866943359375 8.508560180664062 9.115875244140625 9.427169799804688
        9.088409423828125 8.154548645019531 7.037566661834717 5.91448974609375 4.852439880371094 3.949096441268921
        3.7110519409179688 3.9185791015625 4.0528564453125 4.0528564453125 3.973510980606079 4.010132312774658
        4.196296691894531 4.254280090332031 4.0955810546875 3.897216796875 3.6530685424804688 3.3509292602539062
        2.926727294921875 2.3682327270507812 2.05084228515625 1.96539306640625 1.91046142578125 2.09967041015625
        2.2583694458007812 2.3010942935943604 2.3102493286132812 2.3773956298828125 2.3224563598632812 2.2583694458007812
        1.9898070096969604 1.5442352294921875 1.416061282157898 1.562545895576477 1.7365037202835083 2.09967041015625
        2.6368026733398438 2.880950689315796 3.1861343383789062 3.4546968936920166 3.6103365421295166 3.8575363159179688
        4.129158020019531 4.0711669921875 3.7171552181243896 3.2746353149414062 3.027435302734375 3.103729248046875
        3.5065765380859375 4.0528564453125 4.348884582519531 4.171882629394531 4.043701171875 4.208503723144531
        4.3855133056640625 4.342781066894531 4.123054504394531 4.0467529296875 4.370246887207031 4.5747222900390625
        4.235969543457031 4.287849426269531 5.212562561035156 5.7679972648620605 5.2552876472473145 3.872802734375
        12.323370933532715 12.546157836914062 12.710960388183594 12.857444763183594 13.098540306091309 13.428145408630371
        13.745537757873535 13.660087585449219 13.241981506347656 13.006988525390625 13.168739318847656 13.303016662597656
        13.434249877929688 13.669242858886719 13.809623718261719 13.693656921386719 13.583786964416504 13.525802612304688
        13.379318237304688 12.863548278808594 12.234870910644531 11.807609558105469 11.777091979980469 11.9693603515625
        11.9998779296875 11.520736694335938 10.855430603027344 10.727256774902344 11.203346252441406 11.670280456542969
        11.947999000549316 12.143317222595215 12.466813087463379 12.793357849121094 12.707908630371094 12.359993934631348
        12.112793922424316 11.899169921875 11.319314002990723 10.07720947265625 9.051787376403809 8.929718017578125
        8.969390869140625 9.106720924377441 9.149452209472656 9.347816467285156 9.640800476074219 9.93988037109375
        10.461746215820312 11.355934143066406 12.179938316345215 12.491226196289062 12.259284973144531 11.731315612792969
        11.349830627441406 11.154518127441406 10.855430603027344 10.138252258300781 8.954132080078125 7.9134521484375
        7.309181213378906 7.4465179443359375 7.327491760253906 6.949066638946533 7.043670654296875 7.5930023193359375
        8.133186340332031 8.386489868164062 8.368171691894531 8.243049621582031 8.1209716796875 8.0721435546875
        8.139289855957031 8.337654113769531 8.633689880371094 8.908355712890625 8.569596290588379 8.423110961914062
        8.560441017150879 8.572647094726562 8.529922485351562 8.404800415039062 8.124031066894531 8.0172119140625
        7.742546081542969 6.836143493652344 6.317328929901123 6.448562145233154 6.7384867668151855 6.985687255859375
        7.5045013427734375 8.349861145019531 9.134193420410156 9.591964721679688 9.601119995117188 8.987701416015625
        7.843254089355469 6.717124938964844 5.743583679199219 5.050811767578125 4.959259033203125 5.038604259490967
        4.907379150390625 4.6693339347839355 4.4709625244140625 4.4343414306640625 4.425186634063721 4.245124816894531
        3.9613037109375 3.8239669799804688 3.9063720703125 3.9521484375 3.4943695068359375 2.6642684936523438
        1.96234130859375 1.6541061401367188 1.6876754760742188 1.6754685640335083 1.593063235282898 1.6235885620117188
        1.5411834716796875 1.8341597318649292 1.7944868803024292 2.2186965942382812 2.2003862857818604 1.92572021484375
        2.02947998046875 2.1607131958007812 2.3712844848632812 3.021331787109375 3.912475824356079 3.970458984375
        3.8483808040618896 3.7995529174804688 3.799553155899048 3.9674072265625 4.0711669921875 3.952148675918579
        3.4699552059173584 2.902313232421875 2.5574491024017334 2.6856307983398438 3.1739273071289062 3.6866378784179688
        3.933837890625 3.872802734375 3.8270184993743896 3.933837890625 4.0650634765625 4.080322265625
        4.0467529296875 3.976562738418579 4.171882629394531 4.3977203369140625 4.229866027832031 4.159675598144531
        4.6174468994140625 4.7059550285339355 4.5716705322265625 4.330574035644531 12.475966453552246 12.759788513183594
        12.854393005371094 12.836081504821777 12.945953369140625 13.333534240722656 13.727226257324219 13.718070983886719
        13.208413124084473 12.887969970703125 12.979522705078125 13.183998107910156 13.354896545410156 13.574630737304688
        13.788261413574219 13.751639366149902 13.644829750061035 13.620406150817871 13.473923683166504 13.098541259765625
        12.768943786621094 12.549209594726562 12.469863891601562 12.503433227539062 12.396621704101562 11.947997093200684
        11.490219116210938 11.398666381835938 11.487167358398438 11.548202514648438 11.688591003417969 11.9388427734375
        12.256234169006348 12.668235778808594 12.817771911621094 12.491226196289062 11.996826171875 11.529891967773438
        11.066009521484375 10.287788391113281 9.579758644104004 9.497360229492188 9.610275268554688 9.811698913574219
        9.87884521484375 9.842216491699219 9.707939147949219 9.662162780761719 9.781181335449219 10.199287414550781
        10.870689392089844 11.584823608398438 11.99072265625 11.725212097167969 11.151466369628906 10.797447204589844
        10.629600524902344 10.269477844238281 9.610275268554688 8.713034629821777 7.650993347167969 7.147438049316406
        7.061981678009033 7.074188232421875 7.238990783691406 7.5289154052734375 8.0477294921875 8.450576782226562
        8.413955688476562 8.0782470703125 7.898192882537842 7.983642578125 8.178962707519531 8.481094360351562
        8.807640075683594 8.944976806640625 8.261360168457031 7.330543518066406 7.2084736824035645 7.599106311798096
        7.931763172149658 7.8463053703308105 7.364112377166748 6.961273193359375 6.787315368652344 6.5706329345703125
        6.3936309814453125 6.433304309844971 6.4729766845703125 6.625572204589844 7.190162658691406 7.9561767578125
        8.575698852539062 9.009063720703125 9.277626037597656 9.244057655334473 8.822898864746094 8.349861145019531
        7.782218933105469 7.312232971191406 6.976531982421875 6.5340118408203125 6.02130126953125 5.645927429199219
        5.4078826904296875 5.4292449951171875 5.236976623535156 4.840232849121094 4.370246887207031 3.939941644668579
        3.8148117065429688 4.07421875 4.205451965332031 3.6835858821868896 2.923675537109375 2.3377151489257812
        2.09967041015625 2.1271438598632812 2.151557683944702 1.93182373046875 1.6052703857421875 1.547286868095398
        1.1871719360351562 1.5076141357421875 1.7334519624710083 1.87689208984375 1.90740966796875 2.2309036254882812
        2.957244873046875 3.8239669799804688 4.785301208496094 4.776145935058594 4.327522277832031 4.254280090332031
        4.4434967041015625 4.663230895996094 4.4434967041015625 3.970458984375 3.3051528930664062 2.8656845092773438
        2.7863388061523438 2.987762212753296 3.2929458618164062 3.4119720458984375 3.2990493774414062 3.3204116821289062
        3.4577484130859375 3.4791104793548584 3.5187835693359375 3.5920257568359375 3.6133880615234375 3.6286544799804688
        3.802604913711548 4.300056457519531 4.5197906494140625 4.327522277832031 4.208503723144531 3.906372308731079
        3.5248870849609375 3.3875579833984375 12.613296508789062 12.814720153808594 12.820822715759277 12.65602970123291
        12.613296508789062 12.942901611328125 13.422042846679688 13.583786010742188 13.238929748535156 12.84218692779541
        12.735373497009277 12.83913516998291 13.077178955078125 13.425094604492188 13.757743835449219 13.739434242248535
        13.724175453186035 13.724174499511719 13.592942237854004 13.287758827209473 13.016144752502441 12.866600036621094
        12.680442810058594 12.512588500976562 12.335578918457031 12.11279296875 11.9998779296875 11.987671852111816
        11.743522644042969 11.423079490661621 11.404769897460938 11.560409545898438 11.786247253417969 12.256232261657715
        12.677391052246094 12.527846336364746 11.868643760681152 11.053802490234375 10.248115539550781 9.460739135742188
        8.975495338439941 9.094513893127441 9.430221557617188 9.820853233337402 10.232856750488281 10.516677856445312
        10.367134094238281 9.93377685546875 9.527877807617188 9.366127014160156 9.549240112304688 10.135200500488281
        10.852378845214844 11.139259338378906 10.937836647033691 10.654013633728027 10.464797973632812 10.165718078613281
        9.790336608886719 9.414961814880371 8.862571716308594 8.160652160644531 7.580794811248779 7.3732757568359375
        7.1260762214660645 7.129127502441406 7.5502777099609375 7.986694812774658 7.9775390625 7.730339050292969
        7.809685230255127 8.246101379394531 8.847312927246094 9.475997924804688 9.97955322265625 10.013123512268066
        8.990753173828125 7.159645080566406 6.3997344970703125 6.6133575439453125 7.003997802734375 7.266456127166748
        7.129127502441406 6.726280689239502 6.5309600830078125 6.5736846923828125 6.677452564239502 6.653038024902344
        6.5828399658203125 6.674400329589844 7.034515380859375 7.4373626708984375 7.821891784667969 8.328498840332031
        8.899200439453125 9.225746154785156 9.274574279785156 9.079254150390625 8.478042602539062 7.971435546875
        7.849357604980469 7.7517008781433105 7.538071155548096 7.040619373321533 6.5523223876953125 6.335639476776123
        6.01214599609375 5.5909881591796875 5.230873107910156 4.782249450683594 4.358039855957031 4.358039855957031
        4.730369567871094 4.638816833496094 4.0711669921875 3.4638521671295166 2.8534772396087646 2.5482938289642334
        2.4933624267578125 2.4170684814453125 2.5360870361328125 2.6398544311523438 2.2492141723632812 1.6235885620117188
        1.083404541015625 1.2848281860351562 1.7700728178024292 2.6673202514648438 3.4882659912109375 3.833122491836548
        4.269538402557373 4.4282379150390625 4.257331848144531 4.4312896728515625 4.782249450683594 5.029449462890625
        4.6204986572265625 4.0162353515625 3.3661880493164062 3.1678237915039062 3.3814544677734375 3.5248870849609375
        3.4730072021484375 3.024383544921875 2.5971221923828125 2.7375106811523438 3.061004638671875 3.1861343383789062
        3.2898941040039062 3.3478775024414062 3.2776870727539062 3.3478775024414062 3.5676116943359375 4.01318359375
        4.4343414306640625 4.5014801025390625 4.6082916259765625 4.605240345001221 4.138313293457031 3.3906097412109375
        12.744529724121094 12.939849853515625 13.003935813903809 12.811668395996094 12.479018211364746 12.292854309082031
        12.372200012207031 12.512588500976562 12.524795532226562 12.454605102539062 12.372200012207031 12.378311157226562
        12.616348266601562 13.074127197265625 13.538009643554688 13.733329772949219 13.913392066955566 13.980530738830566
        13.821830749511719 13.480026245117188 13.202308654785156 12.894073486328125 12.533951759338379 12.250129699707031
        12.179939270019531 12.091429710388184 12.033447265625 12.009033203125 11.822868347167969 11.471908569335938
        11.288795471191406 11.276588439941406 11.365089416503906 11.795401573181152 12.292854309082031 12.378311157226562
        11.9876708984375 11.117888450622559 9.97955322265625 9.091461181640625 8.594009399414062 8.490249633789062
        8.661155700683594 9.268470764160156 9.98870849609375 10.513627052307129 10.696739196777344 10.394607543945312
        9.775077819824219 9.167762756347656 8.813743591308594 9.045684814453125 9.826957702636719 10.727256774902344
        11.267433166503906 11.215553283691406 10.815757751464844 10.327461242675781 10.02227783203125 9.820855140686035
        9.524827003479004 9.106719970703125 8.578750610351562 7.712028503417969 6.878876209259033 6.701866149902344
        6.939910888671875 7.2664570808410645 7.5441741943359375 7.773064136505127 8.185066223144531 8.777122497558594
        9.396652221679688 10.00701904296875 10.592971801757812 10.666220664978027 9.784233093261719 7.9866943359375
        6.689659118652344 6.228828430175781 6.482131481170654 7.217628479003906 7.757805347442627 7.794425964355469
        7.5258636474609375 7.2389912605285645 7.110809326171875 6.848351001739502 6.5431671142578125 6.707969665527344
        7.162696838378906 7.5228118896484375 7.855461120605469 8.239997863769531 8.679466247558594 9.073150634765625
        9.295936584472656 9.173866271972656 8.438369750976562 7.678459167480469 7.6143646240234375 7.98974609375
        8.130134582519531 7.861565113067627 7.4983978271484375 7.4526214599609375 7.324440002441406 6.5950469970703125
        5.758842468261719 5.288856029510498 5.047760009765625 4.931793212890625 5.154579162597656 5.148475646972656
        4.718162536621094 4.361091613769531 4.031494140625 3.6988449096679688 3.5645601749420166 3.4089202880859375
        3.2929458618164062 3.2532730102539062 3.009124755859375 2.5482940673828125 1.8707810640335083 1.6663132905960083
        2.06304931640625 2.6947860717773438 3.2166521549224854 3.5035250186920166 3.4821627140045166 3.8483810424804688
        4.208503723144531 4.626609802246094 4.956207275390625 4.962310791015625 4.5106353759765625 4.007080078125
        3.6011807918548584 3.6256027221679688 3.9796142578125 4.126106262207031 3.8605880737304688 2.975555658340454
        2.2705764770507812 2.3224563598632812 2.6154327392578125 2.874847412109375 3.1739273071289062 3.3021011352539062
        3.1647720336914062 3.1403579711914062 3.2471694946289062 3.5401458740234375 4.153572082519531 4.629661560058594
        5.255287170410156 5.5299530029296875 5.038604736328125 4.0589599609375 13.003936767578125 13.061920166015625
        13.135169982910156 12.991729736328125 12.579727172851562 12.0670166015625 11.636711120605469 11.462753295898438
        11.612288475036621 11.859489440917969 11.8778076171875 11.810661315917969 12.021240234375 12.479020118713379
        12.982574462890625 13.361000061035156 13.657035827636719 13.809623718261719 13.882872581481934 13.849296569824219
        13.687554359436035 13.245033264160156 12.759788513183594 12.396621704101562 12.179939270019531 11.996826171875
        11.9266357421875 11.9449462890625 11.804557800292969 11.535995483398438 11.386459350585938 11.294898986816406
        11.313209533691406 11.679435729980469 12.0303955078125 12.158576965332031 11.9571533203125 11.401719093322754
        10.641806602478027 9.823904991149902 9.237954139709473 8.783226013183594 8.517715454101562 8.819847106933594
        9.350868225097656 9.851371765136719 10.345771789550781 10.718101501464844 10.733360290527344 10.333564758300781
        9.686576843261719 9.170815467834473 9.161659240722656 9.88189697265625 10.681480407714844 10.901213645935059
        10.544142723083496 10.226752281188965 10.09246826171875 10.00396728515625 9.845268249511719 9.360023498535156
        8.819847106933594 8.304084777832031 7.663200378417969 6.759849548339844 6.5095977783203125 6.802574157714844
        7.324440002441406 7.9134521484375 8.441421508789062 8.804588317871094 9.094512939453125 9.454635620117188
        9.89105224609375 9.854424476623535 9.183021545410156 7.9683837890625 6.967376708984375 6.680504322052002
        7.080291271209717 7.855461120605469 8.557388305664062 8.932769775390625 8.972442626953125 8.865623474121094
        8.706932067871094 8.01416015625 6.982635498046875 6.802574157714844 7.339698791503906 7.873778820037842
        8.365119934082031 8.642845153808594 8.728294372558594 9.060943603515625 9.430222511291504 9.317298889160156
        8.633689880371094 7.5930023193359375 7.132178783416748 7.4007415771484375 7.669303894042969 7.794425964355469
        7.9439697265625 8.206428527832031 8.236946105957031 7.4068450927734375 6.1464314460754395 5.349891185760498
        5.105743408203125 5.218665599822998 5.557418346405029 5.618453502655029 5.3834686279296875 5.246131896972656
        5.185096740722656 5.026397228240967 4.699851989746094 4.4007720947265625 4.187141418457031 3.7812423706054688
        3.5523529052734375 3.3051528930664062 3.054901123046875 2.941986322402954 2.932830810546875 3.006072998046875
        3.082366704940796 3.2776870727539062 3.2624282836914062 3.6896896362304688 4.354988098144531 4.6113433837890625
        4.6052398681640625 4.6021881103515625 4.309211730957031 4.0589599609375 3.6256024837493896 3.8026044368743896
        4.199347972869873 4.3977203369140625 4.214607238769531 3.4272308349609375 2.6459579467773438 2.4933624267578125
        2.4811553955078125 2.6154327392578125 2.896209716796875 3.1312026977539062 3.051849603652954 3.018280029296875
        3.2288589477539062 3.5828702449798584 3.958251714706421 4.3733062744140625 5.041656494140625 5.5085906982421875
        5.188148498535156 4.5258941650390625 13.324378967285156 13.238929748535156 13.19315242767334 13.113800048828125
        13.025300025939941 12.631614685058594 11.835075378417969 11.127052307128906 10.858482360839844 10.940887451171875
        11.041594505310059 11.142311096191406 11.487167358398438 11.871695518493652 12.189093589782715 12.500381469726562
        12.82387638092041 13.098541259765625 13.364051818847656 13.699761390686035 13.843193054199219 13.638726234436035
        13.290809631347656 12.814720153808594 12.417984962463379 12.1219482421875 12.137213706970215 12.134162902832031
        11.951050758361816 11.731315612792969 11.661125183105469 11.621444702148438 11.633658409118652 11.731315612792969
        11.746574401855469 11.697746276855469 11.621443748474121 11.416975975036621 11.093475341796875 10.519729614257812
        9.924622535705566 9.491256713867188 9.36917781829834 9.317298889160156 9.298988342285156 9.433272361755371
        9.836112976074219 10.553298950195312 11.200294494628906 11.545150756835938 11.313209533691406 10.470901489257812
        9.564498901367188 9.332557678222656 9.582809448242188 9.634696960449219 9.537033081054688 9.735404968261719
        9.930724143981934 10.144354820251465 10.226752281188965 9.839164733886719 9.396652221679688 8.832054138183594
        8.005003929138184 6.839195251464844 6.2379841804504395 6.357002258300781 6.955169677734375 7.751701831817627
        8.343757629394531 8.502456665039062 8.514663696289062 8.771018981933594 9.173866271972656 9.189125061035156
        8.734397888183594 8.139289855957031 7.776115417480469 7.8798828125 8.322395324707031 8.813743591308594
        9.280677795410156 9.656060218811035 9.98870849609375 10.193184852600098 10.11688232421875 9.360023498535156
        8.001953125 7.345801830291748 7.5289154052734375 8.081298828125 8.673362731933594 8.932769775390625
        8.859519958496094 9.146400451660156 9.665214538574219 9.869682312011719 9.601119041442871 8.667259216308594
        7.593001842498779 7.058929443359375 7.046722412109375 7.3854827880859375 7.849358081817627 8.166755676269531
        8.209480285644531 7.852409362792969 6.897186279296875 5.825981616973877 5.374313831329346 5.633720397949219
        6.2105183601379395 6.4943389892578125 6.555374622344971 6.317329406738281 5.99688720703125 5.691703796386719
        5.4750213623046875 5.124061107635498 4.782249450683594 4.3977203369140625 4.0955810546875 3.982666015625
        3.897216796875 3.665275812149048 3.4241788387298584 3.5462496280670166 3.683586359024048 4.135261535644531
        4.202400207519531 4.0009765625 4.138313293457031 4.0162353515625 3.8666915893554688 4.0650634765625
        3.9857177734375 3.8453292846679688 3.4394376277923584 3.7720870971679688 4.260383605957031 4.306159973144531
        4.11083984375 3.8209152221679688 3.5126802921295166 3.3326187133789062 3.021332025527954 2.7191998958587646
        2.7802350521087646 2.908416986465454 2.850425958633423 3.057952880859375 3.5737152099609375 3.976562738418579
        4.196296691894531 4.373305797576904 4.5899810791015625 4.965362548828125 4.876861572265625 4.956207275390625
        13.415940284729004 13.330482482910156 13.23892879486084 13.336585998535156 13.467819213867188 13.309120178222656
        12.707908630371094 11.9327392578125 11.328469276428223 10.769981384277344 10.486160278320312 10.657066345214844
        10.959198951721191 11.246070861816406 11.511581420898438 11.755729675292969 11.96630859375 12.143317222595215
        12.308114051818848 12.567520141601562 12.80251407623291 12.878814697265625 12.74758243560791 12.491227149963379
        12.384415626525879 12.363044738769531 12.341683387756348 12.137215614318848 11.9937744140625 11.938843727111816
        12.021240234375 12.021240234375 11.8961181640625 11.630607604980469 11.236915588378906 10.922576904296875
        10.861534118652344 10.937835693359375 10.852378845214844 10.501419067382812 10.03448486328125 9.88189697265625
        10.058899879455566 10.159614562988281 10.150459289550781 10.010069847106934 10.01617431640625 10.303047180175781
        10.925628662109375 11.697746276855469 12.118896484375 11.743523597717285 10.898162841796875 10.299995422363281
        9.863579750061035 9.411911010742188 9.396652221679688 9.707939147949219 10.04364013671875 10.415969848632812
        10.635703086853027 10.357978820800781 9.955140113830566 9.488204956054688 8.819847106933594 7.626579284667969
        6.4302520751953125 6.03961181640625 6.4607696533203125 7.153541564941406 7.638786315917969 7.727287292480469
        7.9622802734375 8.648948669433594 9.396652221679688 9.588912963867188 9.442428588867188 9.234901428222656
        8.954132080078125 8.886993408203125 9.204383850097656 9.616378784179688 9.88800048828125 10.10772705078125
        10.330513000488281 10.510574340820312 10.391554832458496 9.695732116699219 8.749656677246094 8.301033020019531
        8.236946105957031 8.417008399963379 8.771018981933594 8.957183837890625 8.966339111328125 9.295936584472656
        9.768974304199219 9.96734619140625 9.96734619140625 9.463791847229004 8.359016418457031 7.443466663360596
        7.199317932128906 7.455672740936279 7.739494323730469 7.855461120605469 7.852409362792969 7.8005290031433105
        7.5411224365234375 6.918548583984375 6.347846984863281 6.289863586425781 6.772056579589844 7.199317932128906
        7.324440002441406 6.918548583984375 6.225776195526123 5.5757293701171875 5.2827534675598145 5.130165100097656
        5.014190673828125 5.087432861328125 4.959259033203125 4.898223876953125 4.5289459228515625 4.0498046875
        4.0284423828125 3.9185791015625 3.906372308731079 4.339729309082031 4.5289459228515625 4.5289459228515625
        4.266487121582031 4.07421875 3.848381280899048 3.6866378784179688 3.4058685302734375 3.2197036743164062
        3.2380142211914062 3.637809991836548 4.135261535644531 4.217658996582031 4.092529296875 4.119994640350342
        4.129158020019531 4.068115234375 3.8422775268554688 3.323463201522827 3.1769790649414062 3.030487060546875
        2.8595809936523438 3.1647720336914062 3.6805343627929688 4.019287109375 4.5136871337890625 4.834129333496094
        4.803611755371094 4.654075622558594 4.5625152587890625 5.243080139160156 13.330483436584473 13.263343811035156
        13.183998107910156 13.315224647521973 13.446456909179688 13.480026245117188 13.30911922454834 12.982573509216309
        12.414932250976562 11.468856811523438 10.773033142089844 10.626548767089844 10.702842712402344 10.769981384277344
        10.812705993652344 10.861534118652344 10.986663818359375 11.252175331115723 11.566513061523438 11.816764831542969
        12.0517578125 12.326424598693848 12.497329711914062 12.576676368713379 12.613296508789062 12.533950805664062
        12.295906066894531 12.106690406799316 12.192146301269531 12.384414672851562 12.506484985351562 12.439347267150879
        12.131111145019531 11.633659362792969 10.962249755859375 10.312202453613281 10.159614562988281 10.391555786132812
        10.522781372070312 10.391555786132812 10.162666320800781 10.278633117675781 10.718101501464844 11.001923561096191
        11.114837646484375 11.008025169372559 10.852378845214844 10.504470825195312 10.415969848632812 10.968353271484375
        11.770988464355469 12.335578918457031 12.384414672851562 11.94189453125 11.044647216796875 10.092469215393066
        9.805595397949219 9.89105224609375 10.168768882751465 10.431228637695312 10.626548767089844 10.510573387145996
        10.272529602050781 9.99176025390625 9.418013572692871 8.224739074707031 7.092498779296875 6.671348571777344
        6.765953063964844 6.921600341796875 7.040618896484375 7.315284729003906 8.001953125 9.063995361328125
        9.95819091796875 10.208442687988281 10.122993469238281 9.878844261169434 9.369178771972656 9.140296936035156
        9.418014526367188 9.814750671386719 10.01922607421875 10.04974365234375 10.10772705078125 10.07720947265625
        9.89715576171875 9.375289916992188 8.877838134765625 8.670310974121094 8.584854125976562 8.703880310058594
        8.883941650390625 8.905303955078125 8.905303955078125 9.262367248535156 9.524825096130371 9.436325073242188
        9.213539123535156 8.746604919433594 8.069091796875 7.736442565917969 7.730339050292969 7.715080738067627
        7.632683277130127 7.4739837646484375 7.4892425537109375 7.5624847412109375 7.5411224365234375 7.4098968505859375
        7.123023986816406 6.884978771209717 6.921599864959717 7.223731994628906 7.5594329833984375 7.571639537811279
        7.043670654296875 6.082336902618408 5.3193745613098145 4.913482666015625 4.837181091308594 5.090484619140625
        5.285804748535156 5.288856506347656 4.824974060058594 4.300056457519531 4.315315246582031 4.4709625244140625
        4.6113433837890625 4.757835388183594 4.8097147941589355 4.806663513183594 4.5289459228515625 4.367195129394531
        4.251228332519531 4.0009765625 3.7354660034179688 3.6256027221679688 3.799553155899048 3.9002685546875
        4.06201171875 4.251228332519531 4.260383605957031 4.126106262207031 4.06201171875 4.0345458984375
        4.123054504394531 4.0467529296875 4.1016845703125 3.6805343627929688 3.2593765258789062 3.2013931274414062
        3.3936614990234375 3.8117599487304688 4.675437927246094 5.127113342285156 5.090484619140625 4.965362548828125
        4.828025817871094 5.282752990722656 13.513596534729004 13.342689514160156 13.196205139160156 13.226722717285156
        13.385421752929688 13.492234230041504 13.492233276367188 13.446455955505371 13.037505149841309 12.173835754394531
        11.407821655273438 11.072113037109375 10.885955810546875 10.702842712402344 10.498368263244629 10.428176879882812
        10.635704040527344 11.008026123046875 11.264381408691406 11.365089416503906 11.569564819335938 12.015135765075684
        12.460709571838379 12.64077091217041 12.543106079101562 12.439347267150879 12.463759422302246 12.543106079101562
        12.82082462310791 13.122962951660156 13.370155334472656 13.293861389160156 12.845237731933594 12.015137672424316
        11.001921653747559 10.220649719238281 10.00091552734375 10.06500244140625 10.205390930175781 10.299995422363281
        10.467849731445312 10.824913024902344 11.273537635803223 11.566514015197754 11.880859375 11.9266357421875
        11.639762878417969 10.800498962402344 9.97344970703125 9.808647155761719 10.391555786132812 11.395615577697754
        12.302010536193848 12.683494567871094 12.189094543457031 11.258277893066406 10.586868286132812 10.290840148925781
        10.08941650390625 9.976502418518066 9.99481201171875 10.04364013671875 10.126044273376465 10.06805419921875
        9.448532104492188 8.322395324707031 7.5746917724609375 7.367164611816406 7.4373626708984375 7.452620983123779
        7.5167083740234375 7.831047058105469 8.322395324707031 8.908355712890625 9.29288387298584 9.314247131347656
        9.26846981048584 9.286781311035156 9.173866271972656 9.149452209472656 9.399703979492188 9.634696960449219
        9.735404968261719 9.656059265136719 9.509567260742188 9.366127014160156 9.228797912597656 8.938873291015625
        8.569595336914062 8.337654113769531 8.389541625976562 8.673362731933594 8.911407470703125 8.935821533203125
        8.78933048248291 8.862571716308594 8.874786376953125 8.606216430664062 8.291877746582031 7.9683837890625
        7.7425456047058105 7.760857105255127 7.803581237792969 7.687614440917969 7.5441741943359375 7.489242076873779
        7.614365100860596 7.678459644317627 7.5106048583984375 7.3488545417785645 7.162696838378906 6.906341552734375
        6.7964701652526855 7.080291748046875 7.745597839355469 8.215583801269531 7.986694812774658 7.098602294921875
        6.164741516113281 5.4933319091796875 5.102691650390625 4.910430908203125 5.066070556640625 5.053863525390625
        4.699851989746094 4.4129791259765625 4.4557037353515625 4.782249450683594 5.035553455352783 5.2003560066223145
        5.197303295135498 4.989776611328125 4.837181091308594 4.5808258056640625 4.370246887207031 4.116943359375
        4.055908203125 4.144416809082031 4.605240345001221 4.623558044433594 4.5106353759765625 4.5930328369140625
        4.287849426269531 3.9063720703125 3.842277765274048 3.8544845581054688 4.275642395019531 4.864646911621094
        5.294959545135498 4.6204986572265625 3.8636398315429688 3.3753511905670166 3.4211273193359375 3.8148117065429688
        4.4709625244140625 4.861595153808594 4.867698669433594 4.791404724121094 4.882965087890625 5.294960021972656
        13.583786010742188 13.391525268554688 13.278602600097656 13.29996395111084 13.361000061035156 13.361000061035156
        13.367104530334473 13.354896545410156 12.976470947265625 12.369148254394531 11.978515625 11.752677917480469
        11.505477905273438 11.194190979003906 10.834068298339844 10.657066345214844 10.68758487701416 10.913422584533691
        11.151466369628906 11.243019104003906 11.243019104003906 11.456649780273438 11.795402526855469 12.0487060546875
        12.1158447265625 12.329474449157715 12.558364868164062 12.665184020996094 12.930694580078125 13.34879207611084
        13.855399131774902 13.98663330078125 13.556320190429688 12.558364868164062 11.514633178710938 10.794395446777344
        10.388503074645996 10.129097938537598 10.03448486328125 10.10162353515625 10.483108520507812 10.965301513671875
        11.355934143066406 11.731315612792969 12.176887512207031 12.350837707519531 11.9815673828125 10.992767333984375
        9.89715576171875 9.22269344329834 9.170814514160156 9.778129577636719 10.782188415527344 11.841178894042969
        12.295907020568848 11.914427757263184 11.224708557128906 10.565505981445312 9.97955322265625 9.533981323242188
        9.488204956054688 9.665214538574219 9.89105224609375 9.790336608886719 9.222694396972656 8.450576782226562
        7.959228515625 7.712028503417969 7.721183776855469 7.898192882537842 8.136238098144531 8.282722473144531
        8.11181640625 7.855461120605469 7.6174163818359375 7.217628479003906 7.4190521240234375 8.169807434082031
        8.905303001403809 9.384445190429688 9.518722534179688 9.387496948242188 9.204383850097656 8.960235595703125
        8.780174255371094 8.645896911621094 8.655052185058594 8.532974243164062 7.953125 7.6082611083984375
        7.947021484375 8.551284790039062 8.951080322265625 9.137245178222656 9.134193420410156 9.030426025390625
        8.67031192779541 8.0843505859375 7.684562683105469 7.635734558105469 7.708976745605469 7.635734558105469
        7.4007415771484375 7.1962666511535645 7.235939025878906 7.596054553985596 7.898193359375 7.7059245109558105
        7.3915863037109375 7.184059143066406 7.156593322753906 7.037566661834717 6.964324951171875 7.208473205566406
        7.827995777130127 8.355964660644531 8.233894348144531 7.678459167480469 7.245094299316406 6.756797790527344
        6.05181884765625 5.3743133544921875 5.148475646972656 5.108795166015625 4.876861572265625 4.702903747558594
        4.919586181640625 5.279701232910156 5.4780731201171875 5.4689178466796875 5.209510803222656 4.965362548828125
        4.852439880371094 4.715110778808594 4.5472564697265625 4.339729309082031 4.257331848144531 4.5167388916015625
        4.995880126953125 4.849388122558594 4.583878040313721 4.4801177978515625 4.150520324707031 3.933837890625
        3.7873458862304688 4.055908203125 4.895172119140625 5.664237976074219 5.957213878631592 5.5116424560546875
        4.757835388183594 4.153572082519531 4.1016845703125 4.358039855957031 4.4709625244140625 4.5167388916015625
        4.5930328369140625 4.5075836181640625 4.6204986572265625 4.995880126953125 13.538009643554688 13.351844787597656
        13.132118225097656 12.994781494140625 12.939849853515625 12.918488502502441 13.022247314453125 13.113800048828125
        13.013092041015625 12.814720153808594 12.646873474121094 12.427139282226562 12.366096496582031 12.176886558532715
        11.804557800292969 11.511581420898438 11.255226135253906 11.099578857421875 11.120941162109375 11.166725158691406
        11.047698974609375 10.916473388671875 11.001923561096191 11.243019104003906 11.517684936523438 11.865592956542969
        12.0792236328125 12.131111145019531 12.411880493164062 13.022246360778809 13.715019226074219 13.934754371643066
        13.544113159179688 12.793357849121094 12.0517578125 11.487166404724121 11.072112083435059 10.519729614257812
        10.03753662109375 9.96429443359375 10.312201499938965 10.733360290527344 11.102630615234375 11.535994529724121
        12.0487060546875 12.353889465332031 12.08837890625 11.218605041503906 10.330513000488281 9.775077819824219
        9.442428588867188 9.289833068847656 9.576704978942871 10.422073364257812 11.362037658691406 11.731314659118652
        11.471908569335938 10.986663818359375 10.449538230895996 9.94903564453125 9.744560241699219 9.753715515136719
        9.671318054199219 9.411911010742188 8.996856689453125 8.624534606933594 8.426162719726562 8.325447082519531
        8.334602355957031 8.398696899414062 8.594009399414062 8.716087341308594 8.536026000976562 8.0477294921875
        7.327491760253906 6.369209289550781 6.390579700469971 7.4160003662109375 8.581802368164062 9.302040100097656
        9.378341674804688 9.033477783203125 8.636741638183594 8.355964660644531 8.239997863769531 8.346809387207031
        8.474990844726562 8.377334594726562 7.5350189208984375 7.049774169921875 7.5075531005859375 8.319343566894531
        8.795433044433594 9.128089904785156 9.466842651367188 9.585862159729004 9.231849670410156 8.377334594726562
        7.5991058349609375 7.394637584686279 7.452620983123779 7.1352314949035645 6.6866068840026855 6.5523223876953125
        6.698814392089844 7.083343505859375 7.3732757568359375 7.174903869628906 6.924652099609375 6.985687732696533
        7.272560119628906 7.531967639923096 7.644889831542969 7.687614440917969 7.8707194328308105 8.139289855957031
        8.142341613769531 7.852409362792969 7.586899280548096 7.3000264167785645 6.842247009277344 6.295967102050781
        6.033508777618408 5.95721435546875 5.5543670654296875 5.346839904785156 5.6215057373046875 5.960266590118408
        6.01824951171875 5.832084655761719 5.4841766357421875 5.169837951660156 4.937896728515625 4.812767028808594
        4.773094177246094 4.718162536621094 4.644920349121094 4.898223876953125 5.163734436035156 5.063018798828125
        4.779197692871094 4.6143951416015625 4.269538879394531 4.0711669921875 3.912475824356079 4.705955505371094
        6.082336902618408 6.6042022705078125 6.4729766845703125 5.99688720703125 5.154579162597656 4.5716705322265625
        4.4923248291015625 4.757835388183594 4.651023864746094 4.577773571014404 4.788352966308594 4.760887145996094
        4.647972106933594 4.672386169433594 13.238929748535156 12.964263916015625 12.524795532226562 12.198249816894531
        12.143318176269531 12.247076988220215 12.561417579650879 12.955108642578125 13.287758827209473 13.452560424804688
        13.193154335021973 12.784201622009277 12.659080505371094 12.640769958496094 12.579727172851562 12.469863891601562
        12.317269325256348 12.0975341796875 12.021240234375 11.886962890625 11.539047241210938 11.175880432128906
        11.041595458984375 11.090423583984375 11.191139221191406 11.316261291503906 11.447494506835938 11.581771850585938
        11.9632568359375 12.546157836914062 13.010040283203125 13.080229759216309 12.872711181640625 12.588882446289062
        12.225715637207031 11.847282409667969 11.514633178710938 10.937836647033691 10.330513000488281 10.126045227050781
        10.327461242675781 10.632652282714844 10.956146240234375 11.31931209564209 11.600082397460938 11.691642761230469
        11.453597068786621 11.050750732421875 10.751670837402344 10.605178833007812 10.312203407287598 9.927672386169434
        9.680473327636719 9.851371765136719 10.351875305175781 10.858482360839844 11.172828674316406 11.230812072753906
        11.154518127441406 10.773033142089844 10.284736633300781 9.836112976074219 9.512619018554688 9.277626037597656
        8.996856689453125 8.819847106933594 8.944976806640625 9.164710998535156 9.228797912597656 9.149452209472656
        9.274574279785156 9.585861206054688 9.93377685546875 9.90020751953125 9.298988342285156 8.157600402832031
        7.3946380615234375 7.562485218048096 8.200325012207031 8.804588317871094 9.149452209472656 9.112823486328125
        8.880889892578125 8.700828552246094 8.624534606933594 8.713035583496094 8.844261169433594 8.752708435058594
        7.922607421875 7.217628479003906 7.278663635253906 7.773063659667969 8.282722473144531 8.807640075683594
        9.360023498535156 9.772026062011719 9.698782920837402 8.981597900390625 8.0172119140625 7.4922943115234375
        7.330543518066406 6.869712829589844 6.344795227050781 6.241035461425781 6.5004425048828125 6.772056579589844
        6.927703380584717 6.900238037109375 6.662193298339844 6.5401153564453125 6.790367126464844 7.4251556396484375
        7.919556140899658 8.0355224609375 7.9622802734375 7.9744873046875 7.8829345703125 7.641838550567627
        7.272559642791748 6.955169677734375 6.747642517089844 6.747642517089844 6.881927967071533 6.744590759277344
        6.195259094238281 6.082335948944092 6.4912872314453125 6.799522399902344 6.732383728027344 6.418045520782471
        6.07012939453125 5.7496867179870605 5.5055389404296875 5.291908264160156 5.325477600097656 5.4963836669921875
        5.5696258544921875 5.4963836669921875 5.4078826904296875 5.227821350097656 5.041656494140625 4.998931884765625
        4.748680114746094 4.4251861572265625 4.193244934082031 5.3163228034973145 7.181007385253906 7.2756123542785645
        6.5157012939453125 5.868705749511719 5.2522358894348145 4.953155517578125 4.837181091308594 4.950103759765625
        4.992828369140625 5.066070556640625 5.328529357910156 5.5452117919921875 5.6123504638671875 5.542159557342529
        13.013092041015625 12.936798095703125 12.567520141601562 12.033447265625 11.633659362792969 11.545150756835938
        11.8839111328125 12.414932250976562 12.991729736328125 13.357948303222656 13.382369995117188 13.296913146972656
        13.229775428771973 13.135169982910156 13.159584045410156 13.312171936035156 13.361000061035156 13.333534240722656
        13.260292053222656 13.031402587890625 12.744529724121094 12.485122680664062 12.256233215332031 11.792350769042969
        11.291848182678223 11.041594505310059 11.157569885253906 11.508528709411621 11.8778076171875 12.045654296875
        12.042601585388184 11.9541015625 11.9693603515625 12.0303955078125 11.9937744140625 11.850334167480469
        11.581771850585938 11.215553283691406 10.834067344665527 10.577713012695312 10.522780418395996 10.623497009277344
        10.861534118652344 11.044647216796875 10.959197998046875 10.751670837402344 10.620437622070312 10.785240173339844
        10.931732177734375 10.852378845214844 10.724205017089844 10.534987449645996 10.199287414550781 9.92462158203125
        9.915467262268066 10.235908508300781 10.751670837402344 11.233863830566406 11.404769897460938 11.084321022033691
        10.513626098632812 9.90325927734375 9.558395385742188 9.576704978942871 9.540084838867188 9.369178771972656
        9.393600463867188 9.665214538574219 9.863578796386719 9.854423522949219 9.96734619140625 10.370185852050781
        11.075164794921875 11.398666381835938 11.090422630310059 10.193183898925781 9.176918029785156 8.655052185058594
        8.645896911621094 9.012115478515625 9.472946166992188 9.643852233886719 9.549240112304688 9.31424617767334
        9.100616455078125 9.021270751953125 9.125038146972656 9.070098876953125 8.438369750976562 7.650993824005127
        7.4922943115234375 7.858512878417969 8.435317993164062 8.935821533203125 9.405807495117188 9.808647155761719
        9.89715576171875 9.515670776367188 8.789328575134277 8.0172119140625 7.5228118896484375 7.080291748046875
        6.5492706298828125 6.308174133300781 6.5279083251953125 6.866661548614502 7.119964599609375 7.211524963378906
        6.900238037109375 6.295966625213623 6.131172180175781 6.759849548339844 7.4587249755859375 7.754753112792969
        7.702873229980469 7.6265788078308105 7.5014495849609375 7.354957580566406 7.150489807128906 6.680503845214844
        6.280708312988281 6.442459583282471 6.781211853027344 6.741539001464844 6.3905792236328125 6.418045520782471
        6.781212329864502 7.123023986816406 7.217628002166748 7.089447021484375 6.695763111114502 6.250190258026123
        6.192207336425781 6.02435302734375 5.97552490234375 6.170845031738281 6.2318806648254395 6.07623291015625
        5.99993896484375 5.960265636444092 5.91143798828125 5.7527384757995605 5.4017791748046875 4.940948486328125
        4.745628356933594 5.7496867179870605 7.5777435302734375 7.266456604003906 6.131172180175781 5.5604705810546875
        5.5238494873046875 5.664237976074219 5.584884166717529 5.4750213623046875 5.5787811279296875 5.7832560539245605
        5.97247314453125 6.363105773925781 6.622520923614502 6.564529895782471 13.144326210021973 13.269447326660156
        13.049712181091309 12.555313110351562 11.9449462890625 11.465805053710938 11.539046287536621 11.935791969299316
        12.424087524414062 12.988677978515625 13.629570960998535 14.09039306640625 14.06903076171875 13.812675476074219
        13.757743835449219 13.898133277893066 14.04156494140625 14.133125305175781 14.05072021484375 13.797416687011719
        13.519699096679688 13.187049865722656 12.750633239746094 12.1036376953125 11.575668334960938 11.438339233398438
        11.593978881835938 11.783195495605469 11.749626159667969 11.478012084960938 11.188088417053223 11.124000549316406
        11.227760314941406 11.30710506439209 11.316261291503906 11.304054260253906 11.224709510803223 11.197242736816406
        11.212501525878906 11.072113037109375 10.824913024902344 10.834068298339844 10.931732177734375 10.742515563964844
        10.351875305175781 10.223701477050781 10.510575294494629 10.928679466247559 11.017181396484375 10.934782981872559
        11.035491943359375 11.069061279296875 10.745567321777344 10.339668273925781 10.159614562988281 10.330513954162598
        10.812705993652344 11.31931209564209 11.535994529724121 11.288795471191406 10.824913024902344 10.177924156188965
        9.625542640686035 9.549240112304688 9.738456726074219 9.817802429199219 9.787285804748535 9.87579345703125
        10.171821594238281 10.422073364257812 10.702842712402344 11.151466369628906 11.743522644042969 12.0120849609375
        11.780143737792969 11.072113037109375 10.257270812988281 9.842216491699219 9.863578796386719 10.07415771484375
        10.293891906738281 10.260323524475098 9.91851806640625 9.466843605041504 9.186073303222656 9.204383850097656
        9.338661193847656 9.219642639160156 8.685569763183594 8.188117980957031 8.267463684082031 8.789328575134277
        9.329505920410156 9.585860252380371 9.717094421386719 9.811698913574219 9.811698913574219 9.595016479492188
        9.033477783203125 8.355964660644531 7.943970203399658 7.654045104980469 7.013153076171875 6.476028919219971
        6.524856090545654 6.991790771484375 7.4434661865234375 7.5533294677734375 7.318336486816406 6.704917907714844
        6.280708312988281 6.5523223876953125 7.013152599334717 7.165748596191406 7.168800354003906 7.226783752441406
        7.309181213378906 7.367164611816406 7.306129455566406 6.842247009277344 6.11590576171875 6.07012939453125
        6.335639953613281 6.283760070800781 6.1555867195129395 6.231880187988281 6.4333038330078125 6.7232279777526855
        7.101654052734375 7.327491283416748 7.071136951446533 6.671348571777344 6.747642517089844 6.720176696777344
        6.6042022705078125 6.6408305168151855 6.546218395233154 6.4821319580078125 6.5919952392578125 6.726280212402344
        6.811729431152344 6.695762634277344 6.219673156738281 5.688652038574219 5.5360565185546875 5.856498718261719
        6.866661071777344 6.6286234855651855 5.96026611328125 5.697807312011719 5.804618835449219 6.06097412109375
        6.161689758300781 6.216621398925781 6.3875274658203125 6.5309600830078125 6.634727478027344 6.994842052459717
        7.058929920196533 6.811729431152344 13.476974487304688 13.528854370117188 13.336586952209473 12.997834205627441
        12.524795532226562 11.911376953125 11.517684936523438 11.453598976135254 11.682487487792969 12.323371887207031
        13.397628784179688 14.282660484313965 14.291817665100098 13.96221923828125 13.849296569824219 13.91339111328125
        14.02630615234375 14.172798156738281 14.215521812438965 13.989684104919434 13.605148315429688 13.068023681640625
        12.640769958496094 12.332527160644531 12.161628723144531 12.0792236328125 12.021240234375 11.859490394592285
        11.514634132385254 11.069061279296875 10.834068298339844 10.760826110839844 10.65706729888916 10.480057716369629
        10.437332153320312 10.681479454040527 11.044647216796875 11.377304077148438 11.569564819335938 11.587875366210938
        11.456649780273438 11.398666381835938 11.154518127441406 10.550247192382812 10.177925109863281 10.287789344787598
        10.693687438964844 10.974455833435059 10.910369873046875 10.879853248596191 11.090423583984375 11.203346252441406
        10.986663818359375 10.672325134277344 10.599075317382812 10.858482360839844 11.26438045501709 11.642815589904785
        11.783195495605469 11.560409545898438 11.111785888671875 10.345771789550781 9.418014526367188 8.871726989746094
        8.920562744140625 9.259315490722656 9.524826049804688 9.759819030761719 10.223701477050781 10.748619079589844
        11.27963924407959 11.731314659118652 12.0364990234375 11.9296875 11.420028686523438 10.760826110839844
        10.263374328613281 10.174873352050781 10.385452270507812 10.708946228027344 10.943939208984375 10.742515563964844
        10.205390930175781 9.692680358886719 9.521774291992188 9.582809448242188 9.518722534179688 9.097565650939941
        8.526870727539062 8.331550598144531 8.734397888183594 9.369178771972656 9.854422569274902 10.06805419921875
        10.122993469238281 10.080262184143066 9.94293212890625 9.668266296386719 9.002960205078125 8.343757629394531
        8.130134582519531 8.041625022888184 7.507553577423096 6.952117919921875 6.958221435546875 7.4221038818359375
        7.843254089355469 7.9744873046875 7.821891784667969 7.4434661865234375 7.046722412109375 7.055877685546875
        7.177955627441406 7.052825927734375 7.040618896484375 7.238990783691406 7.5228118896484375 7.812736988067627
        7.947021484375 7.583847522735596 6.5309600830078125 5.850395679473877 5.789360523223877 5.822929382324219
        5.920592784881592 6.11895751953125 6.2288289070129395 6.4210968017578125 6.894134044647217 7.321387767791748
        7.284767150878906 7.065033435821533 7.1810078620910645 7.226783752441406 7.153541564941406 7.205421447753906
        7.159645080566406 7.101654529571533 7.123023986816406 7.220680236816406 7.4434661865234375 7.470931529998779
        7.113861083984375 6.637779235839844 6.311225891113281 6.241035461425781 6.314277648925781 6.213569164276123
        6.198310852050781 6.07318115234375 5.865653991699219 5.87481689453125 6.207466125488281 6.6560893058776855
        7.034515380859375 7.193214416503906 7.2115254402160645 7.272560119628906 7.040618896484375 6.738487243652344
        13.937804222106934 13.92254638671875 13.748588562011719 13.556320190429688 13.220619201660156 12.497329711914062
        11.581770896911621 11.108734130859375 11.19113826751709 11.621444702148438 12.491227149963379 13.321327209472656
        13.745536804199219 13.751640319824219 13.690606117248535 13.592940330505371 13.510543823242188 13.650932312011719
        13.830986022949219 13.711967468261719 13.303016662597656 12.915435791015625 12.75368595123291 12.622459411621094
        12.491225242614746 12.286750793457031 12.0975341796875 11.871695518493652 11.545150756835938 11.157569885253906
        10.785240173339844 10.412918090820312 9.91241455078125 9.570602416992188 9.747611045837402 10.403761863708496
        11.139259338378906 11.670281410217285 11.91748046875 11.978516578674316 11.9815673828125 11.835075378417969
        11.209449768066406 10.443435668945312 10.162666320800781 10.223701477050781 10.278633117675781 10.278634071350098
        10.318305969238281 10.470901489257812 10.678428649902344 10.727256774902344 10.583816528320312 10.452591896057129
        10.568557739257812 11.023284912109375 11.465805053710938 11.758781433105469 11.755729675292969 11.365089416503906
        10.718101501464844 9.814750671386719 8.935822486877441 8.328498840332031 8.0965576171875 8.313241004943848
        8.951080322265625 9.552291870117188 10.08941650390625 10.635703086853027 11.142311096191406 11.450546264648438
        11.529891967773438 11.188087463378906 10.483108520507812 9.88494873046875 9.601119995117188 9.814750671386719
        10.287788391113281 10.806601524353027 11.072113037109375 10.779136657714844 10.199287414550781 9.830009460449219
        9.744560241699219 9.698783874511719 9.378341674804688 8.795433044433594 8.227790832519531 8.157600402832031
        8.536026000976562 9.128089904785156 9.680473327636719 9.99176025390625 10.284736633300781 10.510574340820312
        10.534988403320312 10.257271766662598 9.555343627929688 8.639793395996094 8.175910949707031 8.136238098144531
        7.965331554412842 7.730339050292969 7.715080261230469 7.837151050567627 8.0111083984375 8.099609375
        8.0050048828125 7.898193359375 7.736442565917969 7.699821472167969 7.666252136230469 7.4709320068359375
        7.3976898193359375 7.5533294677734375 7.9287109375 8.487197875976562 8.874786376953125 8.618423461914062
        7.535018444061279 6.3753204345703125 5.920593738555908 6.07318115234375 6.4363555908203125 6.756798267364502
        6.848350524902344 6.8544535636901855 7.083343982696533 7.290870666503906 7.296974182128906 7.281715393066406
        7.5228118896484375 7.6174163818359375 7.6174163818359375 7.766960144042969 7.846305847167969 7.858512878417969
        7.727287292480469 7.556380748748779 7.727287292480469 8.017212867736816 7.9256591796875 7.4495697021484375
        7.068085670471191 6.888031005859375 6.726280212402344 6.686607360839844 6.4943389892578125 6.125068664550781
        5.87786865234375 5.838188171386719 6.143378734588623 6.772056579589844 7.208473205566406 7.452620983123779
        7.513657093048096 7.324440002441406 6.949066162109375 6.643882751464844
      </DataArray>
    </PointData>
    <CellData>
    </CellData>
  </Piece>
  </ImageData>
</VTKFile>
