<?xml version="1.0"?>
<VTKFile type="ImageData" version="0.1" byte_order="LittleEndian" header_type="UInt32" compressor="vtkZLibDataCompressor">
  <ImageData WholeExtent="0 159 0 159 0 0" Origin="0 0 0" Spacing="1 1 1" Direction="1 0 0 0 1 0 0 0 1">
  <Piece Extent="0 159 0 159 0 0">
    <PointData Scalars="wind_speed">
      <DataArray type="Float32" Name="wind_speed" format="ascii" RangeMin="0.045609623193740845" RangeMax="38.012115478515625">
        3.6269021034240723 6.378139972686768 5.168515682220459 6.005455493927002 8.840302467346191 12.648837089538574
        13.941760063171387 11.798700332641602 10.903177261352539 7.726639747619629 9.150880813598633 16.685531616210938
        20.732818603515625 22.18254280090332 17.840898513793945 13.160253524780273 8.353718757629395 5.684799671173096
        6.3549652099609375 5.901254177093506 9.83141040802002 12.82274055480957 16.276268005371094 18.39534568786621
        18.103290557861328 15.27718448638916 11.173139572143555 10.955551147460938 12.414542198181152 11.748700141906738
        9.208459854125977 7.464322090148926 8.339009284973145 11.957716941833496 11.346717834472656 11.242385864257812
        10.923722267150879 13.817026138305664 11.5955810546875 10.471597671508789 13.243705749511719 18.992277145385742
        24.649049758911133 31.816219329833984 31.344642639160156 27.2235164642334 19.75676155090332 13.878952980041504
        12.717522621154785 13.504155158996582 11.53079605102539 11.173178672790527 8.644524574279785 4.4265971183776855
        1.4952337741851807 4.434271812438965 6.739051818847656 7.812050819396973 8.76343059539795 9.94568920135498
        11.705970764160156 12.250998497009277 14.230077743530273 16.624755859375 13.844510078430176 11.974609375
        13.848831176757812 17.44301986694336 17.28007698059082 14.916232109069824 14.194795608520508 15.26167106628418
        15.511313438415527 16.65256690979004 16.605323791503906 17.054162979125977 15.209753036499023 13.58676815032959
        11.806268692016602 11.77064037322998 12.26327133178711 10.59827709197998 8.007560729980469 8.265022277832031
        8.830323219299316 9.883953094482422 9.075980186462402 10.052946090698242 11.056360244750977 9.258509635925293
        5.369626998901367 2.5819661617279053 4.728107929229736 6.506687641143799 12.04586410522461 15.651468276977539
        16.111530303955078 12.379350662231445 11.14135456085205 10.489603996276855 11.685898780822754 14.189579010009766
        16.1500244140625 15.74845027923584 17.85838508605957 18.759939193725586 19.51903533935547 17.47576904296875
        17.663846969604492 16.486116409301758 16.63408851623535 17.030052185058594 18.78846549987793 20.098642349243164
        20.748249053955078 18.573816299438477 17.455839157104492 18.428966522216797 18.947704315185547 17.181262969970703
        15.966891288757324 15.946318626403809 14.798121452331543 14.160076141357422 12.455280303955078 11.085208892822266
        10.077154159545898 10.919082641601562 10.611037254333496 11.508292198181152 13.287973403930664 13.866293907165527
        12.480270385742188 13.410737991333008 15.44159984588623 16.323074340820312 14.501656532287598 15.336187362670898
        15.355094909667969 15.93342113494873 13.739419937133789 13.27144718170166 10.759507179260254 9.492317199707031
        10.035881042480469 11.514251708984375 13.267837524414062 13.483376502990723 14.620991706848145 15.010055541992188
        14.389932632446289 15.858362197875977 15.847228050231934 15.85107421875 13.39592456817627 13.26776123046875
        12.659358978271484 12.808613777160645 12.558599472045898 11.241943359375 6.415214538574219 7.0283613204956055
        5.397280693054199 6.601401329040527 10.201290130615234 12.437954902648926 12.909491539001465 12.355154991149902
        13.754260063171387 13.267030715942383 15.18810749053955 19.1369686126709 22.543018341064453 23.40252685546875
        20.85413360595703 15.581525802612305 9.515054702758789 5.1244893074035645 5.690883159637451 7.17334508895874
        11.120262145996094 14.537775039672852 17.004858016967773 19.063871383666992 20.888832092285156 18.241069793701172
        14.160585403442383 10.896010398864746 12.250956535339355 12.501627922058105 10.40591049194336 9.369830131530762
        7.985793590545654 9.803545951843262 8.758005142211914 8.52253246307373 10.328106880187988 13.241153717041016
        11.601670265197754 12.633460998535156 16.978836059570312 23.009292602539062 26.80811309814453 31.313133239746094
        30.018770217895508 26.096895217895508 19.096342086791992 13.276918411254883 13.136131286621094 11.89783763885498
        11.55726146697998 11.352648735046387 7.754117488861084 3.1889567375183105 2.6413989067077637 4.9209160804748535
        7.728568077087402 8.660758972167969 9.33314037322998 10.6705322265625 11.051924705505371 11.238859176635742
        13.426868438720703 16.311283111572266 16.046876907348633 15.040350914001465 17.2449951171875 19.4387149810791
        18.956348419189453 15.869516372680664 15.138882637023926 16.432065963745117 16.80239486694336 17.4359188079834
        17.84283447265625 18.06477165222168 16.684837341308594 13.529108047485352 11.129576683044434 10.67764663696289
        10.114246368408203 9.581193923950195 8.436161994934082 9.590723991394043 11.28835391998291 12.25672435760498
        11.797661781311035 11.995905876159668 12.569982528686523 10.198077201843262 6.509054660797119 3.9278905391693115
        4.478863716125488 6.242466449737549 10.190483093261719 12.900105476379395 13.181891441345215 12.326680183410645
        12.22616958618164 12.005048751831055 13.478837013244629 16.24519920349121 18.327556610107422 17.51210594177246
        20.779197692871094 21.194915771484375 21.203954696655273 17.937671661376953 17.910642623901367 18.139549255371094
        17.797115325927734 18.703990936279297 20.165489196777344 21.198020935058594 22.071250915527344 19.46565055847168
        19.59150505065918 18.888492584228516 18.401779174804688 16.80316734313965 15.975604057312012 16.146230697631836
        15.834282875061035 14.690629005432129 12.718242645263672 11.927684783935547 11.112122535705566 11.705009460449219
        11.06425666809082 11.620674133300781 12.388935089111328 14.046542167663574 13.143218040466309 13.914942741394043
        15.67426586151123 15.568354606628418 14.370758056640625 15.65046215057373 16.186656951904297 17.067842483520508
        15.01675033569336 14.609670639038086 12.96882438659668 12.108917236328125 12.825542449951172 13.781749725341797
        14.542543411254883 15.28091049194336 15.491799354553223 16.341014862060547 15.5672607421875 16.801023483276367
        15.556668281555176 15.21535873413086 13.70987319946289 13.53842544555664 13.105232238769531 12.964390754699707
        13.005399703979492 12.480454444885254 7.733490467071533 7.5446319580078125 6.843183517456055 9.329435348510742
        12.307621955871582 13.62668514251709 12.224449157714844 12.997493743896484 14.962859153747559 17.050554275512695
        21.76209831237793 25.79631233215332 28.61536407470703 28.39309310913086 23.764352798461914 17.145971298217773
        10.32108211517334 6.399706840515137 5.721201419830322 6.927086353302002 10.920609474182129 14.391222953796387
        17.252731323242188 18.784439086914062 19.862478256225586 17.279888153076172 14.999591827392578 11.546295166015625
        12.20510196685791 12.647600173950195 13.027942657470703 12.2293119430542 10.30568790435791 9.45629596710205
        8.765064239501953 9.581936836242676 12.617240905761719 15.14737319946289 15.19066333770752 14.646621704101562
        18.639135360717773 24.03054428100586 27.050554275512695 29.606069564819336 25.16639518737793 18.10103988647461
        13.589194297790527 14.047877311706543 13.866823196411133 12.455915451049805 13.032519340515137 11.468814849853516
        6.480350971221924 4.484635829925537 4.729746341705322 7.305727958679199 8.739922523498535 9.741559028625488
        10.474542617797852 9.593293190002441 9.096637725830078 10.805808067321777 13.977176666259766 17.55064582824707
        17.225027084350586 16.343544006347656 17.23192596435547 19.91858673095703 20.009136199951172 14.489446640014648
        13.356974601745605 14.469738960266113 16.437837600708008 17.612329483032227 18.467405319213867 18.48839569091797
        15.77885913848877 13.017589569091797 10.800738334655762 8.846718788146973 8.030725479125977 6.865160942077637
        7.434604167938232 9.282020568847656 12.350207328796387 12.140286445617676 11.91313648223877 12.017350196838379
        12.993303298950195 9.558236122131348 6.245979309082031 4.613088607788086 2.9351162910461426 4.872060298919678
        6.18452787399292 7.810314655303955 8.668919563293457 10.865813255310059 11.466453552246094 12.88276481628418
        15.127490043640137 18.534574508666992 20.36451530456543 20.107372283935547 20.17514991760254 18.12921142578125
        14.789865493774414 14.17750072479248 14.820792198181152 16.044668197631836 17.885969161987305 19.519466400146484
        21.58559799194336 22.386878967285156 20.931392669677734 17.758237838745117 17.47857666015625 16.3294620513916
        16.90285873413086 15.840899467468262 15.55948543548584 15.580968856811523 14.832869529724121 15.187414169311523
        12.262381553649902 11.266347885131836 10.361872673034668 11.92225170135498 12.100521087646484 11.682332038879395
        12.319537162780762 14.198946952819824 13.477778434753418 14.482510566711426 13.701150894165039 13.806809425354004
        12.581658363342285 13.18794059753418 14.715441703796387 15.278961181640625 13.950206756591797 13.359397888183594
        13.468307495117188 14.212102890014648 15.043514251708984 15.460820198059082 15.842787742614746 16.32169532775879
        16.24163818359375 15.824607849121094 15.536473274230957 15.529651641845703 14.23819637298584 14.725372314453125
        13.180468559265137 12.319416999816895 11.878129959106445 12.492290496826172 12.587503433227539 11.94117546081543
        10.132234573364258 10.05280590057373 11.514938354492188 14.152640342712402 12.053019523620605 10.091386795043945
        11.481241226196289 16.116165161132812 19.68644142150879 21.889760971069336 27.58957862854004 30.166982650756836
        33.00808334350586 30.64072608947754 26.23937225341797 17.267362594604492 13.920947074890137 10.226553916931152
        9.051047325134277 9.659417152404785 12.910730361938477 15.118026733398438 18.37197494506836 22.625978469848633
        25.215559005737305 22.332582473754883 17.456315994262695 12.993364334106445 10.587352752685547 10.141361236572266
        11.511911392211914 13.491826057434082 12.294412612915039 9.255621910095215 9.11434268951416 10.327799797058105
        14.471794128417969 17.09695053100586 19.44183349609375 19.386865615844727 23.66270637512207 26.436155319213867
        27.53249740600586 25.863300323486328 18.86695098876953 10.693293571472168 9.447433471679688 10.397066116333008
        10.813544273376465 10.437010765075684 13.342713356018066 11.251450538635254 8.626779556274414 7.935632705688477
        9.358490943908691 9.35434341430664 9.534153938293457 10.331119537353516 10.536959648132324 8.874642372131348
        9.296939849853516 11.580885887145996 14.669661521911621 17.21672821044922 18.149921417236328 17.99325180053711
        19.70410919189453 20.276151657104492 19.65886116027832 15.766111373901367 15.154289245605469 15.631709098815918
        17.743274688720703 18.70555877685547 18.359315872192383 17.355674743652344 15.178625106811523 13.139634132385254
        10.861384391784668 8.609143257141113 6.862645149230957 6.0205979347229 7.183177471160889 7.617354393005371
        10.16055679321289 10.322909355163574 12.089008331298828 12.019668579101562 13.008010864257812 10.895081520080566
        8.1773681640625 4.909904956817627 2.8499608039855957 2.785581588745117 3.6660850048065186 5.045546054840088
        7.111159801483154 9.749100685119629 11.897357940673828 14.864840507507324 16.089580535888672 17.685680389404297
        19.228271484375 21.719318389892578 19.115554809570312 14.76956558227539 11.054441452026367 11.155792236328125
        10.884195327758789 13.652836799621582 17.02031707763672 20.878324508666992 22.499404907226562 23.02267074584961
        20.737564086914062 18.636606216430664 17.64502716064453 14.281752586364746 14.505748748779297 13.780324935913086
        13.93571949005127 14.909701347351074 15.562446594238281 16.556861877441406 13.465381622314453 12.745394706726074
        11.067222595214844 11.356606483459473 11.418622016906738 12.468680381774902 13.074419021606445 13.793027877807617
        14.794175148010254 16.512331008911133 15.953269004821777 15.403018951416016 12.93724250793457 12.904139518737793
        14.502205848693848 14.94034481048584 13.878924369812012 13.342740058898926 14.354781150817871 14.68901538848877
        14.723732948303223 13.713478088378906 15.752862930297852 16.387226104736328 16.29220199584961 15.531376838684082
        14.99792194366455 14.082192420959473 13.802874565124512 14.29234504699707 11.80746841430664 11.402485847473145
        11.646288871765137 12.549461364746094 12.660401344299316 12.035091400146484 10.421928405761719 9.153505325317383
        9.694851875305176 10.287877082824707 7.8311848640441895 6.427947044372559 11.494433403015137 17.523305892944336
        20.300506591796875 24.33440399169922 31.107248306274414 32.6904182434082 32.787845611572266 28.853544235229492
        24.010202407836914 13.521215438842773 12.680828094482422 10.822150230407715 10.605695724487305 12.841872215270996
        15.279645919799805 17.023542404174805 18.817428588867188 22.577402114868164 24.518850326538086 22.506799697875977
        18.60748291015625 14.749415397644043 11.279996871948242 12.423794746398926 13.088815689086914 13.715697288513184
        11.184926986694336 9.701452255249023 11.539740562438965 13.361430168151855 17.189271926879883 18.972063064575195
        20.77869987487793 22.21710205078125 24.8591365814209 24.53966522216797 24.811471939086914 25.200613021850586
        21.46257781982422 10.807592391967773 7.242201328277588 6.246485710144043 5.40188455581665 9.321897506713867
        12.527703285217285 13.329548835754395 10.068523406982422 9.707956314086914 11.278624534606934 9.562533378601074
        8.801904678344727 8.277952194213867 9.15964412689209 8.501313209533691 11.43448543548584 14.279711723327637
        16.570491790771484 16.27695655822754 16.910629272460938 17.08988380432129 18.696584701538086 18.49872398376465
        18.02427101135254 17.06156349182129 16.56644058227539 16.716367721557617 17.77478790283203 19.443037033081055
        20.023941040039062 17.802255630493164 15.639785766601562 12.500197410583496 10.839313507080078 8.823060989379883
        7.0706787109375 7.14950704574585 7.209625244140625 6.009551048278809 9.046245574951172 11.488175392150879
        13.52084732055664 12.160289764404297 12.814127922058105 11.697755813598633 8.606073379516602 4.566118240356445
        2.347456216812134 0.9894577860832214 4.068049430847168 6.526456832885742 8.320834159851074 9.656865119934082
        12.085478782653809 17.19565773010254 16.868640899658203 16.272050857543945 17.016162872314453 20.548782348632812
        16.161163330078125 10.171171188354492 9.113199234008789 8.07968807220459 9.289114952087402 13.556025505065918
        15.227495193481445 19.09627914428711 19.520360946655273 20.664857864379883 18.650014877319336 16.32242774963379
        14.776019096374512 13.28604507446289 14.450121879577637 15.700526237487793 14.547234535217285 15.810315132141113
        15.778752326965332 16.4857177734375 14.437589645385742 12.945905685424805 11.55722713470459 11.296791076660156
        11.707362174987793 13.622772216796875 13.229272842407227 13.8521089553833 14.773968696594238 17.61939811706543
        18.691335678100586 17.120351791381836 14.42552375793457 14.078888893127441 13.996423721313477 15.039925575256348
        12.960744857788086 13.877720832824707 14.770517349243164 13.728578567504883 14.435702323913574 13.789568901062012
        15.806595802307129 15.094341278076172 14.739566802978516 14.482598304748535 12.774836540222168 12.770265579223633
        13.258671760559082 12.809819221496582 11.43108081817627 11.05274486541748 11.891759872436523 12.630906105041504
        12.391406059265137 11.817476272583008 10.405315399169922 7.287649631500244 6.797380447387695 6.848583221435547
        5.915605545043945 5.582476615905762 11.07663631439209 16.39069366455078 20.73204803466797 25.966089248657227
        33.74675369262695 31.1646671295166 30.166946411132812 23.804443359375 18.597610473632812 10.851116180419922
        12.678141593933105 11.1466064453125 13.423222541809082 18.27810287475586 19.774019241333008 19.743934631347656
        17.824684143066406 22.53789520263672 25.051321029663086 23.93940544128418 19.439205169677734 16.279491424560547
        12.304620742797852 14.125227928161621 13.303716659545898 13.836762428283691 10.31074047088623 8.636768341064453
        10.669377326965332 13.639313697814941 20.270421981811523 20.192218780517578 19.74988555908203 20.26450538635254
        24.07512855529785 24.43040657043457 25.19000244140625 29.06330108642578 27.755279541015625 16.289878845214844
        8.833830833435059 6.6895036697387695 5.594326496124268 6.157932758331299 11.086498260498047 13.085988998413086
        10.104825019836426 10.151071548461914 12.221418380737305 9.654711723327637 9.125490188598633 5.700234889984131
        6.218595027923584 7.455534934997559 11.529122352600098 14.418828010559082 16.227323532104492 15.821791648864746
        16.352588653564453 17.009990692138672 19.62864875793457 18.241588592529297 16.911884307861328 16.071290969848633
        16.648653030395508 17.922443389892578 18.298982620239258 20.06639289855957 20.78982925415039 19.253524780273438
        16.551532745361328 12.087325096130371 8.46853256225586 6.272833824157715 6.259122848510742 8.006032943725586
        7.899997711181641 7.343317985534668 9.772762298583984 13.471572875976562 15.412310600280762 13.708520889282227
        12.314839363098145 10.126124382019043 7.429244041442871 5.095279693603516 2.654629945755005 1.8855760097503662
        4.152801513671875 7.526954174041748 9.032946586608887 10.784276008605957 12.577265739440918 16.4501895904541
        16.47380828857422 15.282774925231934 16.43732261657715 17.568788528442383 14.96873664855957 9.89696216583252
        11.235076904296875 11.981640815734863 12.741908073425293 15.93996810913086 15.841361045837402 18.764511108398438
        19.885042190551758 21.37685203552246 18.42938995361328 15.440314292907715 16.034879684448242 14.492377281188965
        14.560970306396484 15.565443992614746 14.80472469329834 16.154123306274414 15.491472244262695 15.538982391357422
        15.145536422729492 14.295141220092773 12.846397399902344 11.854549407958984 12.04817008972168 13.186729431152344
        13.269388198852539 16.19915008544922 15.314668655395508 17.6141414642334 17.53676414489746 17.602420806884766
        14.916135787963867 15.113725662231445 16.01305389404297 17.27332878112793 14.6483154296875 13.852206230163574
        12.94461727142334 12.609359741210938 12.969429969787598 13.056482315063477 13.556960105895996 13.363394737243652
        13.27744197845459 13.442693710327148 11.054577827453613 11.4917573928833 11.884214401245117 12.043689727783203
        11.836856842041016 10.760930061340332 11.55550479888916 12.05533218383789 13.212258338928223 12.71120834350586
        5.068548679351807 2.8484342098236084 4.657243251800537 5.824821472167969 6.577012062072754 8.966606140136719
        12.7752103805542 14.634087562561035 22.283344268798828 27.726205825805664 32.1675910949707 27.29822540283203
        28.70292091369629 22.698787689208984 17.5035400390625 12.131669044494629 11.0935640335083 11.087976455688477
        13.632433891296387 19.45828628540039 19.768489837646484 21.63398551940918 20.32084846496582 22.285545349121094
        24.089353561401367 21.84095573425293 18.11003875732422 13.513655662536621 13.401243209838867 14.195094108581543
        13.415990829467773 12.215880393981934 8.409720420837402 7.210522651672363 9.023219108581543 12.216102600097656
        18.509626388549805 19.135587692260742 20.584341049194336 20.41765594482422 21.771223068237305 23.055042266845703
        27.203073501586914 32.66459655761719 31.881261825561523 20.599048614501953 8.424470901489258 5.672574996948242
        5.827787399291992 4.856404781341553 9.527786254882812 11.458073616027832 9.887454986572266 10.11747932434082
        9.03429889678955 6.968854904174805 6.46943473815918 3.286994695663452 5.306004047393799 8.718499183654785
        12.186485290527344 14.281230926513672 16.257461547851562 18.075559616088867 18.378597259521484 17.896745681762695
        19.299646377563477 17.949739456176758 16.31052017211914 14.866555213928223 16.764450073242188 19.985815048217773
        20.981456756591797 22.294038772583008 22.557859420776367 19.67176055908203 13.477035522460938 8.015944480895996
        4.808589458465576 4.920928955078125 7.156635284423828 9.61904239654541 9.394594192504883 9.2447509765625
        11.359779357910156 14.219924926757812 14.74661922454834 13.598533630371094 11.308100700378418 10.183433532714844
        7.735456943511963 5.9596266746521 4.047445297241211 4.375885486602783 6.237156391143799 8.627747535705566
        10.707409858703613 12.44894790649414 13.025629043579102 14.957725524902344 15.717141151428223 15.188891410827637
        16.01127815246582 14.140321731567383 12.793476104736328 10.289793968200684 14.28149127960205 16.232582092285156
        17.494783401489258 18.80125617980957 18.845632553100586 20.029582977294922 22.386842727661133 22.452674865722656
        18.709625244140625 14.893932342529297 15.940881729125977 16.68624496459961 16.855817794799805 18.071517944335938
        17.995960235595703 18.392133712768555 17.90105438232422 17.86249542236328 17.016338348388672 14.480466842651367
        13.710725784301758 14.872247695922852 14.316332817077637 14.830341339111328 14.915520668029785 18.432741165161133
        16.8389949798584 16.606843948364258 17.083162307739258 18.3072566986084 17.726228713989258 17.73401641845703
        18.218027114868164 17.229228973388672 15.155750274658203 13.360235214233398 12.679500579833984 13.111058235168457
        12.359353065490723 12.472248077392578 11.862223625183105 12.529753684997559 11.65861701965332 11.96519947052002
        11.106239318847656 12.116552352905273 12.6940336227417 12.697118759155273 12.073845863342285 10.31910514831543
        11.453164100646973 12.254705429077148 12.835052490234375 13.232270240783691 6.759644508361816 2.171682119369507
        1.8400458097457886 5.913443565368652 6.753042697906494 10.370656967163086 11.797191619873047 14.535970687866211
        21.986324310302734 25.40053367614746 26.029361724853516 23.09035873413086 25.60369110107422 21.476911544799805
        16.79640769958496 12.032054901123047 8.849066734313965 10.587800025939941 14.381993293762207 18.5777645111084
        19.333269119262695 22.179309844970703 22.711761474609375 23.462968826293945 23.216541290283203 19.01511001586914
        16.204910278320312 11.811025619506836 12.189631462097168 9.587352752685547 8.462128639221191 7.690814971923828
        8.16679573059082 7.2866082191467285 7.486304759979248 9.103837966918945 13.182149887084961 15.932903289794922
        20.081708908081055 19.59379768371582 21.711713790893555 23.91631317138672 29.565675735473633 33.780487060546875
        28.310867309570312 16.18941307067871 6.856736183166504 7.698498725891113 5.337610721588135 3.6356582641601562
        6.656331539154053 7.832383155822754 8.162240028381348 10.2930269241333 7.776015758514404 5.973165512084961
        0.43309810757637024 0.996716320514679 3.179865598678589 9.661591529846191 11.882604598999023 13.430846214294434
        16.121444702148438 19.455978393554688 19.139162063598633 18.391279220581055 18.221864700317383 17.25678062438965
        16.696346282958984 15.074362754821777 17.314950942993164 22.26490020751953 23.790220260620117 22.06113052368164
        16.464643478393555 12.675650596618652 6.388346195220947 3.9621694087982178 2.871021270751953 5.825478553771973
        7.761806011199951 8.72504997253418 7.928775787353516 9.038467407226562 9.858355522155762 11.648601531982422
        12.92233943939209 13.409202575683594 12.201831817626953 9.599076271057129 6.770989418029785 5.373138427734375
        5.463632583618164 6.143181324005127 6.953477382659912 8.432769775390625 10.23565673828125 11.896492004394531
        12.127192497253418 12.40446662902832 13.683956146240234 13.652729988098145 14.193137168884277 13.072129249572754
        12.85274600982666 13.528087615966797 17.42891502380371 18.486042022705078 19.69344711303711 19.649202346801758
        20.88596534729004 21.579002380371094 24.551586151123047 24.09865951538086 21.02704429626465 16.94805335998535
        15.867403984069824 15.963001251220703 17.72372055053711 18.54085922241211 19.05838966369629 18.58608055114746
        18.87595558166504 19.17167091369629 17.799898147583008 14.925128936767578 14.622029304504395 15.307695388793945
        15.642171859741211 16.252288818359375 17.675037384033203 19.65286636352539 18.15058135986328 18.410051345825195
        19.123783111572266 20.34842300415039 20.196107864379883 18.405603408813477 18.558273315429688 15.849013328552246
        14.50605583190918 12.520865440368652 13.596026420593262 13.5440673828125 11.184789657592773 10.71992301940918
        10.28562068939209 11.529959678649902 12.479202270507812 12.543203353881836 11.830698013305664 11.903789520263672
        12.761506080627441 13.465065956115723 12.505009651184082 11.166247367858887 12.1027250289917 11.7408447265625
        12.421794891357422 13.253545761108398 5.769617080688477 2.7267942428588867 1.6316454410552979 2.851105213165283
        1.879469871520996 5.512068271636963 6.55062198638916 11.282164573669434 16.715526580810547 19.57562828063965
        21.300283432006836 21.51775550842285 22.43395233154297 21.18834114074707 12.633509635925293 6.16575813293457
        6.834440231323242 12.261702537536621 14.778246879577637 14.738457679748535 15.723928451538086 17.923534393310547
        20.023460388183594 21.006114959716797 19.461530685424805 15.993548393249512 15.950706481933594 11.8411226272583
        11.547765731811523 7.453252792358398 5.225550174713135 5.287821292877197 6.6415510177612305 5.967743396759033
        5.476534843444824 5.591134548187256 7.733628273010254 11.587489128112793 18.072067260742188 20.120054244995117
        25.308483123779297 26.645444869995117 30.717721939086914 35.009788513183594 30.464157104492188 21.455541610717773
        11.483107566833496 5.397279262542725 3.6211166381835938 2.162006378173828 3.2152514457702637 5.276174545288086
        4.352726459503174 7.598241329193115 5.191380500793457 3.3190371990203857 3.359494686126709 2.9302401542663574
        2.2735540866851807 9.199560165405273 12.21772575378418 14.300691604614258 17.071840286254883 20.651836395263672
        19.74209213256836 18.499881744384766 18.42441749572754 18.091447830200195 18.5744686126709 18.43869400024414
        19.38557243347168 22.744977951049805 22.90900230407715 22.316295623779297 14.181443214416504 7.941591739654541
        3.2026102542877197 3.6572818756103516 4.059623718261719 6.104609489440918 7.006520748138428 7.202956199645996
        7.63970947265625 8.913846969604492 10.057523727416992 11.741591453552246 13.503114700317383 13.356658935546875
        13.455541610717773 9.628095626831055 8.637760162353516 7.30908727645874 7.619342803955078 7.061607837677002
        7.209261894226074 8.314689636230469 10.086606979370117 11.660384178161621 12.049144744873047 12.005454063415527
        12.362143516540527 13.062481880187988 12.483819961547852 13.384319305419922 13.165731430053711 15.165068626403809
        17.33943748474121 18.135168075561523 19.090221405029297 18.81554412841797 19.989530563354492 20.506908416748047
        20.26338005065918 18.856170654296875 16.487937927246094 14.38071060180664 13.795708656311035 15.702871322631836
        18.5820255279541 19.258073806762695 19.204797744750977 18.503591537475586 19.068805694580078 19.09956169128418
        17.944652557373047 16.620378494262695 16.576162338256836 15.867746353149414 17.68300437927246 18.194061279296875
        18.94477081298828 17.840675354003906 18.205223083496094 20.505277633666992 22.060543060302734 21.114273071289062
        19.120498657226562 16.254030227661133 16.281925201416016 13.143539428710938 13.687625885009766 14.473352432250977
        14.15455150604248 12.673715591430664 10.915548324584961 12.127206802368164 11.149992942810059 12.337870597839355
        14.140989303588867 14.654561996459961 14.180258750915527 12.530720710754395 13.840277671813965 14.717086791992188
        12.933028221130371 11.940773963928223 12.741930961608887 13.418405532836914 13.437085151672363 14.492133140563965
        5.701335906982422 4.958745002746582 8.576460838317871 4.257844924926758 2.4704480171203613 3.947556972503662
        3.0192553997039795 3.8998465538024902 7.005659580230713 11.910799026489258 16.033615112304688 18.971759796142578
        19.811283111572266 19.22829246520996 10.223379135131836 4.082469463348389 7.205297946929932 11.885469436645508
        12.509811401367188 12.190542221069336 13.082335472106934 12.827420234680176 14.791739463806152 17.594377517700195
        16.43076515197754 15.401240348815918 14.608343124389648 11.358566284179688 10.089045524597168 4.757219314575195
        1.7097835540771484 2.020487070083618 2.811115026473999 3.840665340423584 3.8140509128570557 3.4949843883514404
        4.717559337615967 10.201852798461914 16.153614044189453 21.260440826416016 26.060819625854492 29.54917335510254
        31.51259422302246 35.52953338623047 33.912837982177734 27.589754104614258 17.539325714111328 8.26379680633545
        2.4269614219665527 3.441786766052246 4.668985843658447 4.475224494934082 2.3205063343048096 4.862872123718262
        4.101556301116943 0.54781174659729 4.209563732147217 4.394749164581299 0.767425537109375 9.14564037322998
        13.635310173034668 15.012188911437988 16.580026626586914 19.31459617614746 19.22247314453125 17.83186912536621
        18.325023651123047 18.822586059570312 20.793493270874023 24.010074615478516 23.11201286315918 23.10956573486328
        20.467761993408203 19.743406295776367 12.023981094360352 6.891509056091309 3.720015525817871 3.9153621196746826
        3.758382797241211 5.305569648742676 5.62282657623291 6.913013935089111 8.213468551635742 9.898136138916016
        11.17943000793457 11.709733963012695 13.532888412475586 12.521206855773926 12.139492988586426 8.928352355957031
        8.416800498962402 7.963442325592041 8.46047592163086 7.8029398918151855 9.317601203918457 10.447744369506836
        11.220746040344238 10.977187156677246 11.198527336120605 11.836194038391113 11.658646583557129 11.764647483825684
        11.59006118774414 12.599411964416504 14.187348365783691 16.00334358215332 17.688655853271484 17.584646224975586
        17.981258392333984 18.265287399291992 18.34410858154297 17.780033111572266 15.645894050598145 14.161959648132324
        14.587627410888672 13.687456130981445 13.887812614440918 15.656314849853516 17.362075805664062 17.752792358398438
        17.228029251098633 17.531414031982422 18.121021270751953 18.837717056274414 20.732492446899414 20.117734909057617
        19.013458251953125 16.186983108520508 18.348407745361328 20.714618682861328 18.12049674987793 17.238801956176758
        18.06402587890625 21.178096771240234 22.758953094482422 19.865785598754883 17.969348907470703 15.682097434997559
        16.288875579833984 15.09378433227539 15.243741035461426 15.56009578704834 13.663969993591309 12.62153148651123
        12.059517860412598 13.050984382629395 12.65440845489502 12.902853012084961 14.19307804107666 15.288848876953125
        14.00663948059082 13.42745590209961 15.540881156921387 17.160423278808594 15.836423873901367 13.610509872436523
        13.97407341003418 15.19364070892334 16.129302978515625 16.850278854370117 3.2255382537841797 2.5526318550109863
        8.37096881866455 6.863725185394287 3.4847066402435303 2.783970594406128 2.6099064350128174 1.0573346614837646
        0.5559254884719849 2.4340922832489014 9.199423789978027 16.549041748046875 18.960969924926758 17.515705108642578
        10.835593223571777 6.998289108276367 10.692164421081543 11.664057731628418 9.436306953430176 8.256168365478516
        7.685103416442871 8.822508811950684 12.118986129760742 17.738813400268555 17.623598098754883 17.300086975097656
        16.230449676513672 12.505284309387207 10.144043922424316 5.34837007522583 3.5722429752349854 3.516141414642334
        3.0131611824035645 2.1401476860046387 2.936633586883545 2.6649746894836426 5.7256999015808105 10.953760147094727
        16.990758895874023 21.934873580932617 26.555757522583008 29.981534957885742 32.70365524291992 33.840145111083984
        32.67068099975586 27.944700241088867 22.1046142578125 13.208542823791504 5.726113796234131 4.287139892578125
        5.241028785705566 7.185404300689697 2.077284336090088 1.812825322151184 2.2569894790649414 1.6530195474624634
        3.0809245109558105 3.4261319637298584 0.7361481189727783 7.945181369781494 13.74207878112793 16.29341697692871
        15.852516174316406 17.83084487915039 16.61434555053711 14.40458869934082 16.233388900756836 18.734821319580078
        21.258331298828125 24.0535831451416 23.387069702148438 22.6552677154541 19.368867874145508 17.660017013549805
        13.11243724822998 8.59134292602539 5.398887634277344 3.406233549118042 3.127100944519043 4.639195442199707
        6.506400108337402 9.09689998626709 10.264971733093262 11.447871208190918 11.185738563537598 11.215414047241211
        12.021727561950684 11.614027976989746 11.376445770263672 11.064111709594727 10.760139465332031 10.439591407775879
        9.841143608093262 10.221477508544922 11.971904754638672 11.882128715515137 11.507771492004395 10.3536958694458
        10.758258819580078 10.53225326538086 10.32198715209961 11.22767448425293 11.719592094421387 12.44264030456543
        14.961048126220703 17.448909759521484 19.457136154174805 19.521163940429688 19.2487735748291 17.706811904907227
        16.818017959594727 15.058416366577148 11.777936935424805 10.787640571594238 13.71613597869873 14.550209999084473
        17.32794952392578 17.538663864135742 17.889474868774414 17.273963928222656 17.248138427734375 17.6101131439209
        17.679489135742188 18.371505737304688 20.79156494140625 20.382112503051758 18.54222297668457 18.490732192993164
        20.454965591430664 21.113079071044922 16.8243465423584 16.735754013061523 17.060672760009766 20.036855697631836
        21.626874923706055 18.476764678955078 16.930274963378906 16.133636474609375 15.42636775970459 15.37502670288086
        15.248114585876465 16.234521865844727 13.636373519897461 12.898215293884277 13.059435844421387 14.494772911071777
        14.8543701171875 14.543118476867676 15.101337432861328 15.527924537658691 13.95826530456543 14.165640830993652
        16.355806350708008 18.37687873840332 16.46848487854004 14.903164863586426 14.353012084960938 15.605371475219727
        16.400081634521484 16.09364128112793 5.185453414916992 3.8867969512939453 10.578655242919922 8.688316345214844
        2.128129482269287 0.09655961394309998 1.8442491292953491 3.3896677494049072 1.9215199947357178 1.973580002784729
        8.96166706085205 16.244789123535156 18.003185272216797 16.143442153930664 12.253153800964355 9.854375839233398
        7.7747802734375 6.933084487915039 5.315445423126221 5.472168922424316 6.19480037689209 10.079875946044922
        13.012345314025879 16.893999099731445 17.117347717285156 16.1554012298584 15.909921646118164 14.341521263122559
        11.74842643737793 8.19314193725586 5.5407843589782715 6.689123630523682 7.113189697265625 5.40714693069458
        4.021390438079834 1.3676490783691406 3.746019124984741 10.149267196655273 17.136919021606445 23.109758377075195
        26.36043357849121 30.772445678710938 35.535770416259766 34.762046813964844 30.79174041748047 25.45658302307129
        23.10017204284668 15.358377456665039 10.03974437713623 9.968070983886719 10.071887969970703 9.590921401977539
        2.613399028778076 4.531236171722412 3.968428611755371 2.748497486114502 2.4287710189819336 2.324425220489502
        0.5201827883720398 5.581953048706055 10.816648483276367 13.909423828125 15.11690902709961 17.72246551513672
        15.5580415725708 14.259787559509277 16.347105026245117 19.568252563476562 21.314998626708984 21.746559143066406
        21.6855411529541 21.57610511779785 18.944978713989258 14.977412223815918 12.162542343139648 8.712334632873535
        4.778559684753418 2.2076416015625 2.4600634574890137 5.39088773727417 7.468382835388184 9.905928611755371
        10.106379508972168 11.215710639953613 10.527294158935547 10.25528621673584 10.780765533447266 11.589593887329102
        11.612920761108398 11.2344331741333 11.258453369140625 10.884394645690918 10.117308616638184 10.66920280456543
        11.968584060668945 11.166089057922363 10.144527435302734 10.195162773132324 10.215362548828125 9.135215759277344
        7.604623317718506 9.248581886291504 11.026994705200195 11.971854209899902 13.973834037780762 16.128767013549805
        18.750579833984375 20.337142944335938 19.32482147216797 17.17913055419922 13.593440055847168 10.694904327392578
        8.663414001464844 10.050568580627441 14.063907623291016 15.114394187927246 18.700817108154297 19.50707244873047
        20.185571670532227 18.4277400970459 17.500764846801758 17.681142807006836 17.39363670349121 17.84518051147461
        18.32015037536621 18.405990600585938 17.804527282714844 20.354522705078125 20.120622634887695 18.76752281188965
        15.383566856384277 15.304079055786133 15.387365341186523 18.104753494262695 18.877723693847656 17.502714157104492
        15.977608680725098 16.81616973876953 16.29381561279297 16.54964256286621 15.38437271118164 16.409168243408203
        15.36801528930664 14.358878135681152 14.593339920043945 15.785179138183594 16.70203971862793 16.80031394958496
        15.315300941467285 15.706100463867188 14.312350273132324 16.305932998657227 17.325838088989258 19.142677307128906
        17.75402069091797 17.123245239257812 15.773157119750977 15.055595397949219 15.206830024719238 14.029046058654785
        5.779698371887207 5.026615619659424 6.981186866760254 6.609236717224121 6.517238140106201 6.1663994789123535
        6.861469745635986 4.470088958740234 1.9229475259780884 2.3016510009765625 10.29092788696289 14.875616073608398
        16.336782455444336 14.372798919677734 11.075326919555664 9.148824691772461 7.625154972076416 6.685381889343262
        5.333522796630859 5.525616645812988 7.109362602233887 10.681626319885254 14.201217651367188 16.03406524658203
        15.706151008605957 15.309290885925293 17.80359649658203 18.40859603881836 15.914400100708008 9.606879234313965
        3.298630475997925 4.562844276428223 7.712523460388184 5.763250827789307 4.717921257019043 0.7614080905914307
        3.3824708461761475 8.210689544677734 16.3327579498291 21.8511905670166 28.066221237182617 32.26905059814453
        38.012115478515625 35.6254997253418 30.70133399963379 22.450809478759766 18.655996322631836 14.6615571975708
        13.057745933532715 13.467873573303223 14.080544471740723 10.62686538696289 3.443087100982666 4.291563510894775
        6.254806995391846 4.755529880523682 3.5590999126434326 1.6768503189086914 2.7655911445617676 2.1945226192474365
        5.8234686851501465 11.516666412353516 15.651420593261719 18.976747512817383 16.97643280029297 16.2943058013916
        16.70550537109375 18.989866256713867 19.70992088317871 17.963115692138672 18.046222686767578 18.52985382080078
        17.55398941040039 14.375274658203125 11.18410587310791 8.633000373840332 4.9321513175964355 3.12768292427063
        3.3384850025177 4.7231855392456055 5.5555524826049805 7.440946102142334 7.9807820320129395 9.19377613067627
        9.367203712463379 8.556982040405273 9.259493827819824 10.97842788696289 12.398246765136719 10.793793678283691
        10.45637321472168 10.903059005737305 10.488248825073242 10.174286842346191 9.344156265258789 9.269819259643555
        9.371260643005371 10.259350776672363 9.350820541381836 7.490360260009766 6.125002384185791 9.526130676269531
        10.645516395568848 12.134627342224121 12.08959674835205 13.939860343933105 16.797883987426758 19.327205657958984
        18.50762367248535 15.089649200439453 11.399332046508789 8.365976333618164 7.904825687408447 9.81651782989502
        12.457401275634766 13.99280834197998 17.845224380493164 19.25905418395996 21.63601303100586 19.972469329833984
        18.68440055847168 17.410953521728516 16.254255294799805 16.856395721435547 16.377729415893555 16.41815948486328
        17.917844772338867 18.83455467224121 18.692550659179688 16.057048797607422 14.263328552246094 13.360486030578613
        13.726912498474121 15.500432014465332 16.88624382019043 15.891104698181152 14.549555778503418 15.187777519226074
        15.189546585083008 15.177579879760742 13.485360145568848 14.455960273742676 13.826000213623047 14.84876537322998
        15.068563461303711 16.74728775024414 18.48307991027832 18.61836814880371 16.661653518676758 16.700313568115234
        16.879968643188477 19.05986785888672 17.831592559814453 18.903858184814453 17.00240135192871 16.858972549438477
        15.76363754272461 14.587285041809082 14.437870979309082 12.712906837463379 8.994447708129883 6.610573768615723
        6.3435893058776855 5.376214027404785 8.646042823791504 9.108993530273438 9.02590560913086 5.650285720825195
        3.3274474143981934 3.476410150527954 9.840306282043457 14.482865333557129 15.638211250305176 13.445222854614258
        8.527024269104004 5.853335380554199 6.026887893676758 7.006993293762207 7.772087574005127 8.935677528381348
        10.493870735168457 13.23392391204834 13.230975151062012 13.619367599487305 14.482916831970215 16.512113571166992
        18.319286346435547 18.969362258911133 17.76352882385254 10.963095664978027 3.6309337615966797 0.6498350501060486
        3.20664644241333 3.695962905883789 4.226715087890625 1.6777966022491455 2.9054837226867676 6.754423141479492
        14.181646347045898 20.44913101196289 27.666866302490234 33.06874084472656 35.539024353027344 34.122161865234375
        30.345592498779297 18.12614631652832 11.915837287902832 11.342689514160156 17.91451644897461 18.216224670410156
        16.195171356201172 10.270984649658203 5.257041931152344 2.26944899559021 3.106376886367798 3.4828176498413086
        2.5078535079956055 1.1091924905776978 1.5192354917526245 1.8398234844207764 5.202050685882568 11.359694480895996
        16.575714111328125 17.859474182128906 18.13943862915039 17.62068748474121 17.822063446044922 18.117155075073242
        19.433469772338867 18.399137496948242 18.716354370117188 19.340120315551758 17.180208206176758 14.12681770324707
        9.76456069946289 7.950758457183838 6.010143280029297 5.912570476531982 5.217195510864258 4.591823101043701
        4.2722015380859375 5.699190139770508 6.866559982299805 7.539336204528809 7.987608432769775 7.462623596191406
        9.865093231201172 11.28610897064209 12.375000953674316 9.881884574890137 10.023848533630371 10.187064170837402
        11.31406307220459 10.4935941696167 9.015833854675293 8.944426536560059 9.274894714355469 10.062524795532227
        8.742714881896973 8.490035057067871 8.17135238647461 10.05447769165039 9.949316024780273 10.176249504089355
        10.563211441040039 11.221672058105469 13.38154125213623 13.653789520263672 14.109111785888672 10.694419860839844
        9.2474946975708 8.395015716552734 9.189742088317871 10.545620918273926 12.930624961853027 15.056859970092773
        17.639301300048828 19.244712829589844 21.888174057006836 20.61724853515625 18.383180618286133 16.819168090820312
        17.595426559448242 18.1879940032959 16.98109245300293 16.85637664794922 17.241918563842773 15.502290725708008
        15.833701133728027 13.95174503326416 13.818270683288574 12.387619018554688 13.989791870117188 14.575410842895508
        16.589824676513672 16.145240783691406 14.518701553344727 14.719782829284668 17.32916259765625 17.072721481323242
        15.386340141296387 13.873807907104492 14.014634132385254 14.285880088806152 13.433677673339844 14.630763053894043
        16.90802764892578 18.054838180541992 16.46242904663086 17.18316078186035 17.249038696289062 18.081178665161133
        16.84471893310547 19.005887985229492 17.376497268676758 15.921669960021973 14.718070030212402 13.674355506896973
        13.967827796936035 11.908048629760742 12.142163276672363 9.233670234680176 6.367023944854736 2.489661455154419
        6.0947041511535645 8.462638854980469 7.193637847900391 3.828752279281616 2.8901233673095703 2.911987781524658
        3.354074478149414 8.331894874572754 8.973371505737305 11.060870170593262 7.094184875488281 5.737407684326172
        7.606552600860596 11.09646987915039 13.568822860717773 14.400174140930176 13.468060493469238 13.744812965393066
        11.364654541015625 11.694482803344727 13.2999267578125 15.100451469421387 15.37947940826416 14.705584526062012
        14.282818794250488 8.822699546813965 4.667293071746826 0.9791790246963501 1.151000738143921 2.9807419776916504
        0.9948036074638367 1.2677260637283325 3.7711756229400635 8.154943466186523 12.664434432983398 16.804563522338867
        20.692739486694336 24.496978759765625 26.493459701538086 26.06820297241211 24.863061904907227 13.846856117248535
        12.175267219543457 13.35693359375 20.65889549255371 21.388402938842773 18.25865364074707 13.742642402648926
        10.001738548278809 8.7483491897583 5.841938018798828 2.744016647338867 2.732483148574829 3.868835210800171
        2.529818058013916 2.564826726913452 5.2523651123046875 10.130924224853516 15.388114929199219 15.776362419128418
        17.646080017089844 16.766481399536133 16.65740966796875 18.088428497314453 19.621915817260742 19.120943069458008
        18.46502685546875 19.00764274597168 15.449899673461914 12.301897048950195 9.260807037353516 7.923426628112793
        7.495665073394775 7.976011276245117 7.409043312072754 6.614445686340332 5.718478679656982 6.086472034454346
        6.108789443969727 5.41070032119751 6.107484817504883 6.525580883026123 8.949015617370605 10.05059814453125
        11.061050415039062 9.632979393005371 9.637859344482422 9.354445457458496 11.235912322998047 10.533348083496094
        10.242671012878418 10.425410270690918 10.49307918548584 10.29801082611084 9.563669204711914 10.14815902709961
        10.454190254211426 10.79227352142334 10.554197311401367 9.549630165100098 10.664482116699219 11.198814392089844
        13.897379875183105 12.555021286010742 12.688671112060547 9.57511043548584 9.380648612976074 9.072957038879395
        11.380404472351074 11.817686080932617 13.708707809448242 15.687335968017578 17.630569458007812 17.999988555908203
        20.567359924316406 21.308029174804688 19.20077896118164 17.565631866455078 18.240798950195312 18.416566848754883
        18.820850372314453 18.110965728759766 16.861717224121094 13.551468849182129 14.473628997802734 13.854382514953613
        15.197278022766113 14.24196720123291 14.579461097717285 14.142448425292969 16.198448181152344 15.576900482177734
        15.002952575683594 15.398308753967285 17.745922088623047 17.867111206054688 15.921834945678711 14.635160446166992
        15.040199279785156 14.503422737121582 14.050344467163086 14.40619945526123 16.521072387695312 17.394184112548828
        16.55980110168457 18.241466522216797 17.0678653717041 17.66411590576172 16.683300018310547 18.046775817871094
        16.971521377563477 14.929566383361816 14.045028686523438 13.523036003112793 12.970175743103027 11.879091262817383
        10.31949234008789 10.461524963378906 7.841313362121582 2.868586301803589 3.306663990020752 5.5842413902282715
        7.0790510177612305 5.997464656829834 4.505107402801514 1.4099199771881104 3.1010513305664062 5.129734516143799
        5.188994407653809 7.20495080947876 5.722347736358643 4.8394365310668945 8.11840534210205 11.78516960144043
        14.6187744140625 15.865230560302734 15.201753616333008 13.383021354675293 9.086048126220703 8.65274715423584
        10.274154663085938 12.48471736907959 12.692553520202637 11.124037742614746 12.052776336669922 10.047351837158203
        8.417454719543457 4.732867240905762 2.5813262462615967 1.740725040435791 0.1641480028629303 1.5065033435821533
        5.005243301391602 8.674988746643066 12.58252239227295 15.064763069152832 17.701082229614258 19.484203338623047
        21.52895164489746 21.408557891845703 21.838571548461914 16.87875747680664 18.99468231201172 18.60313606262207
        20.966140747070312 19.315134048461914 20.188291549682617 21.316688537597656 18.503814697265625 17.68839454650879
        13.228556632995605 4.268539905548096 3.5063929557800293 7.215226650238037 6.556482315063477 5.499904155731201
        4.085739612579346 8.859356880187988 13.806904792785645 15.791389465332031 17.140743255615234 15.740951538085938
        16.238990783691406 19.14397621154785 19.77509880065918 18.17323112487793 16.79175567626953 16.53392219543457
        12.908207893371582 10.5074462890625 9.176876068115234 8.24946403503418 8.600157737731934 9.287262916564941
        9.181634902954102 7.838280200958252 7.06134033203125 6.544633865356445 5.337780952453613 4.308401584625244
        3.1791484355926514 3.90287446975708 6.422682285308838 8.461730003356934 9.05422592163086 9.019632339477539
        9.668099403381348 9.241483688354492 9.325789451599121 8.404314994812012 8.821359634399414 9.879666328430176
        11.216692924499512 10.940184593200684 11.727375984191895 11.027857780456543 11.231719970703125 8.887179374694824
        8.969234466552734 8.338083267211914 10.220142364501953 11.217567443847656 14.029877662658691 11.755904197692871
        11.555497169494629 9.913686752319336 10.494912147521973 10.519598007202148 11.781366348266602 12.43643856048584
        13.19190788269043 15.538869857788086 17.902694702148438 18.151456832885742 19.25567054748535 19.653087615966797
        18.240150451660156 18.679658889770508 18.986745834350586 19.384380340576172 19.05946159362793 17.57210922241211
        15.75793170928955 12.682235717773438 13.653632164001465 13.27936840057373 13.33656120300293 14.132637977600098
        14.488435745239258 14.871332168579102 14.751174926757812 14.556703567504883 15.146032333374023 16.56298828125
        18.585777282714844 18.507184982299805 17.33594512939453 16.18169403076172 16.095317840576172 14.629767417907715
        14.488661766052246 14.389930725097656 14.696431159973145 15.426748275756836 16.11258316040039 16.865596771240234
        15.290220260620117 15.939324378967285 16.71681785583496 17.892202377319336 18.357580184936523 15.371170043945312
        14.444490432739258 12.643243789672852 12.300583839416504 10.735729217529297 11.268444061279297 11.5659761428833
        10.896419525146484 7.137089252471924 5.377510070800781 7.215327739715576 9.848091125488281 9.6471586227417
        6.340034008026123 3.0790226459503174 4.428798675537109 4.715652942657471 3.934235095977783 4.694929599761963
        5.990860462188721 6.125790119171143 7.394951820373535 9.408620834350586 12.400094985961914 14.242104530334473
        12.250543594360352 9.124370574951172 5.755356788635254 5.987384796142578 7.857343673706055 9.384849548339844
        11.085461616516113 9.738493919372559 10.748855590820312 10.30551815032959 8.184430122375488 4.789968490600586
        2.004383087158203 0.7270246148109436 1.3815455436706543 2.8226234912872314 5.522561550140381 8.462298393249512
        11.83569622039795 13.230450630187988 13.389640808105469 15.297955513000488 17.05243682861328 18.298126220703125
        18.605051040649414 19.525835037231445 23.263660430908203 23.61030387878418 21.415491104125977 18.778091430664062
        19.97128677368164 22.5130558013916 21.210315704345703 18.038414001464844 12.488408088684082 3.7860753536224365
        4.240538597106934 8.643791198730469 9.108366966247559 6.976210117340088 2.495914936065674 5.7017011642456055
        10.706583976745605 15.764506340026855 18.335468292236328 18.265714645385742 17.510133743286133 19.437259674072266
        19.027381896972656 16.807546615600586 14.610102653503418 14.181702613830566 12.274516105651855 11.180627822875977
        10.912665367126465 10.582357406616211 10.493961334228516 10.269309043884277 9.719827651977539 9.64362621307373
        8.075974464416504 5.888153076171875 3.401735782623291 3.021043062210083 1.7378263473510742 1.8147916793823242
        3.833887815475464 6.849785804748535 7.732793807983398 8.091766357421875 8.39685344696045 8.731610298156738
        7.896167755126953 7.192486763000488 8.200899124145508 9.170480728149414 12.675254821777344 13.939481735229492
        14.592177391052246 11.786870002746582 10.77623462677002 8.50204849243164 8.931608200073242 9.07272720336914
        10.710103988647461 11.776323318481445 15.618346214294434 14.452144622802734 13.26596450805664 11.792418479919434
        12.286840438842773 11.774296760559082 11.601115226745605 12.362908363342285 14.801432609558105 15.826018333435059
        17.000947952270508 17.39238739013672 18.578392028808594 18.840187072753906 18.756912231445312 19.2525577545166
        19.42668914794922 20.668489456176758 19.958871841430664 17.106687545776367 15.185359001159668 14.434677124023438
        15.067502975463867 14.274454116821289 14.397148132324219 14.520277976989746 13.78432559967041 13.572843551635742
        14.521828651428223 15.579916954040527 18.058326721191406 19.49981117248535 19.406782150268555 18.588441848754883
        17.87375831604004 17.544940948486328 16.918149948120117 16.078121185302734 16.232393264770508 15.272857666015625
        13.686248779296875 13.401639938354492 14.54432487487793 15.523253440856934 16.324668884277344 16.995580673217773
        17.05823516845703 16.97979164123535 17.41331672668457 15.02698040008545 14.310885429382324 12.49842357635498
        11.59708023071289 10.644596099853516 10.972261428833008 9.709722518920898 9.800987243652344 6.596646308898926
        6.014307498931885 7.579471111297607 10.812400817871094 10.95888900756836 7.798646450042725 5.751876354217529
        5.2650017738342285 4.70622444152832 0.7478832602500916 3.7599451541900635 5.108301639556885 5.646297931671143
        5.867112636566162 6.3186116218566895 11.168498992919922 11.584731101989746 8.996724128723145 5.108707427978516
        5.259711742401123 6.7429046630859375 8.216049194335938 10.137669563293457 12.017332077026367 11.651749610900879
        11.528793334960938 10.978403091430664 8.586692810058594 5.269570827484131 2.7024614810943604 2.6632049083709717
        3.8474621772766113 4.645574569702148 5.545058250427246 8.228968620300293 10.890783309936523 10.561300277709961
        11.075081825256348 12.281956672668457 15.3889741897583 15.872693061828613 15.242239952087402 17.240591049194336
        21.252588272094727 23.639808654785156 21.859235763549805 19.790870666503906 20.809633255004883 20.33098602294922
        18.10750961303711 11.40466594696045 3.882049083709717 2.364448070526123 5.2421159744262695 6.356777191162109
        7.599435806274414 5.097733497619629 1.1051615476608276 5.2268829345703125 9.694863319396973 15.016549110412598
        16.304712295532227 17.58565330505371 17.530170440673828 18.651439666748047 18.219043731689453 16.084806442260742
        14.140667915344238 13.048832893371582 12.700636863708496 12.228536605834961 11.944632530212402 11.412915229797363
        10.969164848327637 11.428169250488281 11.086528778076172 10.308916091918945 7.960586071014404 5.931579113006592
        3.5613131523132324 3.092264413833618 1.087334394454956 0.1202496811747551 2.071678400039673 5.407568454742432
        6.100025177001953 6.175998687744141 6.519710063934326 7.475620269775391 7.052173614501953 6.932275772094727
        7.739614009857178 8.876218795776367 12.183768272399902 14.105031967163086 15.046392440795898 12.819167137145996
        9.469199180603027 6.482646942138672 6.454102516174316 6.655187606811523 8.335733413696289 10.99249267578125
        14.060871124267578 11.838598251342773 11.917932510375977 11.668244361877441 13.569334030151367 12.424145698547363
        12.130990982055664 13.46632194519043 15.257038116455078 15.60112476348877 16.608915328979492 17.0587215423584
        18.525800704956055 19.464447021484375 19.63106918334961 20.164785385131836 20.041501998901367 20.89200210571289
        19.46626091003418 15.919961929321289 14.59225082397461 14.628999710083008 15.668747901916504 13.452831268310547
        12.113146781921387 12.678398132324219 12.965167999267578 13.829861640930176 14.346282005310059 16.73130226135254
        19.206972122192383 20.059581756591797 20.579286575317383 18.472009658813477 17.253950119018555 16.667682647705078
        16.694299697875977 16.235340118408203 15.131416320800781 13.476092338562012 12.284616470336914 12.272696495056152
        13.2372465133667 13.377702713012695 14.13459587097168 14.086894989013672 14.635570526123047 15.324440002441406
        14.479323387145996 12.869683265686035 13.221030235290527 12.011102676391602 10.549446105957031 9.454022407531738
        8.612016677856445 7.881522178649902 7.916555404663086 8.473797798156738 8.507124900817871 9.496932983398438
        8.998355865478516 9.013574600219727 7.380584716796875 6.4410786628723145 7.909256458282471 6.828732967376709
        4.400038719177246 3.529545783996582 3.1527507305145264 2.2108347415924072 2.7624785900115967 4.147240161895752
        8.025338172912598 6.23577356338501 4.1026740074157715 3.2169127464294434 5.060695171356201 6.37550163269043
        6.987274646759033 8.887622833251953 10.928631782531738 10.807304382324219 9.7757568359375 8.834217071533203
        7.797916412353516 5.23883581161499 2.9777557849884033 2.249868631362915 2.6337461471557617 4.237606525421143
        6.245326995849609 7.545650482177734 7.535996437072754 6.134567737579346 6.065881252288818 7.753504753112793
        11.35094165802002 13.187921524047852 14.474311828613281 18.106107711791992 21.232629776000977 22.29023551940918
        23.296987533569336 23.292190551757812 23.09996795654297 18.940967559814453 9.933414459228516 4.195013999938965
        1.0027554035186768 1.4550447463989258 2.6014509201049805 3.002981185913086 4.977310657501221 2.4941840171813965
        2.25942325592041 7.725067138671875 11.121097564697266 14.620011329650879 17.010337829589844 19.376752853393555
        19.44816780090332 18.101177215576172 17.760684967041016 16.23334312438965 14.513496398925781 12.351195335388184
        12.66115951538086 12.811643600463867 13.306755065917969 12.609516143798828 11.736021995544434 11.797042846679688
        11.415563583374023 10.513343811035156 8.64116096496582 7.284408092498779 5.525423526763916 4.408452033996582
        2.061455488204956 1.118668556213379 2.3642139434814453 4.401278495788574 4.780562400817871 4.779233932495117
        4.981255054473877 6.576171398162842 7.687464237213135 7.875655651092529 8.310962677001953 9.579463005065918
        12.36212158203125 14.070291519165039 14.510716438293457 12.236383438110352 7.799951553344727 5.506073951721191
        6.12266206741333 4.888460636138916 4.763240337371826 6.9355340003967285 10.358183860778809 9.637103080749512
        9.880162239074707 10.156454086303711 12.113977432250977 11.389917373657227 12.905118942260742 12.993109703063965
        13.38692569732666 14.034771919250488 15.503849029541016 15.437620162963867 16.900232315063477 18.92870330810547
        18.763708114624023 18.379596710205078 17.95973014831543 18.781370162963867 18.093486785888672 16.086647033691406
        15.37633991241455 15.414347648620605 16.83345603942871 15.140658378601074 13.267834663391113 12.732817649841309
        11.557065963745117 13.842924118041992 16.292583465576172 18.83377456665039 19.03907585144043 20.143848419189453
        20.239910125732422 18.049711227416992 16.864566802978516 16.93265724182129 16.952892303466797 16.743669509887695
        14.91341495513916 14.1439847946167 13.19146728515625 13.090654373168945 12.55054759979248 13.499808311462402
        13.643961906433105 13.166523933410645 13.196233749389648 13.560583114624023 12.367127418518066 12.005688667297363
        12.963857650756836 13.167226791381836 11.785874366760254 10.365828514099121 6.320751190185547 7.645200252532959
        8.000032424926758 8.461897850036621 7.221218585968018 7.824404239654541 7.843157768249512 8.155341148376465
        8.963129997253418 10.070402145385742 10.54235553741455 9.099287986755371 8.245768547058105 8.808913230895996
        8.530104637145996 7.440554141998291 3.856829881668091 2.3737680912017822 3.932072877883911 1.9203965663909912
        1.7986690998077393 3.5778980255126953 5.422765254974365 5.424932479858398 6.087460994720459 8.660310745239258
        11.360899925231934 11.591022491455078 10.71288013458252 9.300925254821777 8.742040634155273 8.57505989074707
        7.058588981628418 4.231278896331787 3.5988285541534424 4.352944850921631 5.305340766906738 6.044648170471191
        6.644962310791016 3.3785927295684814 1.8907595872879028 3.874315023422241 8.622982025146484 10.251184463500977
        14.650650978088379 18.489362716674805 19.518253326416016 20.47016716003418 24.09553337097168 27.74268341064453
        23.552261352539062 12.745041847229004 3.5198729038238525 2.4167916774749756 0.6989603638648987 1.193748116493225
        2.548370838165283 2.905477285385132 2.4119436740875244 1.5065956115722656 4.589052200317383 8.686895370483398
        11.741903305053711 14.092926979064941 15.704477310180664 17.777788162231445 18.07636070251465 16.770753860473633
        17.064077377319336 16.759700775146484 15.02169132232666 12.438841819763184 11.584068298339844 12.023324966430664
        13.316200256347656 12.8726224899292 12.467792510986328 12.388811111450195 11.91631031036377 10.443924903869629
        8.64956283569336 8.942987442016602 8.027917861938477 6.111098289489746 2.6398143768310547 1.1925362348556519
        2.0236904621124268 3.7346091270446777 4.175716400146484 4.295781135559082 4.400771141052246 5.423277378082275
        7.3128743171691895 8.453675270080566 9.196394920349121 9.608757972717285 11.262608528137207 11.139653205871582
        11.65827465057373 10.178319931030273 7.807392597198486 6.616642475128174 8.28370189666748 6.903689384460449
        5.81160831451416 5.377509593963623 6.1508893966674805 4.698696136474609 6.180538654327393 8.213662147521973
        10.636998176574707 11.69303035736084 13.278363227844238 12.357314109802246 12.15822696685791 13.7442045211792
        15.463321685791016 15.227035522460938 15.604366302490234 17.16244888305664 17.181303024291992 16.45517349243164
        16.340055465698242 18.06111717224121 19.39986801147461 16.7717227935791 15.803248405456543 15.675280570983887
        17.165855407714844 16.182716369628906 12.9209623336792 12.406493186950684 11.034331321716309 13.538883209228516
        16.43949317932129 18.02659034729004 18.2125301361084 18.84366226196289 18.942657470703125 18.109586715698242
        17.612796783447266 17.500751495361328 17.662811279296875 17.311058044433594 16.87010383605957 15.957640647888184
        15.273014068603516 14.14240837097168 12.972774505615234 13.899703979492188 13.4089994430542 13.991564750671387
        13.431264877319336 12.289846420288086 11.389199256896973 11.49258804321289 12.673203468322754 13.100895881652832
        12.572124481201172 11.61604118347168 4.295779705047607 6.681822299957275 9.1705322265625 10.696642875671387
        7.764415264129639 6.712074279785156 7.0765862464904785 9.039462089538574 10.2637939453125 9.091181755065918
        9.477113723754883 9.032447814941406 11.159529685974121 12.36379623413086 13.214845657348633 11.502360343933105
        6.359692096710205 3.63187575340271 3.3165454864501953 3.9526004791259766 3.1222028732299805 6.433469295501709
        4.566638469696045 4.419271945953369 5.133474349975586 9.112205505371094 12.077004432678223 12.078857421875
        10.209066390991211 9.38437271118164 9.172924041748047 10.69945240020752 9.97673511505127 6.5667219161987305
        5.329482078552246 5.463398456573486 5.174379825592041 4.582194805145264 2.534433364868164 1.7617956399917603
        0.5211778879165649 4.2834320068359375 7.821793079376221 10.602752685546875 14.928278923034668 19.34524917602539
        19.632827758789062 23.370624542236328 24.74814796447754 24.84153175354004 17.026111602783203 9.062982559204102
        4.1984686851501465 4.539125919342041 3.0991766452789307 3.4438724517822266 1.0411152839660645 0.7784282565116882
        1.0856376886367798 1.556944727897644 3.9372353553771973 8.38369369506836 11.462204933166504 12.992061614990234
        14.946535110473633 16.64580535888672 17.306819915771484 15.044718742370605 15.31673526763916 15.960433006286621
        15.266250610351562 13.637928009033203 11.741774559020996 11.87629508972168 13.546496391296387 14.05807876586914
        13.316618919372559 12.084176063537598 11.967884063720703 11.585735321044922 10.904348373413086 10.723633766174316
        8.651455879211426 6.9903483390808105 4.041205883026123 2.617548942565918 2.9223122596740723 3.9381978511810303
        4.674890518188477 4.151733875274658 3.970857858657837 4.17080020904541 7.1035661697387695 8.79596996307373
        10.019918441772461 9.176735877990723 10.567083358764648 8.93191146850586 9.127524375915527 8.043294906616211
        9.1179780960083 9.739273071289062 12.522380828857422 11.280746459960938 8.617424011230469 3.6098227500915527
        2.658571481704712 1.5672518014907837 4.041399955749512 4.572630405426025 6.575309753417969 10.230676651000977
        12.30447769165039 11.497833251953125 11.608901977539062 12.853560447692871 13.944849967956543 13.992474555969238
        15.219902038574219 15.662899017333984 14.90796947479248 15.150128364562988 15.739598274230957 17.624977111816406
        19.410194396972656 17.09318733215332 15.843974113464355 14.602466583251953 16.50298500061035 17.241207122802734
        15.394571304321289 13.555726051330566 11.669427871704102 13.650508880615234 15.664868354797363 16.467851638793945
        17.18834686279297 17.72640609741211 18.34140968322754 18.770471572875977 18.955211639404297 18.96204948425293
        18.360822677612305 17.9494686126709 18.24597930908203 17.277374267578125 15.553960800170898 13.768677711486816
        13.589056968688965 15.122095108032227 14.791049003601074 14.157173156738281 12.644350051879883 11.549933433532715
        10.486485481262207 10.68604850769043 12.37901496887207 12.3135347366333 12.35692024230957 12.691862106323242
        5.731525897979736 7.017464637756348 10.771661758422852 9.479767799377441 6.503036022186279 5.342301368713379
        6.988590717315674 10.804829597473145 11.959331512451172 9.936375617980957 10.806468963623047 11.641388893127441
        13.307281494140625 13.768640518188477 15.213118553161621 13.646613121032715 7.9422712326049805 5.124493598937988
        5.16378116607666 3.3300702571868896 2.020298719406128 5.386597633361816 3.2865946292877197 4.21811580657959
        6.458346843719482 9.790526390075684 11.800992965698242 11.28361988067627 9.350054740905762 9.531807899475098
        10.410309791564941 11.538902282714844 9.596465110778809 9.165791511535645 7.53200101852417 5.401614665985107
        2.8680663108825684 2.003058433532715 2.0239505767822266 2.205676317214966 1.5973819494247437 3.3655762672424316
        6.090878009796143 9.907444953918457 13.81889820098877 17.079442977905273 17.73954963684082 24.64659881591797
        26.738574981689453 26.993301391601562 15.869486808776855 9.105804443359375 4.667166233062744 5.0045318603515625
        2.0325865745544434 1.3665635585784912 0.9034460186958313 0.5205922722816467 1.0479141473770142 1.3322906494140625
        1.739168405532837 6.373541355133057 9.703393936157227 10.956764221191406 11.966850280761719 13.533085823059082
        15.044380187988281 14.57511043548584 14.453052520751953 15.287384986877441 15.01192855834961 13.3580961227417
        11.479325294494629 11.598369598388672 12.949566841125488 13.637531280517578 13.084991455078125 12.525251388549805
        12.023529052734375 12.813426971435547 12.374201774597168 11.331883430480957 8.4390287399292 6.755791664123535
        4.951747894287109 3.0886309146881104 2.642015218734741 2.8593692779541016 4.074666500091553 3.8013362884521484
        3.949488639831543 3.3787665367126465 6.034005165100098 8.160248756408691 10.110383033752441 8.376362800598145
        7.996061325073242 6.266099452972412 6.9435248374938965 7.250120639801025 9.579099655151367 11.240287780761719
        14.112297058105469 13.519854545593262 11.359713554382324 5.087769031524658 1.934482455253601 1.6724708080291748
        1.7891558408737183 3.2139713764190674 5.802302837371826 9.452104568481445 11.411255836486816 11.20583438873291
        11.558182716369629 12.081751823425293 12.84337329864502 13.598657608032227 14.892047882080078 14.914092063903809
        15.64383316040039 15.876816749572754 16.613386154174805 17.84564208984375 19.233510971069336 17.43875503540039
        17.607297897338867 15.685589790344238 16.052289962768555 15.003235816955566 14.723398208618164 13.686003684997559
        12.141393661499023 11.760157585144043 13.218914031982422 14.756220817565918 16.175491333007812 16.457828521728516
        17.98102569580078 19.057798385620117 19.962162017822266 20.12840461730957 19.902000427246094 18.703645706176758
        18.195133209228516 16.958059310913086 16.264657974243164 14.863537788391113 14.308659553527832 14.688310623168945
        13.72120189666748 13.071560859680176 12.22009563446045 10.302592277526855 9.892118453979492 11.567270278930664
        13.908549308776855 11.638343811035156 11.59762954711914 11.906266212463379 6.857563495635986 6.403315544128418
        8.770928382873535 8.385335922241211 6.781600475311279 5.474146366119385 5.9769110679626465 8.8405179977417
        9.870756149291992 8.505182266235352 11.29221248626709 13.183611869812012 13.550396919250488 13.617022514343262
        15.531837463378906 16.510990142822266 12.911456108093262 8.286101341247559 6.515279769897461 3.468505620956421
        0.7678606510162354 2.474066734313965 2.7997891902923584 4.881179332733154 6.903622627258301 7.740128517150879
        9.037823677062988 9.397151947021484 10.641959190368652 12.039199829101562 12.526091575622559 13.059992790222168
        10.957148551940918 9.393980979919434 6.6431565284729 5.234348297119141 1.5139602422714233 0.1807398498058319
        2.0361690521240234 1.2188555002212524 2.812570333480835 2.5115272998809814 4.67477560043335 10.133077621459961
        12.654016494750977 15.950335502624512 18.65320587158203 25.381521224975586 26.607318878173828 25.96431541442871
        18.059064865112305 10.500659942626953 5.900693416595459 5.976860046386719 4.351879119873047 2.7335753440856934
        1.7546823024749756 0.5460540056228638 1.278576135635376 0.22554346919059753 1.883898138999939 5.738591194152832
        9.286513328552246 10.430545806884766 11.35448932647705 12.9473295211792 14.51657772064209 13.920441627502441
        13.568703651428223 13.719085693359375 13.084678649902344 11.548428535461426 10.895747184753418 11.447420120239258
        11.7108154296875 12.382579803466797 12.006299018859863 11.940295219421387 11.632801055908203 12.19161319732666
        11.9061279296875 10.655759811401367 8.347587585449219 6.606968879699707 5.430209159851074 3.428074359893799
        2.6577041149139404 2.169133186340332 3.444798707962036 2.8590824604034424 2.8341071605682373 3.0640101432800293
        5.22990083694458 6.913362979888916 7.764191150665283 6.183821678161621 5.552401542663574 4.834278106689453
        6.9153547286987305 7.533847808837891 9.289363861083984 11.30935001373291 12.530048370361328 11.000673294067383
        6.867995738983154 2.8278896808624268 1.8454749584197998 1.9515544176101685 1.381169319152832 3.4606099128723145
        5.882453441619873 9.226561546325684 11.611700057983398 11.427160263061523 10.839103698730469 11.069432258605957
        12.245779991149902 12.251220703125 13.28083610534668 13.204771995544434 14.620488166809082 15.30772590637207
        15.237058639526367 16.34246063232422 17.389890670776367 17.982851028442383 19.158618927001953 17.15253257751465
        17.212583541870117 15.372320175170898 14.16407299041748 12.212296485900879 10.584439277648926 13.283242225646973
        15.203126907348633 16.158721923828125 15.222856521606445 15.735774993896484 17.3883056640625 18.561922073364258
        19.14140510559082 20.05577278137207 20.633005142211914 20.364253997802734 18.734357833862305 17.54029083251953
        16.864763259887695 15.557900428771973 14.413111686706543 13.501931190490723 11.99090576171875 11.749629020690918
        11.469011306762695 11.53586483001709 12.358355522155762 13.255805969238281 14.557735443115234 12.588579177856445
        12.833657264709473 11.702685356140137 5.821527481079102 5.996023654937744 6.963982105255127 6.6713690757751465
        6.186688423156738 6.1026225090026855 5.537794589996338 7.817676544189453 9.523773193359375 9.53039264678955
        10.133159637451172 10.326510429382324 9.701883316040039 11.0164794921875 13.756793975830078 16.21550178527832
        13.873390197753906 9.311674118041992 6.523497104644775 6.409134864807129 5.109557151794434 2.278909683227539
        2.0529885292053223 3.95233154296875 5.277115821838379 5.621640682220459 7.943659782409668 9.61347484588623
        13.238199234008789 13.983774185180664 13.8147554397583 13.343541145324707 10.838212013244629 10.395466804504395
        7.497661590576172 4.8567962646484375 0.6299332976341248 0.635574460029602 0.9534628391265869 1.2059217691421509
        0.7228206992149353 3.1786670684814453 5.6444783210754395 9.202095985412598 10.774942398071289 14.177923202514648
        18.15432357788086 22.931991577148438 26.638771057128906 25.86483383178711 21.790090560913086 14.484944343566895
        5.629985332489014 2.2710914611816406 0.6578662395477295 0.4784703850746155 0.6444798707962036 0.3706204295158386
        0.08954063057899475 1.045282006263733 1.3657175302505493 4.192838191986084 7.783439636230469 9.539175987243652
        10.476333618164062 11.817777633666992 13.316415786743164 13.454172134399414 13.180257797241211 12.605679512023926
        11.506535530090332 10.801843643188477 10.55361557006836 10.809900283813477 10.192878723144531 11.125066757202148
        11.211443901062012 11.968191146850586 11.541947364807129 11.019401550292969 10.36452579498291 9.468891143798828
        7.8004584312438965 5.957974433898926 5.231003284454346 3.664336681365967 3.1213245391845703 2.775312900543213
        3.1315431594848633 2.343498706817627 2.283895969390869 3.1865828037261963 4.217784881591797 4.880626678466797
        5.215391159057617 5.194567680358887 5.371128559112549 5.439720153808594 7.825940132141113 8.544530868530273
        10.490290641784668 12.553226470947266 11.646601676940918 7.979503631591797 2.944735050201416 2.433168649673462
        2.2414751052856445 1.6484153270721436 1.8494499921798706 3.4540021419525146 6.933599472045898 10.405306816101074
        12.65163803100586 10.690418243408203 9.9884672164917 10.393902778625488 10.683265686035156 7.332372188568115
        7.588071823120117 9.479942321777344 11.681962013244629 13.485208511352539 14.295120239257812 15.089601516723633
        16.50408363342285 18.627595901489258 20.70599937438965 19.239391326904297 18.48844337463379 15.125402450561523
        13.396299362182617 10.922914505004883 10.35539722442627 12.95157241821289 14.916470527648926 15.699748039245605
        14.68195629119873 15.414495468139648 15.988617897033691 16.69507598876953 17.68804931640625 19.578449249267578
        21.301769256591797 22.2493839263916 21.14554214477539 19.126134872436523 18.26590347290039 16.01378631591797
        13.973848342895508 13.311884880065918 13.35651683807373 13.163812637329102 12.15085506439209 11.87655258178711
        13.717262268066406 13.926219940185547 14.588174819946289 14.064532279968262 14.209418296813965 12.488262176513672
        3.886911630630493 5.647878170013428 4.504507541656494 4.9300713539123535 3.63703989982605 4.283243179321289
        4.347283363342285 6.345307350158691 7.633881568908691 8.19708251953125 7.849510669708252 8.145895004272461
        7.159405708312988 6.325297832489014 8.001677513122559 10.623381614685059 9.73203182220459 6.102362155914307
        5.142780303955078 7.272425174713135 7.265140533447266 4.079503536224365 0.44133296608924866 2.8139429092407227
        4.387294292449951 5.704120635986328 8.490789413452148 11.262297630310059 13.55794906616211 13.583708763122559
        13.108291625976562 13.791816711425781 12.241328239440918 11.670252799987793 7.34175443649292 3.7210144996643066
        2.0059425830841064 1.482778549194336 1.5934265851974487 2.45420503616333 2.5770273208618164 5.7045817375183105
        8.715961456298828 9.395938873291016 10.089347839355469 11.742122650146484 15.864945411682129 20.7966251373291
        24.82158851623535 23.883012771606445 19.990829467773438 16.569454193115234 7.936939716339111 2.5190277099609375
        1.9432225227355957 2.3314027786254883 1.4991263151168823 1.064367413520813 0.19788941740989685 0.6086225509643555
        0.8300580978393555 2.685124397277832 5.4746503829956055 8.291133880615234 9.704334259033203 10.737473487854004
        12.558756828308105 13.510062217712402 12.531341552734375 11.592235565185547 10.411980628967285 10.121843338012695
        9.242823600769043 9.121597290039062 8.93881893157959 9.759466171264648 10.812280654907227 12.638530731201172
        12.523045539855957 11.410370826721191 10.250523567199707 9.346251487731934 7.826174259185791 6.126744747161865
        5.7186431884765625 4.614091396331787 4.180604457855225 4.382373809814453 3.785836935043335 2.3424975872039795
        1.5246344804763794 2.1251964569091797 3.3095173835754395 3.1052098274230957 4.879432201385498 5.6174116134643555
        7.057344913482666 7.090558052062988 8.90022087097168 10.285737037658691 11.48560905456543 12.866023063659668
        9.596848487854004 5.321178913116455 0.7626818418502808 0.5768712759017944 2.979600429534912 3.38431715965271
        2.6450035572052 2.05857253074646 6.6860151290893555 10.228106498718262 11.87714672088623 9.862597465515137
        10.14668083190918 10.42232608795166 9.0286283493042 6.162276744842529 6.995859622955322 9.011347770690918
        10.560736656188965 12.30130386352539 13.60529899597168 14.02912712097168 16.279909133911133 17.989683151245117
        19.164920806884766 18.245054244995117 17.756103515625 15.696159362792969 13.553962707519531 12.451159477233887
        12.946310997009277 14.290225982666016 15.371753692626953 14.845038414001465 14.52684211730957 15.682969093322754
        15.21490478515625 16.114788055419922 17.027687072753906 19.54111671447754 21.717620849609375 22.79411506652832
        22.305288314819336 19.85015106201172 18.628807067871094 15.940384864807129 15.09676742553711 15.313519477844238
        15.10234546661377 14.69864559173584 12.929349899291992 13.163907051086426 13.626290321350098 13.38282585144043
        12.804224014282227 13.488733291625977 12.80858325958252 12.657880783081055 4.854050159454346 6.158747673034668
        5.2028374671936035 5.126148223876953 3.15124249458313 2.720942735671997 3.4193227291107178 5.725609302520752
        7.421039581298828 7.612793445587158 7.225989818572998 7.861907482147217 6.5281805992126465 6.489988327026367
        5.164274215698242 5.825303077697754 5.794144153594971 5.134201526641846 5.067872047424316 5.986469745635986
        6.8688435554504395 4.200170993804932 2.0122640132904053 0.04577336460351944 1.5637859106063843 4.196657180786133
        8.476907730102539 10.452332496643066 10.584247589111328 12.787707328796387 14.539899826049805 15.94688606262207
        12.535566329956055 11.902137756347656 7.708062171936035 2.6393864154815674 1.4935827255249023 2.338024616241455
        2.317830801010132 2.8471059799194336 3.8924498558044434 6.936487197875977 9.896811485290527 10.778898239135742
        11.50216293334961 12.980032920837402 15.62534236907959 18.81549072265625 20.33759117126465 21.525997161865234
        19.443965911865234 16.458898544311523 7.3077287673950195 4.8436479568481445 5.55644416809082 6.065308570861816
        3.3897523880004883 1.190583348274231 1.1061744689941406 2.1511664390563965 1.2221013307571411 1.108562707901001
        2.343808889389038 4.6593122482299805 7.188818454742432 10.112070083618164 12.853239059448242 13.793825149536133
        13.027732849121094 12.784811973571777 11.01586627960205 9.699239730834961 7.772272109985352 7.376352787017822
        7.768145561218262 9.631678581237793 11.341727256774902 12.613020896911621 12.851551055908203 12.020613670349121
        10.900558471679688 9.121989250183105 8.227079391479492 7.2616777420043945 7.18979549407959 6.244714260101318
        5.738941192626953 4.743541717529297 4.08953332901001 3.1874873638153076 2.6345913410186768 2.1410932540893555
        2.373073101043701 1.662493348121643 3.6891825199127197 5.467720985412598 7.271999359130859 7.223246097564697
        8.255974769592285 9.338811874389648 11.180883407592773 12.25092887878418 8.162707328796387 4.428498268127441
        0.5496925711631775 1.941193699836731 4.203366279602051 4.770447731018066 3.214486598968506 1.5239261388778687
        5.822670936584473 10.045214653015137 10.498896598815918 8.352058410644531 9.11147689819336 9.541786193847656
        8.393078804016113 6.968302249908447 8.377766609191895 9.976027488708496 11.229142189025879 12.76608657836914
        13.552478790283203 13.3353853225708 14.885490417480469 16.246095657348633 18.283519744873047 17.106416702270508
        17.237194061279297 16.495811462402344 14.067522048950195 13.191462516784668 13.219796180725098 14.051998138427734
        14.26794719696045 13.852558135986328 14.155638694763184 14.8280611038208 15.97924518585205 17.1613712310791
        18.349851608276367 20.186016082763672 20.918363571166992 21.08744239807129 20.721220016479492 19.185794830322266
        18.27484893798828 17.09600830078125 17.27812385559082 18.23533821105957 16.9837646484375 14.666894912719727
        11.883984565734863 13.113879203796387 13.353433609008789 13.085433959960938 12.590010643005371 12.577742576599121
        12.091800689697266 12.105567932128906 5.845752239227295 6.097813129425049 6.317836284637451 5.193301200866699
        2.602139472961426 1.3547435998916626 1.4598511457443237 3.8434231281280518 5.712496280670166 6.132395267486572
        8.96992015838623 10.80061149597168 9.467252731323242 7.257513523101807 3.5945217609405518 3.0333504676818848
        3.7420411109924316 5.42031717300415 4.497589111328125 6.2502522468566895 9.100543975830078 7.89868688583374
        4.425594329833984 2.632864475250244 1.5358928442001343 0.8827487230300903 5.007415294647217 7.662669658660889
        8.97873592376709 11.563570022583008 12.649476051330566 13.947347640991211 11.697450637817383 11.662537574768066
        7.297300815582275 2.9693944454193115 0.9513882398605347 1.2973861694335938 0.9248763918876648 2.849914312362671
        4.892554759979248 7.1918416023254395 8.890542984008789 10.226696014404297 12.014708518981934 12.873106002807617
        14.69422721862793 15.313179016113281 16.880695343017578 17.551271438598633 17.000038146972656 12.610042572021484
        5.532086372375488 5.173770904541016 7.0551581382751465 6.513560771942139 3.9708542823791504 0.47908368706703186
        1.8063539266586304 2.193991184234619 0.7385755181312561 1.464708924293518 1.5507553815841675 1.5906492471694946
        5.229150772094727 10.427810668945312 14.16916561126709 15.036201477050781 14.990653991699219 15.364350318908691
        13.278999328613281 10.23180866241455 7.122318267822266 6.8391923904418945 7.8520073890686035 10.220589637756348
        12.508304595947266 13.566041946411133 12.893980026245117 11.454360008239746 10.071394920349121 8.948312759399414
        8.651058197021484 7.768494606018066 7.719844818115234 6.856385707855225 6.501218795776367 5.6298041343688965
        5.136951923370361 4.729852199554443 3.844120740890503 2.9165849685668945 2.1023778915405273 1.7305127382278442
        3.5835235118865967 5.011746406555176 6.488839626312256 6.758607387542725 8.479348182678223 8.984954833984375
        9.070622444152832 10.155387878417969 7.900142669677734 5.992101669311523 2.995424509048462 1.7517406940460205
        5.416494369506836 5.672255039215088 3.186593532562256 0.7035372257232666 4.352685451507568 7.335083961486816
        7.979743003845215 6.8503217697143555 7.14205265045166 7.809093475341797 9.091840744018555 8.842918395996094
        9.978515625 11.397101402282715 12.163155555725098 12.649080276489258 13.466350555419922 13.467531204223633
        14.782943725585938 15.168357849121094 16.935348510742188 16.603763580322266 17.279033660888672 16.799100875854492
        14.880711555480957 14.158475875854492 13.255715370178223 13.945219039916992 14.412893295288086 14.192154884338379
        14.32456111907959 14.408364295959473 17.131505966186523 19.14495086669922 19.90981101989746 20.405582427978516
        20.77742576599121 20.481246948242188 19.155879974365234 17.900476455688477 18.556737899780273 19.507455825805664
        19.02436637878418 18.747896194458008 16.386951446533203 15.59753704071045 13.217681884765625 13.571086883544922
        13.68571662902832 13.248950004577637 13.01484489440918 12.615392684936523 11.771183013916016 11.00154972076416
        7.597926139831543 6.736609935760498 6.391793727874756 4.2807135581970215 2.4320695400238037 0.9950579404830933
        1.1542243957519531 2.5354671478271484 3.8996975421905518 4.976466655731201 7.958916187286377 9.674497604370117
        9.344550132751465 6.8803629875183105 3.004300117492676 2.031083822250366 2.3715403079986572 3.67448091506958
        3.8737924098968506 7.075204849243164 10.756063461303711 9.156399726867676 6.405855655670166 5.5598859786987305
        5.497020721435547 2.651832342147827 2.2033615112304688 5.821730613708496 8.029078483581543 10.230217933654785
        11.050762176513672 12.662736892700195 11.91732120513916 12.297075271606445 7.020780563354492 3.0848662853240967
        0.2372620403766632 1.8403680324554443 1.7485401630401611 1.6919875144958496 4.228851318359375 6.709726810455322
        7.692376613616943 8.840354919433594 9.90408992767334 12.134121894836426 13.94204044342041 13.3262939453125
        13.903067588806152 15.923165321350098 17.934131622314453 15.028820991516113 9.639677047729492 7.962982177734375
        8.382795333862305 7.900066375732422 5.933985233306885 2.660006284713745 0.7754988074302673 1.9311357736587524
        1.6405030488967896 2.089416980743408 1.2276734113693237 0.8239895701408386 4.985178470611572 10.069502830505371
        14.354926109313965 15.02946949005127 15.389467239379883 15.122106552124023 13.437511444091797 9.966968536376953
        7.116279602050781 7.233425140380859 8.482793807983398 10.311257362365723 11.890785217285156 13.43139934539795
        13.039956092834473 10.702125549316406 8.881108283996582 8.829678535461426 8.698144912719727 8.667303085327148
        8.546154975891113 7.618095874786377 6.868602275848389 6.5238423347473145 5.827544212341309 5.710486888885498
        4.463612079620361 3.9310903549194336 3.173398733139038 3.0670371055603027 3.858703851699829 4.645125865936279
        5.2112202644348145 5.239246368408203 6.6240692138671875 7.496126651763916 7.035888671875 8.82295036315918
        8.072339057922363 7.917943477630615 4.042110919952393 2.1111721992492676 5.178653240203857 4.371380805969238
        2.489861249923706 2.6883273124694824 1.4902344942092896 2.8006324768066406 6.127471446990967 5.967682361602783
        6.010230541229248 7.070560455322266 7.927097320556641 8.22311782836914 9.129085540771484 10.340433120727539
        11.430558204650879 12.448224067687988 12.945500373840332 13.474191665649414 14.459885597229004 14.669761657714844
        16.232534408569336 16.706510543823242 17.78575897216797 16.966562271118164 15.398370742797852 14.48774528503418
        13.018522262573242 13.765193939208984 14.228384017944336 14.324244499206543 15.163786888122559 14.781280517578125
        16.710494995117188 18.435997009277344 19.9838809967041 20.52349281311035 20.755399703979492 21.258697509765625
        19.975353240966797 19.07074737548828 19.603914260864258 20.031465530395508 19.434293746948242 18.66470718383789
        16.599607467651367 15.437623023986816 13.751052856445312 15.177800178527832 15.276397705078125 14.524393081665039
        13.897941589355469 12.621183395385742 12.744431495666504 11.136175155639648 8.316810607910156 7.468799591064453
        6.197349548339844 4.083357810974121 2.772817373275757 1.2771121263504028 0.49569669365882874 2.217423915863037
        3.9113752841949463 6.290102005004883 8.304399490356445 9.806629180908203 8.46289348602295 6.449494361877441
        3.783567190170288 2.664048433303833 1.2782435417175293 1.274073600769043 3.850783586502075 3.445260763168335
        6.200782299041748 6.863908767700195 5.185744762420654 6.638391017913818 6.820098400115967 3.8160715103149414
        2.0109164714813232 4.649717807769775 7.056346416473389 6.291900157928467 8.061126708984375 11.242714881896973
        11.791308403015137 11.159297943115234 5.11806058883667 2.2916266918182373 1.0655057430267334 1.3942031860351562
        0.4439196288585663 0.5764070153236389 3.914625644683838 5.798012733459473 6.243043422698975 6.35233736038208
        8.091193199157715 10.655978202819824 13.434107780456543 12.072632789611816 11.996504783630371 11.602984428405762
        14.863777160644531 15.422881126403809 12.818512916564941 10.238141059875488 9.543574333190918 8.652470588684082
        6.814590930938721 5.243386268615723 3.6196727752685547 1.103692889213562 2.055589437484741 2.5693118572235107
        0.7605786323547363 1.3769034147262573 5.266931533813477 10.312551498413086 14.495438575744629 15.433692932128906
        15.567591667175293 13.020164489746094 9.280736923217773 6.409697532653809 6.567628383636475 7.537115097045898
        8.611031532287598 9.827113151550293 11.584421157836914 14.062544822692871 13.806513786315918 12.083759307861328
        10.193085670471191 9.936422348022461 8.732736587524414 9.380831718444824 8.3877534866333 7.846851348876953
        6.395029544830322 6.4561567306518555 5.339331150054932 5.121460914611816 4.397769927978516 4.56117582321167
        4.895792007446289 4.911657810211182 4.535583019256592 3.3501884937286377 4.00682258605957 3.8299105167388916
        4.7407426834106445 5.672439098358154 5.718779563903809 7.362215995788574 7.168191432952881 8.569381713867188
        4.337522029876709 0.6605355739593506 3.2248432636260986 3.7211978435516357 4.7808756828308105 6.959535121917725
        4.867638111114502 1.1913836002349854 5.104366779327393 5.324860572814941 4.4866042137146 5.2133588790893555
        6.230026721954346 6.8600544929504395 7.50741720199585 8.491132736206055 10.41390323638916 11.552522659301758
        12.616429328918457 14.268036842346191 15.603250503540039 15.124909400939941 16.30240249633789 16.729211807250977
        17.386505126953125 16.71080780029297 16.877286911010742 16.05002784729004 14.861613273620605 14.059061050415039
        14.186975479125977 14.026862144470215 14.897835731506348 14.857942581176758 16.4377498626709 17.604246139526367
        18.741182327270508 19.885238647460938 20.69804573059082 21.19251251220703 19.746726989746094 19.67644500732422
        20.27422523498535 19.022396087646484 18.269702911376953 18.131071090698242 17.177000045776367 16.414758682250977
        14.67188835144043 15.055854797363281 14.753472328186035 14.367217063903809 13.759734153747559 13.013014793395996
        12.823119163513184 10.850790977478027 10.002639770507812 9.988142013549805 6.774752616882324 4.274211406707764
        2.7386763095855713 2.596400260925293 1.345380187034607 2.1770877838134766 3.5842950344085693 6.211413383483887
        7.159334659576416 8.08501148223877 6.658336639404297 7.21429443359375 7.269247531890869 5.814562797546387
        3.6923000812530518 1.166397213935852 2.829942464828491 2.816309690475464 3.8184709548950195 4.492038249969482
        3.869296073913574 5.912273406982422 5.7315673828125 4.9773430824279785 2.7622389793395996 0.8414004445075989
        4.256640434265137 6.557643890380859 9.581391334533691 13.122223854064941 13.033608436584473 11.039590835571289
        4.950489044189453 2.490567684173584 1.7221975326538086 2.797161102294922 1.8596971035003662 1.7505457401275635
        2.5445916652679443 4.672778606414795 5.397672653198242 6.047523021697998 8.361042976379395 9.872840881347656
        11.93736457824707 11.31301212310791 11.67319107055664 11.10786247253418 12.961885452270508 14.308186531066895
        13.487405776977539 11.82801628112793 12.002401351928711 9.75417709350586 8.403564453125 7.637902736663818
        5.931700229644775 0.6485805511474609 3.5656731128692627 3.8842527866363525 0.7483285069465637 1.6263083219528198
        5.833069801330566 10.74998664855957 14.53211498260498 15.487212181091309 15.37834644317627 10.944109916687012
        5.502188682556152 3.244781494140625 4.931682109832764 6.846250534057617 9.478835105895996 9.386960983276367
        11.556427955627441 14.18541145324707 15.757431983947754 14.03057861328125 11.643977165222168 10.061458587646484
        8.23671817779541 8.105091094970703 6.9607462882995605 6.359286308288574 5.03269624710083 4.405877590179443
        4.554267406463623 5.028443336486816 5.247049331665039 6.5832200050354 7.992185592651367 6.062726020812988
        3.7351479530334473 1.093085765838623 1.5853874683380127 4.553958415985107 3.426816701889038 4.494958400726318
        5.39944314956665 7.143426418304443 7.280508518218994 7.722392559051514 3.6419711112976074 0.7861583828926086
        3.9894375801086426 5.76577615737915 8.374844551086426 8.527915954589844 6.553013324737549 1.6423450708389282
        3.7927277088165283 4.971065998077393 3.782935619354248 3.927860736846924 5.2085771560668945 5.66123628616333
        6.15215539932251 7.002401828765869 9.335587501525879 11.236411094665527 12.435959815979004 13.394083976745605
        14.50573444366455 15.192214012145996 15.812115669250488 15.555343627929688 16.366422653198242 17.620628356933594
        17.50485610961914 16.797531127929688 16.08184242248535 15.333112716674805 15.192090034484863 14.482914924621582
        14.746089935302734 15.617419242858887 16.78864097595215 17.274925231933594 17.545663833618164 18.999765396118164
        20.15642738342285 20.957155227661133 21.961219787597656 22.341184616088867 21.779569625854492 18.6363582611084
        18.198883056640625 18.940643310546875 17.04353141784668 16.11724853515625 14.428919792175293 14.437708854675293
        14.532904624938965 14.15527629852295 14.295832633972168 14.09193229675293 13.782288551330566 12.21000862121582
        10.149467468261719 11.27485179901123 8.596235275268555 6.4993062019348145 5.040452480316162 5.4011054039001465
        4.384188175201416 2.557692050933838 3.1286847591400146 4.642294883728027 5.646068096160889 7.0505690574646
        7.598872184753418 8.932295799255371 7.9174017906188965 6.610206604003906 5.961492538452148 5.088460445404053
        4.804983615875244 4.100277900695801 4.518221855163574 4.93824577331543 5.0699028968811035 5.293839454650879
        5.424116611480713 8.276084899902344 6.384393215179443 2.355988025665283 1.28201162815094 6.760804653167725
        11.45352554321289 13.968729972839355 11.844918251037598 10.093118667602539 6.756868362426758 4.1675639152526855
        2.8124282360076904 3.2416529655456543 2.74150013923645 2.28409743309021 2.145796537399292 3.64428448677063
        4.238223552703857 4.667234420776367 7.6015849113464355 9.724946022033691 12.567177772521973 12.190043449401855
        12.8482084274292 12.985965728759766 13.153613090515137 12.983160018920898 11.818428993225098 9.685823440551758
        9.538073539733887 9.009434700012207 11.769153594970703 9.700227737426758 7.0077433586120605 0.9775135517120361
        4.160980224609375 4.794979572296143 1.953156590461731 1.0097275972366333 4.310199737548828 9.128389358520508
        13.304364204406738 15.71026611328125 15.250747680664062 11.044008255004883 4.912317752838135 3.364315986633301
        3.8100621700286865 5.769054412841797 8.622796058654785 10.33065414428711 13.317164421081543 13.882548332214355
        18.20621109008789 16.674226760864258 15.753729820251465 11.635160446166992 9.083515167236328 6.067707538604736
        7.08969259262085 8.02415943145752 6.63419771194458 3.8240835666656494 5.109521865844727 5.969738483428955
        8.073563575744629 8.871664047241211 10.666485786437988 7.894707679748535 4.878970623016357 1.2186336517333984
        3.8050730228424072 6.140984058380127 4.539670467376709 5.562193870544434 8.869611740112305 11.454073905944824
        10.471495628356934 10.61449909210205 6.505154132843018 2.661619186401367 4.511765956878662 7.642049312591553
        9.723623275756836 5.45308780670166 3.9247753620147705 1.6564809083938599 2.927703857421875 3.460014581680298
        3.4595608711242676 4.110979080200195 5.871560573577881 4.7946577072143555 5.3000898361206055 6.378795623779297
        8.350774765014648 11.071682929992676 12.414189338684082 13.482659339904785 14.342826843261719 15.437865257263184
        15.974169731140137 15.451560020446777 15.76314640045166 17.559309005737305 18.00637435913086 17.351144790649414
        15.200138092041016 15.774964332580566 17.549850463867188 16.207799911499023 14.556146621704102 14.771036148071289
        16.661190032958984 17.142961502075195 17.355764389038086 18.840984344482422 20.68230628967285 21.33423614501953
        22.70757484436035 22.248210906982422 20.879140853881836 18.09602928161621 17.706886291503906 17.88641929626465
        16.717294692993164 16.020051956176758 14.055055618286133 14.521244049072266 15.127787590026855 14.80179500579834
        14.519024848937988 13.755083084106445 13.345446586608887 12.60754680633545 9.823308944702148 10.828312873840332
        9.305314064025879 8.6212739944458 7.65753698348999 7.285173416137695 5.482443332672119 2.928170680999756
        3.036613941192627 3.4442191123962402 4.488160133361816 6.5724358558654785 8.544441223144531 8.926136016845703
        7.827500343322754 8.063078880310059 8.56935977935791 8.267376899719238 8.250678062438965 6.79974889755249
        6.278625011444092 5.145595073699951 4.357616424560547 4.454287052154541 6.79138708114624 8.743247985839844
        7.690724849700928 4.741261959075928 1.4610397815704346 5.115472793579102 10.019590377807617 13.970973014831543
        11.781972885131836 11.084691047668457 7.697109699249268 5.025270462036133 2.6397457122802734 2.081183671951294
        2.503098249435425 2.862713575363159 2.748241424560547 3.2127363681793213 3.7082507610321045 4.954037189483643
        7.246561050415039 9.889190673828125 11.793546676635742 12.098971366882324 12.786907196044922 13.253305435180664
        13.265218734741211 11.963373184204102 11.270904541015625 9.125944137573242 9.73393726348877 10.397167205810547
        12.56625747680664 9.988727569580078 6.954409599304199 1.3196052312850952 3.642462968826294 5.182027339935303
        3.8939287662506104 2.1205039024353027 1.0164536237716675 6.299981594085693 10.82581615447998 12.335969924926758
        11.543621063232422 9.232178688049316 4.699104309082031 3.057241201400757 2.5133779048919678 4.1218109130859375
        7.464145183563232 10.7725830078125 14.356595993041992 15.348536491394043 19.376911163330078 21.15827178955078
        20.917312622070312 14.213482856750488 6.664064407348633 3.273021936416626 5.721804141998291 7.494035243988037
        6.3313093185424805 2.7796738147735596 4.62379264831543 5.604211807250977 9.66943359375 10.736083030700684
        12.320854187011719 8.12298583984375 3.0287253856658936 4.970725059509277 7.422702312469482 6.034684658050537
        4.437161445617676 4.864302635192871 9.44166088104248 12.383722305297852 13.482666015625 14.13166332244873
        9.588963508605957 3.4052016735076904 4.135600566864014 7.637685775756836 7.84804630279541 3.873586654663086
        2.6712589263916016 1.7014654874801636 2.235049247741699 2.5358614921569824 3.264087438583374 4.2620062828063965
        5.286701679229736 4.478119850158691 5.155465602874756 6.591871738433838 8.295907974243164 11.328471183776855
        12.510834693908691 13.370027542114258 13.547504425048828 14.445841789245605 15.809113502502441 16.099014282226562
        16.704360961914062 17.703378677368164 18.72541046142578 18.173324584960938 16.60098648071289 17.992053985595703
        18.93027687072754 17.239990234375 14.915979385375977 13.957261085510254 15.486001968383789 16.699804306030273
        17.235116958618164 19.2154598236084 22.212297439575195 23.793794631958008 24.314193725585938 21.471811294555664
        20.35407829284668 19.496618270874023 19.119047164916992 18.12535858154297 16.6315975189209 16.616857528686523
        15.439207077026367 15.621952056884766 15.36668872833252 15.231078147888184 14.803732872009277 13.32088565826416
        11.960619926452637 11.943815231323242 8.493146896362305 8.47136116027832 8.871105194091797 9.450881004333496
        9.828136444091797 7.351000785827637 5.477424144744873 1.796844244003296 2.845754623413086 3.204702377319336
        3.849987030029297 4.960964202880859 7.312370777130127 8.082420349121094 7.626813888549805 7.384284973144531
        7.859439373016357 6.8889336585998535 7.075033187866211 7.565018177032471 8.909132957458496 7.276769638061523
        4.966576099395752 5.169203758239746 8.084903717041016 8.89950180053711 7.536203384399414 4.29094934463501
        2.752504587173462 2.8294408321380615 7.913015365600586 12.16892147064209 11.198437690734863 10.998852729797363
        8.239510536193848 7.3356194496154785 4.6463470458984375 3.085535764694214 1.9083293676376343 1.8268957138061523
        1.8293336629867554 2.3007113933563232 2.813415050506592 4.647761821746826 6.63615608215332 9.1253080368042
        11.265572547912598 11.734811782836914 11.83691120147705 11.215039253234863 11.730476379394531 11.2757568359375
        11.309126853942871 9.899563789367676 9.974565505981445 11.431734085083008 12.390612602233887 11.081276893615723
        7.586476802825928 3.1118099689483643 1.321492314338684 3.739664316177368 4.4930572509765625 3.9634413719177246
        1.123061180114746 4.1177449226379395 7.912094593048096 9.834461212158203 9.649874687194824 7.016140937805176
        2.9401116371154785 1.500509262084961 1.4426172971725464 4.336611747741699 7.527545928955078 12.950265884399414
        15.396150588989258 17.207435607910156 21.389801025390625 25.966686248779297 23.121976852416992 13.535924911499023
        4.651604652404785 2.1169207096099854 2.563045024871826 4.472038269042969 4.591068744659424 2.3669540882110596
        4.555637359619141 7.007531642913818 11.150277137756348 11.530919075012207 11.551201820373535 5.569536209106445
        4.518118381500244 10.589927673339844 9.747575759887695 6.364211559295654 3.565370798110962 1.6034893989562988
        6.647336483001709 10.849424362182617 13.978803634643555 13.41877269744873 10.45439338684082 5.103390693664551
        1.3819538354873657 4.663419246673584 3.333383083343506 2.8405778408050537 2.9512598514556885 2.7247142791748047
        2.3831846714019775 2.2571866512298584 2.1367299556732178 2.7119808197021484 2.985352039337158 3.214607000350952
        5.468011856079102 7.7251973152160645 9.865934371948242 11.498756408691406 12.484479904174805 13.490729331970215
        13.896932601928711 14.557368278503418 16.635759353637695 17.22652816772461 18.41611099243164 18.851484298706055
        19.346904754638672 18.64413833618164 17.723403930664062 18.929323196411133 18.14970588684082 16.149213790893555
        14.040328979492188 13.167686462402344 15.641016006469727 16.914941787719727 17.484424591064453 19.297895431518555
        22.407506942749023 25.093748092651367 23.117582321166992 20.242626190185547 19.300390243530273 19.533544540405273
        20.02761459350586 19.09679412841797 17.411659240722656 17.17594337463379 16.74997901916504 17.28864860534668
        16.992570877075195 16.05063247680664 14.085935592651367 12.745583534240723 11.89516830444336 11.725765228271484
        7.192039966583252 6.158079624176025 8.300553321838379 7.892577648162842 8.10263442993164 6.273928642272949
        3.9727420806884766 1.6442757844924927 2.2841155529022217 3.3662924766540527 2.574819326400757 3.29369854927063
        5.893264293670654 7.249937534332275 6.739322185516357 5.9166035652160645 6.230254650115967 5.547971725463867
        6.529171466827393 8.522120475769043 8.791187286376953 6.889713764190674 5.47707462310791 6.152745723724365
        7.653830528259277 6.824420928955078 6.306894302368164 5.19635009765625 5.543249130249023 1.6176174879074097
        2.786487579345703 9.307138442993164 10.828551292419434 11.04238224029541 6.567346572875977 6.621147632598877
        5.00314998626709 3.8007986545562744 1.7741904258728027 2.285691738128662 2.249662160873413 2.454066276550293
        2.5897321701049805 4.337911605834961 6.219648361206055 7.639348983764648 9.712782859802246 9.905158996582031
        10.410873413085938 11.158839225769043 11.88491439819336 12.384596824645996 11.856274604797363 12.523276329040527
        10.895878791809082 11.75234317779541 12.625515937805176 11.122054100036621 7.6410722732543945 4.0084052085876465
        2.7406792640686035 0.3092225193977356 2.2976317405700684 2.0767664909362793 1.9111305475234985 4.483366012573242
        7.236345291137695 7.489771366119385 7.695371150970459 5.199977874755859 2.155742645263672 0.9288479089736938
        2.46856427192688 5.34494161605835 7.817330360412598 13.416119575500488 15.687614440917969 19.77806854248047
        23.31817626953125 25.52259063720703 19.16826057434082 9.581031799316406 3.40242862701416 2.1654200553894043
        4.51096248626709 4.086628437042236 2.23634672164917 3.3192780017852783 5.428072452545166 8.924155235290527
        14.123504638671875 16.54599952697754 11.497318267822266 3.1308252811431885 7.963833332061768 10.817340850830078
        8.074666976928711 6.1516547203063965 3.3409225940704346 1.6053321361541748 2.446767568588257 6.468761920928955
        9.051960945129395 7.092791557312012 6.719174861907959 4.264751434326172 3.1753110885620117 2.6828503608703613
        2.119386672973633 4.01622200012207 3.5448713302612305 2.9725615978240967 3.4957289695739746 3.7197248935699463
        4.222679138183594 2.765576124191284 1.2151894569396973 2.337571382522583 5.57750940322876 8.050636291503906
        10.224700927734375 11.430054664611816 12.001008033752441 12.553711891174316 12.340429306030273 12.934189796447754
        15.47616958618164 17.826200485229492 19.68501853942871 20.520732879638672 20.934452056884766 21.420547485351562
        18.401866912841797 15.972999572753906 13.949150085449219 14.053622245788574 13.785880088806152 14.391818046569824
        16.398801803588867 17.860666275024414 17.9251766204834 19.42327308654785 21.909305572509766 23.652400970458984
        21.986391067504883 20.699420928955078 20.050222396850586 19.75665855407715 20.147483825683594 19.444774627685547
        17.999042510986328 17.368907928466797 17.305416107177734 18.990413665771484 18.461204528808594 16.31427001953125
        13.866975784301758 12.897383689880371 12.290369033813477 11.838836669921875 5.837912559509277 5.603224754333496
        7.699448108673096 6.7090163230896 7.081125736236572 7.295932292938232 4.989462375640869 2.042085886001587
        2.1868603229522705 3.0007076263427734 1.802266001701355 2.004603147506714 3.870103120803833 5.431659698486328
        5.536809921264648 5.825483798980713 5.70951509475708 5.093008518218994 6.728754997253418 9.444324493408203
        9.64163589477539 9.592229843139648 8.81971549987793 9.063322067260742 9.210328102111816 8.073783874511719
        7.789734363555908 6.92821741104126 5.9122538566589355 3.266078233718872 1.34718656539917 5.5726542472839355
        8.286169052124023 8.411263465881348 5.71946907043457 6.252413272857666 5.348562240600586 4.042148590087891
        1.7821033000946045 1.694282054901123 1.4655557870864868 1.8888890743255615 3.022789239883423 4.379460334777832
        5.22325325012207 5.742644309997559 7.27638578414917 9.714784622192383 11.730942726135254 13.91254997253418
        12.524030685424805 13.029723167419434 11.811237335205078 11.96216106414795 10.509583473205566 11.03777027130127
        13.364975929260254 11.402234077453613 6.826373100280762 3.0103185176849365 3.533942937850952 1.764890432357788
        2.9960179328918457 2.0076777935028076 3.424576997756958 3.1376116275787354 5.485030174255371 6.792797088623047
        7.447385787963867 4.7783613204956055 2.1687381267547607 1.807589054107666 3.2950685024261475 5.201714515686035
        7.388837814331055 10.306642532348633 12.509048461914062 16.95764923095703 21.42428970336914 20.37919807434082
        12.953333854675293 6.960133075714111 2.8725521564483643 1.3381074666976929 4.398995876312256 3.005268096923828
        2.3542613983154297 5.44210147857666 6.9191765785217285 10.400078773498535 14.691734313964844 14.556513786315918
        7.8680267333984375 1.889228343963623 4.326380729675293 6.49791955947876 6.119025707244873 5.911542892456055
        5.316432952880859 2.9129374027252197 1.5825649499893188 3.5692880153656006 4.227205276489258 2.523391008377075
        4.558186054229736 4.980090618133545 3.1373541355133057 1.1459944248199463 3.3682029247283936 4.556728363037109
        3.924633264541626 2.8191537857055664 2.807110548019409 3.9629015922546387 5.284968852996826 4.562913417816162
        1.5750051736831665 2.593048334121704 5.451492786407471 7.415377140045166 9.693219184875488 11.399420738220215
        12.201940536499023 12.64222240447998 12.773064613342285 13.450035095214844 15.686161994934082 17.751073837280273
        19.923398971557617 22.420490264892578 22.402851104736328 22.097335815429688 17.986759185791016 16.601181030273438
        15.188047409057617 15.134503364562988 14.991573333740234 16.585411071777344 17.20463752746582 18.998519897460938
        18.904863357543945 19.545061111450195 19.457395553588867 20.294198989868164 21.837757110595703 20.89646339416504
        20.119388580322266 19.608055114746094 19.723670959472656 20.144512176513672 17.523576736450195 17.59132957458496
        18.3065128326416 19.723596572875977 19.368833541870117 16.563732147216797 15.625829696655273 15.031251907348633
        14.180091857910156 13.536483764648438 4.554577827453613 5.858139991760254 8.025358200073242 7.83519983291626
        7.758439064025879 7.607519626617432 5.0746259689331055 3.38126540184021 2.6415581703186035 2.9603769779205322
        1.2052792310714722 1.5733658075332642 1.297813892364502 2.5497124195098877 3.6216280460357666 6.774618625640869
        7.389501571655273 7.37953519821167 8.223750114440918 8.508875846862793 9.177496910095215 9.155799865722656
        9.025165557861328 9.404098510742188 8.580031394958496 8.10463809967041 8.649627685546875 9.471013069152832
        7.713043212890625 2.7171874046325684 0.5329306721687317 3.4926254749298096 4.394815444946289 4.127936840057373
        3.5406277179718018 3.8313333988189697 4.2155842781066895 2.620999336242676 1.744200348854065 1.7470694780349731
        1.9599292278289795 2.9479739665985107 3.677408456802368 4.7589430809021 4.718631744384766 5.153275966644287
        6.571232795715332 10.020556449890137 12.274445533752441 13.908655166625977 12.60625171661377 12.651946067810059
        12.049371719360352 12.554195404052734 12.75196361541748 11.973673820495605 12.243441581726074 8.746343612670898
        5.906876564025879 2.673856258392334 3.2337963581085205 2.337644577026367 3.2446539402008057 1.9694126844406128
        2.116878032684326 2.256573438644409 3.830906629562378 4.9959259033203125 5.140483379364014 3.6599442958831787
        1.782761812210083 2.516629695892334 3.461212158203125 4.039912223815918 4.9265265464782715 7.219295978546143
        10.103015899658203 14.025128364562988 15.895462989807129 14.897310256958008 9.243951797485352 8.075824737548828
        3.554030179977417 2.7626702785491943 3.6197519302368164 3.273933172225952 4.108675479888916 5.893726348876953
        6.680416107177734 8.681159019470215 11.397741317749023 9.13448715209961 4.956099510192871 1.614821434020996
        1.8849399089813232 0.4712943732738495 2.9377331733703613 5.791196823120117 6.262687683105469 4.163158416748047
        2.4643046855926514 2.9568495750427246 2.795360803604126 1.9518942832946777 3.654909133911133 6.016580581665039
        4.263807773590088 1.1379704475402832 3.6300816535949707 4.236870288848877 3.892876148223877 3.4308934211730957
        3.0503270626068115 4.734864234924316 5.5036234855651855 5.046341419219971 1.4134306907653809 2.500368356704712
        4.259592533111572 6.189079761505127 9.420296669006348 12.243000984191895 13.31446361541748 13.851302146911621
        13.699808120727539 13.785725593566895 15.938100814819336 18.171707153320312 20.72376251220703 22.800899505615234
        21.13825798034668 20.381866455078125 16.729690551757812 16.40195655822754 15.1466064453125 15.370135307312012
        16.49170684814453 17.245765686035156 17.124195098876953 18.12192726135254 17.699527740478516 17.00642204284668
        16.658729553222656 19.06824493408203 21.0185546875 19.991901397705078 19.478410720825195 18.71133804321289
        20.189241409301758 20.794723510742188 18.639698028564453 18.12717056274414 17.95366859436035 18.965608596801758
        19.152421951293945 18.217531204223633 17.350112915039062 16.512779235839844 15.202546119689941 15.32875919342041
        5.111232757568359 6.669445514678955 7.902896881103516 9.23412799835205 8.947325706481934 7.55353307723999
        5.467326641082764 4.051218509674072 3.3243978023529053 2.5295984745025635 0.23865142464637756 0.47205233573913574
        0.5185332894325256 1.673499345779419 3.1948835849761963 6.344139099121094 8.533674240112305 9.459790229797363
        9.86112117767334 10.120819091796875 11.537310600280762 11.606827735900879 10.807940483093262 11.000702857971191
        10.470738410949707 11.003096580505371 12.244028091430664 12.480311393737793 8.452983856201172 3.5608670711517334
        1.186833143234253 0.9356109499931335 1.6872539520263672 1.6658233404159546 3.40047287940979 3.8695497512817383
        3.9688851833343506 2.913863182067871 1.269554853439331 0.5239649415016174 1.1116557121276855 3.51792573928833
        4.297074317932129 4.466943740844727 4.305779457092285 4.890463352203369 5.854274272918701 8.876373291015625
        11.270483016967773 11.658023834228516 11.28034496307373 11.129502296447754 12.668952941894531 14.54407787322998
        13.686537742614746 11.443367004394531 8.145018577575684 5.586034297943115 3.849017858505249 2.6931238174438477
        1.5221465826034546 1.375433087348938 1.676531434059143 1.2963281869888306 1.408489465713501 1.3584990501403809
        2.309532642364502 2.9944846630096436 3.228041648864746 2.066359758377075 0.969110369682312 1.0804295539855957
        2.6111841201782227 2.6500396728515625 2.8143105506896973 3.7713141441345215 6.939808368682861 11.692837715148926
        11.64413070678711 10.250958442687988 5.571897983551025 5.7630085945129395 2.738314390182495 3.786501407623291
        3.8171002864837646 4.987203121185303 6.293253421783447 7.578226566314697 7.790744781494141 7.789983749389648
        5.914851188659668 2.995595932006836 2.577592611312866 2.6751437187194824 2.243410110473633 1.0842097997665405
        3.2558958530426025 5.604741096496582 6.6461100578308105 4.609158992767334 3.571432590484619 4.192014217376709
        4.276780605316162 1.1668621301651 2.1739232540130615 4.0825300216674805 2.7631421089172363 2.1472926139831543
        2.7549378871917725 2.9338948726654053 3.857544422149658 4.9100165367126465 5.194260120391846 5.942084789276123
        5.289804458618164 3.9040684700012207 0.9047163724899292 1.6214044094085693 3.9124603271484375 6.8489251136779785
        9.808015823364258 12.535717964172363 13.911688804626465 14.529256820678711 14.72181510925293 15.71841049194336
        17.85122299194336 19.35029411315918 20.15886688232422 20.611970901489258 17.682071685791016 16.783361434936523
        15.286314010620117 16.27397346496582 15.40597915649414 15.95110034942627 17.890727996826172 18.73491668701172
        18.692777633666992 19.12334442138672 17.756454467773438 16.437910079956055 17.05733871459961 19.46404457092285
        21.628555297851562 20.40945816040039 19.735034942626953 19.548961639404297 21.05569839477539 20.527374267578125
        19.033855438232422 18.009227752685547 17.708677291870117 17.81288719177246 18.410478591918945 18.257848739624023
        18.398977279663086 17.416975021362305 16.13359260559082 16.64678955078125 7.143436908721924 7.149139404296875
        7.709946155548096 8.060606956481934 8.543598175048828 8.48784351348877 7.4077606201171875 5.7380852699279785
        4.5838727951049805 2.941282272338867 0.9792278409004211 1.0362205505371094 1.4612327814102173 1.3928980827331543
        4.298422813415527 7.048205375671387 8.958931922912598 10.076960563659668 10.785030364990234 10.679996490478516
        11.235623359680176 11.273880004882812 11.048763275146484 10.692523002624512 9.709373474121094 11.274158477783203
        13.04875659942627 12.89080810546875 9.967560768127441 7.006067752838135 4.506931304931641 3.012913703918457
        1.6325950622558594 0.8444738984107971 1.9664162397384644 2.0493950843811035 2.0721664428710938 2.0331053733825684
        0.41988885402679443 0.43266063928604126 1.5462620258331299 3.738532066345215 4.200924873352051 4.15308141708374
        4.1453537940979 4.58286190032959 5.6488871574401855 6.50885534286499 9.137260437011719 9.737430572509766
        10.559078216552734 11.251182556152344 13.186341285705566 14.253060340881348 12.842854499816895 10.261604309082031
        6.117799282073975 3.804126262664795 3.487359046936035 3.936776638031006 2.79292368888855 2.984663486480713
        3.324939250946045 3.6487979888916016 3.274479389190674 2.1922290325164795 1.93704092502594 1.5990148782730103
        1.8289204835891724 0.685050368309021 0.12967878580093384 0.2247375100851059 1.2640185356140137 1.7106170654296875
        1.402323842048645 2.7434306144714355 5.933290958404541 9.63321590423584 8.702119827270508 6.014308929443359
        2.2334952354431152 3.577674627304077 2.795301914215088 4.66998291015625 4.8180694580078125 6.002151966094971
        8.298821449279785 9.114171981811523 8.688337326049805 7.361261367797852 5.628540992736816 3.068173885345459
        3.235668182373047 3.156151533126831 2.1208927631378174 0.47506192326545715 0.8929194808006287 2.6996519565582275
        4.116703033447266 4.127652645111084 4.709742069244385 5.8346357345581055 5.047901153564453 2.665987253189087
        0.9390186071395874 1.1311192512512207 1.781968355178833 2.546858787536621 2.522150754928589 3.05863881111145
        5.846071720123291 7.368618965148926 6.683034420013428 6.269290924072266 6.091441631317139 5.4744462966918945
        3.9207699298858643 1.4235750436782837 2.8920505046844482 6.580611705780029 9.089890480041504 10.888459205627441
        12.47860050201416 13.137039184570312 13.00637149810791 14.611026763916016 17.79068946838379 19.539079666137695
        18.94426918029785 18.207748413085938 15.727184295654297 15.40679931640625 13.966669082641602 15.7723388671875
        16.81200408935547 18.355894088745117 19.460643768310547 19.400169372558594 20.353843688964844 20.018712997436523
        18.25452995300293 17.848798751831055 17.956287384033203 19.937681198120117 20.946014404296875 20.335250854492188
        19.97665023803711 20.29263687133789 22.23904037475586 21.827030181884766 19.618350982666016 17.684720993041992
        17.327917098999023 18.468490600585938 18.461259841918945 18.30743408203125 17.767061233520508 17.458484649658203
        17.63501739501953 17.727264404296875 7.30771541595459 6.488226413726807 5.922171115875244 6.510941505432129
        8.610251426696777 9.399069786071777 7.900914669036865 6.612664222717285 5.89531135559082 4.191865921020508
        3.1946258544921875 2.5376639366149902 2.53414249420166 2.927473545074463 7.395954608917236 8.79099178314209
        9.475440979003906 9.824141502380371 11.645085334777832 11.312880516052246 10.50678539276123 10.41581916809082
        10.544422149658203 11.090679168701172 9.186251640319824 10.493887901306152 9.974821090698242 9.101956367492676
        8.583671569824219 9.07491683959961 7.835156440734863 4.7132792472839355 2.0404052734375 1.4452266693115234
        2.098649024963379 1.5671961307525635 0.8580977320671082 0.12789176404476166 1.6231728792190552 1.6263246536254883
        0.7575862407684326 3.739534854888916 4.365514755249023 4.316303730010986 5.196012020111084 5.420025825500488
        6.343643665313721 6.781982898712158 8.639430046081543 9.709701538085938 10.628246307373047 11.744766235351562
        12.352238655090332 11.447569847106934 9.696798324584961 7.889529228210449 6.310590744018555 4.773685455322266
        4.790019512176514 5.343239784240723 5.088950157165527 4.612880229949951 4.376367092132568 4.278001308441162
        4.377822399139404 3.842763662338257 3.580515146255493 2.499856948852539 1.8586565256118774 1.0386621952056885
        1.491064429283142 0.7166671752929688 0.7576104998588562 1.9148894548416138 2.3259215354919434 0.9027507305145264
        3.7726471424102783 5.291223049163818 4.711569309234619 2.1046643257141113 2.6974081993103027 3.799095392227173
        2.7503950595855713 3.9509997367858887 3.9472804069519043 6.828754901885986 9.8668851852417 11.812768936157227
        11.116146087646484 9.6776762008667 6.177371501922607 3.7878968715667725 2.9839224815368652 2.4251866340637207
        1.8114460706710815 1.9806753396987915 1.94084894657135 0.31594356894493103 0.9219506978988647 2.3966193199157715
        3.9910523891448975 6.0305304527282715 5.399901390075684 3.067316770553589 1.4531632661819458 0.2551197111606598
        1.2263797521591187 1.983851432800293 3.355734348297119 4.702112197875977 6.9052228927612305 6.703896999359131
        7.461832046508789 7.692573547363281 8.052268981933594 6.717113971710205 4.3950066566467285 2.5728142261505127
        2.468472719192505 3.09885311126709 4.984145641326904 7.81155252456665 9.948646545410156 10.734682083129883
        11.561114311218262 14.27108097076416 17.231372833251953 16.443679809570312 15.418604850769043 14.090496063232422
        13.024399757385254 13.302234649658203 13.609420776367188 15.716687202453613 18.596895217895508 20.605649948120117
        20.813106536865234 20.38372039794922 21.302797317504883 20.40180778503418 19.172359466552734 19.49285888671875
        19.554370880126953 20.777767181396484 20.57670021057129 21.14716148376465 20.9060001373291 20.517257690429688
        21.35938262939453 20.771636962890625 18.758270263671875 17.702510833740234 17.515493392944336 18.06566047668457
        17.660078048706055 18.043254852294922 18.12982177734375 18.783851623535156 18.759851455688477 18.232810974121094
        7.717277526855469 6.511395454406738 6.233717918395996 6.634098052978516 8.943591117858887 9.8200044631958
        8.597478866577148 6.774252891540527 6.192092418670654 5.078564167022705 3.8088862895965576 2.451582193374634
        2.445519208908081 3.201423406600952 8.596284866333008 10.458738327026367 10.73234748840332 9.675711631774902
        10.53391170501709 10.408223152160645 9.690301895141602 9.605454444885254 9.518355369567871 10.223197937011719
        9.772871971130371 8.866766929626465 7.978612422943115 7.4809370040893555 9.522648811340332 9.649258613586426
        9.566547393798828 6.838921070098877 5.354881286621094 4.945062160491943 5.399467468261719 3.6373865604400635
        1.6715971231460571 2.59633469581604 3.288458824157715 1.4169888496398926 1.2338576316833496 3.6060543060302734
        3.831479072570801 4.245382308959961 4.972766399383545 5.54198694229126 6.179708003997803 7.115814685821533
        7.988602638244629 9.141499519348145 9.69101333618164 10.170133590698242 10.747137069702148 10.369280815124512
        10.836919784545898 8.851323127746582 8.340692520141602 6.5538716316223145 6.789388179779053 6.667851448059082
        6.280985355377197 5.701883316040039 4.945862293243408 5.056403160095215 5.223385810852051 5.038984298706055
        3.9066622257232666 3.0176830291748047 1.1075717210769653 0.8941535353660583 2.228346586227417 0.6631783843040466
        1.4454870223999023 4.36118745803833 3.668738842010498 1.9960325956344604 0.9307100176811218 0.8449590802192688
        0.7662366032600403 2.950026273727417 3.599451780319214 4.36129903793335 4.160336017608643 3.240124464035034
        4.655484199523926 8.025300979614258 11.118695259094238 12.756813049316406 12.74581241607666 11.489031791687012
        7.428600311279297 4.846168518066406 2.7382519245147705 1.697237253189087 2.4220378398895264 3.4970624446868896
        3.8564517498016357 1.7848196029663086 0.2376474291086197 1.643668293952942 2.6943626403808594 5.044863224029541
        3.901947259902954 2.509153366088867 1.7803274393081665 0.3931414484977722 1.7135976552963257 2.104597568511963
        5.0350260734558105 7.021092891693115 8.008500099182129 7.442139148712158 7.550875186920166 8.033804893493652
        8.302563667297363 8.155677795410156 6.181731700897217 5.377778053283691 4.606546878814697 3.7998716831207275
        3.005626916885376 5.417478561401367 8.963933944702148 10.369298934936523 11.86063003540039 13.263689994812012
        15.646746635437012 14.735100746154785 14.578413009643555 13.35072135925293 12.48598575592041 13.10509204864502
        14.474332809448242 17.53160858154297 21.158470153808594 21.466297149658203 19.668140411376953 19.394556045532227
        21.532960891723633 21.84768295288086 20.3488712310791 20.533510208129883 20.704925537109375 21.46221160888672
        21.338302612304688 21.246877670288086 20.5777587890625 19.676372528076172 20.288043975830078 20.849565505981445
        18.821533203125 17.992223739624023 17.541587829589844 17.92792320251465 18.479080200195312 18.322935104370117
        18.642663955688477 20.75484848022461 21.33770751953125 20.47601890563965 6.81205940246582 7.0697102546691895
        7.281617164611816 7.686215400695801 8.310602188110352 9.026711463928223 8.364974021911621 6.453576564788818
        6.180450439453125 5.738371849060059 4.5109357833862305 3.438608169555664 2.9320390224456787 4.263322830200195
        8.025044441223145 9.606613159179688 9.526521682739258 8.592988014221191 9.615114212036133 9.5228271484375
        9.330039024353027 10.174896240234375 10.191905975341797 11.250991821289062 9.790254592895508 8.291886329650879
        7.762470722198486 8.373754501342773 10.426966667175293 9.193891525268555 9.789143562316895 8.330025672912598
        7.548007488250732 7.608194351196289 6.650901794433594 4.8731889724731445 2.5833261013031006 3.5467257499694824
        4.238982677459717 2.4017155170440674 0.4117831289768219 2.979105234146118 3.3968770503997803 4.153339862823486
        4.245293140411377 5.082932949066162 6.257201194763184 7.028782844543457 7.566295146942139 8.800535202026367
        9.501471519470215 10.040785789489746 10.280097961425781 10.394075393676758 11.18825912475586 9.948145866394043
        9.89538288116455 8.182856559753418 8.376032829284668 7.7122626304626465 7.05192232131958 5.915102005004883
        4.711557388305664 5.393884658813477 5.430936336517334 5.399939060211182 3.6504881381988525 3.0527522563934326
        1.5713657140731812 0.8118253946304321 1.7513244152069092 1.8934621810913086 4.49832820892334 6.258419990539551
        4.268976211547852 3.933770179748535 2.4256837368011475 2.140923023223877 2.958613634109497 5.1619648933410645
        6.2783732414245605 5.876976490020752 6.1598358154296875 4.384882926940918 4.892113208770752 10.680793762207031
        15.642874717712402 16.807714462280273 15.895295143127441 13.942936897277832 9.09194564819336 5.938836574554443
        3.7444753646850586 2.7861287593841553 3.7801153659820557 5.524875640869141 6.396561145782471 2.5060110092163086
        1.1354426145553589 0.8701834082603455 0.3543774485588074 2.934697389602661 2.598426103591919 3.3403360843658447
        3.1052193641662598 2.385991334915161 3.4329187870025635 4.386366367340088 6.481393814086914 6.720522880554199
        7.049077987670898 7.0782952308654785 8.562576293945312 9.76269817352295 9.458467483520508 9.209731101989746
        8.212721824645996 7.638525009155273 7.0804266929626465 5.647433280944824 3.8193366527557373 5.042205810546875
        7.372570991516113 8.885947227478027 11.27352523803711 13.128016471862793 15.436717987060547 13.833342552185059
        13.779420852661133 13.745512962341309 12.626773834228516 13.526373863220215 14.098609924316406 17.66338348388672
        20.13471031188965 19.621231079101562 18.71115493774414 18.264177322387695 20.50344467163086 21.995004653930664
        21.64386558532715 21.8742618560791 21.40264320373535 22.358800888061523 22.588603973388672 21.17872428894043
        18.978422164916992 17.718692779541016 18.211828231811523 19.023025512695312 18.347150802612305 17.945016860961914
        17.3489990234375 17.48917007446289 18.679988861083984 18.996469497680664 19.505617141723633 20.37290382385254
        20.892070770263672 20.42344093322754 7.583403587341309 8.365336418151855 8.251593589782715 7.64479923248291
        7.727952480316162 8.068625450134277 7.277243137359619 6.020399570465088 5.5789265632629395 5.726199150085449
        5.670990943908691 5.724011421203613 5.151403427124023 5.806906223297119 7.624614238739014 8.57486343383789
        8.022737503051758 7.677916049957275 8.433993339538574 8.282187461853027 9.298809051513672 10.260449409484863
        10.456997871398926 10.301457405090332 9.371282577514648 8.099326133728027 7.6850199699401855 8.792909622192383
        9.353662490844727 7.57320499420166 9.056721687316895 9.991814613342285 11.231534957885742 10.848916053771973
        9.33922290802002 7.520533561706543 6.103745460510254 6.609414100646973 5.217692852020264 3.6104109287261963
        2.5003702640533447 0.7720382213592529 2.8921751976013184 4.055895805358887 4.27028226852417 5.172261714935303
        6.413086414337158 6.977875232696533 7.659940242767334 8.714517593383789 9.44997501373291 9.04238224029541
        9.15441608428955 9.82992935180664 10.933232307434082 10.888070106506348 10.489259719848633 9.163543701171875
        8.962987899780273 8.558042526245117 7.474442481994629 6.7597880363464355 5.509173393249512 5.980424880981445
        6.491425514221191 5.3445658683776855 3.340916156768799 1.502511978149414 0.5136734843254089 0.617954432964325
        2.9239697456359863 6.310227870941162 8.442562103271484 8.083589553833008 4.945796489715576 5.176255702972412
        4.5639753341674805 3.3700461387634277 3.046135187149048 5.010481357574463 6.485029220581055 6.104277610778809
        4.440646648406982 3.09222674369812 7.229325294494629 13.200408935546875 18.5925350189209 18.476911544799805
        16.391040802001953 13.637362480163574 8.777484893798828 5.6929144859313965 3.5432794094085693 2.7111828327178955
        3.741877555847168 6.31434965133667 7.8193583488464355 4.361976623535156 2.83764910697937 2.3848326206207275
        1.6258461475372314 1.5536036491394043 2.1563751697540283 3.0020179748535156 3.3255467414855957 3.1759886741638184
        4.0756683349609375 6.78775691986084 8.121565818786621 6.7409138679504395 7.43780517578125 7.621840476989746
        8.64786148071289 8.651938438415527 8.425117492675781 9.428380012512207 10.436482429504395 10.275394439697266
        8.948092460632324 6.769243240356445 3.919994354248047 3.33382511138916 4.904396057128906 7.9064836502075195
        10.599800109863281 11.900877952575684 13.453150749206543 12.840219497680664 13.118350982666016 13.41913890838623
        14.140241622924805 15.492877006530762 15.360161781311035 18.031383514404297 18.831058502197266 18.427431106567383
        17.73545265197754 17.468761444091797 19.539533615112305 21.85384750366211 23.05585289001465 22.50402069091797
        22.298723220825195 23.601028442382812 23.262788772583008 21.151052474975586 19.20050048828125 17.22545623779297
        17.549427032470703 18.47151756286621 18.38124656677246 18.20319938659668 17.506799697875977 17.58241081237793
        18.941360473632812 19.148900985717773 19.535383224487305 19.596372604370117 20.03468132019043 19.97114372253418
        7.971019268035889 7.910434246063232 6.9759721755981445 6.647223472595215 7.430734634399414 7.754110336303711
        7.278350830078125 6.019487380981445 6.203420639038086 7.076693058013916 8.252193450927734 8.793752670288086
        6.917975902557373 5.676092624664307 6.907787322998047 7.777298927307129 7.6131768226623535 7.6974406242370605
        8.5730619430542 8.166353225708008 8.91263198852539 9.15015983581543 9.124746322631836 8.919845581054688
        7.996053695678711 7.653429985046387 7.602741241455078 8.64832592010498 8.616440773010254 6.962718486785889
        8.272600173950195 9.72549057006836 11.24292278289795 11.091607093811035 10.21517276763916 9.678669929504395
        9.4739990234375 8.468123435974121 6.167803764343262 6.0968427658081055 5.1435980796813965 2.7073898315429688
        1.2794466018676758 2.8518123626708984 4.271343231201172 4.985348224639893 5.878673076629639 6.250412464141846
        8.005332946777344 9.704828262329102 10.173385620117188 9.402682304382324 8.842000961303711 9.560660362243652
        10.576725006103516 11.058229446411133 10.677094459533691 9.806135177612305 9.426281929016113 9.188289642333984
        8.402536392211914 7.729102611541748 6.430595397949219 5.826077461242676 6.405122756958008 5.030540943145752
        3.8298652172088623 1.5991536378860474 0.5831426978111267 2.2206509113311768 4.425792694091797 6.253201484680176
        7.876296520233154 7.793119430541992 5.497991561889648 5.117647171020508 5.05211877822876 3.5288009643554688
        2.5707361698150635 4.675843715667725 5.448123455047607 5.446563720703125 3.3310658931732178 0.8366482853889465
        6.118401050567627 13.359639167785645 18.565059661865234 19.398086547851562 19.187862396240234 15.862336158752441
        10.733295440673828 6.070384979248047 4.247677326202393 3.335848569869995 4.255229949951172 6.7068681716918945
        8.575387954711914 6.331754207611084 4.298511028289795 2.8599765300750732 2.028359889984131 1.181687593460083
        1.5007433891296387 2.4297871589660645 2.9180870056152344 3.701587438583374 4.5090436935424805 6.888925552368164
        7.542566299438477 5.878048419952393 7.026463031768799 7.807596683502197 8.90838623046875 7.637927055358887
        8.379716873168945 9.457223892211914 10.170204162597656 9.180831909179688 9.57640552520752 8.607948303222656
        6.034751892089844 2.2257156372070312 2.1417946815490723 6.00821590423584 8.00672435760498 9.075678825378418
        9.477667808532715 10.656501770019531 12.042927742004395 11.985245704650879 13.053145408630371 14.58608341217041
        14.810975074768066 16.27065658569336 16.25544548034668 17.84762954711914 17.929248809814453 18.05388641357422
        19.399917602539062 20.608884811401367 21.445863723754883 22.271257400512695 22.905031204223633 23.729522705078125
        22.21133041381836 20.019624710083008 18.64795684814453 16.473003387451172 18.035024642944336 18.506980895996094
        18.562149047851562 18.233163833618164 18.810726165771484 20.445322036743164 21.04020118713379 19.707304000854492
        19.581087112426758 18.63193702697754 19.432605743408203 20.364564895629883 8.037315368652344 7.616165637969971
        6.9249773025512695 7.40194845199585 8.16844367980957 8.662298202514648 7.616673469543457 6.614916801452637
        6.763620853424072 8.068974494934082 9.47329330444336 9.151413917541504 7.003782272338867 5.559505939483643
        6.49228048324585 7.72137451171875 8.290599822998047 8.331830024719238 8.614238739013672 8.77539348602295
        9.015737533569336 8.547162055969238 8.398738861083984 8.961036682128906 8.078222274780273 7.361352920532227
        6.423797607421875 6.622127056121826 7.600231647491455 6.927482604980469 8.454399108886719 8.701766967773438
        10.77004623413086 11.320655822753906 10.732851028442383 9.68669319152832 9.564922332763672 8.189465522766113
        7.146602153778076 7.2760138511657715 6.502484321594238 4.202830791473389 2.190889835357666 1.9685328006744385
        1.6377978324890137 2.731968641281128 5.642843246459961 6.666537761688232 8.564315795898438 10.090078353881836
        10.496585845947266 9.934579849243164 8.683935165405273 9.141727447509766 9.45553970336914 9.879191398620605
        9.8356351852417 10.059350967407227 9.38988971710205 8.864936828613281 9.376224517822266 9.911947250366211
        9.04210376739502 7.963107109069824 7.738923072814941 5.986082077026367 3.7281808853149414 1.7431025505065918
        1.4675830602645874 2.647857666015625 3.4381213188171387 3.512681007385254 6.0617852210998535 6.255807399749756
        5.532968997955322 4.483434200286865 4.161078453063965 3.703078269958496 2.925856828689575 5.2672247886657715
        5.3104729652404785 5.466316223144531 3.661503553390503 1.3114069700241089 6.732140064239502 12.112237930297852
        15.677115440368652 18.05923080444336 19.779483795166016 17.274362564086914 13.514859199523926 9.946934700012207
        6.031339645385742 4.63804817199707 4.426708698272705 6.157082557678223 6.64349365234375 5.47044563293457
        3.3348331451416016 1.4693058729171753 1.0620582103729248 1.0254597663879395 1.6042760610580444 1.340807318687439
        1.0918289422988892 2.0396347045898438 2.650975227355957 5.265435218811035 5.479940414428711 4.381179332733154
        5.13613748550415 5.80981969833374 5.749492645263672 5.043745040893555 5.885298252105713 8.141412734985352
        8.528456687927246 8.218317031860352 8.928481101989746 9.21989917755127 6.860774517059326 2.4416520595550537
        1.4096907377243042 3.424586772918701 4.262434959411621 6.2583513259887695 7.866180419921875 9.151529312133789
        10.022355079650879 8.613381385803223 10.346866607666016 12.791654586791992 14.821125030517578 15.22028636932373
        15.131261825561523 16.489229202270508 18.367069244384766 19.80740737915039 20.61899185180664 20.190977096557617
        21.010143280029297 23.346599578857422 23.56328773498535 21.086002349853516 19.45789909362793 17.89537239074707
        17.81207275390625 16.97372817993164 18.287355422973633 18.19297218322754 18.047344207763672 17.820789337158203
        19.418323516845703 20.976970672607422 20.594961166381836 18.97333335876465 19.168292999267578 19.20561981201172
        20.214990615844727 21.391115188598633 7.671603679656982 7.739721775054932 7.246123790740967 8.193488121032715
        8.778136253356934 9.329431533813477 8.619943618774414 8.449241638183594 8.470848083496094 9.385780334472656
        9.976157188415527 9.233460426330566 6.71422004699707 6.167032718658447 7.212535381317139 7.901143550872803
        7.869191646575928 7.645515441894531 8.14119815826416 9.12783145904541 9.266335487365723 8.682981491088867
        7.5450053215026855 7.901602268218994 7.842160224914551 7.521950721740723 6.87959623336792 6.028598785400391
        6.9514055252075195 7.0947957038879395 7.819605350494385 7.53501558303833 8.477327346801758 8.890205383300781
        8.324414253234863 8.14217472076416 8.620991706848145 7.596496105194092 7.871763229370117 7.748526096343994
        7.091012477874756 5.61868953704834 4.013737201690674 3.1085028648376465 1.6991746425628662 2.574333667755127
        5.746343612670898 7.799107551574707 9.337590217590332 10.839238166809082 10.65634822845459 10.311471939086914
        8.967599868774414 9.126070022583008 9.373908042907715 9.27091121673584 9.261415481567383 9.093181610107422
        8.721680641174316 8.880768775939941 10.032809257507324 11.858685493469238 11.563721656799316 10.674074172973633
        9.451973915100098 7.747636795043945 5.71112585067749 3.6744306087493896 1.871932864189148 2.521181106567383
        2.5952792167663574 3.424313545227051 4.977229595184326 6.17819881439209 6.4238104820251465 5.727305889129639
        5.047741413116455 4.232131481170654 3.77165150642395 6.365358829498291 6.942347049713135 6.676321029663086
        3.9861860275268555 1.6311140060424805 6.843188285827637 11.720053672790527 14.691299438476562 17.483747482299805
        18.944307327270508 19.273637771606445 16.056671142578125 14.141853332519531 9.687796592712402 7.992636680603027
        6.321764945983887 6.678091526031494 4.623384475708008 3.0733983516693115 2.1063482761383057 1.6566590070724487
        0.44946005940437317 0.41934025287628174 2.7964928150177 3.2588820457458496 2.2912745475769043 0.39289069175720215
        0.47223368287086487 1.8825056552886963 2.5676121711730957 2.389770030975342 2.6674883365631104 4.261683464050293
        4.545199871063232 4.0896382331848145 4.664774417877197 6.3114237785339355 7.927446365356445 7.858458995819092
        7.765780925750732 7.5029754638671875 6.577111721038818 3.928550958633423 2.317082643508911 2.723684787750244
        4.820435523986816 5.3487019538879395 5.837840557098389 6.324819564819336 6.7618913650512695 5.901607036590576
        7.725362300872803 10.834253311157227 13.655997276306152 14.60407543182373 15.712296485900879 16.69537353515625
        19.723209381103516 21.595932006835938 21.74025535583496 20.675586700439453 21.718080520629883 22.87013816833496
        20.925567626953125 18.615022659301758 18.003755569458008 16.199438095092773 16.625049591064453 17.48804473876953
        18.323564529418945 18.514055252075195 17.875520706176758 18.022544860839844 19.421728134155273 20.115705490112305
        20.275291442871094 19.293601989746094 19.767545700073242 19.965219497680664 20.3691463470459 21.87026596069336
        6.82519006729126 7.16896915435791 7.20296573638916 8.549891471862793 8.734088897705078 8.765399932861328
        8.202332496643066 8.446555137634277 8.585208892822266 9.33056640625 9.624676704406738 9.273641586303711
        8.616621017456055 7.746472358703613 7.40126895904541 8.11793041229248 8.072854042053223 8.173983573913574
        8.376578330993652 8.577239036560059 8.315084457397461 8.288463592529297 7.467628479003906 7.783829689025879
        6.9517669677734375 6.187418460845947 5.8864898681640625 5.119146347045898 6.391867160797119 6.218987941741943
        6.596698760986328 6.367029190063477 7.4987406730651855 9.015191078186035 8.155264854431152 8.419954299926758
        8.511204719543457 8.517966270446777 8.454283714294434 8.264307975769043 8.424129486083984 7.022436618804932
        5.127941608428955 4.268858432769775 1.1537824869155884 2.8297410011291504 7.437983989715576 8.623417854309082
        9.34241008758545 10.275703430175781 10.107958793640137 10.407261848449707 8.930984497070312 8.630688667297363
        8.808058738708496 9.02772331237793 9.091009140014648 8.885578155517578 9.065879821777344 10.069218635559082
        12.028579711914062 13.768407821655273 13.9031982421875 14.055352210998535 12.359015464782715 9.108288764953613
        5.502602577209473 3.374976396560669 2.966219186782837 2.4842538833618164 1.21897554397583 2.4386837482452393
        4.213138580322266 6.076635837554932 7.096502780914307 6.652012825012207 6.1020588874816895 4.721083164215088
        4.722414493560791 6.123524188995361 6.815055847167969 6.523647785186768 4.305105209350586 0.5793681740760803
        7.036444664001465 13.672636985778809 16.75955581665039 18.720108032226562 19.503597259521484 18.235427856445312
        14.891818046569824 15.372855186462402 13.182378768920898 11.949579238891602 9.142255783081055 8.091663360595703
        2.9737038612365723 1.812429666519165 1.972520351409912 2.476842164993286 2.213852882385254 2.3975346088409424
        4.840738296508789 4.667789936065674 4.7568488121032715 2.934225559234619 2.2236881256103516 0.1857374608516693
        0.751473605632782 0.8428616523742676 1.0791276693344116 1.950485348701477 2.69038462638855 3.1088826656341553
        2.475703716278076 4.060484886169434 6.487757205963135 7.900695323944092 8.84896183013916 7.426301956176758
        7.052534580230713 5.377254009246826 4.247547626495361 3.903698205947876 3.806971788406372 4.422342300415039
        5.752664566040039 4.389839172363281 3.9946532249450684 4.9716644287109375 7.935688495635986 11.818758010864258
        13.914225578308105 15.214170455932617 16.9247989654541 17.675546646118164 21.03449058532715 21.857959747314453
        21.759923934936523 20.77256202697754 21.413320541381836 20.573518753051758 18.060338973999023 17.15875244140625
        17.476757049560547 16.51067543029785 18.266300201416016 18.689130783081055 19.181318283081055 20.36520004272461
        19.55528450012207 19.17207908630371 17.843690872192383 17.837862014770508 19.03466033935547 19.406661987304688
        20.5538330078125 20.11693572998047 20.789173126220703 21.95909881591797 6.540166854858398 6.827181339263916
        7.226718425750732 8.447577476501465 8.721325874328613 8.634018898010254 8.654925346374512 9.13928508758545
        9.533246994018555 9.735651969909668 9.460526466369629 9.384940147399902 8.735695838928223 8.103297233581543
        7.682196140289307 8.366228103637695 8.037318229675293 8.690560340881348 8.709693908691406 8.061448097229004
        7.571244716644287 8.018750190734863 7.781115531921387 7.356137275695801 6.833067893981934 6.256631851196289
        5.964100360870361 5.819333076477051 6.422589302062988 6.253340244293213 6.627298355102539 6.723286151885986
        7.3606061935424805 9.091206550598145 8.599140167236328 9.795564651489258 9.790458679199219 10.494736671447754
        9.249171257019043 9.226785659790039 9.242189407348633 8.359126091003418 6.533737659454346 4.950129985809326
        1.668591856956482 3.504227876663208 7.98357629776001 9.055670738220215 10.041815757751465 10.741724967956543
        10.495597839355469 10.799493789672852 9.57839298248291 8.90326976776123 8.848318099975586 9.406621932983398
        8.949240684509277 8.516438484191895 9.217344284057617 11.24540901184082 12.680122375488281 14.265663146972656
        14.442366600036621 14.633414268493652 12.531184196472168 8.572020530700684 5.109288215637207 2.13604998588562
        1.9366427659988403 2.530529499053955 2.3918228149414062 4.173699855804443 6.3971734046936035 7.31089448928833
        7.170184135437012 7.077248573303223 6.694122314453125 5.841977119445801 6.104645729064941 6.046733856201172
        6.787656307220459 7.0152764320373535 5.432255268096924 1.7408807277679443 7.890142917633057 14.703511238098145
        17.700653076171875 19.65703582763672 21.116121292114258 19.643951416015625 17.12357521057129 17.118345260620117
        16.23062515258789 14.446975708007812 11.102660179138184 7.6496663093566895 1.6963858604431152 1.1900235414505005
        1.370848536491394 3.5368127822875977 4.427750587463379 4.933552265167236 5.204356670379639 4.159595012664795
        5.055210113525391 3.8862709999084473 2.784122943878174 0.7919866442680359 1.003008246421814 1.2060482501983643
        1.6844066381454468 1.5270270109176636 2.482564687728882 2.981011152267456 1.4353927373886108 3.1069021224975586
        4.978105068206787 8.996479988098145 9.708179473876953 9.19151496887207 8.352986335754395 8.404112815856934
        6.935053825378418 4.491355895996094 1.2753273248672485 1.4196898937225342 2.9572513103485107 3.0303380489349365
        4.188307762145996 6.877016067504883 9.428487777709961 13.15780258178711 15.652127265930176 17.560230255126953
        18.342018127441406 19.72191619873047 22.836002349853516 22.543067932128906 21.450864791870117 20.816085815429688
        20.763715744018555 18.569791793823242 16.673070907592773 16.375492095947266 17.993915557861328 18.747272491455078
        21.01608657836914 20.723426818847656 20.88297462463379 21.508569717407227 21.298513412475586 20.98899269104004
        18.95167350769043 18.550750732421875 19.70475959777832 20.38368034362793 21.855358123779297 21.73297691345215
        22.340578079223633 23.249849319458008 6.976442813873291 6.657905578613281 7.029810428619385 8.03780746459961
        8.452001571655273 8.35595989227295 8.190245628356934 7.715120315551758 8.781434059143066 9.03486442565918
        9.511375427246094 9.125712394714355 8.209142684936523 7.958499431610107 8.04349136352539 9.334305763244629
        9.078252792358398 9.510414123535156 8.95283317565918 8.037209510803223 7.323546886444092 7.4308342933654785
        7.521020412445068 6.674013137817383 6.190099239349365 5.619035720825195 5.574317455291748 5.150195121765137
        5.7889862060546875 6.24533748626709 7.4137654304504395 7.301113128662109 7.831027030944824 9.268216133117676
        8.236401557922363 8.888675689697266 9.206308364868164 10.794417381286621 9.604044914245605 10.110713005065918
        10.571310043334961 9.661232948303223 6.688392162322998 6.051103591918945 3.3808610439300537 1.94074547290802
        7.1575164794921875 9.010704040527344 10.914226531982422 10.726983070373535 10.824932098388672 10.427411079406738
        9.739607810974121 9.038728713989258 8.638245582580566 8.46727180480957 8.097925186157227 8.3927001953125
        9.994486808776855 11.513774871826172 12.474175453186035 14.022893905639648 14.426166534423828 14.361472129821777
        11.807535171508789 8.781078338623047 4.529017448425293 1.5358840227127075 2.8318488597869873 2.8884823322296143
        2.570164918899536 3.214170217514038 5.240415096282959 5.634521007537842 6.102297306060791 6.841552257537842
        6.8138628005981445 6.611057758331299 6.993636608123779 6.849059104919434 7.624966621398926 8.600382804870605
        5.958540916442871 1.7328741550445557 8.033632278442383 15.940093040466309 19.854053497314453 21.75988006591797
        21.536649703979492 18.894575119018555 17.360679626464844 17.110309600830078 16.769630432128906 15.085555076599121
        12.60384750366211 8.71362018585205 3.4409568309783936 1.2394747734069824 1.7481127977371216 3.7115235328674316
        5.994439601898193 7.437353134155273 7.8353118896484375 5.614073753356934 5.62045431137085 3.5702579021453857
        2.395514965057373 0.49153226613998413 1.1799507141113281 1.7738642692565918 1.9431054592132568 1.798181176185608
        1.3945930004119873 1.6838923692703247 0.43204209208488464 2.688594102859497 4.065404415130615 9.142487525939941
        8.349638938903809 8.731881141662598 8.709589004516602 8.394819259643555 6.009089469909668 4.684172630310059
        3.2271249294281006 1.0668774843215942 0.30252087116241455 2.0198302268981934 4.219405651092529 7.319299221038818
        9.747135162353516 14.572606086730957 16.867238998413086 19.45427894592285 19.7528018951416 21.36202049255371
        23.096952438354492 24.542800903320312 24.815296173095703 24.02383041381836 20.84224510192871 18.797534942626953
        17.30785369873047 18.069856643676758 19.832082748413086 21.631364822387695 22.95130157470703 22.142597198486328
        22.603666305541992 21.938037872314453 21.9140625 21.20185661315918 19.608463287353516 19.982587814331055
        20.216968536376953 20.784400939941406 22.116867065429688 22.867584228515625 24.738985061645508 24.361366271972656
        6.2094950675964355 6.212948322296143 6.389708995819092 7.299000263214111 7.899144649505615 7.552454948425293
        7.273745059967041 7.937369346618652 9.35421371459961 9.594599723815918 9.710654258728027 9.019060134887695
        8.422383308410645 8.333096504211426 8.581612586975098 9.745086669921875 9.388309478759766 9.350898742675781
        8.798832893371582 8.563706398010254 7.476154327392578 7.184717655181885 6.934861660003662 6.584527969360352
        7.1112961769104 6.839241027832031 6.900803089141846 5.9904985427856445 5.926702976226807 6.363621711730957
        7.313017845153809 7.5388898849487305 7.377587795257568 7.814753532409668 6.663482666015625 7.093047142028809
        7.798797607421875 9.256278991699219 10.110093116760254 10.70925235748291 11.604734420776367 9.198079109191895
        7.172794818878174 6.459569454193115 4.433300495147705 1.016088843345642 5.330568313598633 8.158148765563965
        10.53566837310791 9.938847541809082 10.280593872070312 10.235368728637695 9.944263458251953 9.12345027923584
        8.714496612548828 8.039700508117676 8.319286346435547 8.6605806350708 9.898414611816406 10.820475578308105
        12.156197547912598 13.536148071289062 13.453543663024902 13.330485343933105 12.333053588867188 10.925149917602539
        6.739901542663574 2.4373672008514404 3.1029210090637207 3.5037930011749268 3.4199512004852295 4.052350997924805
        5.369748592376709 5.255554676055908 5.75778341293335 6.66331148147583 6.49683952331543 6.584449768066406
        6.379255294799805 6.66598653793335 7.150360107421875 6.103577613830566 3.279341697692871 1.4697929620742798
        5.488827705383301 13.07800006866455 19.162334442138672 20.243009567260742 18.865318298339844 17.55512237548828
        17.439592361450195 16.82746124267578 15.248190879821777 13.892333984375 12.61624526977539 8.518173217773438
        3.917358875274658 0.5881334543228149 1.5617332458496094 3.607558250427246 5.752185344696045 6.798065662384033
        7.024136543273926 4.70011043548584 3.0372278690338135 1.7466099262237549 1.520797848701477 0.5857217907905579
        0.4668351411819458 1.4515658617019653 1.9686625003814697 0.9160719513893127 0.7022427916526794 2.139915943145752
        1.203466534614563 1.8006176948547363 2.827252149581909 6.895636558532715 6.231650352478027 6.870538711547852
        6.081116199493408 5.668209552764893 3.6353824138641357 3.368551731109619 4.754281997680664 3.923312187194824
        1.5142878293991089 2.210423231124878 2.6276979446411133 5.049310207366943 8.50954532623291 14.875155448913574
        16.595714569091797 18.637935638427734 19.090667724609375 22.081174850463867 23.999032974243164 26.53376579284668
        26.302717208862305 24.991601943969727 21.73529052734375 19.184921264648438 17.962255477905273 19.290634155273438
        20.35739517211914 19.440366744995117 20.7860050201416 20.015958786010742 20.603544235229492 18.25327491760254
        19.812284469604492 19.858064651489258 20.123085021972656 21.336763381958008 21.482006072998047 21.244853973388672
        21.704479217529297 22.47129249572754 24.920377731323242 24.366382598876953 5.37859582901001 4.965634346008301
        5.340919017791748 6.210463523864746 7.33558464050293 7.43848991394043 7.273836135864258 8.107318878173828
        9.396614074707031 9.871129989624023 9.80742073059082 9.275177001953125 8.938159942626953 8.776503562927246
        9.116199493408203 9.857339859008789 9.613776206970215 9.215997695922852 8.484214782714844 8.654996871948242
        7.706982612609863 7.310431003570557 7.01486349105835 6.7683939933776855 7.445320129394531 7.669765472412109
        8.049825668334961 6.924939155578613 6.553662300109863 7.242981433868408 7.186131477355957 7.303473949432373
        6.590001583099365 7.426398754119873 7.280747413635254 7.508049488067627 7.500649452209473 7.342503070831299
        9.260897636413574 10.504034996032715 10.984367370605469 9.732436180114746 8.283060073852539 6.92889928817749
        4.4237446784973145 1.9069873094558716 2.36333966255188 4.8625102043151855 7.199807643890381 7.98867130279541
        9.146245956420898 9.504212379455566 9.707390785217285 9.269838333129883 9.049579620361328 8.214547157287598
        8.621015548706055 8.764147758483887 9.896519660949707 11.610886573791504 12.753488540649414 13.836105346679688
        13.351240158081055 13.762364387512207 13.556909561157227 11.326338768005371 7.87599515914917 3.594381809234619
        2.6758759021759033 3.789858818054199 3.5204036235809326 2.865081548690796 3.382352113723755 4.056368350982666
        5.634714126586914 7.118026256561279 7.375121593475342 6.043034553527832 5.054146766662598 5.412635326385498
        5.283662796020508 5.1668477058410645 2.7325985431671143 1.1910921335220337 4.850219249725342 9.106167793273926
        14.807266235351562 16.00656509399414 14.69994068145752 13.36631965637207 13.482742309570312 14.242408752441406
        14.660014152526855 15.274364471435547 15.175122261047363 7.3446364402771 3.344989538192749 0.6378800868988037
        2.1231842041015625 3.2827858924865723 3.991804838180542 5.038934707641602 5.070375442504883 3.929589033126831
        2.6640264987945557 1.7784117460250854 2.112264394760132 1.9268049001693726 1.7818872928619385 3.1508429050445557
        3.5953078269958496 2.7487969398498535 0.6426116824150085 1.715620517730713 1.8977222442626953 1.330001950263977
        1.7286840677261353 2.579659938812256 2.3944458961486816 2.095667600631714 2.444755792617798 2.482999563217163
        1.1952263116836548 2.2121517658233643 3.208984375 2.7954089641571045 1.6545950174331665 1.8648971319198608
        1.6633888483047485 4.599234580993652 9.010456085205078 13.690224647521973 15.703577041625977 18.085981369018555
        20.325963973999023 22.28427505493164 22.938262939453125 24.332611083984375 25.0380859375 24.123477935791016
        21.293655395507812 19.500835418701172 18.30234718322754 19.520524978637695 20.63520050048828 17.488086700439453
        18.583343505859375 17.480424880981445 18.382482528686523 16.724124908447266 18.150297164916992 19.56369400024414
        21.144235610961914 22.25045394897461 22.996299743652344 22.100942611694336 22.092744827270508 22.381004333496094
        24.269742965698242 24.88704490661621 4.31822395324707 4.606088638305664 4.665971755981445 5.803359031677246
        6.254662990570068 7.2925543785095215 7.614102363586426 8.598048210144043 9.3135986328125 9.371642112731934
        9.112414360046387 9.11303997039795 8.849488258361816 8.941143035888672 9.023247718811035 9.14537525177002
        9.018842697143555 8.326765060424805 8.060481071472168 7.840386867523193 7.658849239349365 7.669837474822998
        7.697516918182373 7.955141067504883 8.238892555236816 8.499972343444824 8.795184135437012 8.501334190368652
        8.312422752380371 8.230772018432617 7.70623254776001 7.444446086883545 7.0341291427612305 8.022521018981934
        8.302816390991211 7.622894763946533 7.39208459854126 7.0533623695373535 9.26939582824707 8.178054809570312
        8.79804515838623 8.604442596435547 8.806635856628418 7.31696081161499 5.991769313812256 3.7111361026763916
        0.2281172275543213 2.4155781269073486 4.203685760498047 6.569018363952637 8.772419929504395 10.429360389709473
        9.900580406188965 9.425724029541016 8.542061805725098 7.469140529632568 7.693096160888672 8.379778861999512
        10.10913372039795 11.357331275939941 12.832988739013672 14.141470909118652 13.785126686096191 13.155465126037598
        12.379531860351562 10.266003608703613 7.480992317199707 3.6638782024383545 2.295901298522949 2.2298572063446045
        2.4210193157196045 2.5412988662719727 3.155780076980591 3.4170124530792236 4.763577461242676 5.288691520690918
        6.035911560058594 4.670857906341553 4.325599670410156 4.0848565101623535 3.2371933460235596 2.6312594413757324
        0.46511372923851013 2.2392876148223877 4.944410800933838 6.336852073669434 10.90110969543457 11.119998931884766
        9.191021919250488 8.263524055480957 9.426370620727539 12.079385757446289 12.97217845916748 12.39975643157959
        9.700108528137207 2.8408961296081543 3.3241288661956787 2.2891077995300293 3.256984233856201 3.2757279872894287
        2.829084873199463 3.0982954502105713 3.1109955310821533 3.5668230056762695 2.3316495418548584 2.0132219791412354
        2.4664509296417236 2.710439920425415 3.277390241622925 6.231521129608154 6.370508670806885 5.286224365234375
        2.9528496265411377 1.8351551294326782 1.4048837423324585 1.9000805616378784 1.0208295583724976 2.084852933883667
        1.56499445438385 1.2471691370010376 1.095186710357666 1.5991953611373901 0.6262255311012268 1.6910009384155273
        2.240184783935547 3.2788562774658203 3.1277763843536377 1.2121200561523438 1.3210502862930298 3.8684802055358887
        7.463083744049072 10.558122634887695 12.914798736572266 15.373319625854492 20.5153751373291 22.407329559326172
        22.605575561523438 19.8447322845459 20.8219051361084 21.357147216796875 19.407705307006836 19.59171485900879
        18.548913955688477 18.713130950927734 19.293752670288086 16.683866500854492 18.068950653076172 15.879873275756836
        16.152698516845703 16.52018928527832 17.908212661743164 19.979467391967773 20.75146484375 22.83066177368164
        24.102811813354492 22.98795509338379 21.87384033203125 20.93073081970215 22.747426986694336 24.2331485748291
        4.162093639373779 4.911713600158691 5.121681213378906 6.580896377563477 7.231781482696533 8.263338088989258
        8.804502487182617 8.930885314941406 8.794035911560059 8.908559799194336 9.085680961608887 9.128767967224121
        8.882762908935547 9.19721794128418 9.633223533630371 9.373597145080566 8.81770133972168 7.938506126403809
        7.608607292175293 7.346118927001953 7.242364406585693 7.682436466217041 7.685364246368408 7.985625267028809
        8.23889446258545 8.443171501159668 8.862019538879395 8.662801742553711 8.784566879272461 8.731618881225586
        8.323494911193848 7.931007385253906 7.898914337158203 8.00289249420166 8.127098083496094 6.808054447174072
        6.4239068031311035 6.921596527099609 8.000837326049805 6.522465705871582 7.554722785949707 8.065033912658691
        8.972696304321289 7.475675106048584 6.795684337615967 5.165272235870361 2.295459032058716 2.0280425548553467
        3.3478474617004395 5.930796146392822 8.651100158691406 10.438443183898926 10.27920150756836 10.382972717285156
        8.931227684020996 7.547674179077148 7.605687141418457 9.305145263671875 10.914935111999512 11.315919876098633
        12.723724365234375 13.560649871826172 13.05453872680664 11.15203857421875 10.401498794555664 8.971274375915527
        6.479607582092285 3.374238967895508 2.421322822570801 1.8521955013275146 1.5506588220596313 2.370027542114258
        3.742048501968384 4.302170753479004 4.05848503112793 4.404746055603027 5.130459308624268 5.694728374481201
        4.598056316375732 3.1520333290100098 2.954634428024292 3.150844097137451 0.551021933555603 2.807732105255127
        4.486289978027344 1.2341578006744385 3.711756467819214 4.096560478210449 4.0927324295043945 3.490602493286133
        5.19542121887207 7.515443325042725 10.459908485412598 10.109217643737793 7.291691780090332 4.009181499481201
        5.283260822296143 4.684261798858643 4.619570255279541 4.257530689239502 3.427151679992676 2.856370210647583
        3.0612823963165283 3.899345636367798 3.2611310482025146 2.7889392375946045 2.4669718742370605 2.9424757957458496
        3.918144941329956 6.809990882873535 6.049753665924072 5.726126194000244 4.351129055023193 3.9304816722869873
        3.326556921005249 3.2384305000305176 2.3671960830688477 2.569786787033081 2.044031858444214 2.2300095558166504
        1.5666669607162476 2.0448575019836426 1.7137326002120972 0.9825975298881531 2.168811321258545 4.567176342010498
        5.747241020202637 4.853113651275635 2.3749637603759766 1.139507532119751 5.9775190353393555 7.389540195465088
        11.87973403930664 15.909695625305176 19.852882385253906 19.4887752532959 18.191102981567383 17.98625373840332
        19.0612850189209 19.760168075561523 19.424190521240234 21.520767211914062 21.848325729370117 21.732955932617188
        21.71687126159668 20.681787490844727 19.58770751953125 17.991613388061523 16.735475540161133 18.22078514099121
        18.916120529174805 20.99347496032715 21.365324020385742 23.35028076171875 24.748823165893555 23.61663818359375
        22.761707305908203 21.763036727905273 22.891273498535156 24.40073013305664 4.892873287200928 4.945507049560547
        5.013354778289795 6.515637397766113 7.16839075088501 7.860714435577393 7.9001288414001465 7.988102912902832
        8.308732032775879 8.443693161010742 9.33682632446289 9.191754341125488 8.671788215637207 8.948779106140137
        9.62248420715332 9.810439109802246 8.968688011169434 8.150105476379395 7.695021629333496 7.563926696777344
        7.638331413269043 7.897869110107422 7.835865497589111 8.159778594970703 8.180609703063965 8.622817039489746
        8.875398635864258 8.868097305297852 8.517156600952148 8.186747550964355 8.365510940551758 7.984267234802246
        7.4648003578186035 6.725510120391846 6.472225666046143 5.833331108093262 5.32492208480835 5.498537063598633
        5.639044284820557 4.733209133148193 7.263223171234131 8.580911636352539 9.262246131896973 7.622812747955322
        7.236032009124756 5.721363544464111 2.843651294708252 2.4271538257598877 3.5201056003570557 4.875488758087158
        7.5563740730285645 9.999309539794922 10.172989845275879 10.663713455200195 9.076208114624023 8.528109550476074
        8.895709037780762 10.278855323791504 11.34838581085205 11.259084701538086 11.667455673217773 10.983458518981934
        10.466328620910645 9.469162940979004 9.900398254394531 8.788809776306152 7.0910868644714355 4.380195617675781
        3.7305705547332764 2.6047937870025635 1.8461827039718628 2.082523822784424 2.862126588821411 3.464380979537964
        3.7392473220825195 4.039363384246826 5.001303195953369 5.735282897949219 4.316026210784912 2.864697217941284
        2.9863436222076416 2.751378059387207 1.6561709642410278 2.6419873237609863 1.0702615976333618 2.172727346420288
        1.2400919198989868 1.7014840841293335 1.9087345600128174 1.6611934900283813 2.2801856994628906 5.255860328674316
        7.7174859046936035 8.159797668457031 6.003183841705322 5.938205242156982 6.4728312492370605 5.945340156555176
        4.827673435211182 4.316552639007568 3.9313931465148926 3.389000654220581 3.891383409500122 4.67403507232666
        4.373586654663086 4.363373279571533 3.730865716934204 3.690284013748169 3.9609134197235107 5.114882946014404
        4.378885269165039 4.351672649383545 4.641043663024902 4.145259857177734 2.5165436267852783 1.3939615488052368
        1.8848316669464111 1.8048882484436035 1.5159646272659302 2.431300640106201 2.5850837230682373 2.025719404220581
        2.1587328910827637 2.608642339706421 0.9671262502670288 3.1297266483306885 4.02086067199707 4.395308494567871
        2.409736394882202 1.660181999206543 4.306295871734619 6.523749351501465 11.309703826904297 14.241849899291992
        14.832612037658691 15.202034950256348 13.88031005859375 15.106484413146973 17.244258880615234 18.687131881713867
        19.400711059570312 21.812496185302734 23.61884880065918 25.071144104003906 24.146806716918945 22.355850219726562
        20.103313446044922 18.51123809814453 18.828506469726562 20.71957778930664 20.334178924560547 21.307640075683594
        21.85687828063965 24.706457138061523 25.127342224121094 24.65030288696289 24.202224731445312 22.758934020996094
        24.09039306640625 25.076828002929688 4.161128520965576 3.922569751739502 4.504871368408203 5.938698768615723
        6.740174293518066 7.442502975463867 7.766698360443115 8.266204833984375 8.455863952636719 8.815914154052734
        9.568499565124512 9.580647468566895 9.109336853027344 8.904511451721191 9.639524459838867 9.902813911437988
        9.012283325195312 8.744878768920898 8.412191390991211 8.381714820861816 8.47591495513916 8.683326721191406
        8.46048355102539 8.430999755859375 8.537720680236816 8.945642471313477 8.606907844543457 8.470131874084473
        8.11282730102539 7.931166648864746 8.475471496582031 8.2753267288208 7.809628009796143 6.726861476898193
        6.499989986419678 6.109173774719238 5.481029510498047 5.019289016723633 4.965875148773193 5.016165733337402
        6.843727111816406 7.666832447052002 8.094258308410645 6.909379959106445 6.385931491851807 4.8942389488220215
        2.1632697582244873 2.499006748199463 2.4648070335388184 2.2359747886657715 5.265063762664795 9.176441192626953
        10.789457321166992 10.667338371276855 8.611231803894043 9.304801940917969 10.867680549621582 11.882328033447266
        12.568716049194336 12.567708015441895 11.67588996887207 10.578058242797852 9.523072242736816 8.39670467376709
        9.505471229553223 9.932680130004883 9.204445838928223 5.6594157218933105 3.7347769737243652 2.4193551540374756
        1.5467501878738403 1.677104115486145 2.117605209350586 2.8926806449890137 3.906245708465576 3.580040454864502
        4.113793849945068 5.2986321449279785 5.167140007019043 4.885653972625732 4.100681304931641 3.3913285732269287
        1.7128190994262695 1.1252802610397339 1.9364104270935059 2.491790533065796 3.3319344520568848 2.933551549911499
        2.8952269554138184 1.3144111633300781 0.5267364978790283 3.128459930419922 5.485403060913086 7.276677131652832
        6.331090927124023 6.840405464172363 7.212159156799316 7.469242572784424 6.399108409881592 6.275696754455566
        6.033700466156006 5.241122245788574 3.998610734939575 4.4486613273620605 4.364310264587402 4.518545627593994
        4.588655471801758 5.230544090270996 3.3779189586639404 2.787226915359497 1.1959384679794312 0.5334337949752808
        1.1221098899841309 2.7548635005950928 2.624199628829956 1.0156291723251343 1.0171656608581543 1.5355843305587769
        1.4736809730529785 2.6149895191192627 3.130134344100952 2.454714059829712 2.5602307319641113 4.780519485473633
        3.093757152557373 1.0457617044448853 0.21799390017986298 0.5270247459411621 1.1585333347320557 2.0940113067626953
        3.497623920440674 7.6037726402282715 10.595382690429688 11.559028625488281 10.45145034790039 9.925190925598145
        8.87265682220459 9.079789161682129 12.192970275878906 15.706262588500977 18.245716094970703 20.408109664916992
        22.351829528808594 25.985225677490234 24.555233001708984 21.80948257446289 18.65880012512207 18.278690338134766
        20.35568618774414 20.695446014404297 20.207487106323242 20.686227798461914 22.067293167114258 24.20722007751465
        24.08738136291504 25.272804260253906 26.20681381225586 26.022171020507812 25.9124813079834 25.615957260131836
        3.2258188724517822 3.1243488788604736 3.85554575920105 5.066532135009766 5.769774436950684 6.413949966430664
        6.31074857711792 7.224059581756592 8.136229515075684 9.017955780029297 9.8062105178833 10.126204490661621
        9.674434661865234 9.22998046875 9.483522415161133 9.47305965423584 9.108237266540527 9.016892433166504
        9.023344039916992 8.990159034729004 9.138254165649414 9.219756126403809 8.836689949035645 8.509023666381836
        8.354819297790527 8.318232536315918 7.971508026123047 8.046076774597168 7.841107368469238 7.8128662109375
        7.90427303314209 8.03811264038086 7.730201721191406 7.180169582366943 7.2523322105407715 6.816669464111328
        7.3008856773376465 6.692806720733643 6.849445819854736 6.912501811981201 7.224939346313477 6.993493556976318
        6.186800956726074 6.5409674644470215 6.663767337799072 6.414257526397705 4.3583149909973145 2.133073568344116
        1.180643916130066 1.2378997802734375 3.9130096435546875 7.936995029449463 9.822616577148438 9.931001663208008
        9.543391227722168 10.35532283782959 11.662620544433594 12.804274559020996 14.176262855529785 13.839303016662598
        12.204323768615723 9.963294982910156 8.242633819580078 6.5392866134643555 7.279550552368164 7.790284156799316
        9.23483657836914 6.153388023376465 4.550655841827393 3.057880163192749 1.4821304082870483 0.19304616749286652
        1.3026214838027954 2.917245626449585 5.253512859344482 4.80401611328125 4.126368522644043 4.944358825683594
        7.025330066680908 7.147152423858643 5.206448554992676 3.512584924697876 2.2825186252593994 1.1230319738388062
        2.0071146488189697 2.0270333290100098 2.715352773666382 1.7760857343673706 1.7018479108810425 0.8961299061775208
        0.3234134018421173 1.1606653928756714 2.29875111579895 3.3578245639801025 4.524182319641113 5.514807224273682
        7.215237617492676 7.888922691345215 7.115534782409668 5.171389579772949 3.5814146995544434 3.362849473953247
        3.3002214431762695 3.9564807415008545 4.381862163543701 4.871292591094971 5.317581653594971 5.790971755981445
        3.8392233848571777 2.6043543815612793 0.39851802587509155 1.8090380430221558 2.930996894836426 2.6778125762939453
        2.648725986480713 1.6354893445968628 1.7004939317703247 1.875794768333435 1.929153323173523 2.738116979598999
        2.865271806716919 2.460875988006592 3.141252040863037 5.340681076049805 5.074454307556152 3.9188930988311768
        2.3463997840881348 3.4200527667999268 1.3866331577301025 1.5114985704421997 3.0819737911224365 6.676687240600586
        7.875666618347168 7.5419464111328125 8.142542839050293 6.5087995529174805 4.707564830780029 3.4937713146209717
        7.108598709106445 12.56057071685791 14.795207023620605 16.9368953704834 19.34200096130371 24.472131729125977
        23.23737907409668 20.342557907104492 18.248802185058594 19.06893539428711 20.9649715423584 21.667423248291016
        20.87482452392578 21.405580520629883 22.495777130126953 24.19765281677246 24.813629150390625 25.477798461914062
        26.94173240661621 26.851449966430664 26.249008178710938 25.98278045654297 1.4618169069290161 2.2210276126861572
        2.5811519622802734 3.5699715614318848 3.9021341800689697 4.991708755493164 5.459566116333008 6.314727306365967
        7.446170330047607 8.021992683410645 8.847476959228516 9.373919486999512 9.776652336120605 9.710877418518066
        9.651628494262695 9.338236808776855 9.243406295776367 8.988631248474121 9.269888877868652 9.43499755859375
        9.78872299194336 9.705793380737305 8.766748428344727 8.680216789245605 7.983676910400391 7.792670249938965
        7.726341724395752 7.9808149337768555 8.31656265258789 7.8912248611450195 7.815404891967773 8.27685546875
        8.13507080078125 7.951213836669922 7.626514911651611 7.326326847076416 8.586108207702637 9.125938415527344
        9.909167289733887 8.525530815124512 7.346860408782959 6.2886552810668945 5.872443199157715 6.932168006896973
        7.6398749351501465 8.004825592041016 6.311506271362305 2.9229350090026855 1.4116477966308594 1.9471051692962646
        2.9457578659057617 6.95886754989624 8.946342468261719 10.390413284301758 11.807502746582031 12.261027336120605
        12.775330543518066 14.243668556213379 15.734183311462402 14.331918716430664 11.468121528625488 9.168289184570312
        7.565217018127441 5.579415321350098 6.696588516235352 8.221473693847656 9.024826049804688 6.58259916305542
        5.745940208435059 4.615530490875244 3.429598808288574 0.9993056058883667 1.5063977241516113 4.341909408569336
        5.5453643798828125 5.0247907638549805 4.915144443511963 6.1607160568237305 8.181321144104004 6.61485481262207
        4.497988224029541 2.902208089828491 3.186386823654175 1.8572133779525757 3.3701181411743164 4.415008544921875
        3.0046026706695557 1.1671730279922485 0.6968844532966614 0.8224596381187439 0.8761584758758545 0.7074120044708252
        1.4817540645599365 1.7201416492462158 3.47082257270813 4.165759563446045 7.129726409912109 7.905114650726318
        7.3882670402526855 3.8682875633239746 2.2038471698760986 2.2309675216674805 2.703416585922241 3.22237491607666
        3.6100006103515625 3.808046340942383 4.846002578735352 6.568228244781494 4.615180492401123 2.3442063331604004
        1.6528611183166504 4.039238452911377 4.431784629821777 1.9451887607574463 2.644483804702759 4.185084342956543
        3.9206862449645996 3.3164937496185303 2.319427967071533 2.3761796951293945 3.0523288249969482 4.198028087615967
        4.351805686950684 5.3842949867248535 5.347667217254639 5.050856113433838 3.887115240097046 4.298616409301758
        2.3661465644836426 2.2146213054656982 3.5056540966033936 5.092953681945801 6.329131126403809 6.997975826263428
        8.001917839050293 5.0092573165893555 2.019059658050537 1.3473515510559082 4.53997802734375 9.756060600280762
        10.981781959533691 15.430792808532715 17.597932815551758 20.5413875579834 20.21073341369629 18.321136474609375
        20.00921058654785 19.64243507385254 20.98380470275879 21.85369300842285 22.00127601623535 22.725635528564453
        22.664804458618164 22.920377731323242 23.948488235473633 24.59380531311035 26.398813247680664 26.31877326965332
        26.678791046142578 26.629501342773438 0.6533176898956299 1.9457560777664185 1.9310299158096313 3.1404709815979004
        3.745285749435425 4.995975017547607 5.169251918792725 5.835731029510498 7.429961204528809 8.403107643127441
        9.381295204162598 9.545088768005371 10.19821834564209 10.58642292022705 10.971210479736328 10.49343490600586
        9.583038330078125 8.943109512329102 9.341265678405762 10.325459480285645 10.323774337768555 9.796878814697266
        8.803869247436523 8.592424392700195 8.211113929748535 7.8549981117248535 7.872367858886719 8.073473930358887
        8.486141204833984 8.371527671813965 7.613379001617432 7.838014602661133 8.039634704589844 7.954951286315918
        8.164201736450195 8.60504150390625 9.878156661987305 10.073176383972168 10.16834831237793 9.831232070922852
        8.919289588928223 8.249811172485352 8.433690071105957 8.147390365600586 7.983567237854004 7.527285575866699
        6.432512283325195 3.3212456703186035 2.084235191345215 3.001767873764038 3.078662633895874 5.713216304779053
        7.842580318450928 11.241334915161133 13.932367324829102 14.470096588134766 13.888501167297363 15.327576637268066
        16.4548397064209 13.75521183013916 10.123649597167969 7.5052571296691895 5.939273357391357 4.335259437561035
        5.290561676025391 6.185840129852295 6.791929721832275 6.2730393409729 5.991281032562256 4.966577053070068
        3.4364283084869385 1.6561425924301147 0.9930358529090881 3.9104385375976562 3.9807350635528564 4.854554176330566
        6.268892765045166 8.784317016601562 8.993824005126953 5.698366165161133 4.360809803009033 3.9528181552886963
        4.226132869720459 2.866553544998169 3.832240343093872 5.077826976776123 2.805851936340332 1.0698643922805786
        0.5097533464431763 0.8915496468544006 1.3474024534225464 1.833738088607788 1.093611478805542 0.620192289352417
        2.6505393981933594 2.4643328189849854 4.217264175415039 4.462855815887451 4.683650970458984 2.7048559188842773
        1.9302763938903809 2.1812736988067627 1.6079626083374023 2.01347017288208 3.3369977474212646 5.080262184143066
        5.739278793334961 6.370863437652588 5.083356857299805 3.314513921737671 1.0776171684265137 2.2914187908172607
        3.8448054790496826 2.7100446224212646 2.3520538806915283 3.054029703140259 3.384474277496338 2.545273780822754
        3.072880983352661 3.3141801357269287 3.9977777004241943 5.0568461418151855 4.396352767944336 4.411746025085449
        4.44758939743042 5.224172592163086 5.53160285949707 5.936410903930664 5.26656436920166 5.050022125244141
        4.017628192901611 4.103487968444824 3.17600679397583 4.5355000495910645 5.352722644805908 4.084819316864014
        0.2729204297065735 1.106062412261963 2.693737745285034 5.924159526824951 8.944008827209473 12.043667793273926
        14.589300155639648 15.677587509155273 17.538618087768555 18.21424674987793 20.467954635620117 20.761701583862305
        22.845779418945312 24.25308609008789 24.149690628051758 24.74700164794922 23.932254791259766 24.226911544799805
        25.18280029296875 25.386943817138672 25.880046844482422 26.482229232788086 27.157936096191406 26.606386184692383
        1.7478229999542236 2.015554189682007 1.5900055170059204 2.537191152572632 2.9046669006347656 4.785580635070801
        4.976119518280029 5.827576637268066 7.210657119750977 8.082612037658691 9.389442443847656 9.42195987701416
        9.589310646057129 9.83432674407959 10.44333553314209 10.99721622467041 10.03225326538086 9.735715866088867
        10.18431282043457 10.762545585632324 10.566384315490723 10.019242286682129 9.274991989135742 8.99238395690918
        8.765028953552246 8.761768341064453 8.256437301635742 8.204505920410156 8.424256324768066 8.344120979309082
        8.402176856994629 8.551823616027832 8.784219741821289 8.05696964263916 8.16157341003418 9.335281372070312
        9.864938735961914 9.515363693237305 9.206893920898438 9.318465232849121 9.804567337036133 9.872005462646484
        9.940345764160156 8.8860445022583 7.630843162536621 6.533135890960693 5.647792339324951 3.4738147258758545
        1.6589211225509644 2.0816309452056885 2.8195788860321045 5.276360988616943 7.729815483093262 11.127089500427246
        13.276703834533691 14.704388618469238 14.524730682373047 15.725086212158203 16.262815475463867 13.45313835144043
        10.352355003356934 7.974825859069824 5.887875080108643 5.224625587463379 6.008108139038086 7.283205986022949
        6.884860038757324 6.10410737991333 5.691364765167236 5.329972267150879 3.8041937351226807 2.933501958847046
        1.615919828414917 2.123141288757324 1.923753023147583 2.6491339206695557 4.578378200531006 7.540535926818848
        7.157144069671631 5.939154148101807 6.151610851287842 7.110134601593018 5.61110258102417 4.368032932281494
        3.423067808151245 3.0888819694519043 1.7855559587478638 1.6779592037200928 1.0467466115951538 1.2673035860061646
        1.1505638360977173 1.5218734741210938 1.5466721057891846 1.1594905853271484 1.9966260194778442 2.2746617794036865
        2.8855957984924316 3.6812355518341064 4.0848236083984375 3.795539617538452 3.378765106201172 2.6080801486968994
        1.3418505191802979 1.799663782119751 3.02433705329895 5.365905284881592 5.619837284088135 6.013432025909424
        4.686287879943848 2.837941884994507 1.7843976020812988 4.096045017242432 4.733188152313232 4.118657112121582
        1.8999395370483398 2.751492500305176 3.8916096687316895 2.426269054412842 3.4391286373138428 4.388623237609863
        5.927857398986816 6.1016435623168945 5.1099162101745605 5.4432477951049805 5.414266109466553 6.218992710113525
        6.33744478225708 6.989696502685547 6.86102294921875 6.3237152099609375 5.531198978424072 5.16139554977417
        2.7208104133605957 3.212562084197998 4.141988277435303 2.6056699752807617 1.297659993171692 2.3542330265045166
        1.9606859683990479 3.2370686531066895 6.423751354217529 7.936188220977783 9.883183479309082 12.066436767578125
        15.089290618896484 16.551586151123047 19.68840980529785 22.199846267700195 26.39384651184082 26.343299865722656
        24.921031951904297 25.37909507751465 24.742450714111328 25.944366455078125 25.810775756835938 25.669456481933594
        25.940210342407227 27.3494873046875 28.098783493041992 26.665958404541016 1.78983473777771 1.3390448093414307
        1.7161048650741577 2.5082244873046875 2.9624686241149902 3.836437702178955 4.25907039642334 5.938827991485596
        7.348405838012695 8.297455787658691 8.956602096557617 9.41093635559082 9.584895133972168 9.724541664123535
        10.32866382598877 10.991443634033203 10.265185356140137 10.713016510009766 10.745205879211426 11.000263214111328
        10.438782691955566 10.187170028686523 9.748967170715332 9.48469066619873 9.35693359375 9.317619323730469
        8.188512802124023 8.006390571594238 8.139259338378906 8.299117088317871 8.936925888061523 8.822802543640137
        9.045989036560059 8.134137153625488 8.206912994384766 9.509434700012207 9.848319053649902 9.69759464263916
        9.822808265686035 11.501569747924805 11.485366821289062 10.736952781677246 9.752309799194336 8.736433982849121
        7.124105453491211 5.803001403808594 5.058474540710449 4.273013591766357 2.7206358909606934 0.8241427540779114
        1.9103436470031738 5.239267826080322 7.772735595703125 10.293551445007324 12.106122016906738 14.860307693481445
        16.741165161132812 16.9044132232666 15.37495231628418 12.933194160461426 10.682517051696777 8.842857360839844
        6.933728218078613 6.267765045166016 5.721104145050049 4.8765106201171875 4.946862697601318 4.592799663543701
        4.163252830505371 3.4343557357788086 3.1552646160125732 3.095717668533325 3.07028865814209 3.1693108081817627
        2.9582126140594482 2.020587682723999 2.507750988006592 5.232509136199951 6.913388252258301 8.811264991760254
        9.097606658935547 7.691475868225098 5.046116828918457 3.488532066345215 1.882179617881775 1.9010716676712036
        1.293264627456665 1.5053179264068604 0.7920461297035217 1.111458420753479 0.1295740008354187 0.969031810760498
        0.23290789127349854 0.9763991236686707 1.164319634437561 0.5714498162269592 0.6656689643859863 1.1717901229858398
        1.2755228281021118 2.8264122009277344 3.8785741329193115 3.0330348014831543 2.240306854248047 3.427363872528076
        4.536204814910889 6.401852607727051 6.505758285522461 5.894376754760742 4.214910507202148 1.6951266527175903
        1.4851865768432617 3.3760902881622314 3.104494571685791 3.244838237762451 1.6091185808181763 1.944632887840271
        3.5293047428131104 2.778181791305542 3.874157428741455 5.6759772300720215 6.217602729797363 6.073294162750244
        5.252546310424805 5.555446147918701 5.239795207977295 6.75339412689209 7.551887035369873 8.491666793823242
        9.171340942382812 9.229960441589355 7.824692726135254 6.218943119049072 4.378515720367432 3.8929712772369385
        2.8714075088500977 1.1951903104782104 0.3463265895843506 0.58327716588974 0.676795482635498 0.5622638463973999
        2.708112955093384 4.714745044708252 6.153165340423584 8.73241901397705 11.861279487609863 14.47803020477295
        18.294071197509766 22.917573928833008 26.14324951171875 25.39190673828125 24.730310440063477 26.512924194335938
        25.835744857788086 26.694927215576172 25.7238826751709 26.275957107543945 26.894298553466797 27.187543869018555
        27.11236000061035 25.30255126953125 0.37550631165504456 0.30283141136169434 0.46815139055252075 1.4408682584762573
        2.55063796043396 3.478710651397705 3.47261643409729 5.053532123565674 6.490738868713379 7.47713565826416
        7.90121603012085 8.425159454345703 8.618722915649414 8.521261215209961 9.474597930908203 10.633806228637695
        10.705049514770508 11.343419075012207 10.87763786315918 10.74361801147461 10.243438720703125 10.495244979858398
        9.903956413269043 9.675902366638184 9.527363777160645 9.524322509765625 8.776168823242188 8.448257446289062
        8.287978172302246 8.319818496704102 8.972984313964844 8.665303230285645 8.548121452331543 7.635409832000732
        7.8670878410339355 8.912331581115723 10.347206115722656 11.182098388671875 11.717657089233398 12.395350456237793
        10.958413124084473 10.030726432800293 8.813299179077148 8.638198852539062 7.737366199493408 6.666820526123047
        6.045592308044434 4.803419589996338 3.104914665222168 1.9779235124588013 0.38744890689849854 2.790404796600342
        6.783052921295166 9.44983196258545 11.529202461242676 13.697149276733398 15.382498741149902 14.891754150390625
        14.894308090209961 14.711063385009766 12.103425025939941 10.38010311126709 8.887468338012695 7.75745153427124
        6.176902770996094 3.6481237411499023 2.249739408493042 1.3272708654403687 2.073472738265991 3.3580732345581055
        3.956610918045044 4.2260942459106445 3.6861820220947266 4.253293514251709 3.387446641921997 1.632980227470398
        2.439281702041626 4.95581579208374 7.44207239151001 9.283092498779297 9.644927978515625 8.585803031921387
        5.721065998077393 3.244964122772217 2.616579055786133 1.7658882141113281 1.84660005569458 1.079194188117981
        0.642385721206665 0.49216246604919434 1.0000592470169067 0.6928574442863464 1.8627320528030396 1.5498031377792358
        0.6410486698150635 2.435499429702759 2.9114348888397217 1.30852210521698 0.46166276931762695 3.0109283924102783
        3.9298462867736816 3.9633724689483643 3.6251399517059326 3.64408278465271 5.011080265045166 6.217047691345215
        8.226409912109375 7.038444519042969 3.997121572494507 1.9505555629730225 2.6431162357330322 2.6603262424468994
        2.8466663360595703 1.2685198783874512 1.6648268699645996 5.152092456817627 5.828159809112549 5.017455577850342
        4.291302680969238 6.077520370483398 6.814813137054443 7.147397518157959 6.667668342590332 6.1846089363098145
        6.493105888366699 8.473217964172363 9.710232734680176 9.516268730163574 10.254371643066406 10.742712020874023
        8.355477333068848 5.9680962562561035 5.724349021911621 5.7073493003845215 3.4186723232269287 1.903026819229126
        0.5795885324478149 1.2634788751602173 1.0723661184310913 1.201188564300537 1.941124677658081 3.6033430099487305
        4.773329257965088 6.373031139373779 10.031583786010742 13.286981582641602 17.17281723022461 21.94423484802246
        24.327312469482422 25.09257698059082 25.446306228637695 27.20618438720703 26.155847549438477 25.697280883789062
        25.39235496520996 26.123451232910156 26.90372085571289 26.464576721191406 26.392202377319336 25.054847717285156
        1.6154625415802002 1.2292494773864746 0.976382315158844 1.0099201202392578 1.542019248008728 2.9757304191589355
        3.3636794090270996 4.081964015960693 5.082663059234619 6.044303894042969 6.750919342041016 7.444479465484619
        8.057653427124023 8.35324478149414 8.901129722595215 9.89172077178955 10.259469985961914 10.932882308959961
        10.780381202697754 10.667040824890137 10.237003326416016 10.43811321258545 9.671334266662598 9.890989303588867
        9.919052124023438 10.109112739562988 9.699419021606445 9.035565376281738 8.80953311920166 8.643869400024414
        8.335443496704102 8.107361793518066 7.3931145668029785 7.114432334899902 7.070255756378174 9.144855499267578
        11.476637840270996 12.662525177001953 12.587335586547852 11.131540298461914 9.842803001403809 8.550313949584961
        7.522305488586426 7.47351598739624 7.613007545471191 7.7010345458984375 8.990174293518066 8.0850248336792
        6.21844482421875 3.7632529735565186 2.4502737522125244 1.5490078926086426 6.086738109588623 8.787821769714355
        10.461568832397461 11.588285446166992 13.290825843811035 12.179197311401367 13.707107543945312 13.705270767211914
        12.93040943145752 12.095390319824219 10.178311347961426 8.23705005645752 4.9543609619140625 1.8433897495269775
        1.1198569536209106 1.135276436805725 2.146137237548828 3.0924315452575684 4.089946269989014 5.261172294616699
        5.159100532531738 5.516833782196045 4.624497890472412 2.7581729888916016 0.4105735719203949 3.6116442680358887
        7.006709575653076 8.280277252197266 9.975518226623535 9.412022590637207 6.14171028137207 1.6008379459381104
        3.3255198001861572 2.463468551635742 2.107300043106079 1.5880351066589355 1.3057664632797241 0.8949477672576904
        0.9029021859169006 1.3840895891189575 3.692582130432129 2.932919979095459 0.6957018971443176 3.52887225151062
        3.9761741161346436 2.198295831680298 1.348950743675232 3.121764898300171 4.269946575164795 5.690919399261475
        5.393866539001465 4.863325595855713 5.704943656921387 7.324494361877441 9.557125091552734 6.80885648727417
        4.118741989135742 1.417974829673767 1.3101043701171875 0.8873653411865234 2.756608724594116 1.5983365774154663
        1.3307849168777466 5.800359725952148 6.100832939147949 6.026877403259277 5.916830062866211 6.545630931854248
        7.139657974243164 7.18979549407959 7.184914588928223 6.5413618087768555 7.923977851867676 9.996797561645508
        12.044697761535645 10.948373794555664 11.420247077941895 11.286203384399414 8.060758590698242 6.186500549316406
        4.874941349029541 5.063797950744629 3.087789297103882 4.351635932922363 2.492824077606201 2.8943428993225098
        2.3178515434265137 4.301732063293457 3.65225887298584 4.579692363739014 5.136141300201416 6.480154991149902
        8.900697708129883 11.59412670135498 15.555865287780762 19.847843170166016 21.2147159576416 23.790843963623047
        25.06741714477539 26.955278396606445 25.284692764282227 24.700679779052734 25.3638858795166 25.493682861328125
        26.601242065429688 25.03325843811035 24.996244430541992 23.896677017211914 2.2890894412994385 1.2862625122070312
        1.468583583831787 1.0460501909255981 1.4240518808364868 3.1002249717712402 3.8958775997161865 4.241307735443115
        5.208914279937744 5.999302387237549 7.081353664398193 6.956425666809082 7.450963020324707 8.256884574890137
        8.954646110534668 10.064716339111328 10.39269733428955 11.197285652160645 11.318166732788086 10.950414657592773
        10.406819343566895 10.042876243591309 9.536628723144531 9.446574211120605 9.92349624633789 10.070340156555176
        9.945548057556152 9.284784317016602 8.951054573059082 9.072148323059082 8.321850776672363 7.638436317443848
        6.505135536193848 6.670856475830078 7.234732151031494 9.377410888671875 11.837569236755371 12.852404594421387
        11.949563980102539 10.112388610839844 9.666915893554688 8.490245819091797 7.6286492347717285 7.559892177581787
        8.856603622436523 9.350164413452148 10.91072940826416 9.58466625213623 7.732554912567139 5.393707752227783
        3.7589499950408936 0.845439612865448 5.342576503753662 8.05963134765625 9.89602279663086 8.841917037963867
        8.844264030456543 8.689019203186035 12.173354148864746 12.754714012145996 14.1189603805542 13.460636138916016
        11.97597599029541 8.46578598022461 5.158141136169434 2.0589168071746826 1.5270204544067383 2.2687716484069824
        3.0878090858459473 3.610942840576172 3.854372501373291 5.436878204345703 6.028688907623291 6.855220794677734
        6.541780948638916 5.004422664642334 2.7708723545074463 2.5284461975097656 4.268864631652832 4.795943737030029
        9.581440925598145 11.28199577331543 9.806523323059082 4.812887191772461 3.6290371417999268 1.8282768726348877
        1.2367897033691406 1.0643123388290405 1.5658222436904907 2.338716506958008 2.6124422550201416 2.8992185592651367
        3.4031994342803955 2.729001760482788 1.63918137550354 2.087017774581909 4.295252323150635 3.7843382358551025
        2.1199839115142822 1.8586812019348145 4.307934761047363 6.846275329589844 7.199409484863281 6.7673444747924805
        6.000455379486084 6.212384223937988 9.481678009033203 6.841330528259277 5.759315013885498 2.3272347450256348
        1.871712327003479 0.9833475947380066 3.139139175415039 0.6721473932266235 4.657859802246094 9.059569358825684
        7.457093238830566 7.516129016876221 8.065340995788574 8.29836654663086 7.497790813446045 6.763819217681885
        6.998244762420654 7.154414653778076 8.622278213500977 9.86393928527832 11.8999605178833 11.133060455322266
        10.244467735290527 9.318022727966309 7.063194751739502 7.058295249938965 4.455162048339844 3.4462831020355225
        2.0099122524261475 4.616220951080322 2.5910606384277344 2.9212708473205566 4.452669620513916 7.813562870025635
        6.9689249992370605 5.798524379730225 5.035555839538574 6.7410783767700195 8.534836769104004 11.182757377624512
        13.849106788635254 16.384672164916992 19.053064346313477 22.125450134277344 23.62919044494629 25.02406120300293
        25.80436897277832 26.961509704589844 27.476530075073242 26.206357955932617 26.32090950012207 24.785606384277344
        24.282806396484375 23.73551368713379 0.7564448714256287 0.8828067779541016 1.3750667572021484 1.1047165393829346
        1.8478875160217285 3.1531217098236084 4.152515888214111 3.953040838241577 4.8391923904418945 5.489384651184082
        7.11030912399292 6.851002216339111 6.873758316040039 7.552985668182373 8.281785011291504 9.482304573059082
        9.783583641052246 10.513678550720215 10.852394104003906 10.357148170471191 10.261038780212402 9.825763702392578
        9.393135070800781 9.153770446777344 9.564453125 9.81381893157959 9.501405715942383 8.805366516113281
        8.659796714782715 8.842686653137207 7.692917823791504 6.2579755783081055 5.230555534362793 6.314388275146484
        7.486965656280518 9.946128845214844 10.682515144348145 10.321035385131836 9.640213012695312 9.030147552490234
        9.769000053405762 8.992942810058594 8.196783065795898 7.957320213317871 8.515995979309082 8.766822814941406
        10.589557647705078 9.031270027160645 7.885072708129883 5.7223124504089355 2.753743886947632 1.919340968132019
        5.315059185028076 6.897684097290039 7.430233478546143 5.388545036315918 4.524920463562012 5.843322277069092
        8.906281471252441 9.46457290649414 11.740961074829102 12.016653060913086 10.578643798828125 7.625020980834961
        4.648683071136475 1.3426263332366943 1.5145045518875122 3.284498453140259 4.061962604522705 3.3647494316101074
        4.246036052703857 5.6378631591796875 7.585163593292236 7.6491193771362305 7.125991344451904 6.283632755279541
        6.1754231452941895 3.3427157402038574 1.663463830947876 2.6128456592559814 9.212675094604492 11.65326976776123
        9.884966850280762 6.957441806793213 4.001450538635254 2.381061553955078 1.866746425628662 0.799344539642334
        1.61274254322052 2.390054702758789 3.5617945194244385 3.37399959564209 3.3652031421661377 3.1878814697265625
        2.399976968765259 0.5358645915985107 2.631621837615967 2.8331844806671143 2.081990957260132 0.6277248859405518
        3.763465642929077 7.21087646484375 9.440443992614746 8.979352951049805 7.702139854431152 7.022254467010498
        9.000290870666504 9.704026222229004 10.31423568725586 7.057374477386475 3.7987186908721924 0.5817771553993225
        2.9395008087158203 1.3778361082077026 4.4567718505859375 7.186583518981934 7.4855828285217285 8.416345596313477
        9.562661170959473 9.785150527954102 8.397056579589844 7.583967685699463 7.689100742340088 8.070887565612793
        8.886512756347656 11.11870288848877 12.469673156738281 12.383928298950195 10.179597854614258 8.373368263244629
        6.352448463439941 5.490647792816162 3.190551280975342 0.24756139516830444 1.282413125038147 4.121409893035889
        5.357977390289307 4.557560920715332 6.043519973754883 8.454866409301758 8.042299270629883 7.377818584442139
        6.105233192443848 7.730958461761475 8.678467750549316 10.105446815490723 12.326020240783691 14.160887718200684
        17.72646141052246 19.68413734436035 21.278804779052734 23.304750442504883 25.29438591003418 27.826339721679688
        28.94334602355957 27.868688583374023 26.548954010009766 24.637798309326172 24.749605178833008 24.497631072998047
        0.8044403791427612 1.2954778671264648 1.7918860912322998 1.4103548526763916 2.0533182621002197 2.800896406173706
        3.394618272781372 4.1171770095825195 5.120554447174072 5.895223617553711 6.836832046508789 6.925833702087402
        7.1364874839782715 7.731619358062744 8.365135192871094 8.87024211883545 9.436205863952637 10.451557159423828
        11.134859085083008 10.756746292114258 10.495391845703125 9.710447311401367 9.410649299621582 8.961689949035645
        9.216243743896484 9.175674438476562 8.66026496887207 8.453285217285156 8.725873947143555 8.423449516296387
        6.971828460693359 5.5796380043029785 5.020178318023682 6.244779109954834 7.065271854400635 7.8793439865112305
        8.61430835723877 8.308636665344238 8.67127513885498 8.688398361206055 9.224801063537598 8.636993408203125
        8.169119834899902 8.048112869262695 8.414460182189941 7.849179267883301 6.830146312713623 6.0396809577941895
        6.261619567871094 5.069251537322998 3.0030620098114014 0.504980206489563 2.531049966812134 3.640031576156616
        2.847987174987793 0.42033305764198303 1.8447928428649902 2.396721363067627 4.684436321258545 5.749677658081055
        8.465103149414062 9.079229354858398 7.927639484405518 6.813865661621094 3.537353277206421 0.9651738405227661
        1.3428375720977783 2.946007013320923 3.3877060413360596 3.1317009925842285 4.366811275482178 6.0566911697387695
        7.3454413414001465 7.029378414154053 6.1895527839660645 6.624354839324951 5.900686264038086 5.551486968994141
        3.5872931480407715 1.5945183038711548 6.099003791809082 9.791672706604004 11.063457489013672 9.744140625
        5.963898658752441 4.9248270988464355 2.7332589626312256 1.7532477378845215 0.7267703413963318 1.692043423652649
        3.0371971130371094 3.3549017906188965 2.3606433868408203 2.09922456741333 1.3410831689834595 0.2939010262489319
        2.415315866470337 2.3543238639831543 1.9502111673355103 0.45415130257606506 2.9025471210479736 5.709837436676025
        8.210794448852539 7.623113632202148 7.082340240478516 7.451001167297363 8.765347480773926 11.708192825317383
        12.174854278564453 7.824867248535156 0.6786786913871765 3.311694383621216 4.0419182777404785 1.0245388746261597
        3.359639883041382 6.913301467895508 10.426493644714355 10.128345489501953 9.606100082397461 9.910961151123047
        9.197811126708984 8.90295696258545 8.238105773925781 8.416158676147461 9.088031768798828 11.90026569366455
        11.978652954101562 10.94111156463623 8.739823341369629 6.154944896697998 4.1247878074646 2.9772939682006836
        0.5536139607429504 2.2310478687286377 2.2960140705108643 4.96396541595459 6.154367446899414 6.002090930938721
        6.106463432312012 8.025909423828125 8.779683113098145 9.050989151000977 8.310399055480957 8.660979270935059
        9.649334907531738 10.973017692565918 13.269316673278809 14.54755687713623 16.701812744140625 17.572267532348633
        18.659603118896484 20.95302963256836 23.480205535888672 26.539306640625 28.075040817260742 27.519222259521484
        25.694950103759766 23.894662857055664 24.366863250732422 24.738811492919922 0.5573571920394897 1.803276777267456
        1.991847038269043 1.5172319412231445 1.427724838256836 2.0209219455718994 2.1590726375579834 2.5605273246765137
        4.066904067993164 5.488009452819824 6.390857696533203 6.406978607177734 6.575517177581787 6.887103080749512
        7.775336742401123 8.157349586486816 8.525432586669922 9.888907432556152 10.839950561523438 10.824499130249023
        10.266166687011719 9.482461929321289 9.24422836303711 9.06710147857666 8.980928421020508 8.577336311340332
        8.359790802001953 8.253727912902832 8.484648704528809 8.456151962280273 7.48166561126709 6.445361614227295
        5.674169063568115 5.920074462890625 6.302047252655029 6.421648979187012 6.868154525756836 6.793715476989746
        7.491029739379883 7.55708122253418 8.1494779586792 7.947936534881592 7.379316329956055 7.327538013458252
        7.762157917022705 6.828948497772217 6.199962615966797 5.7038655281066895 5.859610557556152 4.267055034637451
        3.2607059478759766 1.7174911499023438 1.2170413732528687 1.4223029613494873 3.6180918216705322 4.313143730163574
        3.2411274909973145 1.865834355354309 1.394307255744934 2.1622936725616455 3.384308338165283 4.802243709564209
        4.314781188964844 4.757411003112793 2.3796887397766113 1.618475317955017 2.009700298309326 2.500753402709961
        2.8816733360290527 3.7969934940338135 4.920401573181152 6.337958812713623 6.2122015953063965 5.317093372344971
        4.53322696685791 5.311598300933838 6.848766803741455 7.760565757751465 5.937169551849365 1.2761412858963013
        4.538448333740234 9.138452529907227 10.123064994812012 10.169095993041992 7.31869649887085 5.633964538574219
        3.585940361022949 3.0022616386413574 2.750610828399658 1.8657071590423584 1.1709940433502197 2.9420976638793945
        3.582759380340576 3.7034108638763428 2.7328412532806396 0.9942625164985657 1.3121603727340698 0.7911428213119507
        1.304067611694336 0.8143582940101624 1.0017805099487305 3.382357358932495 5.030173301696777 5.018993377685547
        6.72658109664917 8.170015335083008 10.199090003967285 13.583183288574219 12.076669692993164 6.327978134155273
        2.743246555328369 5.838770389556885 5.848896503448486 3.914963483810425 2.931997060775757 8.420088768005371
        12.562823295593262 11.931821823120117 9.578587532043457 9.909368515014648 9.803768157958984 9.266633033752441
        8.191536903381348 7.614421367645264 9.032058715820312 10.430357933044434 10.015671730041504 7.405521869659424
        5.17769718170166 3.5121219158172607 2.103271484375 0.46243709325790405 1.0923891067504883 1.7118196487426758
        3.5759029388427734 6.650134563446045 8.263877868652344 9.570768356323242 7.987319469451904 8.155221939086914
        8.266237258911133 9.760116577148438 9.949023246765137 9.827269554138184 10.302788734436035 11.527580261230469
        13.301141738891602 15.532179832458496 16.378618240356445 17.082603454589844 18.401073455810547 20.381834030151367
        21.66911506652832 22.517362594604492 24.512325286865234 24.071086883544922 23.919376373291016 23.149234771728516
        24.038925170898438 25.2318115234375 1.7434386014938354 2.3677854537963867 2.5034327507019043 1.8087207078933716
        1.011387825012207 1.3758556842803955 1.5460000038146973 2.0792477130889893 3.676727056503296 4.976503849029541
        5.5309295654296875 5.80807638168335 6.108609199523926 6.690555095672607 7.366018772125244 7.71083402633667
        8.20250129699707 9.31824016571045 10.355420112609863 10.360319137573242 9.702640533447266 9.235555648803711
        8.92072582244873 8.986059188842773 8.49604606628418 7.8566412925720215 7.808701992034912 7.819707870483398
        8.198508262634277 7.995078086853027 7.880476951599121 7.112356185913086 6.217426300048828 5.5592041015625
        5.0222578048706055 5.09218168258667 5.993687152862549 6.95274543762207 7.638523101806641 6.865723133087158
        7.311985492706299 6.357670783996582 5.463196754455566 6.12924337387085 7.172688007354736 6.801779747009277
        5.453723430633545 4.582790851593018 5.2311296463012695 4.8869194984436035 4.207154750823975 3.4350476264953613
        3.792919397354126 4.324578285217285 3.529109001159668 3.5291781425476074 2.6661086082458496 4.016155242919922
        4.491264820098877 3.1997671127319336 1.1464804410934448 1.8637195825576782 2.666900396347046 3.348449468612671
        2.780430793762207 2.928743600845337 3.5583412647247314 2.9589805603027344 2.609686851501465 2.923083782196045
        3.8719654083251953 4.938777923583984 5.394016265869141 4.929193019866943 4.584525108337402 5.689863681793213
        8.676040649414062 9.047057151794434 8.23093318939209 2.976729154586792 2.3962292671203613 8.537727355957031
        9.391220092773438 9.613632202148438 8.083623886108398 5.571845054626465 3.3798391819000244 2.9591333866119385
        3.5456488132476807 2.477496862411499 0.11178164929151535 2.683732509613037 2.959360361099243 4.075455665588379
        3.683833122253418 1.9032050371170044 1.4526015520095825 1.2703666687011719 1.6676963567733765 0.9865460991859436
        0.5021081566810608 2.0825109481811523 2.3999409675598145 2.5140295028686523 5.179999351501465 8.610172271728516
        12.261116027832031 13.51507568359375 9.809896469116211 3.836411714553833 6.797982215881348 10.30281925201416
        9.311938285827637 4.294222831726074 3.8025319576263428 10.757549285888672 14.52979850769043 15.219223022460938
        11.730964660644531 10.5968017578125 9.240785598754883 8.938878059387207 7.665074348449707 6.164650917053223
        7.4213409423828125 5.789894104003906 4.543686389923096 1.1114574670791626 1.5273948907852173 1.1006731986999512
        1.19243586063385 0.6490727663040161 1.716214895248413 1.6521544456481934 3.614954948425293 7.352399826049805
        9.51232624053955 10.202981948852539 8.565801620483398 8.920284271240234 9.22213363647461 10.823039054870605
        10.514098167419434 9.901262283325195 10.014217376708984 11.22086238861084 12.990984916687012 14.753951072692871
        15.041426658630371 16.7970027923584 19.212406158447266 20.65943717956543 20.701030731201172 20.49648094177246
        22.42037582397461 20.744529724121094 21.63326072692871 21.841856002807617 23.686382293701172 25.24434471130371
        2.4464166164398193 2.0511116981506348 2.4020605087280273 1.5919386148452759 1.336500883102417 1.3165708780288696
        1.1823126077651978 2.5665712356567383 4.231942653656006 5.023660182952881 5.9522600173950195 5.919919967651367
        6.012764930725098 5.700541973114014 6.09846830368042 7.424277305603027 8.460339546203613 8.83060359954834
        9.339285850524902 9.587207794189453 9.588821411132812 9.205946922302246 8.904589653015137 8.689701080322266
        8.248987197875977 7.512441158294678 7.475497245788574 7.469911098480225 7.6994733810424805 7.596315383911133
        7.172661781311035 6.897031784057617 5.891709804534912 5.516873836517334 5.052901744842529 5.250232696533203
        5.642945766448975 6.498993396759033 6.9910993576049805 6.965890884399414 7.278950214385986 5.9583258628845215
        5.798748970031738 6.251363277435303 7.116905689239502 6.571033477783203 5.31687068939209 4.629509449005127
        5.149437427520752 5.709949970245361 5.11069393157959 4.98537540435791 5.105187892913818 4.905065059661865
        3.7769644260406494 3.6265203952789307 3.7717316150665283 5.5471320152282715 6.0024800300598145 4.7934722900390625
        2.8557066917419434 1.7191510200500488 1.0051889419555664 0.4479190707206726 1.2523436546325684 1.804746389389038
        2.452383041381836 2.2966105937957764 3.0138399600982666 3.2561962604522705 3.6942808628082275 3.2547669410705566
        3.1651768684387207 3.808398485183716 5.510387897491455 6.827855587005615 9.592857360839844 10.437071800231934
        10.961414337158203 6.431743621826172 0.8747296333312988 6.573732852935791 8.727838516235352 9.172710418701172
        7.9915289878845215 4.864909648895264 1.212459921836853 0.7077892422676086 1.631913185119629 0.8332002758979797
        0.9406479001045227 2.403266191482544 2.5570456981658936 3.8196473121643066 3.4864892959594727 2.0447990894317627
        0.5082835555076599 0.15467923879623413 0.48704805970191956 0.4586919844150543 0.9420199990272522 1.6146395206451416
        1.3330384492874146 2.010972023010254 4.927849769592285 8.099942207336426 12.220664024353027 13.863839149475098
        10.90601634979248 5.5124831199646 4.829021453857422 8.14579963684082 8.072021484375 4.740474224090576
        5.477440357208252 10.645879745483398 13.899091720581055 16.507991790771484 14.324044227600098 12.375868797302246
        10.126510620117188 8.927412033081055 7.2710185050964355 5.276830196380615 5.116641998291016 2.426304578781128
        1.823573350906372 3.089653730392456 2.8517000675201416 1.890390157699585 1.0150128602981567 0.4773944020271301
        1.6923019886016846 3.1475725173950195 2.2747201919555664 5.809429168701172 10.161619186401367 10.793296813964844
        10.903203010559082 10.356184959411621 10.390748023986816 12.010576248168945 11.01646614074707 11.308426856994629
        10.093402862548828 10.62116813659668 11.516146659851074 13.962306022644043 16.12452507019043 17.96523666381836
        19.189653396606445 19.230783462524414 19.272743225097656 19.563106536865234 19.476655960083008 18.57975196838379
        19.801321029663086 21.736848831176758 22.301340103149414 23.48668670654297 1.4275059700012207 1.3776497840881348
        2.5553019046783447 2.4570934772491455 2.223161458969116 1.2579764127731323 2.350003957748413 3.414804220199585
        3.9036920070648193 4.457059860229492 5.64044713973999 6.000941753387451 5.614790439605713 4.482447147369385
        4.946932315826416 7.374130725860596 8.415342330932617 8.099688529968262 8.391749382019043 8.625828742980957
        9.05587100982666 8.662317276000977 8.488903999328613 8.327125549316406 8.063655853271484 7.7009663581848145
        7.4080634117126465 7.379835605621338 7.771250247955322 7.562403202056885 7.05600118637085 6.798101902008057
        6.1539306640625 6.0205769538879395 5.304409503936768 5.593381404876709 5.301446437835693 5.627299785614014
        6.43113899230957 6.828693866729736 7.424507141113281 5.844334125518799 5.974844455718994 6.505358695983887
        6.587945461273193 6.1212615966796875 5.305484771728516 4.286915302276611 4.7301344871521 5.647523880004883
        5.362219333648682 5.254024028778076 4.734493255615234 4.492483615875244 3.613539934158325 4.020505428314209
        4.709678649902344 6.058767795562744 5.678553104400635 5.974965572357178 4.072765827178955 3.4559638500213623
        2.5421199798583984 2.039842128753662 1.3576765060424805 0.8921924233436584 1.0710667371749878 2.2871525287628174
        3.30780291557312 2.7188496589660645 2.2941462993621826 1.9215776920318604 2.6800663471221924 3.4053232669830322
        6.584931373596191 8.98736572265625 11.763260841369629 11.712929725646973 11.1913480758667 7.614530563354492
        1.583418846130371 3.8986949920654297 5.678456783294678 6.713957786560059 7.2282819747924805 4.893425464630127
        1.453605055809021 0.7552534341812134 0.5509587526321411 0.5242875218391418 1.398650884628296 1.8962961435317993
        1.828774094581604 1.8532707691192627 1.5981299877166748 0.3991088271141052 0.3210357427597046 0.31467634439468384
        0.5700608491897583 0.8449883460998535 1.1604788303375244 1.9437015056610107 2.108109951019287 2.8148610591888428
        4.946348190307617 8.27319049835205 11.417580604553223 13.566033363342285 11.463075637817383 6.975210666656494
        5.905119895935059 10.20799732208252 10.634464263916016 6.509286403656006 3.6251940727233887 8.527626991271973
        12.802855491638184 15.238388061523438 12.696434020996094 9.650465965270996 7.066739559173584 6.3691864013671875
        5.718594074249268 5.48382568359375 2.9985153675079346 1.1548386812210083 2.6557810306549072 3.700307846069336
        3.762134313583374 3.1176705360412598 1.3171863555908203 1.7078146934509277 2.371016025543213 2.929623603820801
        2.1202147006988525 4.897822380065918 9.204242706298828 10.679022789001465 11.535245895385742 11.303242683410645
        11.527009963989258 12.100106239318848 11.535245895385742 12.51954174041748 11.380252838134766 11.550477027893066
        11.532925605773926 13.560014724731445 16.577472686767578 17.409053802490234 17.2004451751709 17.762100219726562
        19.155628204345703 21.286815643310547 20.132993698120117 19.24713706970215 19.62149429321289 21.85220718383789
        21.385513305664062 21.711200714111328 1.7701374292373657 2.1382830142974854 3.1899290084838867 2.9594926834106445
        1.9063026905059814 1.7158257961273193 2.500800848007202 3.446389675140381 4.1589884757995605 4.847922325134277
        5.592156887054443 6.271507263183594 5.797116279602051 4.802122116088867 5.555945873260498 7.502258777618408
        8.222358703613281 8.179823875427246 8.431596755981445 8.61986255645752 8.561978340148926 8.461454391479492
        8.320740699768066 8.18549919128418 8.149739265441895 7.92165470123291 7.637096405029297 7.639689922332764
        7.898900508880615 7.784773349761963 7.376887798309326 7.028156757354736 6.958012580871582 6.907055377960205
        6.39185905456543 6.25267219543457 5.564013481140137 5.435184955596924 6.229757785797119 6.84386682510376
        6.966749668121338 6.65415620803833 7.047404766082764 6.673059940338135 5.843687057495117 5.217080593109131
        5.032546043395996 4.694936752319336 4.549961566925049 5.043689250946045 4.754217147827148 4.649317264556885
        4.818236351013184 3.69661808013916 2.6116154193878174 2.5827369689941406 4.373501777648926 5.201226234436035
        5.418727397918701 6.353201866149902 5.903622150421143 5.166436195373535 4.237708568572998 3.8079957962036133
        3.529496192932129 2.0781490802764893 0.7778187990188599 1.2869856357574463 2.3617799282073975 1.5787352323532104
        1.2240588665008545 1.3701447248458862 2.696092367172241 3.1889405250549316 7.235992908477783 10.55846118927002
        11.899481773376465 10.904220581054688 10.020500183105469 8.05571460723877 3.981139659881592 2.0474231243133545
        2.809023857116699 5.154252052307129 6.306138038635254 3.8017122745513916 1.3143126964569092 0.7234845161437988
        1.2598023414611816 0.9978308081626892 0.9981045722961426 1.1426055431365967 1.25570547580719 1.33157479763031
        0.4494840204715729 0.368194043636322 0.19049100577831268 0.4106277525424957 0.14046087861061096 0.8569956421852112
        0.4485563039779663 1.405903935432434 2.7814857959747314 3.346252918243408 4.678646087646484 8.193903923034668
        11.817459106445312 12.145177841186523 10.39840030670166 5.332086563110352 4.61913537979126 8.943419456481934
        9.272978782653809 5.3237528800964355 1.648521065711975 4.8358073234558105 9.937323570251465 10.795660018920898
        7.853140354156494 5.530086994171143 3.922692060470581 5.20770263671875 4.620302677154541 4.578358173370361
        1.692183017730713 1.1781506538391113 0.6608062386512756 1.2237287759780884 2.7235350608825684 2.9498636722564697
        0.7440072894096375 0.2761472165584564 0.24544072151184082 0.4562298655509949 1.6186134815216064 3.028701066970825
        7.068464279174805 9.737936973571777 10.16254711151123 10.384393692016602 9.963242530822754 10.28597354888916
        9.281700134277344 11.002471923828125 11.55025577545166 11.704463958740234 11.763687133789062 13.674703598022461
        15.754844665527344 16.553972244262695 16.677488327026367 17.732309341430664 18.65655517578125 20.15664291381836
        19.224498748779297 19.920902252197266 19.885547637939453 20.886510848999023 19.341644287109375 20.301544189453125
        1.4553731679916382 2.5484237670898438 3.3197362422943115 3.396707057952881 1.3372321128845215 0.9761626720428467
        1.557558536529541 2.7917675971984863 3.9941763877868652 5.333613872528076 6.023284912109375 6.216293811798096
        5.811824321746826 5.653688430786133 6.7016706466674805 7.640480995178223 7.758615016937256 7.987597942352295
        7.566658973693848 7.68768310546875 7.8253173828125 8.06555461883545 7.90664529800415 7.743569850921631
        7.6695170402526855 7.61057710647583 7.509400367736816 7.538147926330566 7.880020618438721 7.997560024261475
        7.804806232452393 7.6899590492248535 7.4541707038879395 7.27570104598999 6.719681739807129 6.53309965133667
        5.7275495529174805 5.471994876861572 5.728005886077881 6.453359603881836 6.375065803527832 6.184329509735107
        6.324059009552002 6.321911811828613 5.620697021484375 4.490528583526611 4.424563407897949 4.3628740310668945
        5.653741836547852 5.742748260498047 4.830780506134033 4.676193714141846 4.165866374969482 2.5196166038513184
        0.7985422015190125 1.7654308080673218 4.479740142822266 4.768748760223389 5.940239429473877 6.809829235076904
        6.856252670288086 5.4854207038879395 4.889299392700195 4.526109218597412 4.799271583557129 3.2514936923980713
        1.7621504068374634 0.44929102063179016 1.5372706651687622 1.0860035419464111 1.471431851387024 0.7020018696784973
        2.609459161758423 3.6700191497802734 8.80371379852295 12.680230140686035 11.870932579040527 8.38113784790039
        7.967702388763428 5.964984893798828 2.65028715133667 1.5165882110595703 3.721614360809326 5.013411045074463
        5.428171634674072 4.232372283935547 2.905886173248291 1.4749962091445923 1.1772037744522095 1.8115077018737793
        1.7133193016052246 0.8123547434806824 1.5060300827026367 2.0593602657318115 1.4554721117019653 1.1090350151062012
        1.0313550233840942 1.7108070850372314 1.025382161140442 0.5263675451278687 0.4830857217311859 1.0968327522277832
        3.2132327556610107 3.0750961303710938 3.588696002960205 6.650517463684082 10.926131248474121 13.130885124206543
        12.122306823730469 8.159292221069336 3.612288236618042 6.792738437652588 6.153122901916504 5.015463352203369
        2.752851963043213 0.2805902361869812 3.7024247646331787 3.9649581909179688 2.4232089519500732 1.6244304180145264
        2.702693223953247 4.861844539642334 7.331182956695557 9.109321594238281 8.604507446289062 4.696011066436768
        5.410145282745361 3.570432662963867 3.096463203430176 1.2029951810836792 0.982142984867096 0.6961252689361572
        0.9355787038803101 0.22804899513721466 1.5491502285003662 3.2261407375335693 5.522304058074951 8.190896987915039
        8.855290412902832 10.639652252197266 9.427668571472168 7.547823905944824 6.989128589630127 8.798526763916016
        10.969712257385254 11.526506423950195 11.506867408752441 12.127249717712402 13.401986122131348 15.769659996032715
        15.659536361694336 16.2491397857666 17.750703811645508 20.19403648376465 21.554052352905273 21.2049560546875
        20.191062927246094 20.566701889038086 20.137136459350586 20.981674194335938 2.706251859664917 3.3340137004852295
        3.890502691268921 3.7919106483459473 2.4152796268463135 1.2343860864639282 0.5987783074378967 2.570409059524536
        4.248286724090576 5.1978325843811035 5.838878154754639 6.196288585662842 5.881008148193359 6.013265132904053
        6.546488285064697 7.343800067901611 7.664100170135498 7.595186710357666 7.217618942260742 7.312012672424316
        7.454416275024414 7.881931304931641 7.770621299743652 7.72298526763916 7.290335655212402 6.902815341949463
        6.977008819580078 7.188735008239746 7.708843231201172 7.802921772003174 7.826524257659912 7.676013946533203
        7.333619117736816 7.227311134338379 6.4766845703125 6.229123592376709 5.509833335876465 5.149695873260498
        5.272984981536865 5.969357490539551 6.169449806213379 6.265068054199219 6.063640117645264 6.335009574890137
        5.50193452835083 4.3862833976745605 4.183297157287598 4.651505470275879 6.587921619415283 5.931394100189209
        4.774372577667236 4.170772075653076 3.6388444900512695 2.3668711185455322 1.904859185218811 3.2316956520080566
        4.485076427459717 4.756300449371338 5.784499645233154 5.781635284423828 6.451577663421631 5.518129825592041
        5.6676154136657715 5.354860305786133 5.036792755126953 3.6016664505004883 2.8246021270751953 2.177253246307373
        0.6901898980140686 0.1439032405614853 1.0188112258911133 1.444570541381836 1.724302887916565 2.7588138580322266
        6.8777947425842285 11.328399658203125 10.8623685836792 7.887479305267334 7.606629371643066 5.288827896118164
        2.803419589996338 1.598611831665039 3.525568723678589 4.889825820922852 5.401206970214844 4.085580348968506
        2.6079986095428467 1.5588332414627075 0.6775210499763489 0.25105294585227966 0.42723992466926575 0.7091851234436035
        1.4811904430389404 2.2248544692993164 2.5512349605560303 1.8155313730239868 2.174370288848877 2.479393720626831
        1.9040743112564087 1.4867377281188965 1.3560932874679565 1.534645915031433 2.8284718990325928 3.3440897464752197
        3.0887699127197266 5.10105037689209 7.526669502258301 11.665948867797852 12.159636497497559 10.248248100280762
        3.735558271408081 0.39687538146972656 1.2354137897491455 1.9655864238739014 2.547434091567993 2.0334837436676025
        1.6920595169067383 0.510876476764679 1.4889681339263916 1.0057051181793213 3.8329215049743652 6.947321891784668
        10.33752727508545 12.437768936157227 11.846358299255371 7.396589279174805 7.892222881317139 6.353865146636963
        7.830572128295898 4.7570977210998535 3.467576742172241 2.210038423538208 2.067178964614868 1.5704039335250854
        2.133328676223755 3.586132287979126 5.277398109436035 6.839903354644775 6.843410968780518 8.201884269714355
        7.2894816398620605 5.983177661895752 5.7331390380859375 7.112452983856201 10.919425964355469 12.276761054992676
        13.072859764099121 12.607165336608887 13.925625801086426 15.492216110229492 15.511972427368164 16.36547088623047
        17.46039390563965 19.62980079650879 21.862255096435547 21.05445671081543 20.196441650390625 19.644189834594727
        19.862890243530273 21.0861873626709 3.5094189643859863 3.297804355621338 4.127346515655518 3.7163171768188477
        2.885499954223633 1.293245553970337 1.0516672134399414 3.257638454437256 5.098649024963379 5.293011665344238
        5.765822887420654 5.471757888793945 5.6635870933532715 6.319577217102051 6.965017795562744 7.394107818603516
        7.316965103149414 7.054739475250244 6.924179553985596 7.053504467010498 7.4037981033325195 7.361411094665527
        7.421407699584961 7.425373077392578 7.165043354034424 6.691004753112793 6.706353664398193 7.023636341094971
        7.575480937957764 7.881491661071777 7.6028642654418945 7.329214096069336 6.95526123046875 6.931615352630615
        6.729448318481445 6.488094329833984 6.08560848236084 5.282200813293457 5.008254051208496 5.56416130065918
        5.676478862762451 5.765692710876465 5.7664875984191895 6.257914066314697 6.250476837158203 5.208240985870361
        4.747930526733398 5.344590663909912 6.70974588394165 6.193010330200195 5.119998931884766 3.83255934715271
        3.0758728981018066 3.7235164642333984 4.732758522033691 4.301459789276123 3.3975348472595215 4.036013126373291
        4.823696613311768 4.762643337249756 5.044528484344482 4.982517719268799 6.220715045928955 5.754931449890137
        4.550301551818848 3.4992008209228516 4.763723373413086 4.268190860748291 2.9451019763946533 1.165094256401062
        0.3493511378765106 1.3985403776168823 0.634980320930481 1.2636528015136719 5.1165900230407715 7.941918849945068
        7.227956771850586 5.798415184020996 6.63682746887207 4.084761142730713 2.8084609508514404 0.6763958930969238
        2.4918932914733887 4.450295925140381 5.518017768859863 4.03778076171875 2.8824284076690674 1.5902372598648071
        1.2232856750488281 1.1379342079162598 0.8570917844772339 0.9685477614402771 1.685773491859436 1.7301445007324219
        2.355731964111328 2.117403268814087 2.1403887271881104 2.0996294021606445 2.0768954753875732 1.6809971332550049
        2.450965166091919 2.226762533187866 3.2079172134399414 3.9616591930389404 3.5466365814208984 3.9007606506347656
        5.860635757446289 11.093798637390137 12.272394180297852 10.710615158081055 7.480075359344482 5.3536295890808105
        2.3130979537963867 1.461095929145813 0.39114123582839966 2.8542470932006836 3.5437204837799072 3.007492780685425
        1.4121206998825073 2.440366744995117 6.071318626403809 9.699728965759277 13.686413764953613 15.313390731811523
        12.375326156616211 8.323681831359863 7.824639320373535 7.304769515991211 8.250579833984375 5.694998264312744
        3.9900617599487305 2.5827319622039795 2.6863462924957275 3.1718263626098633 2.5292558670043945 3.618614912033081
        5.080564022064209 5.661733627319336 5.453730583190918 5.422338485717773 4.644399166107178 3.7461540699005127
        4.668868064880371 6.856534481048584 10.429095268249512 11.32540225982666 12.663629531860352 12.261860847473145
        13.879322052001953 15.654776573181152 16.883136749267578 18.084461212158203 19.551002502441406 22.056730270385742
        22.98923683166504 20.884565353393555 20.077001571655273 20.397302627563477 20.74148178100586 21.6640567779541
        3.2194995880126953 3.0438408851623535 4.138270378112793 3.5432684421539307 2.317256450653076 0.4839165508747101
        1.7811990976333618 2.809965133666992 4.239145278930664 4.739616870880127 5.713528633117676 5.197416305541992
        5.350729465484619 5.356795310974121 6.194815635681152 7.0904035568237305 7.122257232666016 6.473426342010498
        6.602902412414551 6.867668628692627 7.148900985717773 6.792415618896484 6.882823944091797 7.163548946380615
        7.20738410949707 6.993150234222412 6.836069583892822 7.075655937194824 7.357082843780518 7.49012565612793
        7.388381004333496 7.172362804412842 7.059434413909912 7.138542175292969 6.932697296142578 6.692046642303467
        6.369419574737549 5.80116605758667 5.3010783195495605 5.262722492218018 5.3828229904174805 5.279932022094727
        5.904871463775635 6.730277061462402 6.845940113067627 6.599534511566162 6.114510536193848 6.650322914123535
        6.188548564910889 5.343657970428467 4.741944313049316 3.9616034030914307 3.879728317260742 4.294386863708496
        4.846858978271484 4.0093255043029785 2.905672311782837 3.891056776046753 4.383206367492676 4.5519232749938965
        5.110169410705566 5.812204837799072 6.597797393798828 5.6051154136657715 4.70678186416626 4.286619186401367
        5.564947128295898 4.994109153747559 4.942465782165527 3.0174784660339355 1.5277382135391235 1.1996135711669922
        0.4601699113845825 0.7054415941238403 1.6269302368164062 3.3918325901031494 4.827012538909912 5.242952823638916
        6.102275848388672 4.139091491699219 3.407222032546997 1.138088583946228 1.107909917831421 2.767671823501587
        4.556875228881836 4.012760639190674 3.0552122592926025 1.6652247905731201 1.8428820371627808 1.5894434452056885
        1.306344747543335 1.1215349435806274 1.519195556640625 1.17685067653656 1.6038122177124023 1.8425315618515015
        1.1428757905960083 1.0053306818008423 1.1059402227401733 0.715589702129364 1.9525082111358643 2.623239517211914
        3.6100008487701416 3.776370048522949 4.235674858093262 4.003453254699707 5.2294182777404785 7.489555835723877
        8.225492477416992 7.674321174621582 5.361324310302734 4.810105323791504 3.596210479736328 3.580950975418091
        0.8011709451675415 2.870643377304077 3.391291856765747 1.8748184442520142 1.5064250230789185 3.7599453926086426
        6.354959011077881 10.63843822479248 12.027871131896973 12.696701049804688 9.752446174621582 8.527910232543945
        8.022377967834473 8.030998229980469 8.389578819274902 5.941244602203369 5.472772121429443 4.670108795166016
        5.0972514152526855 4.525420665740967 2.978060245513916 3.6206605434417725 5.21195650100708 5.4406538009643555
        5.740203380584717 4.560324668884277 4.2505574226379395 3.620396137237549 5.19516658782959 7.264764785766602
        9.509361267089844 10.571525573730469 13.023636817932129 13.167458534240723 15.76283073425293 17.728185653686523
        19.054641723632812 19.291189193725586 20.87049674987793 24.579084396362305 24.279077529907227 21.94420623779297
        20.587236404418945 20.598752975463867 21.653356552124023 22.476871490478516 3.296116352081299 3.411001443862915
        4.339361667633057 3.5656943321228027 1.6944829225540161 0.6865478157997131 1.5480942726135254 2.3504481315612793
        3.965704917907715 4.5837507247924805 5.2014265060424805 5.061309814453125 5.331723213195801 5.742949962615967
        6.5082831382751465 7.35295295715332 7.233432292938232 6.919955730438232 6.829713344573975 7.111136436462402
        6.792991638183594 6.404993534088135 6.766503810882568 7.05588960647583 7.29367208480835 6.982578754425049
        6.941890239715576 7.114205837249756 7.266425132751465 7.409737586975098 7.3909783363342285 7.010614395141602
        6.9078192710876465 7.208549499511719 7.18670654296875 6.948005676269531 6.411810874938965 6.474350452423096
        5.963467597961426 5.935060977935791 6.003188133239746 5.932853698730469 6.278939247131348 6.945438385009766
        7.143520832061768 7.195788383483887 6.644196510314941 7.30504846572876 6.998201847076416 6.205986022949219
        5.271403789520264 4.85783052444458 4.7664899826049805 4.820772647857666 5.2336931228637695 4.709122180938721
        4.368588924407959 4.583168983459473 4.128681659698486 3.2593297958374023 4.028451919555664 4.680376052856445
        5.286133289337158 5.102874755859375 5.149310111999512 4.923830032348633 5.043630123138428 5.001342296600342
        5.41300630569458 3.9841079711914062 2.451115608215332 0.5174472332000732 0.7256709933280945 0.5953136682510376
        0.3466966152191162 0.3946203589439392 2.1120517253875732 2.751688241958618 3.932685136795044 2.745227098464966
        2.660573959350586 0.6426424980163574 1.8912016153335571 3.6601064205169678 5.873846530914307 4.271861553192139
        2.4494876861572266 1.6689292192459106 2.1647801399230957 1.8518726825714111 1.741011142730713 1.117618203163147
        1.549432635307312 1.5883698463439941 0.6528831124305725 0.8870949149131775 0.8192354440689087 0.6128314137458801
        0.6715930700302124 0.6303165555000305 1.907800555229187 2.8074073791503906 4.039968013763428 3.180846929550171
        3.2262156009674072 3.687150478363037 5.785106182098389 7.175518989562988 7.617395401000977 6.182314872741699
        3.676997423171997 2.4965217113494873 2.52543044090271 2.7057383060455322 0.5090798139572144 3.6119794845581055
        4.261471748352051 2.513339042663574 4.117332935333252 5.874206066131592 6.242525100708008 9.911776542663574
        11.830008506774902 11.61275863647461 9.248146057128906 8.639116287231445 9.728578567504883 9.190018653869629
        8.737293243408203 5.832918643951416 6.536415100097656 7.1513872146606445 7.361953258514404 5.862818717956543
        5.802253246307373 6.582864761352539 6.152024269104004 6.874719619750977 7.215644359588623 5.374093055725098
        4.8533148765563965 4.962463855743408 6.308826446533203 7.188955783843994 7.671002388000488 8.74168586730957
        11.975175857543945 14.342181205749512 16.731678009033203 19.063711166381836 18.952848434448242 18.87326431274414
        19.835107803344727 24.19496726989746 23.355388641357422 21.380943298339844 19.93223762512207 21.240787506103516
        22.719526290893555 22.920700073242188 2.5678493976593018 3.4653854370117188 4.220539569854736 3.648078680038452
        1.8986423015594482 0.8285775184631348 1.0694113969802856 1.4235154390335083 2.522989511489868 3.7872681617736816
        4.441316604614258 4.451827049255371 4.591973781585693 5.149240016937256 6.2095818519592285 7.019741058349609
        6.783801555633545 6.811629295349121 6.693958282470703 6.685118198394775 6.392297267913818 6.289525032043457
        6.572927951812744 6.610568046569824 6.7116875648498535 6.763453483581543 7.001280307769775 6.941612720489502
        6.87054967880249 6.781149864196777 6.867362976074219 6.684854507446289 6.7270660400390625 7.083806037902832
        6.923050403594971 6.611263751983643 6.314011096954346 6.313458442687988 6.001559734344482 6.156412124633789
        6.606970310211182 6.94077730178833 6.935961723327637 6.871603488922119 6.6878743171691895 7.101039886474609
        7.17540979385376 6.800873756408691 5.96009635925293 5.6044721603393555 4.779055595397949 4.671788692474365
        4.74484920501709 5.459345817565918 5.412383556365967 5.094172477722168 5.467883110046387 4.407481670379639
        2.9374306201934814 2.0308148860931396 3.00344181060791 3.738675355911255 3.6889114379882812 4.511002063751221
        4.998386383056641 4.820227146148682 5.336877822875977 5.438196659088135 5.223302364349365 3.1780178546905518
        2.0669026374816895 1.779571771621704 3.183288335800171 3.199373722076416 3.132375717163086 1.9114282131195068
        1.3281275033950806 2.0549557209014893 3.3290135860443115 2.415285587310791 0.9025952816009521 1.1067410707473755
        2.3167243003845215 4.197526931762695 6.286570072174072 4.608342170715332 3.140425443649292 2.5926952362060547
        2.3858113288879395 1.6531158685684204 1.1609141826629639 1.2672157287597656 1.618523120880127 1.4701619148254395
        0.4916327893733978 1.5382955074310303 1.4714246988296509 0.5825015902519226 0.5234531760215759 1.636391282081604
        2.2661619186401367 3.310126304626465 3.6776621341705322 2.9182024002075195 2.9168167114257812 3.879542112350464
        5.842630863189697 5.998050212860107 5.364839553833008 3.9355266094207764 2.2720725536346436 1.9725253582000732
        2.356106758117676 2.013298988342285 1.066482663154602 2.6520543098449707 3.403247356414795 1.1204397678375244
        2.348598003387451 3.453794240951538 4.090014934539795 6.141726493835449 7.986809730529785 7.882899284362793
        8.180665969848633 7.9061126708984375 10.02137565612793 8.97105598449707 8.754861831665039 5.694504737854004
        6.33597469329834 7.5103607177734375 7.8929314613342285 7.970478534698486 9.357623100280762 9.443842887878418
        7.696040153503418 8.264084815979004 8.798068046569824 6.905803680419922 6.8905558586120605 7.285383701324463
        8.669337272644043 8.48245906829834 9.368648529052734 10.191953659057617 12.984373092651367 15.381026268005371
        17.22400665283203 19.692481994628906 19.282684326171875 19.29544448852539 19.443008422851562 22.775588989257812
        22.563596725463867 20.37213706970215 19.472152709960938 20.899423599243164 22.22902488708496 21.911035537719727
        2.7605929374694824 3.383803129196167 4.298070907592773 3.5658724308013916 2.87261962890625 2.463350534439087
        1.9899810552597046 0.8886286020278931 1.4846627712249756 2.3940396308898926 2.963599920272827 3.465902090072632
        3.9190423488616943 4.963510513305664 5.710234642028809 5.825629234313965 6.0499587059021 6.502340316772461
        6.6162261962890625 6.541298866271973 6.147514820098877 6.205411911010742 6.409643650054932 6.456101417541504
        6.40957498550415 6.348982334136963 6.782231330871582 6.780743598937988 6.938188076019287 6.476672172546387
        6.306127071380615 6.239262104034424 6.515407085418701 6.854791641235352 6.639317989349365 6.403239727020264
        6.131134510040283 6.2910614013671875 6.45632266998291 6.528652667999268 6.657138824462891 7.357485294342041
        7.355347156524658 7.098750591278076 6.400446891784668 7.053108215332031 7.232771873474121 6.651994705200195
        5.568316459655762 5.512203693389893 5.03121280670166 5.307535648345947 5.688591003417969 6.22559118270874
        5.494293689727783 4.971521854400635 5.433099746704102 4.45219612121582 2.752314805984497 1.845665693283081
        1.9954054355621338 2.893979072570801 3.248053550720215 4.271801471710205 4.244163513183594 4.269386291503906
        5.0447797775268555 5.3943376541137695 4.805259704589844 3.2591140270233154 3.1030027866363525 2.933243989944458
        3.682162284851074 4.337325096130371 4.920531272888184 3.7650582790374756 2.084822416305542 1.260621428489685
        1.584436297416687 1.4734654426574707 0.177188441157341 0.820774257183075 2.561844825744629 4.728926181793213
        5.74013614654541 4.52408504486084 3.94758677482605 3.8001511096954346 2.7883317470550537 1.7418172359466553
        0.9354466795921326 0.9877587556838989 1.6767630577087402 0.7045457363128662 1.90577232837677 2.530822277069092
        1.4352517127990723 0.3021901845932007 1.0449920892715454 2.4594314098358154 2.610959768295288 3.3292834758758545
        2.9622626304626465 2.2794153690338135 2.216346502304077 3.847874164581299 5.388977527618408 4.712299346923828
        4.027284622192383 4.22452449798584 3.963275194168091 3.4672012329101562 3.056420087814331 2.0974655151367188
        1.6503437757492065 1.5998235940933228 1.8615906238555908 0.41601914167404175 1.218168020248413 1.7286409139633179
        3.0259695053100586 4.165085315704346 5.539386749267578 5.0388970375061035 6.411384582519531 6.373819351196289
        8.16263198852539 6.4871344566345215 6.301839828491211 4.363374710083008 5.460866928100586 7.19544792175293
        7.697971820831299 8.545642852783203 9.805301666259766 9.6308012008667 8.940045356750488 9.646260261535645
        9.771608352661133 7.782789707183838 6.780778408050537 7.620286464691162 9.007869720458984 9.121729850769043
        10.280911445617676 12.117776870727539 15.420564651489258 16.936513900756836 17.378931045532227 19.088424682617188
        19.75425148010254 20.394386291503906 20.08460235595703 22.012895584106445 22.1964054107666 19.40859603881836
        20.370820999145508 20.834930419921875 22.310184478759766 22.335973739624023 2.619274377822876 2.8439953327178955
        3.577418565750122 2.8931331634521484 2.7545297145843506 2.8702430725097656 2.616258144378662 0.9368307590484619
        1.2100565433502197 1.474064826965332 2.585254669189453 2.8975887298583984 3.69059419631958 4.9190754890441895
        5.616954803466797 5.742110252380371 5.95493221282959 6.611246585845947 6.872836589813232 6.615490913391113
        6.5673747062683105 6.367799758911133 6.388730049133301 6.094206809997559 6.2040910720825195 6.405951976776123
        6.699037075042725 6.609218597412109 6.728876113891602 6.60731840133667 6.327522277832031 6.398416042327881
        6.647276878356934 6.743537902832031 6.743940830230713 6.511679649353027 6.398807048797607 6.171475410461426
        6.294242858886719 6.2992353439331055 6.243630409240723 7.034718036651611 7.1311774253845215 6.80231237411499
        6.312906742095947 6.505766868591309 6.9406633377075195 6.234628200531006 5.390528202056885 5.809604167938232
        5.876341819763184 6.333142280578613 7.1758012771606445 7.226407051086426 6.242133617401123 5.437180995941162
        4.857747554779053 4.012394905090332 3.104659080505371 3.2423040866851807 2.5734360218048096 3.0927321910858154
        3.0477936267852783 3.475398540496826 3.2193031311035156 3.8926820755004883 4.667910575866699 4.387895107269287
        3.563178300857544 3.191774606704712 3.8533198833465576 3.605285882949829 4.065365791320801 4.729057312011719
        5.789592742919922 4.262819290161133 3.4724650382995605 3.1584956645965576 2.881376028060913 1.9874318838119507
        1.9199038743972778 2.383824586868286 4.584200859069824 5.094303131103516 5.400510311126709 4.794440746307373
        4.735292911529541 4.685189723968506 3.3279075622558594 2.197836399078369 1.4265446662902832 1.0270965099334717
        0.36731424927711487 1.2138770818710327 2.5397610664367676 2.522059917449951 0.7717899680137634 0.7799879312515259
        1.5572668313980103 2.2274985313415527 2.507988452911377 3.1005592346191406 3.0298593044281006 3.1134519577026367
        3.0125415325164795 3.3141510486602783 3.7222933769226074 3.16778826713562 3.0659563541412354 4.223968982696533
        4.553672790527344 3.8635141849517822 3.3305394649505615 2.154144048690796 1.7954946756362915 1.8492478132247925
        2.1789023876190186 2.1364119052886963 1.1216307878494263 2.0527894496917725 2.962374210357666 3.2139840126037598
        3.995643377304077 4.447152137756348 6.46177864074707 5.973134517669678 5.8555006980896 4.743082046508789
        5.213344097137451 4.44374942779541 4.843642711639404 6.1789021492004395 7.513320446014404 8.560558319091797
        9.946983337402344 9.4259672164917 10.194042205810547 10.305973052978516 10.528970718383789 9.758615493774414
        9.582315444946289 9.973444938659668 9.5762939453125 10.764260292053223 12.028047561645508 13.461524963378906
        16.605220794677734 18.345380783081055 18.938879013061523 20.114871978759766 20.409278869628906 21.682016372680664
        23.77176856994629 24.314741134643555 22.986530303955078 20.85523223876953 21.78260040283203 22.193275451660156
        23.454975128173828 22.3105411529541 2.849374532699585 2.6467702388763428 3.242807149887085 2.8417093753814697
        3.2845535278320312 2.843101739883423 2.302117347717285 1.1183586120605469 1.1726737022399902 0.9988431930541992
        2.43776535987854 2.685624599456787 3.666558027267456 4.502220153808594 5.070121765136719 5.923859119415283
        6.350891590118408 6.620278835296631 6.691524028778076 6.428637504577637 6.7015204429626465 6.410557270050049
        6.06031608581543 5.761147975921631 5.968801498413086 6.298771381378174 6.363040447235107 6.22674560546875
        6.4549336433410645 6.398761749267578 6.403552532196045 6.3245849609375 6.360227108001709 6.553911209106445
        6.491816997528076 6.698122024536133 6.452486038208008 6.519860744476318 6.355703830718994 6.724085330963135
        7.070069789886475 7.560208320617676 7.11508846282959 6.584747314453125 6.093538284301758 6.261609077453613
        6.636439800262451 6.130286693572998 5.719048023223877 6.071871757507324 7.604726791381836 8.341501235961914
        8.654534339904785 7.51765251159668 6.994321346282959 6.4956817626953125 4.774537086486816 3.5982415676116943
        3.8657259941101074 4.470407009124756 3.016414165496826 3.1763148307800293 3.3334336280822754 3.1330811977386475
        2.349644660949707 3.374361515045166 3.6367855072021484 3.3006644248962402 3.0644330978393555 3.236964464187622
        3.998018741607666 3.8744752407073975 3.429154634475708 3.78691029548645 4.670465469360352 4.507051467895508
        4.192209720611572 4.058106899261475 4.01698637008667 3.124006509780884 2.7782046794891357 3.365663528442383
        5.0213847160339355 5.047428607940674 5.4628095626831055 5.984814167022705 5.825836181640625 4.930211544036865
        3.457036018371582 2.3194260597229004 1.7798306941986084 1.401503086090088 0.49847954511642456 0.8306691646575928
        0.8288877606391907 1.0880588293075562 1.818259358406067 2.014084815979004 2.0832419395446777 2.070338249206543
        2.380715847015381 2.3542847633361816 2.4798362255096436 2.382382392883301 1.483798623085022 1.3176579475402832
        2.499903678894043 2.139864683151245 2.2320570945739746 2.7789974212646484 4.062414169311523 4.514796733856201
        3.261461019515991 1.655677080154419 1.0419635772705078 0.9866724014282227 1.2098151445388794 1.9613690376281738
        2.317072629928589 3.0403594970703125 2.8343021869659424 2.907656192779541 2.6726109981536865 4.591306209564209
        6.376400470733643 6.370471000671387 4.850719928741455 4.09806489944458 4.175056457519531 4.017406940460205
        5.811408042907715 7.695051670074463 8.543237686157227 9.388341903686523 10.375387191772461 10.156975746154785
        11.661779403686523 12.484039306640625 12.653616905212402 12.025945663452148 12.046574592590332 10.764786720275879
        9.290200233459473 11.283134460449219 13.300246238708496 14.883737564086914 17.56813621520996 19.796545028686523
        20.039596557617188 19.71881675720215 19.64093017578125 21.9033145904541 24.235271453857422 24.092430114746094
        22.738048553466797 21.707454681396484 22.666576385498047 23.687116622924805 26.051511764526367 24.704227447509766
        3.1873061656951904 3.4129199981689453 3.359166145324707 3.1006875038146973 3.48417592048645 3.446300745010376
        3.169722557067871 1.829508662223816 1.4974801540374756 1.0237658023834229 1.066972017288208 1.9002383947372437
        3.471886157989502 4.3024725914001465 5.154883861541748 5.773530960083008 6.404682159423828 6.748435020446777
        6.938086032867432 6.9477033615112305 6.584611415863037 5.972512722015381 5.772781848907471 5.504489421844482
        5.90130615234375 5.931541919708252 6.062195777893066 6.117029190063477 6.2995686531066895 6.266096115112305
        6.182084083557129 6.18302059173584 6.195263862609863 6.183213710784912 6.274477958679199 6.556396484375
        6.43511438369751 6.548402786254883 6.701937198638916 7.143819332122803 7.614891529083252 7.285617351531982
        7.37074089050293 7.022043228149414 7.2372565269470215 6.888996601104736 6.9774956703186035 6.301151752471924
        5.9880852699279785 6.200584888458252 7.89208984375 8.47368335723877 8.9419527053833 7.935449123382568
        7.2057085037231445 6.802971839904785 5.123173236846924 4.575384616851807 5.48126745223999 6.724841594696045
        4.651121139526367 3.554591178894043 3.6249067783355713 3.485172748565674 2.781559944152832 3.098492383956909
        3.227928876876831 2.9812724590301514 3.0353996753692627 2.7346458435058594 3.5440738201141357 3.7186081409454346
        3.624129295349121 4.25152587890625 4.281050682067871 4.618605136871338 4.523805141448975 3.910214900970459
        2.7633278369903564 3.058401584625244 3.3923754692077637 3.7910168170928955 5.46864652633667 5.889671802520752
        6.340230941772461 6.397983551025391 4.5348920822143555 3.637068748474121 2.5727367401123047 2.2062079906463623
        1.1851215362548828 0.8834986686706543 0.8394756317138672 1.0243546962738037 0.5173782110214233 0.7535136342048645
        1.7726746797561646 1.9964494705200195 2.319366455078125 2.253157138824463 2.44870924949646 2.1374731063842773
        2.393126964569092 2.2296106815338135 0.6227278113365173 0.9718109965324402 2.2884373664855957 2.12115478515625
        1.940780758857727 1.478186011314392 2.844735860824585 4.307285785675049 3.3717851638793945 2.375091552734375
        0.35405221581459045 0.7858757376670837 2.2725040912628174 4.157496929168701 4.304506301879883 3.8165009021759033
        3.7858798503875732 3.468780755996704 3.1812052726745605 4.966292381286621 5.757813930511475 5.6578474044799805
        4.122869968414307 2.6996138095855713 3.2118399143218994 1.997165322303772 5.451968193054199 8.086085319519043
        9.22663402557373 10.00420093536377 10.099284172058105 10.162033081054688 11.976927757263184 13.06258487701416
        12.494885444641113 13.2847318649292 14.632768630981445 11.907327651977539 10.933830261230469 12.510300636291504
        14.434782028198242 15.834900856018066 16.768390655517578 18.435354232788086 18.886085510253906 18.505155563354492
        17.539817810058594 20.066944122314453 21.302400588989258 20.64105796813965 20.065052032470703 21.65897560119629
        24.2421932220459 24.301918029785156 25.711414337158203 24.6182861328125 3.331395387649536 3.8892931938171387
        3.6797211170196533 3.3502919673919678 3.8551509380340576 3.998047113418579 4.562591552734375 3.1867411136627197
        2.376727342605591 1.3106471300125122 0.7106789946556091 0.8940180540084839 2.22019362449646 3.241487741470337
        4.555644989013672 5.422247886657715 5.735901355743408 6.493953704833984 6.817906856536865 6.979188919067383
        6.464672565460205 5.90791654586792 5.9515061378479 5.7996015548706055 5.747537612915039 5.6203718185424805
        5.954314708709717 6.197604656219482 6.231342315673828 6.037760257720947 6.227125644683838 6.277158260345459
        6.205216884613037 6.1294331550598145 6.491991996765137 6.948266983032227 7.094520092010498 7.228394508361816
        7.959214687347412 8.25424575805664 8.198493003845215 7.515902042388916 7.658811569213867 7.738842010498047
        8.279104232788086 7.677313327789307 7.63498067855835 6.974023342132568 6.525565147399902 6.603127479553223
        8.066073417663574 8.992366790771484 8.869924545288086 7.4800825119018555 6.637110233306885 6.482593059539795
        6.3975019454956055 6.186739921569824 7.312798023223877 8.042869567871094 6.445168495178223 5.339637279510498
        4.2762651443481445 3.891510009765625 3.3036887645721436 3.418015480041504 2.6607987880706787 2.3829407691955566
        3.245972156524658 3.5854711532592773 4.01602029800415 3.9667844772338867 3.756146192550659 4.282981872558594
        4.923216819763184 6.360983371734619 5.467134475708008 4.055673599243164 2.793391227722168 4.094171524047852
        5.074139595031738 5.386422157287598 5.445588111877441 5.338178634643555 5.610135078430176 5.113463401794434
        3.660489797592163 3.356173038482666 4.2570271492004395 4.103257179260254 1.850676417350769 0.6322665810585022
        1.7399810552597046 1.7041853666305542 0.9040680527687073 0.3756882846355438 1.3445686101913452 1.7421027421951294
        2.082226037979126 1.6814831495285034 1.4924647808074951 1.5396757125854492 1.6987286806106567 1.4035097360610962
        0.4334905743598938 0.1477564424276352 1.6859750747680664 1.9172453880310059 1.5836734771728516 0.5862179398536682
        1.3573285341262817 3.210975170135498 3.415144920349121 2.754409074783325 0.6797489523887634 0.6813204884529114
        2.964639186859131 4.448145389556885 4.581735610961914 3.583021402359009 3.6431286334991455 4.0297722816467285
        4.670477867126465 5.434473991394043 5.402198791503906 4.173144340515137 2.3342819213867188 1.9797855615615845
        3.2930710315704346 2.043410062789917 5.33150053024292 8.055468559265137 8.824426651000977 9.195844650268555
        9.952159881591797 11.782820701599121 14.012895584106445 14.292461395263672 13.583316802978516 13.763938903808594
        13.674358367919922 12.75029182434082 11.873441696166992 12.796480178833008 14.556417465209961 15.808857917785645
        16.16017723083496 17.475940704345703 17.715621948242188 17.162803649902344 14.954822540283203 15.109025955200195
        16.81287956237793 18.726478576660156 20.117786407470703 22.270689010620117 24.488737106323242 23.940223693847656
        25.11550521850586 25.496984481811523 3.716684341430664 4.262714862823486 4.523726463317871 4.414925575256348
        5.1535868644714355 5.447419166564941 5.58945369720459 4.1450395584106445 3.538562774658203 2.3377790451049805
        1.267081379890442 0.14376062154769897 1.3276793956756592 2.4863317012786865 3.6088857650756836 4.4849958419799805
        5.099167346954346 6.070911884307861 6.481870651245117 6.635995864868164 6.25129508972168 5.966222763061523
        5.928714752197266 5.720978736877441 5.606441497802734 5.454415798187256 5.872391700744629 6.162601947784424
        6.1493754386901855 5.873608589172363 5.989231109619141 5.928351402282715 6.0122480392456055 6.215754985809326
        6.722612380981445 6.944305419921875 7.280580997467041 7.79682731628418 8.97286605834961 9.357529640197754
        9.369632720947266 8.713811874389648 8.641630172729492 8.546560287475586 8.62637996673584 8.156975746154785
        7.887279987335205 7.22483491897583 6.988247394561768 6.901341438293457 7.648562908172607 7.880740642547607
        7.273311614990234 6.550168514251709 6.6543402671813965 7.790804386138916 8.077560424804688 7.171072959899902
        7.713002681732178 8.099640846252441 7.400936126708984 6.071429252624512 4.602108478546143 4.241743564605713
        4.107421875 4.302938938140869 3.5670254230499268 3.1713082790374756 3.9675939083099365 3.952119827270508
        3.8407142162323 4.0012640953063965 4.013606071472168 4.760613441467285 5.125091552734375 6.460048198699951
        6.031649112701416 5.360008239746094 4.246941089630127 5.253268718719482 6.026673316955566 6.564777851104736
        6.129509925842285 5.78371524810791 5.079007148742676 4.5832953453063965 3.056926965713501 3.3697633743286133
        5.615348815917969 6.3947434425354 4.245287895202637 1.8623896837234497 0.7793606519699097 1.215915560722351
        0.9652602076530457 0.11982009559869766 1.4128988981246948 2.2637171745300293 2.6284210681915283 1.3343403339385986
        0.8416081666946411 1.1874001026153564 1.2823150157928467 1.4103926420211792 0.9197762608528137 0.9864214658737183
        0.9282408356666565 1.6724472045898438 1.3975000381469727 0.8096708655357361 0.6643750667572021 2.058781623840332
        2.3244175910949707 2.140995979309082 1.09182870388031 1.229158878326416 2.340590000152588 3.256150722503662
        4.0363874435424805 3.383002996444702 4.456149578094482 5.810253620147705 6.931196689605713 6.955388069152832
        5.9622697830200195 3.821977376937866 1.498696208000183 1.753516435623169 1.3337894678115845 1.2829320430755615
        5.011300563812256 8.991629600524902 10.886514663696289 10.382137298583984 10.543607711791992 13.271435737609863
        16.034610748291016 15.369548797607422 13.551325798034668 12.919755935668945 12.556042671203613 13.004605293273926
        12.005233764648438 12.4431734085083 12.235709190368652 13.50252914428711 14.125837326049805 15.29609203338623
        15.501614570617676 16.778169631958008 13.97004508972168 14.945598602294922 15.54908561706543 16.627567291259766
        18.105981826782227 20.512592315673828 23.032894134521484 23.781993865966797 24.472843170166016 24.313791275024414
        4.068862438201904 4.408288478851318 4.840172290802002 4.993336200714111 5.477695465087891 6.150674819946289
        6.34915828704834 5.589465141296387 4.168019771575928 3.464763641357422 2.4530985355377197 1.3830758333206177
        0.1399969905614853 1.492437720298767 2.8245413303375244 4.427598476409912 5.347360610961914 5.958157539367676
        6.713147163391113 6.892900466918945 6.824946403503418 6.331843852996826 6.101749897003174 5.8029069900512695
        5.635080814361572 5.521028518676758 5.725866794586182 6.115189075469971 6.171236991882324 6.192104339599609
        6.059635639190674 6.0246453285217285 6.264636993408203 6.732388019561768 7.047646999359131 7.065725803375244
        7.437314987182617 8.016020774841309 8.905909538269043 9.663867950439453 10.025894165039062 10.1953763961792
        9.805475234985352 9.218610763549805 7.886629104614258 7.707137107849121 7.82805061340332 7.86023473739624
        7.105026721954346 7.174263954162598 7.451729774475098 7.492002964019775 6.215089321136475 6.000497817993164
        7.080743312835693 8.041128158569336 8.079423904418945 7.062142372131348 7.324080944061279 7.735820770263672
        8.057042121887207 7.210021018981934 5.426733493804932 3.9777112007141113 4.41043758392334 4.954399108886719
        4.791953086853027 4.380637168884277 4.777684688568115 4.874999046325684 4.640569686889648 4.503713130950928
        4.3155107498168945 4.584113597869873 4.684633731842041 5.285336971282959 5.49650764465332 6.00660514831543
        5.6835479736328125 5.768499851226807 5.632911682128906 6.660003185272217 6.8806352615356445 6.344968318939209
        4.663218021392822 4.56003999710083 5.058433532714844 7.318820476531982 9.314104080200195 9.7712984085083
        7.042368412017822 3.6867642402648926 1.146599531173706 0.14648833870887756 1.438459873199463 0.6708171963691711
        1.7150566577911377 2.052076578140259 2.21769380569458 1.3743565082550049 0.8268954753875732 2.2609336376190186
        2.5722248554229736 2.4436628818511963 1.3186668157577515 1.537689208984375 1.2265126705169678 0.6935014724731445
        0.6745410561561584 0.49469760060310364 0.5923660397529602 1.5254549980163574 2.3167364597320557 2.3596279621124268
        1.7069939374923706 1.2058097124099731 0.8912212252616882 0.91278475522995 2.358158588409424 2.9122610092163086
        4.589540481567383 6.48184871673584 8.280662536621094 8.213314056396484 7.449502468109131 4.008267402648926
        1.273781180381775 0.8148003220558167 1.4115619659423828 3.79971981048584 5.686254501342773 9.677998542785645
        11.889425277709961 11.821950912475586 12.153726577758789 14.603625297546387 17.53679847717285 16.093660354614258
        14.23187255859375 12.027325630187988 10.866438865661621 10.708044052124023 11.604195594787598 12.825223922729492
        12.81950569152832 13.222538948059082 14.061007499694824 15.790580749511719 16.82023811340332 16.86858558654785
        14.559879302978516 16.12852668762207 16.474998474121094 17.746662139892578 19.256372451782227 20.14872932434082
        20.990427017211914 22.11390495300293 22.68696403503418 21.11304473876953 4.12788724899292 4.511677265167236
        4.666855812072754 4.918216228485107 5.133144855499268 5.930972099304199 5.788525104522705 5.7337751388549805
        4.7544989585876465 4.7608513832092285 3.567530870437622 2.695939779281616 0.9003579616546631 0.6004019379615784
        2.446805000305176 4.279276371002197 5.219846725463867 5.288614273071289 6.134180545806885 6.29276180267334
        6.719230651855469 6.3643798828125 5.901284694671631 5.591577529907227 5.664601802825928 5.83660364151001
        5.991552829742432 5.904278755187988 5.96177339553833 5.976828575134277 6.14078950881958 6.212345123291016
        6.460247993469238 7.001504421234131 7.290648460388184 7.385931491851807 7.633999824523926 7.717858791351318
        8.595416069030762 9.153985977172852 9.542798042297363 10.166954040527344 10.007526397705078 9.473396301269531
        8.06112289428711 8.174422264099121 8.173789024353027 8.176356315612793 7.659272193908691 7.559241771697998
        7.291769981384277 6.841818332672119 6.080971717834473 6.4317169189453125 7.558945655822754 8.542105674743652
        8.345868110656738 7.311336994171143 7.853814125061035 7.739094257354736 8.043843269348145 7.177389621734619
        6.629526138305664 5.346127986907959 5.184088230133057 5.276698112487793 5.551695823669434 5.173504829406738
        4.912388324737549 4.836036682128906 4.895288467407227 4.701220989227295 3.801522970199585 3.8891847133636475
        3.510540723800659 4.352698802947998 4.617012977600098 6.1017680168151855 6.243873119354248 5.6745123863220215
        4.74911642074585 4.729987144470215 5.479216575622559 5.823651313781738 4.7977519035339355 5.324122905731201
        5.917889595031738 8.137894630432129 10.418402671813965 11.263185501098633 9.183858871459961 6.676795959472656
        2.6301469802856445 0.8257238864898682 1.9855470657348633 1.7587504386901855 2.75288724899292 2.1032536029815674
        1.966252088546753 1.308300495147705 0.8886082768440247 2.2149012088775635 2.7001359462738037 1.876591682434082
        1.2160812616348267 1.7566741704940796 1.8558906316757202 0.1432085633277893 0.5775837898254395 0.5185539126396179
        0.9128950834274292 1.6834211349487305 2.190375804901123 2.8891170024871826 2.02675724029541 2.0497748851776123
        1.5766798257827759 1.1343083381652832 2.523178815841675 3.378419876098633 4.476068019866943 5.894473075866699
        8.633667945861816 8.585609436035156 7.568624496459961 3.995286464691162 1.7253659963607788 0.5285068154335022
        1.8552236557006836 3.599440097808838 5.62405252456665 9.561702728271484 12.01707649230957 11.435334205627441
        10.617109298706055 12.889847755432129 15.11014461517334 13.51253604888916 12.818502426147461 11.319299697875977
        8.931051254272461 5.851699352264404 7.008249282836914 9.287961959838867 10.558302879333496 11.315485000610352
        12.775200843811035 15.739432334899902 15.538361549377441 16.701126098632812 15.946686744689941 18.108795166015625
        18.121889114379883 18.598716735839844 20.138343811035156 20.584028244018555 20.29305648803711 19.65445899963379
        19.882871627807617 16.83283042907715 4.912248611450195 5.436017990112305 5.422995567321777 5.69176721572876
        5.536028861999512 6.060799598693848 6.405306816101074 6.09022855758667 5.3354082107543945 5.1437201499938965
        4.359328746795654 3.64093017578125 1.4934403896331787 0.11877113580703735 2.4156901836395264 3.5130350589752197
        4.638720512390137 5.031502723693848 6.428458213806152 6.920939922332764 6.9927592277526855 6.378910541534424
        6.245090007781982 5.9176926612854 6.053264141082764 6.049781322479248 6.282486915588379 6.221921443939209
        5.958173751831055 6.245197296142578 6.266420841217041 6.56756591796875 6.924424171447754 7.617758750915527
        7.936970233917236 8.085806846618652 8.276278495788574 7.884164333343506 8.317787170410156 8.515446662902832
        8.988401412963867 9.000005722045898 9.188273429870605 8.813385963439941 7.754453182220459 8.061556816101074
        8.0590238571167 8.549051284790039 8.258157730102539 8.223727226257324 7.651020526885986 7.156986236572266
        6.625334739685059 6.888219356536865 7.1829915046691895 7.617538928985596 7.626736164093018 7.190195560455322
        7.751670837402344 7.328685283660889 7.478759765625 6.494477272033691 6.4929728507995605 5.664974689483643
        5.703675746917725 5.200541019439697 4.8605804443359375 4.570221900939941 4.961778163909912 5.226031303405762
        5.355669975280762 5.041506290435791 3.6853201389312744 3.4225893020629883 3.2011170387268066 3.765638589859009
        3.8122341632843018 4.9476237297058105 5.673187255859375 5.259514808654785 4.031474590301514 4.105044841766357
        5.062732696533203 5.760528087615967 4.303962707519531 4.782346725463867 4.961398124694824 8.634620666503906
        10.194786071777344 11.716682434082031 9.732858657836914 6.445958137512207 3.270219326019287 2.2645137310028076
        1.0237675905227661 1.6575559377670288 2.469268798828125 1.43484628200531 1.5082440376281738 0.5582877397537231
        1.550690770149231 1.5693506002426147 1.3067115545272827 1.3863321542739868 0.3343680202960968 2.4249472618103027
        2.8829338550567627 1.4579925537109375 1.7477021217346191 1.6719552278518677 1.5884385108947754 1.269099473953247
        1.7742387056350708 2.3379673957824707 2.319394111633301 1.9968135356903076 1.530397653579712 3.079623222351074
        4.273106575012207 4.385612487792969 5.180181980133057 5.4592509269714355 8.055502891540527 8.364047050476074
        7.231078624725342 3.7901813983917236 2.103712558746338 1.0501761436462402 2.3866755962371826 2.7911360263824463
        5.8180928230285645 9.543174743652344 11.542776107788086 9.434391975402832 9.02041244506836 9.673227310180664
        10.804150581359863 11.456436157226562 12.919872283935547 11.840170860290527 8.398953437805176 3.574408531188965
        3.0426928997039795 5.433797359466553 5.866296291351318 6.652633190155029 10.273703575134277 12.5874605178833
        13.911195755004883 15.588757514953613 15.459897994995117 15.975578308105469 17.535799026489258 18.706195831298828
        19.841999053955078 20.000350952148438 19.231555938720703 16.415571212768555 15.775017738342285 14.007837295532227
        6.054454803466797 6.346090316772461 6.300919055938721 6.219636917114258 6.31102180480957 6.005514621734619
        6.755978107452393 6.121683120727539 5.534504413604736 5.013758182525635 4.379924297332764 3.978123188018799
        2.0280463695526123 0.7145020365715027 1.9886224269866943 2.7438952922821045 3.7065658569335938 4.759760856628418
        5.994912624359131 6.260152339935303 6.588553428649902 6.438086032867432 6.511512279510498 6.117945671081543
        6.326143264770508 6.43494176864624 6.639237880706787 6.48264741897583 6.084118843078613 6.245010852813721
        6.5519514083862305 6.925705909729004 7.288857936859131 7.5563530921936035 8.016034126281738 8.659379005432129
        9.223158836364746 8.846955299377441 8.535338401794434 8.432004928588867 9.33344554901123 9.677756309509277
        9.091418266296387 8.183947563171387 8.053421974182129 8.228601455688477 7.993014335632324 8.082259178161621
        8.159795761108398 7.957962989807129 7.243636608123779 6.98545503616333 6.524599075317383 6.919281959533691
        7.287479877471924 7.671546936035156 7.578007698059082 7.074464797973633 7.311141014099121 7.070685386657715
        6.9313788414001465 6.361509323120117 6.1258625984191895 5.703553199768066 5.941140174865723 5.306947708129883
        5.083682537078857 4.671422004699707 5.062728404998779 5.212080955505371 5.209970951080322 5.35035514831543
        4.128231048583984 3.953620672225952 3.959886312484741 4.341121673583984 4.209627628326416 4.30686616897583
        4.929772853851318 5.244136333465576 4.705808162689209 5.720157146453857 5.821099758148193 6.205470561981201
        4.643005847930908 5.984923362731934 6.755199909210205 10.075303077697754 10.943550109863281 13.096357345581055
        11.024750709533691 8.974136352539062 5.842644691467285 4.343250751495361 2.5447278022766113 0.6691131591796875
        0.6637172698974609 0.4523804783821106 1.3102680444717407 0.8700424432754517 1.6108647584915161 0.8767143487930298
        1.0791512727737427 1.3425918817520142 2.8680641651153564 5.547573089599609 5.575178146362305 2.9172592163085938
        3.0956013202667236 3.486762285232544 2.477947235107422 0.8319239020347595 0.9919338822364807 1.6430678367614746
        1.9549000263214111 1.3468194007873535 1.6436913013458252 3.8926994800567627 4.810591697692871 5.207869529724121
        5.560927391052246 6.018815040588379 6.930822849273682 7.183806896209717 5.9326171875 3.7745091915130615
        2.9586548805236816 4.0599517822265625 4.320618629455566 4.266613960266113 5.5669379234313965 8.42402172088623
        8.55915641784668 6.246211528778076 6.13946008682251 7.241006374359131 9.502924919128418 10.816761016845703
        12.355696678161621 11.859761238098145 5.687833786010742 1.783897876739502 3.9949655532836914 4.098053932189941
        4.557180881500244 3.672314405441284 5.727095603942871 8.239005088806152 12.146449089050293 15.410124778747559
        15.494638442993164 14.936127662658691 16.377851486206055 16.98067855834961 17.528528213500977 17.025592803955078
        17.846572875976562 16.13282012939453 14.727730751037598 14.457673072814941 6.255364894866943 6.538522720336914
        6.766417503356934 7.021813869476318 7.54473876953125 7.59295654296875 7.6660237312316895 6.301162242889404
        5.442747116088867 5.325628280639648 5.152010917663574 4.361271858215332 2.7118613719940186 1.7829902172088623
        0.8707457780838013 1.7432031631469727 2.9242987632751465 4.142555236816406 5.16383695602417 5.5372490882873535
        6.037041664123535 6.535482406616211 6.872888565063477 6.485066890716553 6.291489601135254 6.259096622467041
        6.502692222595215 6.714447975158691 6.602836608886719 6.801445007324219 6.907198429107666 7.329995155334473
        7.559508800506592 7.785567760467529 8.046881675720215 8.786428451538086 9.15504264831543 8.707367897033691
        8.381073951721191 8.371930122375488 9.023761749267578 8.998592376708984 8.296066284179688 7.655581951141357
        7.706812858581543 7.819808006286621 7.626343727111816 7.577085018157959 7.47524356842041 7.049797534942627
        6.898430824279785 6.8930745124816895 6.484333038330078 6.966182708740234 6.735630512237549 7.236686706542969
        7.63710880279541 7.5580549240112305 7.417661666870117 7.063750267028809 7.265769004821777 6.778038024902344
        6.131979942321777 5.641473770141602 5.744368553161621 5.445120334625244 5.409719944000244 5.114361763000488
        5.298759937286377 5.266698837280273 5.733299732208252 6.247427463531494 5.5455780029296875 5.171295642852783
        4.9239888191223145 5.298834800720215 5.051429271697998 4.917212009429932 5.036791801452637 5.464336395263672
        5.479673862457275 7.401706695556641 7.217067241668701 6.525437355041504 4.467655658721924 6.069793701171875
        7.013338088989258 11.036660194396973 13.40102767944336 13.772663116455078 12.184292793273926 9.729365348815918
        7.468288421630859 5.556765556335449 5.621981620788574 5.059228897094727 3.3973488807678223 0.8544433116912842
        1.1718201637268066 1.640791893005371 1.2954522371292114 1.834943413734436 2.5453555583953857 2.562471866607666
        2.171095132827759 4.840051174163818 3.8954756259918213 1.6205388307571411 2.773232936859131 4.223626613616943
        2.9131979942321777 0.4048537313938141 1.2828006744384766 1.8647044897079468 2.5447638034820557 1.995844841003418
        3.446427345275879 4.249448299407959 4.773953437805176 5.736936092376709 7.7926506996154785 8.303960800170898
        7.436251163482666 7.422842502593994 6.316792011260986 5.49281120300293 6.281888484954834 8.807364463806152
        7.687182903289795 5.6088080406188965 4.367327690124512 4.342537879943848 3.4084882736206055 2.901322603225708
        3.602299928665161 5.559937477111816 8.997932434082031 9.841463088989258 9.867498397827148 9.450550079345703
        5.969738960266113 3.997227191925049 1.3671627044677734 2.8377299308776855 2.1752119064331055 1.6775301694869995
        3.6680400371551514 4.25090217590332 10.391373634338379 14.661320686340332 14.943395614624023 17.086610794067383
        17.72122573852539 17.172422409057617 16.46563720703125 15.45866870880127 17.17670249938965 15.533759117126465
        15.044035911560059 17.40053939819336 5.565768718719482 6.04560661315918 6.547069072723389 7.011005878448486
        7.336998462677002 7.541383743286133 7.160968780517578 5.996308326721191 4.988317012786865 5.322224140167236
        5.594550609588623 4.957167148590088 3.5384790897369385 2.5846312046051025 1.385076880455017 2.683897018432617
        3.7708351612091064 3.8073525428771973 4.697913646697998 5.219699382781982 6.046700954437256 6.9379496574401855
        7.222137451171875 7.104664325714111 6.777378082275391 6.958096027374268 6.8500518798828125 7.11705207824707
        7.095953941345215 7.115521430969238 7.262970447540283 7.705196857452393 7.923863887786865 8.023872375488281
        8.422063827514648 9.407659530639648 9.856525421142578 9.561601638793945 9.265182495117188 8.744455337524414
        8.735808372497559 8.328465461730957 8.122321128845215 8.056448936462402 8.190332412719727 7.819374084472656
        7.448731422424316 6.89687967300415 6.668923854827881 6.459219932556152 6.580087184906006 6.957305908203125
        6.860409259796143 7.134476184844971 7.124926567077637 7.286041259765625 7.819932460784912 7.740501880645752
        7.454546928405762 7.13003396987915 7.276400566101074 7.192343711853027 6.386040210723877 5.532865524291992
        5.52613639831543 5.536837577819824 5.872435092926025 5.519285202026367 5.441998481750488 5.682168483734131
        6.077996730804443 6.695622444152832 6.010158061981201 5.886110782623291 6.226683139801025 6.526906490325928
        6.266222953796387 5.628007888793945 5.440848350524902 5.7513909339904785 5.873031139373779 7.5900421142578125
        7.592867851257324 6.693994998931885 4.204851150512695 4.274161338806152 6.370073318481445 11.739900588989258
        14.563425064086914 13.54023551940918 13.131041526794434 11.718029022216797 9.721899032592773 7.498835563659668
        7.515617370605469 7.684510707855225 5.179551601409912 1.9626049995422363 1.3706272840499878 2.3712892532348633
        2.904283046722412 4.308731555938721 3.582340955734253 2.301623582839966 1.525399088859558 3.4247026443481445
        3.37312912940979 2.2857916355133057 3.4305477142333984 3.0818119049072266 1.8432625532150269 0.7149540781974792
        1.6365437507629395 2.1172780990600586 3.2758750915527344 3.2293596267700195 3.872356414794922 3.347041368484497
        4.263411521911621 6.338136672973633 8.796788215637207 9.755060195922852 8.53771686553955 7.238158226013184
        6.408549785614014 6.621451377868652 8.527231216430664 9.73316478729248 8.85976505279541 6.713419437408447
        3.2081542015075684 0.44074490666389465 0.8511760234832764 1.3191685676574707 3.4638335704803467 6.025598526000977
        8.26293659210205 8.723626136779785 7.480248928070068 6.212569236755371 1.172563076019287 0.9265428185462952
        1.315778374671936 0.3131188154220581 1.3106942176818848 1.5383954048156738 1.8561619520187378 1.8621976375579834
        6.465648174285889 12.749276161193848 16.82740592956543 19.248779296875 20.37837791442871 20.0982608795166
        20.55824089050293 18.60118865966797 18.143539428710938 17.126657485961914 18.82636070251465 21.390459060668945
        4.7894792556762695 5.807533264160156 6.804201126098633 7.73191499710083 7.081939697265625 6.612013339996338
        5.837449073791504 5.532827377319336 5.046804904937744 5.880062103271484 5.4994072914123535 5.01591157913208
        3.756725549697876 3.022174835205078 0.9257756471633911 2.629326581954956 3.3685574531555176 3.607243061065674
        5.076905250549316 5.714837074279785 6.088017463684082 6.526656150817871 6.615377902984619 6.958356857299805
        6.713326454162598 6.937310218811035 6.730201721191406 6.895197868347168 6.911257743835449 7.128876686096191
        7.1007208824157715 7.167119979858398 7.293667316436768 7.64378547668457 8.633580207824707 9.61014175415039
        10.012707710266113 9.462676048278809 9.224452018737793 8.534175872802734 8.220124244689941 7.636933326721191
        7.657961368560791 7.962797164916992 7.86690616607666 7.470819473266602 7.181635856628418 6.803181171417236
        6.631529808044434 6.482696533203125 6.863194465637207 7.074242115020752 7.2141547203063965 7.40321683883667
        7.404178619384766 7.614412307739258 8.025626182556152 8.103507995605469 7.694425582885742 7.284477233886719
        7.562581539154053 7.247967720031738 6.378414630889893 5.505011081695557 5.510669231414795 5.473402976989746
        5.730102062225342 5.546790599822998 5.502798080444336 5.961119651794434 6.693274021148682 6.898333549499512
        6.556961536407471 6.6119608879089355 6.8337836265563965 6.520793914794922 6.021655559539795 5.6030988693237305
        5.673842430114746 5.950475215911865 5.9982194900512695 6.620876312255859 6.782589435577393 6.3644890785217285
        3.6865084171295166 3.778416633605957 5.314591884613037 8.231193542480469 9.940526962280273 10.105974197387695
        12.81277847290039 12.591788291931152 11.01386833190918 9.639687538146973 9.539616584777832 8.364014625549316
        5.5772929191589355 2.6369197368621826 1.8211251497268677 1.9998996257781982 4.124979019165039 5.812921524047852
        4.196126461029053 2.2719264030456543 1.8471896648406982 2.555367946624756 3.488900899887085 3.2913336753845215
        4.638278484344482 2.9816699028015137 1.8480675220489502 0.10322257876396179 1.2622417211532593 2.1448636054992676
        2.991921901702881 3.5515949726104736 3.560755968093872 3.2770469188690186 5.552496433258057 7.889458179473877
        10.132238388061523 10.248529434204102 9.533987045288086 8.707136154174805 7.801827907562256 7.960476875305176
        8.922795295715332 9.060388565063477 6.7489800453186035 4.406582832336426 2.4793574810028076 0.6098845601081848
        0.34483814239501953 1.3987535238265991 3.9199962615966797 6.24751091003418 8.344822883605957 8.837847709655762
        7.936570167541504 5.338656902313232 2.9322707653045654 4.520113468170166 4.391074180603027 4.06126070022583
        2.5063111782073975 1.827211856842041 1.419251561164856 2.1764142513275146 2.3423469066619873 10.022406578063965
        15.54748821258545 18.306690216064453 21.236528396606445 22.569631576538086 23.274505615234375 21.654895782470703
        20.44102668762207 19.631427764892578 22.162321090698242 23.985212326049805 5.427921772003174 6.3113932609558105
        7.141416072845459 7.450042247772217 6.016742706298828 5.412810802459717 4.955300807952881 5.007312297821045
        4.826584339141846 5.62741231918335 5.611561298370361 5.827311992645264 4.210507392883301 3.5716967582702637
        1.7123702764511108 1.510745882987976 2.491950035095215 3.902233600616455 5.730327129364014 6.3073577880859375
        6.195775032043457 6.186642646789551 6.624878883361816 7.181182384490967 7.038704872131348 7.0673675537109375
        6.700013160705566 6.736427307128906 6.584333419799805 6.942575931549072 6.854634761810303 7.068997383117676
        7.487053871154785 7.734432697296143 8.537565231323242 9.119392395019531 9.752985954284668 9.409069061279297
        9.322707176208496 8.80439281463623 8.449800491333008 8.343032836914062 8.244139671325684 8.24809741973877
        7.7770514488220215 7.484155654907227 7.16940450668335 7.125245094299316 6.987161636352539 6.834158420562744
        7.04097843170166 6.992152690887451 7.259489059448242 7.526276588439941 7.813020706176758 8.153539657592773
        7.979461193084717 7.921199321746826 7.69717264175415 7.533021450042725 7.619741439819336 7.13877534866333
        6.532968521118164 5.755832672119141 5.837551593780518 5.802424430847168 5.842947959899902 5.787600994110107
        5.700666904449463 6.212734222412109 6.7665252685546875 6.587302207946777 6.741138935089111 6.894495487213135
        6.961777687072754 6.678531169891357 6.388125896453857 6.018647193908691 5.774197578430176 6.129634857177734
        5.868921756744385 6.33727502822876 6.42479944229126 6.527091026306152 4.42698335647583 4.233425617218018
        5.231007099151611 6.626684665679932 7.237883567810059 9.039580345153809 12.16611385345459 11.913006782531738
        10.546300888061523 9.992488861083984 9.1448392868042 8.701522827148438 6.40352201461792 4.713602542877197
        1.4383084774017334 1.1466096639633179 3.0600438117980957 3.568819522857666 2.9403653144836426 2.22688627243042
        1.7379388809204102 2.849994421005249 3.9098572731018066 3.8804869651794434 6.078464508056641 5.528988361358643
        3.903292179107666 0.7801113128662109 2.479344606399536 2.5174145698547363 1.8184020519256592 3.3080320358276367
        5.196585655212402 5.220066070556641 5.90181303024292 6.408052921295166 8.819725036621094 10.043993949890137
        10.415977478027344 10.307944297790527 8.60780143737793 8.44033432006836 6.83609676361084 5.407226085662842
        3.413867235183716 2.9217019081115723 1.87579345703125 0.3138812184333801 0.8353257775306702 2.106651544570923
        3.684973955154419 6.378606796264648 9.38170337677002 10.628227233886719 10.30654525756836 8.802399635314941
        7.022335052490234 6.32930326461792 5.003351211547852 3.967007637023926 2.0950238704681396 1.9018930196762085
        2.6339306831359863 3.4533088207244873 1.8905593156814575 7.189573287963867 12.29102611541748 15.385876655578613
        18.921833038330078 20.016075134277344 21.06525993347168 20.435585021972656 21.08588218688965 20.733903884887695
        22.27933692932129 22.14813232421875 6.02043342590332 6.496647357940674 6.987667560577393 6.837871551513672
        5.639702320098877 4.972281455993652 4.821769714355469 4.8035101890563965 4.592888832092285 5.40218448638916
        5.5976948738098145 6.099085330963135 4.710943698883057 4.332144260406494 2.8239388465881348 2.2216856479644775
        1.605434775352478 2.993706464767456 4.724119186401367 5.993918418884277 5.899063587188721 6.011648178100586
        7.092160224914551 7.7687764167785645 7.455543041229248 6.89627742767334 6.904525279998779 6.5494303703308105
        6.017825126647949 6.37382173538208 6.593204975128174 6.540212631225586 6.8823723793029785 6.9014973640441895
        8.038375854492188 8.908878326416016 9.21022891998291 9.051366806030273 8.691302299499512 8.632728576660156
        8.412409782409668 8.31307315826416 8.200728416442871 8.108952522277832 8.00872802734375 7.738375663757324
        7.467817783355713 7.315598964691162 7.36513090133667 7.144720077514648 7.2419047355651855 7.056547164916992
        7.397010326385498 7.493528842926025 7.6366753578186035 8.021249771118164 7.896240234375 7.741518974304199
        7.528308868408203 7.577092170715332 7.559120178222656 7.213242530822754 7.094428539276123 6.695983409881592
        6.456026077270508 6.107763767242432 6.022983551025391 5.7534260749816895 5.554854869842529 6.106994152069092
        6.876800537109375 6.944483280181885 7.055263519287109 7.113546848297119 6.740633487701416 6.1295905113220215
        5.947924613952637 5.77966833114624 5.676263332366943 5.912744998931885 5.386504650115967 5.599849700927734
        5.902591705322266 6.679765224456787 6.747091293334961 6.195404052734375 6.186202049255371 7.334603786468506
        8.453508377075195 9.998236656188965 11.306597709655762 11.147754669189453 9.05349349975586 8.709239959716797
        8.627150535583496 8.336350440979004 6.997044086456299 4.9382147789001465 1.909934401512146 0.7688647508621216
        0.888704240322113 2.618706226348877 3.071007490158081 3.4545843601226807 1.179142951965332 1.6297786235809326
        2.156033515930176 2.0788910388946533 4.4936347007751465 4.712496280670166 3.6679019927978516 0.5330879092216492
        1.8892303705215454 2.1751275062561035 1.806584358215332 3.6354973316192627 6.5097222328186035 6.746050834655762
        6.815541744232178 7.5300822257995605 9.822381019592285 11.54883861541748 11.211530685424805 11.726433753967285
        10.3497896194458 9.13330078125 5.503323078155518 3.3627095222473145 2.2101335525512695 2.345924139022827
        1.6361876726150513 1.4892189502716064 2.2034661769866943 2.2299509048461914 2.6451570987701416 5.416134357452393
        9.257442474365234 11.722673416137695 11.579117774963379 12.157294273376465 12.275094032287598 11.0929594039917
        7.724742412567139 2.621324300765991 3.682572603225708 3.0520617961883545 4.242473602294922 4.406373977661133
        3.682206392288208 1.9807835817337036 6.654967308044434 9.93742561340332 13.601405143737793 14.9625883102417
        18.113126754760742 17.31202507019043 18.397022247314453 17.347209930419922 17.55698013305664 16.326980590820312
        6.51309061050415 6.6186041831970215 6.335604667663574 5.846665382385254 5.186896800994873 5.143856525421143
        5.336463928222656 4.740245342254639 4.509645462036133 5.270585536956787 6.168160915374756 6.196314334869385
        5.17531156539917 5.220109939575195 3.4557178020477295 2.5616283416748047 1.241655945777893 0.9704647660255432
        2.9089739322662354 4.970466136932373 5.370409965515137 5.826953411102295 6.978267192840576 7.550692558288574
        7.355438232421875 6.7511820793151855 6.751452445983887 6.509194374084473 6.251318454742432 6.1156325340271
        5.83012580871582 5.949850082397461 6.432824611663818 6.74688720703125 7.306687831878662 8.139309883117676
        8.528766632080078 8.672844886779785 8.627984046936035 8.645027160644531 8.40039348602295 8.413232803344727
        8.33729076385498 8.24596118927002 8.085041999816895 7.852363586425781 7.841371059417725 7.669001579284668
        7.758173942565918 7.261228561401367 7.511805057525635 7.476520538330078 7.803112030029297 7.743869781494141
        7.421329975128174 7.456281661987305 7.42333984375 7.492610931396484 7.573385238647461 7.529911518096924
        7.983861923217773 7.810657978057861 7.416378498077393 7.061437129974365 6.734178066253662 6.317549228668213
        6.1978254318237305 6.2035651206970215 6.224270820617676 6.214150905609131 6.989854335784912 7.057236194610596
        6.981053352355957 6.936679840087891 6.59812593460083 6.1032609939575195 5.816990375518799 5.271693229675293
        5.158120632171631 5.203155994415283 5.247208595275879 5.851748466491699 6.445827007293701 7.392715930938721
        6.942617416381836 6.307865142822266 6.884519100189209 9.071365356445312 10.445037841796875 10.155879974365234
        10.577605247497559 10.978835105895996 9.376665115356445 8.763744354248047 8.433080673217773 9.061383247375488
        7.777293682098389 5.491298675537109 2.6588268280029297 1.4733314514160156 1.285487413406372 1.662438154220581
        2.8406529426574707 3.3688900470733643 1.6785959005355835 1.271740198135376 1.8380390405654907 2.417475938796997
        4.406158924102783 3.8228626251220703 2.637937068939209 1.9903395175933838 3.072331190109253 2.906068801879883
        2.7902584075927734 3.9839835166931152 6.224762439727783 6.442615032196045 6.110310077667236 7.16730260848999
        9.713531494140625 11.614086151123047 11.472108840942383 12.071178436279297 10.109931945800781 5.3782124519348145
        2.3208022117614746 1.6444578170776367 1.476583480834961 1.683933138847351 1.4477020502090454 1.9143248796463013
        1.695399522781372 1.6817779541015625 1.2349286079406738 3.2184441089630127 6.521443843841553 9.732024192810059
        11.147576332092285 11.849678993225098 13.356554985046387 12.985373497009277 8.033824920654297 1.193711519241333
        4.045600891113281 3.4621357917785645 2.7866275310516357 4.167148590087891 4.44212007522583 3.406292676925659
        3.3865349292755127 6.869233131408691 10.785392761230469 12.590900421142578 16.41715431213379 15.849811553955078
        17.43543243408203 15.038056373596191 13.439312934875488 11.946382522583008 5.782045364379883 5.932223320007324
        5.5323872566223145 5.167545795440674 4.742763996124268 5.270371913909912 5.453712463378906 4.885574817657471
        4.568607330322266 5.080327033996582 6.22927713394165 6.255937576293945 5.785373687744141 5.153478145599365
        3.4740090370178223 2.7470436096191406 1.005177617073059 0.5282592177391052 2.3870692253112793 4.362447261810303
        5.3723249435424805 6.465532302856445 7.263783931732178 7.534911632537842 7.3249831199646 7.250598430633545
        7.559041500091553 7.4768548011779785 7.4795379638671875 6.748205661773682 6.039820671081543 5.96325159072876
        6.317641735076904 7.283023357391357 7.028176784515381 8.061176300048828 8.372906684875488 8.345049858093262
        8.309042930603027 8.66916275024414 9.083052635192871 9.228060722351074 8.871262550354004 8.56281566619873
        8.661094665527344 8.148937225341797 8.35707950592041 8.258827209472656 8.400467872619629 8.023626327514648
        8.011326789855957 8.244695663452148 8.290167808532715 8.104630470275879 7.7516937255859375 7.63187313079834
        7.677905559539795 7.647122859954834 7.755715847015381 7.971010208129883 8.171477317810059 8.191326141357422
        7.672554016113281 7.350976467132568 7.154738426208496 6.940762042999268 7.198853969573975 7.008242607116699
        6.791463375091553 6.716513633728027 6.887669563293457 7.10301399230957 6.871312141418457 6.781754493713379
        6.552324295043945 5.585870265960693 5.158841133117676 4.589720726013184 4.6913533210754395 4.790877342224121
        5.29120397567749 5.944828033447266 6.716917037963867 7.316271781921387 6.930867671966553 6.872620105743408
        7.81581449508667 9.809179306030273 10.665145874023438 9.958511352539062 10.016532897949219 10.040538787841797
        10.038387298583984 9.748828887939453 9.310245513916016 9.250126838684082 8.311393737792969 5.5843186378479
        3.5506186485290527 1.7140055894851685 0.9630197286605835 2.158402442932129 2.1352529525756836 2.0493175983428955
        1.3502894639968872 2.0383427143096924 2.2097856998443604 1.8882861137390137 2.1975409984588623 1.3542062044143677
        1.309974193572998 1.9843147993087769 4.143528461456299 4.946090221405029 4.234819412231445 4.2877655029296875
        5.7085371017456055 5.953886985778809 6.873554229736328 7.333864212036133 8.39448356628418 8.787826538085938
        10.57921028137207 11.688316345214844 7.972348213195801 3.0743818283081055 1.1847800016403198 1.5999436378479004
        1.0715490579605103 0.3248245418071747 2.0601396560668945 2.054365634918213 2.3445639610290527 2.328690767288208
        1.4505668878555298 2.7090694904327393 4.349655628204346 6.980809688568115 9.175530433654785 10.210846900939941
        12.138254165649414 12.176372528076172 7.075179100036621 1.85881507396698 1.9844857454299927 2.450584888458252
        3.1274046897888184 4.596726894378662 5.647418022155762 4.854753017425537 0.9682368636131287 4.033108711242676
        7.580132961273193 12.35444450378418 15.94405460357666 16.947368621826172 17.276823043823242 14.564650535583496
        11.8068265914917 9.412406921386719 5.013767719268799 5.184225559234619 5.0468292236328125 5.0911173820495605
        4.665266036987305 4.84613037109375 4.964035511016846 4.842974662780762 5.209535598754883 5.798099994659424
        6.4801530838012695 6.3259968757629395 6.0165791511535645 5.439836502075195 4.268765926361084 3.1711931228637695
        1.9949796199798584 0.6056753993034363 2.5101630687713623 4.674306392669678 5.4477314949035645 5.5993194580078125
        5.712195873260498 6.653523921966553 6.991901397705078 7.821502685546875 7.175493240356445 6.6184468269348145
        7.215011119842529 7.804129600524902 6.685886383056641 5.638099193572998 5.793588161468506 7.338128566741943
        7.7371978759765625 8.224664688110352 7.460331439971924 7.4794793128967285 7.492513179779053 7.880901336669922
        8.915277481079102 9.11104679107666 8.661636352539062 8.5842924118042 8.758560180664062 8.767386436462402
        8.783976554870605 9.072793960571289 9.128057479858398 8.873427391052246 9.049452781677246 8.970252990722656
        8.708233833312988 8.447494506835938 7.942436218261719 7.898751258850098 7.78141975402832 8.031935691833496
        8.182244300842285 8.379029273986816 8.539836883544922 8.515318870544434 8.141719818115234 7.87722635269165
        7.3877272605896 7.510605335235596 7.575486183166504 7.681601524353027 7.399387359619141 6.980981826782227
        6.951755523681641 6.986774921417236 7.042369842529297 6.776192665100098 6.44993782043457 5.849026203155518
        5.485756874084473 4.925097942352295 4.834712505340576 4.799080848693848 5.459869861602783 5.834434986114502
        6.668369293212891 7.1571807861328125 7.009556293487549 7.0085062980651855 7.200386047363281 8.049774169921875
        9.351336479187012 9.740240097045898 9.399821281433105 8.822720527648926 9.01771068572998 9.230112075805664
        9.040031433105469 9.774446487426758 9.24455451965332 6.781497001647949 4.6758928298950195 3.163815975189209
        1.5398622751235962 0.8323778510093689 0.605370044708252 0.35831528902053833 0.686822235584259 1.5585360527038574
        2.1561672687530518 2.138760805130005 1.7254694700241089 2.3400275707244873 2.770881414413452 1.5040448904037476
        3.5947275161743164 4.568305015563965 4.4495978355407715 4.348565578460693 5.444320201873779 5.201262474060059
        5.489581108093262 3.9629790782928467 5.162898063659668 7.069671154022217 9.929427146911621 9.458833694458008
        4.16880464553833 0.34290146827697754 0.9839070439338684 1.4666105508804321 1.6991523504257202 1.5532100200653076
        0.9163011312484741 1.1720927953720093 2.6095333099365234 1.7259013652801514 0.23491410911083221 2.4484400749206543
        4.262428283691406 4.992065906524658 6.564809322357178 8.41196346282959 9.441731452941895 8.605009078979492
        6.498813629150391 4.2533955574035645 1.4346504211425781 1.4014586210250854 2.229140281677246 2.89142107963562
        4.613468647003174 3.1921133995056152 1.2600997686386108 5.42827844619751 7.665389060974121 11.448877334594727
        13.542072296142578 15.604044914245605 17.391881942749023 15.988597869873047 13.752578735351562 10.640958786010742
        4.822938919067383 5.058018207550049 5.163886547088623 5.247264862060547 4.667091369628906 4.585582256317139
        4.833385467529297 5.168409824371338 5.568933486938477 5.909749507904053 6.63577127456665 6.945190906524658
        6.314600944519043 5.818003177642822 4.674368381500244 3.6451382637023926 2.661190986633301 0.9470446705818176
        1.7478182315826416 3.524733543395996 3.936981439590454 4.885622024536133 6.335280418395996 7.6126508712768555
        7.757171630859375 8.558223724365234 7.91774845123291 7.34900426864624 7.652963161468506 8.245309829711914
        6.976568698883057 6.07017183303833 6.27488374710083 7.7798309326171875 7.661229610443115 7.66388463973999
        6.968700408935547 7.525689125061035 7.388245582580566 8.033797264099121 8.858097076416016 9.213534355163574
        8.945759773254395 8.951188087463379 9.271612167358398 9.469857215881348 9.401015281677246 9.392492294311523
        9.311147689819336 9.52675724029541 9.931962013244629 9.51175594329834 9.220202445983887 8.834166526794434
        8.501676559448242 8.525176048278809 8.267505645751953 8.2629976272583 8.477803230285645 8.789009094238281
        8.921119689941406 8.615874290466309 8.572078704833984 8.075479507446289 7.619325160980225 7.871251106262207
        7.8779401779174805 7.901580810546875 7.358613014221191 7.076331615447998 7.08936882019043 6.878587245941162
        6.89128303527832 6.7204270362854 6.35516357421875 5.746070861816406 5.158414840698242 5.1191277503967285
        4.759197235107422 4.2545552253723145 4.667601108551025 5.542604446411133 6.497226238250732 7.007967948913574
        6.718704700469971 6.320967197418213 6.585649013519287 7.745050430297852 9.472082138061523 10.111072540283203
        9.01732063293457 7.759384632110596 8.287879943847656 9.421499252319336 9.293898582458496 8.6359281539917
        7.362824440002441 6.037896156311035 4.7223944664001465 2.892512083053589 2.122828483581543 1.1340397596359253
        1.1285066604614258 0.9986867308616638 0.9732596278190613 1.43071448802948 2.0921664237976074 2.0715949535369873
        2.65159010887146 4.100424289703369 4.209442615509033 2.8191187381744385 1.568679928779602 1.8505449295043945
        2.7917628288269043 3.682854413986206 5.258411407470703 5.260733127593994 5.025778293609619 3.7768588066101074
        4.853186130523682 7.108654022216797 8.797195434570312 8.016053199768066 4.464218616485596 1.1884469985961914
        2.0006895065307617 1.8764278888702393 2.0568201541900635 1.8432071208953857 2.3053433895111084 1.79006028175354
        2.80159854888916 1.9305663108825684 0.9857659935951233 1.8804025650024414 3.3338513374328613 2.438396692276001
        2.6407628059387207 2.8579602241516113 3.661452531814575 4.1468281745910645 5.691218376159668 5.861703872680664
        2.030944347381592 0.8700360655784607 1.3319114446640015 0.2587618827819824 3.6998066902160645 2.1972217559814453
        1.4549936056137085 5.873981952667236 8.237187385559082 11.881296157836914 12.776378631591797 13.15170955657959
        14.124298095703125 13.048973083496094 11.167866706848145 9.795010566711426 5.012734413146973 5.199433326721191
        5.6000189781188965 5.516115665435791 4.74953031539917 4.465893268585205 4.7383856773376465 5.130967140197754
        5.224916458129883 6.109040260314941 6.433226585388184 7.017352104187012 6.352729320526123 6.040904998779297
        4.064586639404297 3.323850154876709 2.800459861755371 1.0705243349075317 1.0081952810287476 2.595726490020752
        3.065585136413574 4.244240760803223 5.750289440155029 6.918810844421387 7.539817810058594 8.54588508605957
        8.148519515991211 7.778350353240967 7.299746990203857 7.103286266326904 6.993668079376221 7.497464179992676
        7.369107723236084 8.014225959777832 7.5109686851501465 6.976696491241455 7.041162490844727 7.56272554397583
        7.557775974273682 8.11847972869873 8.494338035583496 8.91009521484375 8.947511672973633 8.957318305969238
        9.297595977783203 9.830096244812012 9.978816986083984 9.749471664428711 9.390848159790039 9.332923889160156
        9.720434188842773 9.66247844696045 9.678096771240234 9.489133834838867 9.193073272705078 9.032560348510742
        8.778863906860352 8.827228546142578 9.050118446350098 9.312530517578125 9.397829055786133 9.14113712310791
        9.013689041137695 8.4054536819458 7.939947128295898 8.033560752868652 8.13564395904541 8.205620765686035
        7.781599998474121 7.39577579498291 7.215728759765625 6.82297945022583 6.819533348083496 6.862015724182129
        6.6888747215271 6.323757648468018 5.8841071128845215 5.389944553375244 4.643378257751465 4.205134868621826
        4.516135215759277 4.885650157928467 5.103432655334473 5.588334560394287 5.852078914642334 5.950231552124023
        5.88896369934082 7.266869068145752 8.967903137207031 9.526659965515137 8.790603637695312 7.860776901245117
        8.97170352935791 9.993383407592773 9.636164665222168 7.977611064910889 6.842184543609619 5.68273401260376
        4.651827812194824 3.0992422103881836 2.8589706420898438 2.6854941844940186 2.0137860774993896 1.3012152910232544
        2.12502121925354 2.8934695720672607 3.526893377304077 3.476296901702881 5.3995442390441895 6.32172155380249
        6.2771382331848145 4.899379253387451 3.5076911449432373 1.4961704015731812 1.6453042030334473 3.5225772857666016
        4.6655192375183105 5.092724323272705 4.456185340881348 5.031887054443359 6.0229034423828125 7.612000942230225
        7.297065734863281 6.540671348571777 3.3425724506378174 1.4631692171096802 1.5652390718460083 0.6932137608528137
        1.7300583124160767 1.7408537864685059 2.1843619346618652 1.3423930406570435 1.810228943824768 1.9180539846420288
        2.6305155754089355 3.5352320671081543 3.6098599433898926 1.7679595947265625 0.5804025530815125 0.14761891961097717
        1.6774640083312988 3.294746160507202 4.384466648101807 4.29719877243042 2.393599510192871 2.116947650909424
        1.8869104385375977 2.244493246078491 2.2534608840942383 1.552055835723877 2.7890679836273193 6.009281158447266
        8.985254287719727 11.036169052124023 11.768050193786621 12.116400718688965 11.281695365905762 11.876564025878906
        11.666895866394043 12.892997741699219 5.057485103607178 5.360174655914307 5.332500457763672 5.460592269897461
        4.875432014465332 4.855559825897217 4.876015663146973 4.948827266693115 4.752533435821533 5.567866325378418
        6.249744415283203 6.703191757202148 6.420639514923096 5.866166591644287 4.531035900115967 4.110845565795898
        3.495537042617798 1.835557460784912 0.7793484926223755 1.1462125778198242 2.774418354034424 4.503295421600342
        5.438541412353516 6.3137383460998535 7.611915111541748 8.940408706665039 9.2727632522583 7.970120906829834
        6.245241641998291 6.357855319976807 7.426130771636963 8.823798179626465 8.371243476867676 8.06174087524414
        7.925060272216797 7.937182903289795 7.972822189331055 7.437198638916016 7.685571670532227 8.945732116699219
        9.36119556427002 8.987588882446289 8.53010368347168 8.784074783325195 9.575170516967773 9.913270950317383
        9.943314552307129 9.54576301574707 9.396682739257812 8.776029586791992 9.200934410095215 9.236542701721191
        9.365116119384766 9.444199562072754 9.439866065979004 9.438688278198242 9.158907890319824 8.978081703186035
        9.178205490112305 9.225302696228027 9.553727149963379 9.020655632019043 8.827789306640625 8.858010292053223
        8.786709785461426 9.046228408813477 8.97175407409668 8.823760032653809 8.424234390258789 7.963312149047852
        7.414828300476074 6.998412132263184 6.896146297454834 7.175381660461426 6.871821403503418 6.602410793304443
        6.235350608825684 5.495877265930176 4.650986671447754 4.408596038818359 4.970605373382568 5.1894049644470215
        4.460420608520508 4.345186233520508 4.165186882019043 4.953370094299316 6.195919036865234 7.8459086418151855
        9.601936340332031 8.555832862854004 7.688170909881592 7.5938944816589355 9.189708709716797 9.932796478271484
        9.28078842163086 7.5569610595703125 5.770017623901367 4.480258941650391 4.16978645324707 3.335876941680908
        3.085522174835205 2.8835299015045166 2.229602813720703 1.7619918584823608 2.717829465866089 3.397526264190674
        3.9134631156921387 2.8051445484161377 5.603809356689453 5.688222885131836 7.037273406982422 6.297647476196289
        6.004061698913574 3.077761173248291 1.1287795305252075 4.240704536437988 6.24880313873291 5.237457275390625
        5.747705936431885 6.135300636291504 6.383175849914551 6.461666584014893 5.690160274505615 5.053479194641113
        3.5464978218078613 2.5743567943573 2.2172658443450928 0.6866245865821838 2.7186923027038574 2.8512418270111084
        1.982768177986145 0.5934447646141052 1.1413917541503906 1.499401569366455 2.6180076599121094 2.8882579803466797
        2.8819777965545654 1.3621225357055664 1.8294954299926758 0.7751674056053162 2.11133074760437 3.8275458812713623
        3.191769599914551 2.2425286769866943 2.0150153636932373 3.1528069972991943 3.5100321769714355 3.131269693374634
        1.5854381322860718 2.5259177684783936 4.383983135223389 6.542995452880859 8.646263122558594 10.789634704589844
        11.498620986938477 11.03205394744873 11.140316009521484 12.394638061523438 12.519755363464355 14.024984359741211
        4.929232120513916 5.251470565795898 5.1413140296936035 5.190686225891113 4.712160587310791 4.934473037719727
        5.008653163909912 5.117858409881592 4.948439598083496 5.2556939125061035 5.774785041809082 5.806081771850586
        5.999564170837402 4.901206970214844 4.504143238067627 4.549683570861816 4.046599388122559 2.3448147773742676
        0.9309006929397583 0.7576167583465576 2.557404041290283 3.2724080085754395 4.9718017578125 5.729050159454346
        7.6384663581848145 8.984798431396484 8.872978210449219 7.944334030151367 7.220681667327881 7.42698335647583
        8.092514991760254 8.398676872253418 9.377442359924316 9.92294979095459 10.102838516235352 9.915553092956543
        8.671839714050293 7.935793876647949 8.336685180664062 9.230225563049316 9.713091850280762 9.207721710205078
        8.857425689697266 9.304201126098633 9.864140510559082 9.912152290344238 10.114118576049805 10.02877140045166
        10.07763385772705 9.334304809570312 9.449363708496094 9.441850662231445 9.531110763549805 9.55738639831543
        9.517993927001953 9.447404861450195 9.384612083435059 9.239519119262695 9.234244346618652 9.216482162475586
        9.337824821472168 9.072076797485352 8.799564361572266 9.14603328704834 9.18026065826416 9.294835090637207
        9.130669593811035 8.926553726196289 8.534968376159668 7.980112552642822 7.080715179443359 6.980695724487305
        6.9887518882751465 7.253901481628418 7.088125228881836 6.7374186515808105 6.853465557098389 5.802078723907471
        5.35813570022583 5.165684223175049 4.949700832366943 4.282504081726074 3.4644670486450195 3.58227801322937
        3.3529410362243652 5.198625564575195 6.846198081970215 9.1948881149292 9.835856437683105 8.269333839416504
        7.047756195068359 7.383040428161621 8.947061538696289 9.070887565612793 9.03115463256836 8.467608451843262
        6.672781467437744 5.00285530090332 4.737611770629883 4.125572681427002 3.004734516143799 2.986966609954834
        3.0668418407440186 2.91029691696167 4.059279918670654 5.057291030883789 5.720437526702881 4.877589225769043
        6.0376996994018555 5.989189147949219 7.690056800842285 7.875166416168213 7.010100364685059 3.6939268112182617
        1.776777744293213 4.34359884262085 6.427450180053711 5.804561138153076 6.008193492889404 6.452120780944824
        6.371404647827148 5.531255722045898 4.57539176940918 3.445037841796875 2.3556385040283203 2.9208743572235107
        3.1771185398101807 2.1768102645874023 1.7750027179718018 1.431633472442627 0.6706273555755615 1.2392733097076416
        0.7102201581001282 0.8879677653312683 1.642066240310669 1.76106595993042 1.8455802202224731 1.1658673286437988
        1.9048460721969604 1.4744492769241333 1.521623134613037 2.117098808288574 1.7557395696640015 1.6307235956192017
        2.4534571170806885 3.261474609375 3.4556374549865723 3.0792055130004883 3.5007717609405518 5.090850353240967
        6.090367794036865 6.8302693367004395 8.115448951721191 10.12632942199707 10.558123588562012 9.841851234436035
        11.385049819946289 14.151463508605957 15.900275230407715 16.826519012451172 5.0871405601501465 5.080252647399902
        5.059014797210693 5.321642875671387 5.032812595367432 5.100553512573242 5.156252384185791 5.3716559410095215
        5.530627727508545 5.388929843902588 5.214730262756348 4.992333889007568 5.30541467666626 4.83864164352417
        5.140326976776123 5.313685894012451 5.272167205810547 3.8382022380828857 1.8944157361984253 0.9098629355430603
        0.8902328610420227 1.0635454654693604 3.5777199268341064 5.108672142028809 7.77935266494751 8.97959041595459
        8.979989051818848 8.147324562072754 9.296448707580566 8.969992637634277 8.595829963684082 9.113349914550781
        9.823144912719727 10.81230640411377 10.511662483215332 10.358970642089844 8.853915214538574 7.983349800109863
        8.584203720092773 9.16856861114502 9.899666786193848 9.547508239746094 9.3351469039917 9.995599746704102
        10.204696655273438 10.287983894348145 10.34273910522461 10.216670036315918 10.335163116455078 9.554304122924805
        9.702912330627441 9.587808609008789 9.87192153930664 9.77810001373291 9.26945972442627 9.059536933898926
        9.240102767944336 9.49460506439209 9.4080810546875 9.184420585632324 9.158059120178223 9.150666236877441
        8.955066680908203 9.212636947631836 8.791423797607422 9.140542984008789 8.918159484863281 8.707275390625
        8.361686706542969 7.560754299163818 6.717472553253174 6.680963039398193 7.083410739898682 7.243548393249512
        6.998835563659668 7.066812515258789 6.993381023406982 6.33571195602417 5.818155765533447 5.701969623565674
        4.97490930557251 4.233868598937988 3.403095245361328 3.753480911254883 3.7387008666992188 4.968775272369385
        6.857372760772705 10.302481651306152 10.521391868591309 8.050019264221191 6.627347946166992 7.575348854064941
        8.119622230529785 9.104186058044434 10.733651161193848 10.79471492767334 7.662672996520996 5.001957893371582
        4.657704830169678 5.091960906982422 4.9774651527404785 3.1704814434051514 2.132781982421875 2.8060667514801025
        4.359431743621826 5.6541428565979 6.037637233734131 7.239847660064697 7.079188346862793 8.318167686462402
        9.808536529541016 10.316438674926758 7.803454875946045 5.112049579620361 1.1071453094482422 4.491941452026367
        7.679403305053711 6.88151216506958 7.0448174476623535 5.569636821746826 5.687514305114746 3.78225040435791
        3.176342010498047 3.145918369293213 3.6815686225891113 3.2704997062683105 2.924273729324341 2.3932852745056152
        1.1702063083648682 1.4824484586715698 1.8064005374908447 1.823522686958313 1.0964223146438599 0.9072514772415161
        2.052304744720459 1.8402011394500732 2.2334299087524414 1.593682885169983 2.489952325820923 2.2657222747802734
        2.023235321044922 1.2593640089035034 1.3293977975845337 2.2297916412353516 3.169217586517334 4.478021621704102
        4.3556084632873535 4.04610013961792 5.0898332595825195 6.629724025726318 7.145743370056152 7.521978855133057
        8.558918952941895 10.152100563049316 9.557723999023438 9.422452926635742 11.74718189239502 13.55191421508789
        15.85391616821289 16.65424156188965 5.339143753051758 5.145811080932617 5.0480055809021 5.322963237762451
        5.188047409057617 5.074986457824707 5.020725250244141 5.497180938720703 5.690306186676025 5.631898403167725
        5.416311264038086 5.1932854652404785 4.80639123916626 4.883876323699951 4.915475368499756 5.275484085083008
        5.4132843017578125 3.7084908485412598 2.3391411304473877 2.1201541423797607 1.4392131567001343 0.6345821619033813
        2.1762709617614746 3.8904433250427246 7.122416019439697 7.148960113525391 8.11147403717041 8.649147033691406
        10.133066177368164 9.374123573303223 8.92734432220459 9.609782218933105 10.351688385009766 10.671829223632812
        9.795492172241211 9.413294792175293 8.461209297180176 8.067689895629883 8.464076042175293 8.659936904907227
        9.393257141113281 9.696918487548828 9.899356842041016 10.413509368896484 10.349526405334473 10.570435523986816
        10.464759826660156 10.498379707336426 10.46789264678955 9.730530738830566 9.725884437561035 9.674320220947266
        10.056796073913574 9.777337074279785 9.06074333190918 8.933072090148926 9.197904586791992 9.259116172790527
        9.056581497192383 8.818029403686523 9.037360191345215 9.288910865783691 9.240429878234863 9.098176002502441
        8.605006217956543 8.870573997497559 8.572224617004395 8.398561477661133 8.141117095947266 7.487297534942627
        6.667610168457031 6.435040473937988 6.947968006134033 7.057678699493408 7.0975775718688965 7.2151994705200195
        6.950924873352051 6.659092903137207 6.330044746398926 6.088494777679443 4.997310638427734 4.013261318206787
        3.3437557220458984 3.5043692588806152 3.932678699493408 4.572558879852295 5.650306224822998 8.685832977294922
        9.421911239624023 7.917682647705078 6.29923152923584 7.12138557434082 7.945441246032715 9.958449363708496
        11.375289916992188 10.20848560333252 7.128173351287842 4.854640007019043 4.734694480895996 5.594902515411377
        6.130084037780762 3.751574754714966 2.12101149559021 2.703523874282837 4.412635803222656 5.3096771240234375
        5.903013706207275 7.200014114379883 8.489067077636719 10.704339981079102 10.630946159362793 10.332854270935059
        8.070502281188965 5.4279069900512695 0.8071938157081604 5.360281944274902 9.004624366760254 8.606724739074707
        7.448685169219971 3.86240291595459 4.015273094177246 3.4536373615264893 3.6605160236358643 4.6997528076171875
        4.846790790557861 3.304985523223877 2.1656126976013184 2.7519960403442383 3.145496129989624 2.7166640758514404
        1.9616405963897705 2.1942505836486816 2.4068145751953125 3.5149576663970947 1.2872060537338257 1.3306339979171753
        1.3293874263763428 0.5971978902816772 1.488999843597412 1.8457622528076172 1.1504446268081665 0.6112577319145203
        1.064589023590088 1.5471223592758179 1.9517909288406372 3.2212769985198975 4.648257255554199 5.726351261138916
        6.676967620849609 7.533867359161377 7.660038948059082 7.4316864013671875 8.080039978027344 9.270828247070312
        10.215425491333008 9.749344825744629 11.059869766235352 12.83521842956543 16.0098876953125 16.653627395629883
        5.582623481750488 5.395628452301025 5.292242527008057 5.490000247955322 5.28641939163208 4.947596549987793
        4.822151184082031 5.248232364654541 5.299137115478516 5.354072570800781 4.707108497619629 4.997569561004639
        5.152982234954834 5.330718517303467 4.860619068145752 4.635036945343018 4.318633079528809 3.0397331714630127
        2.809360980987549 2.6803908348083496 2.154184341430664 2.182809352874756 0.3854328393936157 1.6516478061676025
        5.885110378265381 6.13368034362793 7.2094645500183105 7.522946357727051 8.65873908996582 9.0974760055542
        9.279183387756348 9.527429580688477 9.469478607177734 9.373109817504883 8.884370803833008 8.31976318359375
        8.049542427062988 7.723078727722168 7.842733860015869 8.062636375427246 8.900383949279785 9.496160507202148
        9.75282096862793 9.953009605407715 9.930734634399414 10.373225212097168 10.297622680664062 10.140961647033691
        9.929617881774902 9.617125511169434 9.62629508972168 9.50916862487793 9.59306812286377 9.443255424499512
        8.878244400024414 8.748956680297852 8.793463706970215 8.691008567810059 8.592144966125488 8.740320205688477
        9.319286346435547 9.656977653503418 9.62501335144043 9.18073558807373 8.6716890335083 8.788389205932617
        8.42867660522461 8.108232498168945 7.927216529846191 7.453224182128906 7.014026641845703 6.643887996673584
        6.898508071899414 6.858349800109863 6.983067512512207 7.252449035644531 7.157127380371094 6.622563362121582
        6.1919331550598145 6.260145664215088 5.950443744659424 5.350018501281738 3.7972283363342285 3.165952444076538
        3.8341758251190186 4.3221282958984375 3.851463556289673 6.440415859222412 7.451908111572266 7.048249244689941
        6.47706937789917 6.575770854949951 7.603081226348877 9.68409252166748 10.4883394241333 8.8485107421875
        6.527039051055908 4.5821051597595215 5.127132415771484 6.644406318664551 6.672845840454102 4.552779674530029
        1.8200002908706665 2.2298290729522705 3.7878589630126953 5.215420722961426 6.085784435272217 6.850672245025635
        8.701223373413086 10.990545272827148 10.771994590759277 10.488407135009766 8.881589889526367 6.252076625823975
        2.5734682083129883 5.0544233322143555 7.800271034240723 7.86539888381958 7.066777229309082 4.192559242248535
        4.124290466308594 5.0753631591796875 5.903741359710693 6.300940990447998 6.631929874420166 5.91881799697876
        5.314818382263184 3.8845088481903076 3.7526981830596924 2.1663544178009033 1.674307107925415 2.2304701805114746
        3.1487271785736084 4.2126593589782715 2.4924464225769043 0.7760924100875854 0.5223438143730164 0.5440612435340881
        0.5931563377380371 1.1172599792480469 0.4775746166706085 0.9307928681373596 1.5360902547836304 0.7759596705436707
        1.398037314414978 3.131486415863037 5.384366512298584 6.902047157287598 7.416919708251953 8.860750198364258
        9.3134765625 8.617598533630371 9.095454216003418 10.107850074768066 10.551647186279297 9.499114036560059
        10.630759239196777 13.433194160461426 15.70981216430664 15.938261032104492 5.524503707885742 5.571289539337158
        5.418546199798584 5.572829246520996 5.396083354949951 5.20319938659668 5.260573863983154 5.125479221343994
        5.09274959564209 5.195693016052246 5.247817039489746 5.4395976066589355 5.2617363929748535 5.270462989807129
        4.616055011749268 4.127519130706787 3.323195695877075 2.6155803203582764 2.9954867362976074 3.033968687057495
        2.7117559909820557 3.36287784576416 2.262646436691284 1.4303569793701172 2.249429941177368 3.3879892826080322
        4.911263942718506 5.173282623291016 6.598371505737305 8.044296264648438 8.616231918334961 8.6130952835083
        7.640143394470215 8.184700012207031 7.638071060180664 7.1305952072143555 7.103085517883301 7.408003807067871
        7.5713372230529785 7.80615234375 8.534046173095703 9.48124885559082 9.55915641784668 9.770692825317383
        9.323100090026855 9.605938911437988 9.604591369628906 9.588088035583496 9.74551010131836 9.783465385437012
        9.783658981323242 9.429291725158691 9.058038711547852 9.068482398986816 8.703739166259766 8.698780059814453
        8.821549415588379 8.501791000366211 8.49466609954834 8.33559513092041 8.938862800598145 9.209383964538574
        9.289189338684082 8.994940757751465 8.71515941619873 8.802502632141113 8.382867813110352 7.500661849975586
        7.416810989379883 6.938899040222168 6.977101802825928 6.563547611236572 6.69089412689209 6.731294631958008
        6.5514912605285645 6.70086669921875 6.589129447937012 6.267253875732422 6.147453308105469 5.902664661407471
        6.029924392700195 5.431890487670898 4.193768501281738 3.6957693099975586 3.965268850326538 3.336066484451294
        2.7628467082977295 3.8781933784484863 5.549593448638916 6.4171295166015625 7.38926887512207 6.801650524139404
        7.6528520584106445 8.293371200561523 7.577717304229736 6.823057651519775 6.313324928283691 5.7930588722229
        6.430618762969971 7.160572528839111 6.824719429016113 6.143893718719482 5.2783284187316895 6.040422439575195
        6.020606517791748 6.293876647949219 6.826504230499268 7.7161126136779785 9.85612678527832 9.630840301513672
        10.044384002685547 8.281282424926758 6.972495079040527 4.7458109855651855 3.834733724594116 3.029897689819336
        2.6328136920928955 4.0561909675598145 5.293898582458496 6.39199686050415 6.219609260559082 8.950310707092285
        9.17729377746582 8.95510482788086 8.075333595275879 7.061408996582031 7.6769022941589355 6.017683506011963
        6.0925140380859375 3.5101611614227295 2.8253979682922363 2.24800181388855 2.7949771881103516 3.4157309532165527
        2.639075756072998 1.1213020086288452 1.4058445692062378 1.1649490594863892 0.5319145321846008 0.6142154335975647
        0.9440770149230957 1.5538595914840698 1.8411494493484497 1.1486696004867554 1.960397481918335 3.6557371616363525
        5.9201836585998535 7.498385429382324 8.220541000366211 9.946044921875 10.648336410522461 9.506998062133789
        9.265109062194824 10.083319664001465 10.758746147155762 10.117156982421875 11.926029205322266 14.824018478393555
        15.166876792907715 14.706718444824219 5.219432830810547 5.075572490692139 5.086729049682617 5.140449047088623
        5.174337863922119 4.956883907318115 5.337208271026611 5.196480751037598 5.242687702178955 5.183342933654785
        5.162353038787842 5.200655937194824 5.449487209320068 5.145984172821045 4.162509918212891 3.5787906646728516
        2.4618992805480957 2.1514692306518555 1.918812870979309 2.5059213638305664 3.443434238433838 3.8431453704833984
        3.2004356384277344 2.182504177093506 0.2556913197040558 2.7255678176879883 4.0060834884643555 4.717947006225586
        5.84248161315918 8.31989574432373 9.544737815856934 8.624725341796875 7.101724147796631 8.113229751586914
        7.590373992919922 7.165109634399414 6.774318695068359 7.233271598815918 7.341709136962891 7.711118221282959
        8.639995574951172 9.892885208129883 9.86679744720459 9.843001365661621 9.29341983795166 9.496713638305664
        9.657167434692383 9.595654487609863 9.81791877746582 10.019359588623047 10.237058639526367 9.803078651428223
        9.106427192687988 8.989633560180664 8.462905883789062 8.221454620361328 8.705449104309082 8.753938674926758
        8.80435848236084 8.42078971862793 8.472230911254883 8.854464530944824 8.654389381408691 8.358597755432129
        7.932939529418945 7.9905924797058105 8.24644947052002 7.570309162139893 7.540419578552246 6.664728164672852
        6.611169815063477 6.461012840270996 6.521533966064453 6.580022811889648 6.6237664222717285 6.425668239593506
        6.464540481567383 6.169901371002197 6.043811321258545 6.263678550720215 6.144845008850098 6.034550189971924
        4.704760551452637 4.29278039932251 4.029872894287109 2.816132068634033 1.486748218536377 3.1000595092773438
        4.688017845153809 6.202960014343262 6.841540813446045 7.094153881072998 7.211871147155762 7.849120616912842
        7.134425163269043 7.2584943771362305 7.863551139831543 7.782892227172852 7.695277690887451 7.542570114135742
        6.930448532104492 7.330222129821777 6.932574272155762 8.012004852294922 7.695047855377197 7.659109592437744
        7.530070781707764 7.421805381774902 8.884883880615234 9.381815910339355 11.56156063079834 9.58930778503418
        8.233550071716309 8.33663558959961 9.254162788391113 6.799403667449951 3.392387628555298 1.0068039894104004
        3.179924964904785 7.655160427093506 8.609946250915527 11.017631530761719 11.27609634399414 11.43458366394043
        9.659795761108398 8.548157691955566 9.645866394042969 7.710955619812012 7.593935966491699 5.79539155960083
        3.7452831268310547 1.1150753498077393 4.337378025054932 5.327643871307373 3.981642007827759 2.1646525859832764
        1.8139238357543945 1.0158737897872925 0.6765884160995483 1.5668531656265259 1.918088436126709 2.343858003616333
        2.1562139987945557 2.1868133544921875 3.31962513923645 4.519057273864746 6.074054718017578 7.094550609588623
        8.815305709838867 10.629571914672852 11.210532188415527 11.006512641906738 10.49129581451416 10.692111015319824
        9.718642234802246 9.801922798156738 12.14052963256836 14.020005226135254 15.387269020080566 16.156747817993164
        4.9579644203186035 4.715289115905762 4.760311603546143 5.048270225524902 5.225112438201904 4.984093189239502
        5.364572525024414 5.402170658111572 5.617677688598633 5.508782863616943 5.172797203063965 5.105545997619629
        5.174688339233398 5.065870761871338 4.372933864593506 4.091148376464844 3.1661856174468994 2.4032163619995117
        2.2813773155212402 2.9339423179626465 3.371882677078247 2.8575947284698486 2.6583237648010254 1.7804259061813354
        0.733234167098999 1.52768075466156 2.5785439014434814 3.9298574924468994 5.660130977630615 8.3017578125
        8.97749137878418 7.801529407501221 6.887295246124268 7.875887870788574 7.50342321395874 6.861850738525391
        6.5765180587768555 6.691444396972656 6.936100006103516 7.439537048339844 8.096783638000488 9.149930000305176
        9.15573787689209 9.460613250732422 9.083847045898438 9.517646789550781 9.557210922241211 9.621057510375977
        9.757660865783691 9.878417015075684 10.224985122680664 9.8504638671875 9.176629066467285 8.75508975982666
        8.302277565002441 8.389286994934082 8.952155113220215 8.86774730682373 8.787806510925293 8.098912239074707
        7.84841251373291 8.04323673248291 7.785785675048828 7.869877815246582 7.4957451820373535 7.888693809509277
        8.18472671508789 7.779283046722412 7.5355682373046875 6.680975437164307 6.631260395050049 6.451821327209473
        6.7333269119262695 7.004410266876221 7.201705455780029 6.949100017547607 6.561695098876953 6.736744403839111
        6.797286510467529 6.716367721557617 6.5499444007873535 6.219995021820068 6.114927291870117 6.16033935546875
        5.8956499099731445 4.808853626251221 3.3693840503692627 2.572244882583618 4.030701637268066 5.900077819824219
        6.295200824737549 6.559328556060791 6.499059200286865 7.3440704345703125 6.34135103225708 6.8303093910217285
        7.647881984710693 8.209510803222656 7.8116559982299805 7.476799011230469 7.138617515563965 8.246092796325684
        8.71898078918457 9.14018440246582 8.614294052124023 8.393528938293457 7.334297180175781 6.644354343414307
        7.7366838455200195 7.763030052185059 10.445324897766113 9.852749824523926 10.651824951171875 11.885722160339355
        12.827855110168457 8.675334930419922 5.57504415512085 1.8116652965545654 1.4503995180130005 6.489670276641846
        8.753355026245117 11.626068115234375 13.3843994140625 14.652853965759277 12.121482849121094 10.761749267578125
        10.146909713745117 8.88534164428711 7.976152420043945 6.455628395080566 4.386950492858887 1.0151317119598389
        4.190227508544922 5.787603855133057 5.599558353424072 3.7753071784973145 2.213806629180908 0.5851410627365112
        0.19217100739479065 2.037553548812866 1.8057899475097656 2.3694329261779785 3.159402370452881 4.067152500152588
        4.3138508796691895 4.72894811630249 6.300232887268066 7.637547492980957 10.005913734436035 10.79233455657959
        11.345426559448242 11.125409126281738 11.250771522521973 11.386096954345703 10.14685344696045 9.307596206665039
        10.601232528686523 11.897377967834473 14.85144329071045 16.071985244750977 5.002953052520752 4.7444539070129395
        4.6482391357421875 4.550774097442627 4.707885265350342 4.697473049163818 4.927497386932373 5.244350433349609
        5.595948219299316 5.493696212768555 5.208185195922852 5.038915157318115 4.801058769226074 4.703610897064209
        4.226987361907959 3.4920148849487305 3.0788841247558594 2.101292371749878 3.18631911277771 3.2638938426971436
        3.395883083343506 2.421243190765381 1.8415768146514893 1.285109043121338 0.5645319819450378 0.7948641180992126
        2.431353807449341 3.983611583709717 5.196677207946777 7.190402507781982 7.683595180511475 7.949086666107178
        7.832944869995117 8.502564430236816 7.924206733703613 7.328713893890381 7.092525482177734 7.48166036605835
        7.57683801651001 7.482993125915527 7.666874408721924 8.645025253295898 8.69278621673584 8.92027759552002
        8.910393714904785 9.686921119689941 9.8220853805542 9.775609016418457 9.738630294799805 9.853693962097168
        9.948204040527344 9.734575271606445 9.374369621276855 9.053223609924316 8.735089302062988 8.340866088867188
        8.26652717590332 8.183971405029297 8.574057579040527 8.264768600463867 7.927980899810791 7.9760918617248535
        7.512975215911865 7.693611145019531 7.2794575691223145 7.675596237182617 7.767360210418701 7.8118791580200195
        7.550673007965088 6.990906238555908 6.7864603996276855 6.634710311889648 7.14294958114624 7.439393043518066
        7.755648612976074 7.4317731857299805 6.875833511352539 7.186898231506348 7.296334266662598 7.477763652801514
        7.178771018981934 6.815554141998291 6.852535247802734 6.995193958282471 6.719874858856201 5.626053333282471
        5.463773250579834 4.388596534729004 4.809937953948975 5.996492862701416 5.79841423034668 6.182357311248779
        6.3119730949401855 6.740109920501709 6.1718268394470215 6.6951069831848145 7.1518659591674805 7.8651933670043945
        7.792768478393555 7.1841607093811035 6.800806999206543 8.257102966308594 9.74171257019043 10.089080810546875
        9.43527889251709 8.3801908493042 7.177403450012207 6.76503849029541 7.263523101806641 7.053584575653076
        8.780701637268066 10.27622127532959 12.087569236755371 13.936738014221191 13.188214302062988 9.666910171508789
        6.286931991577148 3.481977939605713 1.5050833225250244 3.377431869506836 6.887365818023682 11.38160228729248
        13.79808521270752 16.470417022705078 15.017674446105957 14.250456809997559 11.637869834899902 9.67546558380127
        9.274545669555664 6.867820739746094 5.429635524749756 2.304156541824341 3.2178401947021484 5.328607559204102
        6.012421607971191 3.729565382003784 1.296235203742981 1.900344967842102 0.9627538919448853 1.4463783502578735
        2.2269504070281982 3.7693724632263184 5.08676815032959 5.876222610473633 5.983574867248535 5.795993328094482
        5.848674297332764 6.502389907836914 8.322450637817383 9.12636947631836 9.701349258422852 10.385311126708984
        11.259645462036133 10.96568775177002 10.36610221862793 7.676850318908691 8.9392728805542 11.227341651916504
        15.607877731323242 16.95451545715332 4.724156856536865 4.632158279418945 4.447994232177734 4.177164554595947
        4.371734619140625 4.436258316040039 4.5892767906188965 5.062830448150635 5.330187797546387 5.5103607177734375
        5.267857074737549 4.496859073638916 3.519834518432617 3.1990511417388916 3.444949150085449 2.4129860401153564
        2.2668936252593994 2.54699969291687 3.776163101196289 3.7422704696655273 3.489027261734009 2.6143686771392822
        1.0544365644454956 1.2685894966125488 1.2540991306304932 0.46038222312927246 1.3295044898986816 2.4134209156036377
        3.4123268127441406 5.21904182434082 5.953648090362549 6.797740459442139 7.617750644683838 8.407512664794922
        7.764503002166748 7.44508171081543 7.458488464355469 8.313363075256348 8.35686206817627 8.098886489868164
        7.320725917816162 7.543745994567871 7.728276252746582 8.54727840423584 8.699101448059082 9.239534378051758
        9.068289756774902 9.402231216430664 9.959009170532227 10.38823413848877 9.867410659790039 9.29370403289795
        8.85169506072998 9.37394905090332 9.264333724975586 9.075783729553223 8.371834754943848 8.433302879333496
        8.996685981750488 8.714661598205566 8.298969268798828 8.183159828186035 8.203218460083008 8.295211791992188
        7.968621730804443 8.188858032226562 7.91438102722168 7.787951946258545 7.477602481842041 7.322427272796631
        7.340647220611572 7.4425129890441895 7.899267673492432 7.938345909118652 8.031208038330078 7.749809265136719
        7.378800392150879 7.633261203765869 7.735686779022217 7.607858657836914 7.38330602645874 7.722818374633789
        8.075469017028809 8.117856979370117 7.273911952972412 6.756474018096924 6.648854732513428 6.551810264587402
        5.716060638427734 5.728975772857666 5.999494552612305 6.195676326751709 6.030965805053711 5.763914585113525
        5.588295936584473 5.894906997680664 6.446364879608154 7.134756565093994 7.356488227844238 7.064206123352051
        7.15792179107666 8.364144325256348 9.566644668579102 9.898815155029297 9.334758758544922 7.966701030731201
        7.521480083465576 7.796176433563232 7.8381218910217285 7.247119903564453 7.674543857574463 8.448840141296387
        9.294589042663574 10.694185256958008 11.085878372192383 9.632214546203613 7.058759689331055 5.05640983581543
        2.370527982711792 1.1203917264938354 3.2609312534332275 6.301589012145996 8.90261173248291 13.659187316894531
        15.280291557312012 13.396445274353027 12.794421195983887 11.246454238891602 11.699003219604492 8.021549224853516
        6.657883167266846 2.9198880195617676 2.6809847354888916 3.2353031635284424 3.145986557006836 2.0534794330596924
        0.4018923342227936 0.9784162640571594 0.4642270505428314 1.244348406791687 3.673966407775879 6.10305643081665
        6.978639602661133 7.635976791381836 7.8326802253723145 7.812932968139648 6.859976768493652 6.408239364624023
        7.904422760009766 8.740342140197754 9.397708892822266 9.93468952178955 10.4696683883667 10.445844650268555
        11.476094245910645 9.229403495788574 9.936698913574219 12.402586936950684 15.565322875976562 17.91353988647461
        3.723266839981079 3.8370752334594727 3.6533594131469727 3.317565679550171 3.5590713024139404 3.9141247272491455
        4.376095294952393 4.680216312408447 4.919854640960693 4.538991451263428 4.001687526702881 2.9779975414276123
        2.451777696609497 2.253973960876465 2.440938949584961 1.5683059692382812 1.5102025270462036 2.2725579738616943
        3.3919432163238525 3.8028647899627686 3.332308530807495 2.4960246086120605 1.2337826490402222 2.217952013015747
        2.0594587326049805 1.2298983335494995 0.9412122964859009 0.7330169081687927 0.7565352916717529 3.04681658744812
        4.4705986976623535 6.169178485870361 6.9558610916137695 7.649964809417725 7.0722784996032715 7.178703784942627
        7.376102924346924 8.129265785217285 8.236808776855469 7.977293014526367 6.9659929275512695 7.253786087036133
        7.546993732452393 8.295660972595215 8.093724250793457 8.363824844360352 8.931992530822754 9.55138111114502
        10.446107864379883 10.701031684875488 10.220417976379395 9.288553237915039 8.231546401977539 8.790352821350098
        8.743146896362305 9.106836318969727 8.379714012145996 8.365228652954102 9.093480110168457 9.004419326782227
        8.937426567077637 9.039932250976562 8.927037239074707 8.447735786437988 8.004557609558105 8.307906150817871
        8.005438804626465 7.83436918258667 8.044394493103027 8.0112943649292 8.075454711914062 8.169535636901855
        8.391716957092285 8.44218635559082 8.4113130569458 8.256698608398438 7.998057842254639 7.838904857635498
        8.03990364074707 8.066957473754883 8.633234024047852 9.16403579711914 9.371192932128906 9.190129280090332
        8.6171293258667 8.112260818481445 8.014541625976562 7.443175792694092 6.724282741546631 5.928694725036621
        6.191237926483154 6.482993125915527 6.181018829345703 6.088200569152832 5.967376232147217 6.180786609649658
        6.683239936828613 7.081881999969482 7.577488899230957 7.124916076660156 7.4449262619018555 8.18652057647705
        9.209885597229004 9.689879417419434 9.059324264526367 8.207151412963867 8.430174827575684 8.853507041931152
        8.941683769226074 8.140016555786133 7.7286057472229 7.304936408996582 7.821711540222168 9.907259941101074
        9.350011825561523 9.1357421875 7.591751575469971 7.18080472946167 4.850180625915527 3.0395989418029785
        2.551436185836792 0.556266725063324 3.8932812213897705 7.647331714630127 9.907452583312988 11.137084007263184
        14.051445007324219 11.75999927520752 13.032792091369629 10.382655143737793 9.061325073242188 5.2880964279174805
        2.420781373977661 0.40143021941185 2.049612522125244 2.2748770713806152 1.6197901964187622 1.015796184539795
        1.0807814598083496 1.334557056427002 4.028218746185303 7.5352678298950195 8.894125938415527 9.096653938293457
        9.01332950592041 9.259551048278809 8.441915512084961 7.3134684562683105 8.064308166503906 8.757904052734375
        9.956062316894531 10.281225204467773 10.454068183898926 11.02824878692627 12.461091041564941 10.794395446777344
        11.53589916229248 13.014448165893555 14.12566089630127 16.13495635986328 3.1984760761260986 3.35418701171875
        3.393068790435791 3.2028236389160156 3.4122109413146973 3.7491211891174316 3.9697320461273193 4.179182529449463
        4.500881671905518 3.9403421878814697 2.7322933673858643 1.9992738962173462 1.802437424659729 1.8216017484664917
        1.6008421182632446 1.2740451097488403 1.1191691160202026 2.033412456512451 2.5968754291534424 2.652515172958374
        3.1941416263580322 2.501831293106079 1.7614268064498901 2.0214595794677734 1.673190712928772 1.5756877660751343
        1.8215566873550415 1.8561134338378906 0.5758658647537231 1.3376035690307617 2.770753860473633 4.348567485809326
        5.481917858123779 5.80948543548584 5.997141361236572 6.523984432220459 7.457010746002197 8.47023868560791
        8.672096252441406 8.106141090393066 7.8141326904296875 8.302202224731445 8.562281608581543 8.809760093688965
        8.292402267456055 8.497784614562988 9.427901268005371 10.128540992736816 10.666767120361328 11.020380973815918
        10.773689270019531 9.574729919433594 8.483288764953613 8.839617729187012 9.142132759094238 9.555633544921875
        9.453563690185547 9.420293807983398 9.615939140319824 9.319055557250977 9.474065780639648 9.40386962890625
        9.0609712600708 8.453640937805176 8.150266647338867 8.11855411529541 8.175625801086426 8.042641639709473
        8.325217247009277 8.330031394958496 8.318387031555176 8.543479919433594 8.651329040527344 8.649375915527344
        8.419358253479004 8.120391845703125 8.135181427001953 8.124671936035156 8.325364112854004 8.408090591430664
        9.105806350708008 9.340256690979004 9.485770225524902 9.295916557312012 9.550013542175293 8.976475715637207
        8.874225616455078 7.871397018432617 7.655390739440918 7.134563446044922 6.7934651374816895 7.059420108795166
        6.837211608886719 6.684694290161133 6.461458683013916 6.267392158508301 6.85051965713501 7.133563995361328
        7.699026584625244 7.873391628265381 8.280814170837402 8.840563774108887 8.907098770141602 8.962603569030762
        8.962955474853516 9.042242050170898 9.46157169342041 9.304415702819824 9.510581016540527 9.22509479522705
        8.484593391418457 7.689494609832764 8.19324779510498 9.365015029907227 8.386536598205566 8.050726890563965
        7.5409626960754395 8.798734664916992 7.130057334899902 6.7246832847595215 6.198136329650879 4.583679676055908
        1.8558173179626465 2.5466344356536865 5.164167881011963 7.45462703704834 11.447784423828125 12.080745697021484
        15.28930377960205 13.60515308380127 10.752364158630371 6.685936450958252 2.533294677734375 2.0274603366851807
        1.0587154626846313 1.7734295129776 0.9764479994773865 1.0950016975402832 2.1722025871276855 1.5284427404403687
        4.038684368133545 8.176114082336426 9.913999557495117 10.604010581970215 10.210824012756348 9.985386848449707
        9.907708168029785 10.135369300842285 10.639663696289062 10.48230266571045 10.84768295288086 10.406190872192383
        10.729181289672852 11.012395858764648 11.157076835632324 10.955912590026855 11.743578910827637 12.87315559387207
        13.02994155883789 14.64156723022461 3.110161066055298 3.3499574661254883 3.307462692260742 3.1829047203063965
        3.324073076248169 3.5570623874664307 3.5866527557373047 3.628967523574829 3.923135280609131 2.9919724464416504
        1.7689905166625977 1.381060242652893 1.4589768648147583 1.8058699369430542 1.0357741117477417 0.4014003276824951
        0.3455418050289154 1.0564931631088257 1.511553168296814 1.4261397123336792 2.3412294387817383 2.777771234512329
        2.253648519515991 2.19992995262146 1.3240941762924194 1.6113810539245605 2.0198519229888916 2.6123592853546143
        1.8220131397247314 0.5747882127761841 1.8734326362609863 3.021883964538574 3.9760847091674805 5.1466474533081055
        5.677550315856934 5.856209754943848 7.176692962646484 8.214204788208008 8.489045143127441 8.19489574432373
        8.567276954650879 8.787500381469727 8.288490295410156 8.175763130187988 7.7417449951171875 8.179020881652832
        8.919623374938965 9.359338760375977 9.707324028015137 10.178422927856445 11.059091567993164 10.312938690185547
        9.68855094909668 9.8103609085083 9.693666458129883 9.837202072143555 9.879283905029297 9.589032173156738
        9.791006088256836 9.289731979370117 9.161056518554688 8.699132919311523 8.588600158691406 8.569851875305176
        8.172901153564453 8.3828125 8.214262008666992 8.154633522033691 8.549466133117676 8.620003700256348
        8.550248146057129 8.524614334106445 8.609323501586914 8.606149673461914 8.14792537689209 7.9516472816467285
        7.984990119934082 8.481522560119629 8.63918685913086 8.623824119567871 9.145294189453125 9.10744857788086
        9.724990844726562 9.701047897338867 9.567832946777344 9.118132591247559 8.834772109985352 8.244354248046875
        8.014103889465332 7.8221635818481445 7.816516399383545 7.992640018463135 7.672423362731934 7.2473907470703125
        6.801377296447754 6.872931480407715 7.101673603057861 7.461002826690674 7.814635753631592 7.891818046569824
        8.195476531982422 8.881957054138184 9.108539581298828 8.86745548248291 8.80068588256836 9.042067527770996
        9.189760208129883 8.529998779296875 8.320329666137695 8.354279518127441 7.836902141571045 7.100709915161133
        7.759589672088623 8.374717712402344 7.548410892486572 7.3872480392456055 7.371147632598877 8.62482738494873
        7.640555381774902 7.665404319763184 5.385080814361572 4.202754497528076 1.667266607284546 2.8140909671783447
        4.920360088348389 7.176964282989502 11.98348331451416 13.424179077148438 14.571664810180664 12.831765174865723
        9.654257774353027 5.926083564758301 2.678356885910034 3.0319740772247314 2.0053553581237793 2.2623138427734375
        0.7620031237602234 1.8538377285003662 2.3950343132019043 1.835947871208191 2.3944101333618164 5.457067489624023
        9.057679176330566 10.617908477783203 10.314871788024902 9.821062088012695 9.23951244354248 10.398585319519043
        11.690863609313965 11.259926795959473 11.484879493713379 10.577910423278809 11.061846733093262 10.506580352783203
        9.216215133666992 9.533306121826172 11.294858932495117 12.307433128356934 11.814099311828613 13.33689022064209
        3.1265432834625244 3.110414981842041 3.1044301986694336 2.863053560256958 2.9179580211639404 3.20161509513855
        3.251239061355591 3.012601613998413 3.0962069034576416 2.731754779815674 2.4014453887939453 1.8004118204116821
        1.4285411834716797 1.3720571994781494 0.5950500965118408 0.06936417520046234 0.11781884729862213 0.3343161642551422
        0.8114416003227234 1.1621928215026855 2.1265172958374023 2.6645147800445557 1.6782773733139038 1.8789172172546387
        1.145602822303772 1.898169994354248 1.6037918329238892 1.9963345527648926 1.8089739084243774 0.5384199619293213
        1.3996647596359253 2.147951126098633 3.967003107070923 5.018287658691406 4.883495807647705 5.195308685302734
        7.0516228675842285 8.469657897949219 8.399970054626465 8.30737018585205 8.71713638305664 8.793481826782227
        8.29498291015625 7.8465399742126465 7.543685436248779 8.052061080932617 8.669366836547852 9.286933898925781
        9.665492057800293 9.844437599182129 10.636417388916016 10.571321487426758 10.98184871673584 10.91219425201416
        10.585602760314941 10.257885932922363 10.421621322631836 10.166359901428223 9.897477149963379 9.300535202026367
        8.895898818969727 8.542803764343262 9.013526916503906 9.102490425109863 8.640049934387207 8.457406997680664
        8.328540802001953 8.455191612243652 8.616617202758789 8.622384071350098 8.49287223815918 8.423937797546387
        8.487469673156738 8.354939460754395 7.8345818519592285 7.744028091430664 7.944118499755859 8.60387897491455
        8.639283180236816 8.890508651733398 8.898703575134277 9.181496620178223 9.425320625305176 9.26609992980957
        8.889034271240234 8.624700546264648 8.412906646728516 8.4308443069458 8.374680519104004 8.520176887512207
        8.582514762878418 8.169607162475586 7.629694938659668 7.177793979644775 7.243960857391357 7.297693252563477
        7.305253505706787 7.695976734161377 8.221965789794922 8.223573684692383 8.363297462463379 8.740631103515625
        8.845492362976074 8.898530960083008 8.743143081665039 8.695491790771484 8.232892036437988 7.751641750335693
        8.247743606567383 8.303875923156738 8.10030746459961 6.404775619506836 6.656966209411621 7.728455543518066
        7.491276741027832 6.562149524688721 5.405922889709473 6.393324375152588 5.8631815910339355 5.916965961456299
        4.076542377471924 2.6969618797302246 1.2376961708068848 2.4373698234558105 4.214531421661377 6.680761814117432
        10.791159629821777 12.775284767150879 12.874845504760742 10.274823188781738 7.053893566131592 3.2041611671447754
        0.2890178859233856 2.348787784576416 2.9840686321258545 2.6831367015838623 0.9318010807037354 1.470213770866394
        0.748897910118103 1.548026204109192 1.9727832078933716 2.929615020751953 5.481805801391602 6.472959041595459
        6.296316623687744 6.798442363739014 7.857990264892578 10.3515625 11.939485549926758 11.351762771606445
        11.365429878234863 10.12643814086914 9.33995532989502 8.603248596191406 7.30022668838501 8.024828910827637
        9.275094985961914 11.217413902282715 12.351011276245117 13.467114448547363 2.993821382522583 2.8603501319885254
        2.8152003288269043 2.55802059173584 2.8180770874023438 3.0595099925994873 2.9157752990722656 2.760183572769165
        3.0137906074523926 2.9555766582489014 2.4008822441101074 1.8236668109893799 1.280502438545227 1.0679068565368652
        0.750566840171814 0.0750110074877739 0.8069916367530823 0.9841464757919312 0.34953173995018005 0.5849427580833435
        1.0420715808868408 1.3904014825820923 1.356663465499878 1.792710542678833 1.615498661994934 1.742793321609497
        1.4565203189849854 1.531552791595459 1.3959152698516846 1.213144063949585 1.4042983055114746 1.9740675687789917
        3.5089168548583984 3.6945667266845703 3.3794076442718506 3.542330503463745 5.460698127746582 6.868317127227783
        7.5250701904296875 8.140884399414062 8.298118591308594 7.8803229331970215 7.5313591957092285 7.383274078369141
        7.627957344055176 8.29152774810791 8.969572067260742 9.442760467529297 9.319214820861816 9.594401359558105
        10.463680267333984 10.754781723022461 10.931778907775879 10.706119537353516 10.584674835205078 10.254185676574707
        10.157758712768555 9.744512557983398 9.49132251739502 9.027587890625 8.725385665893555 8.742094993591309
        9.34209156036377 9.438191413879395 9.081435203552246 8.971134185791016 8.602137565612793 8.693838119506836
        8.71790599822998 8.60146427154541 8.50423526763916 8.3097562789917 8.392287254333496 8.330072402954102
        8.012675285339355 7.998444080352783 8.048117637634277 8.509501457214355 8.623255729675293 8.849198341369629
        9.005559921264648 9.362741470336914 9.4284086227417 9.250393867492676 8.963905334472656 9.235016822814941
        9.277334213256836 9.182531356811523 8.987812042236328 8.673004150390625 8.62681770324707 7.912074565887451
        7.084530353546143 6.914847373962402 7.535498142242432 7.917145252227783 7.663695812225342 7.676053524017334
        8.247172355651855 8.261456489562988 8.49459171295166 8.809483528137207 8.575225830078125 8.635771751403809
        7.944426536560059 7.51478385925293 7.4759111404418945 7.5559797286987305 8.318582534790039 7.81743860244751
        6.965296745300293 5.417172908782959 5.38239860534668 6.949424743652344 7.460541725158691 6.249831199645996
        4.732603073120117 4.117108345031738 3.9504523277282715 4.570079326629639 4.201569080352783 3.5189402103424072
        2.067859649658203 1.9469870328903198 1.8067580461502075 5.629831790924072 8.432613372802734 8.35781478881836
        7.8893303871154785 6.9636616706848145 4.658270835876465 2.3836681842803955 1.580507516860962 2.7933835983276367
        4.672604084014893 4.118046760559082 2.520258903503418 1.9403847455978394 2.2259366512298584 3.565342426300049
        3.03230619430542 0.726581335067749 3.280782461166382 4.620284080505371 4.790456295013428 6.317620277404785
        7.528278827667236 9.489185333251953 10.589067459106445 10.417981147766113 10.738081932067871 10.681085586547852
        9.618053436279297 9.684382438659668 8.22632884979248 8.245331764221191 8.539421081542969 10.286162376403809
        11.920334815979004 12.96773624420166 3.0012497901916504 2.8914377689361572 2.6006181240081787 2.4258925914764404
        2.736018419265747 3.0700342655181885 2.7840123176574707 2.5271427631378174 2.975571632385254 3.1360719203948975
        2.5908143520355225 2.0069470405578613 1.236425518989563 0.7919574975967407 0.1919059306383133 0.39307910203933716
        0.6331862211227417 0.36726441979408264 0.35792338848114014 0.4903022050857544 0.8295946717262268 1.1146905422210693
        1.2539945840835571 1.396404504776001 1.1030641794204712 1.2331494092941284 1.1716278791427612 0.8270304203033447
        0.44886544346809387 1.2769088745117188 1.55876886844635 1.6883996725082397 1.6211017370224 1.4790923595428467
        1.581490397453308 2.6658966541290283 4.613924026489258 5.594449043273926 6.7195868492126465 7.023609638214111
        7.221496105194092 7.12829065322876 6.935544013977051 7.336036682128906 7.8726911544799805 8.46291446685791
        9.12260913848877 9.332798957824707 9.554018020629883 9.6592435836792 10.056982040405273 9.837297439575195
        9.413246154785156 9.614768028259277 9.697365760803223 9.636259078979492 9.331822395324707 9.004304885864258
        9.120312690734863 8.971529960632324 9.031801223754883 9.057476043701172 9.221561431884766 9.253055572509766
        8.947449684143066 8.967757225036621 8.697874069213867 8.565230369567871 8.610794067382812 8.386809349060059
        8.047588348388672 7.950409412384033 8.04355239868164 8.248658180236816 7.948838710784912 7.763210296630859
        7.759322166442871 7.913671493530273 8.286577224731445 8.295160293579102 8.527341842651367 8.652623176574707
        8.404536247253418 8.475281715393066 8.704105377197266 9.207364082336426 9.1780424118042 8.799620628356934
        8.79348373413086 8.946487426757812 8.853899955749512 7.827175140380859 6.766517639160156 7.139937400817871
        8.170510292053223 8.952399253845215 8.798206329345703 8.134395599365234 8.49277400970459 8.428824424743652
        8.465463638305664 8.682822227478027 8.225921630859375 8.497481346130371 7.797289848327637 7.477158069610596
        8.210021018981934 8.408891677856445 8.810078620910645 8.107017517089844 7.43801736831665 6.407026290893555
        5.700464248657227 7.167445659637451 6.965630531311035 5.644566535949707 4.488773822784424 4.05427360534668
        4.43185567855835 4.5651631355285645 4.915006160736084 4.010362148284912 3.0116591453552246 2.5774784088134766
        2.077392101287842 2.212010622024536 4.592954158782959 4.552590370178223 4.6768717765808105 4.434357643127441
        3.9844393730163574 1.4261277914047241 2.847028970718384 3.8724822998046875 3.6147780418395996 3.278276205062866
        2.309990406036377 3.0748655796051025 2.828458547592163 3.9085781574249268 2.1173036098480225 1.4516106843948364
        2.0216333866119385 2.841461658477783 3.563220500946045 5.065686225891113 7.120016574859619 8.459294319152832
        8.507662773132324 9.137836456298828 9.969708442687988 10.761001586914062 9.319740295410156 10.190982818603516
        9.497005462646484 8.861485481262207 8.835552215576172 9.60649299621582 11.602270126342773 12.937224388122559
        2.4090728759765625 2.3456485271453857 2.076385974884033 2.072328567504883 2.4951562881469727 2.6578316688537598
        2.4167754650115967 2.3954572677612305 2.752488851547241 2.796675205230713 1.9858829975128174 1.3604278564453125
        0.6102961301803589 0.3895580768585205 1.32681143283844 1.8070122003555298 1.4745789766311646 0.8095940947532654
        0.4670182466506958 0.33603817224502563 0.5484525561332703 1.0064219236373901 1.1751513481140137 1.3342466354370117
        0.832265317440033 0.39972785115242004 0.46792182326316833 0.531534731388092 0.3437979221343994 1.2247552871704102
        1.5879775285720825 1.8008490800857544 1.2732188701629639 1.1009985208511353 1.4301939010620117 2.6489346027374268
        4.162046909332275 5.2081828117370605 6.269481182098389 6.107771873474121 6.453455448150635 6.3362627029418945
        6.775404930114746 7.372621536254883 8.118785858154297 8.629152297973633 9.381598472595215 9.713353157043457
        10.286623001098633 10.147876739501953 10.37853717803955 9.626836776733398 9.00181770324707 9.246843338012695
        9.42496395111084 9.214485168457031 8.674203872680664 8.60898208618164 9.071900367736816 9.191722869873047
        9.07751750946045 9.032574653625488 8.770527839660645 8.78455638885498 8.830520629882812 9.016168594360352
        8.796844482421875 8.538935661315918 8.484739303588867 8.254260063171387 7.7170023918151855 7.7280592918396
        7.774090766906738 8.215455055236816 8.225531578063965 7.919930458068848 7.766787528991699 7.7064104080200195
        8.13546085357666 8.02678108215332 8.057615280151367 8.15793228149414 8.158159255981445 8.322166442871094
        8.292325973510742 8.5112943649292 8.563698768615723 8.429239273071289 8.348556518554688 8.976295471191406
        9.032442092895508 8.641904830932617 7.93202018737793 8.033538818359375 8.693052291870117 9.474649429321289
        9.528190612792969 8.905534744262695 8.585116386413574 8.543832778930664 8.209146499633789 8.283953666687012
        7.6727447509765625 8.134763717651367 8.101957321166992 8.156800270080566 8.31367301940918 8.362571716308594
        7.9791579246521 8.097197532653809 7.41200590133667 6.68608283996582 5.977969169616699 6.5142502784729
        6.331365585327148 5.05452299118042 4.451009273529053 4.231664657592773 4.693217754364014 4.851508617401123
        4.97289514541626 4.773899078369141 3.811359167098999 2.04123592376709 0.7983067035675049 0.43194380402565
        1.822776198387146 1.1934351921081543 1.3706830739974976 1.9216911792755127 2.0945160388946533 1.0824280977249146
        3.1056020259857178 3.8745994567871094 2.6878068447113037 3.2818000316619873 3.1301865577697754 2.681312322616577
        2.7441554069519043 2.7518210411071777 1.3833975791931152 0.9060685634613037 1.8787271976470947 1.9358210563659668
        3.818369150161743 4.94288444519043 5.8456525802612305 5.918155193328857 6.548923969268799 8.114182472229004
        8.528434753417969 8.899574279785156 7.7313737869262695 9.531606674194336 9.557376861572266 9.995976448059082
        10.836980819702148 11.192437171936035 12.68440055847168 13.251791000366211 1.8228572607040405 1.9816527366638184
        1.6576993465423584 1.4202409982681274 1.4735801219940186 1.5729700326919556 1.903828501701355 2.0067150592803955
        2.383321762084961 2.585256576538086 2.25754976272583 1.6562139987945557 0.6462664008140564 1.758641242980957
        3.4766674041748047 3.4636294841766357 2.213994264602661 1.2253739833831787 1.0920218229293823 1.0005098581314087
        0.20379510521888733 0.7478415369987488 1.2209937572479248 1.4297997951507568 1.040307641029358 0.29079243540763855
        0.23277509212493896 0.4238247871398926 0.4515802562236786 1.4224830865859985 1.4190670251846313 1.4274083375930786
        1.2417112588882446 0.9008781909942627 1.4307458400726318 2.661184549331665 3.8560996055603027 4.488682270050049
        5.241231441497803 4.920222282409668 5.23575496673584 5.487234592437744 5.97432279586792 6.4232635498046875
        7.53572416305542 8.477876663208008 9.315620422363281 9.236230850219727 9.77055835723877 9.76555347442627
        10.449597358703613 9.67099666595459 9.14907169342041 9.238869667053223 8.975286483764648 8.682928085327148
        8.517138481140137 8.800902366638184 9.194772720336914 8.95283317565918 8.941628456115723 8.87739372253418
        8.493688583374023 8.396905899047852 8.40047550201416 8.682426452636719 8.464277267456055 8.238177299499512
        8.187458038330078 7.942607879638672 7.652408123016357 7.588418960571289 7.645334243774414 8.033659934997559
        8.124149322509766 8.085838317871094 7.8648247718811035 7.907553672790527 8.029979705810547 7.949148178100586
        8.105009078979492 8.116613388061523 8.33300495147705 8.377392768859863 8.046936988830566 7.9789862632751465
        7.828700065612793 8.412622451782227 8.564690589904785 9.212468147277832 9.364008903503418 9.190083503723145
        8.965622901916504 9.125885009765625 9.259025573730469 9.44844913482666 9.532878875732422 9.467778205871582
        9.083820343017578 8.805843353271484 8.053756713867188 7.863534450531006 7.434256076812744 7.917098522186279
        8.042474746704102 8.551934242248535 7.951864242553711 7.681827068328857 7.295994758605957 7.538909435272217
        7.407938003540039 6.816065788269043 6.126796722412109 5.88775110244751 5.535647869110107 4.767450332641602
        4.5955610275268555 4.3494086265563965 4.631628036499023 4.914756774902344 5.401212215423584 5.054599285125732
        4.448315620422363 2.5095272064208984 2.116831064224243 0.8732659816741943 1.1853888034820557 1.3954310417175293
        1.1530050039291382 1.720893383026123 0.484989732503891 1.2794159650802612 3.8394775390625 3.4718074798583984
        3.486168146133423 4.47619104385376 4.63083553314209 3.7114028930664062 4.777490139007568 4.227721214294434
        3.8377487659454346 3.7454006671905518 3.6951067447662354 3.8107199668884277 3.565094232559204 2.886496067047119
        2.7799649238586426 3.2598319053649902 5.255346775054932 6.954011917114258 6.798923492431641 6.324983596801758
        6.062734603881836 8.778473854064941 9.477726936340332 10.468252182006836 10.910274505615234 11.402037620544434
        12.993621826171875 13.498258590698242 1.7945148944854736 1.9030365943908691 1.6394662857055664 1.0329176187515259
        0.9314334988594055 0.9772682189941406 1.0795081853866577 1.191517949104309 1.7510098218917847 2.1000585556030273
        2.233380079269409 1.1828325986862183 1.357809066772461 2.739574670791626 3.546351671218872 3.4654500484466553
        2.7890255451202393 1.851122260093689 1.4751627445220947 1.3602606058120728 1.1899187564849854 0.6032918095588684
        1.1448721885681152 1.3687849044799805 0.7933798432350159 0.3632568120956421 0.2035399079322815 0.04789932444691658
        0.7284827828407288 1.3601915836334229 1.5710115432739258 1.288650631904602 1.013688087463379 0.912075400352478
        1.40822434425354 2.0647037029266357 3.201268196105957 4.142637729644775 5.012122631072998 4.38418436050415
        4.427724838256836 4.931949138641357 5.699117660522461 5.995941162109375 7.207373142242432 8.252530097961426
        9.241596221923828 9.275016784667969 9.594290733337402 9.536077499389648 9.920920372009277 9.756516456604004
        9.633865356445312 9.319910049438477 8.878706932067871 8.326492309570312 8.391921997070312 8.647581100463867
        8.57546329498291 8.344529151916504 8.591548919677734 8.607975959777832 8.240484237670898 8.063434600830078
        8.184170722961426 8.440740585327148 8.284287452697754 8.063254356384277 7.939657688140869 7.572333812713623
        7.594019412994385 7.477342128753662 7.694045543670654 7.90355920791626 8.035567283630371 8.038285255432129
        7.901004314422607 8.1571626663208 8.330004692077637 8.20974063873291 8.128973960876465 8.13714599609375
        8.301033973693848 8.197486877441406 8.094419479370117 8.081842422485352 7.922881603240967 8.638627052307129
        9.103652000427246 9.376092910766602 9.510381698608398 9.786211013793945 9.603799819946289 9.310245513916016
        9.469919204711914 9.419844627380371 9.432344436645508 9.253368377685547 9.219528198242188 8.653111457824707
        7.917514324188232 7.351977348327637 7.29170560836792 7.538474082946777 7.2682600021362305 7.423979759216309
        6.861213684082031 6.716183662414551 7.4043869972229 7.420109272003174 6.910086154937744 6.551281452178955
        6.301703929901123 6.063614845275879 5.7721662521362305 5.161450386047363 4.602792263031006 4.333314418792725
        4.6968512535095215 5.009007453918457 5.469912052154541 5.115906715393066 4.911747455596924 3.5198607444763184
        1.9072654247283936 0.35124868154525757 0.4100293517112732 0.4127965569496155 1.014074683189392 1.659879207611084
        1.3473460674285889 2.3749423027038574 3.6683602333068848 3.216693162918091 4.278520584106445 4.99666166305542
        4.915714740753174 4.923829078674316 4.2171311378479 5.0321149826049805 5.18997049331665 4.745058536529541
        4.176915168762207 3.7077529430389404 3.051650047302246 1.1497104167938232 1.320945382118225 2.8295083045959473
        3.3704617023468018 3.4172139167785645 2.8305108547210693 4.663362503051758 5.566838264465332 8.15588665008545
        9.082218170166016 10.034658432006836 9.889554023742676 11.556396484375 13.132014274597168 13.487295150756836
        2.182908296585083 2.409005641937256 2.275240182876587 1.3078221082687378 0.927203357219696 1.0011694431304932
        0.8195174932479858 0.8092754483222961 1.4542067050933838 2.0256221294403076 2.32606840133667 1.800871729850769
        0.8858681917190552 1.9433059692382812 3.1735682487487793 3.2336513996124268 3.112638473510742 2.3856377601623535
        1.9742467403411865 1.6727344989776611 1.8242387771606445 0.9607696533203125 1.0297036170959473 1.2151966094970703
        0.7436190247535706 0.30895063281059265 0.5050085783004761 0.34569209814071655 0.34878185391426086 1.0828361511230469
        1.7184468507766724 1.2365449666976929 0.7822374105453491 0.7089990377426147 1.1798027753829956 1.8319987058639526
        2.450896978378296 2.953537940979004 3.710672616958618 3.19427227973938 3.4343979358673096 3.5650854110717773
        4.381610870361328 4.587543964385986 6.110462188720703 7.593744277954102 8.272592544555664 8.48818302154541
        8.636587142944336 9.448232650756836 9.734386444091797 9.436239242553711 9.185935020446777 8.945371627807617
        8.551525115966797 8.266630172729492 8.218042373657227 8.297792434692383 8.046782493591309 8.029448509216309
        8.261555671691895 8.269604682922363 8.087796211242676 8.058183670043945 8.00893783569336 7.97182035446167
        7.567533493041992 7.460735321044922 7.610764026641846 7.359868049621582 7.469967365264893 7.308434963226318
        7.6892805099487305 7.898343086242676 7.884125232696533 8.131381034851074 8.066547393798828 8.250380516052246
        8.227770805358887 8.123668670654297 8.151823997497559 8.080005645751953 8.260910034179688 8.206587791442871
        8.09335708618164 7.996453285217285 7.923131465911865 8.826973915100098 9.31169605255127 9.621933937072754
        9.57839298248291 9.615118026733398 9.446551322937012 9.202168464660645 9.391861915588379 9.241018295288086
        9.305309295654297 9.076902389526367 9.097036361694336 8.2559814453125 7.9549713134765625 7.791990280151367
        7.660341262817383 7.352842330932617 6.941577911376953 6.864141941070557 6.63783073425293 6.526042938232422
        6.699054718017578 7.161960124969482 7.068286895751953 6.868074417114258 6.405025005340576 6.463677883148193
        6.137814044952393 5.664845943450928 5.322262763977051 4.846608638763428 4.771876335144043 4.588620662689209
        4.562485218048096 4.860106945037842 4.665008068084717 4.200275421142578 2.132094621658325 1.5222529172897339
        1.1873196363449097 0.560624361038208 0.6308478116989136 1.0153977870941162 2.248986005783081 2.635523796081543
        2.856112480163574 3.400878429412842 4.918923854827881 5.996086597442627 6.626265525817871 6.07619047164917
        4.4682464599609375 5.504177093505859 5.5967864990234375 4.298747539520264 3.7183821201324463 4.138948440551758
        4.4952921867370605 3.3203864097595215 2.3655614852905273 3.484110116958618 3.6456708908081055 4.575739860534668
        4.408560276031494 5.9571332931518555 6.909656047821045 8.481678009033203 9.1860990524292 9.612272262573242
        9.619940757751465 11.593003273010254 13.137557983398438 13.620338439941406 2.358707904815674 2.4160706996917725
        2.229825496673584 1.5204776525497437 1.081264615058899 0.9022340774536133 0.5935314893722534 0.5629503130912781
        1.163826584815979 1.4684171676635742 2.2124598026275635 1.7503660917282104 0.861501157283783 1.1893281936645508
        3.0578887462615967 3.6496405601501465 3.800603151321411 3.2248876094818115 2.430255651473999 2.223909854888916
        2.610286235809326 2.03202486038208 1.3616917133331299 1.2010085582733154 0.48172497749328613 0.46785518527030945
        0.10730193555355072 0.14835897088050842 0.37218189239501953 1.1257685422897339 1.859234094619751 0.9379128217697144
        0.38594499230384827 1.0059010982513428 1.0724451541900635 1.5812420845031738 2.161503553390503 2.354405403137207
        2.907438278198242 2.347475051879883 2.6926610469818115 2.595968246459961 3.156606912612915 3.556016683578491
        4.793147087097168 6.206750392913818 7.282736301422119 7.888357639312744 8.082376480102539 9.253966331481934
        9.362893104553223 8.949109077453613 8.266069412231445 8.515758514404297 8.6071195602417 8.446593284606934
        8.203153610229492 8.130949974060059 8.021162033081055 7.776020526885986 7.726498126983643 7.899808406829834
        7.85192346572876 7.84580659866333 7.452404975891113 7.396297454833984 7.3882293701171875 7.364827632904053
        7.477192401885986 6.9437127113342285 7.067293167114258 7.146227836608887 7.62430477142334 7.875182628631592
        7.847752571105957 8.021810531616211 8.213998794555664 8.27039909362793 8.381927490234375 8.280170440673828
        8.159521102905273 7.994728088378906 8.282061576843262 8.722159385681152 8.408851623535156 7.969951152801514
        8.123517036437988 8.74384593963623 9.228447914123535 9.714210510253906 9.925466537475586 9.924927711486816
        9.395261764526367 9.120055198669434 9.134594917297363 9.312312126159668 9.431562423706055 8.830926895141602
        8.95816707611084 7.936656475067139 7.851768493652344 7.620735168457031 7.466609001159668 7.020798206329346
        6.495909690856934 6.595547199249268 6.692328453063965 6.770657062530518 6.950739860534668 6.955924987792969
        6.602136135101318 6.71471643447876 6.57763147354126 7.14269495010376 6.321320533752441 6.019465446472168
        5.543014049530029 5.149164199829102 4.840067386627197 4.195923328399658 4.045966625213623 4.227973937988281
        4.209588050842285 3.764645576477051 2.2276010513305664 1.9226679801940918 1.8581936359405518 0.5739945769309998
        0.6888991594314575 0.5230389833450317 0.8384134769439697 1.356811285018921 2.4563255310058594 4.1670660972595215
        4.898818016052246 6.4383368492126465 7.695278644561768 7.164186954498291 5.381993770599365 6.559372425079346
        7.049098014831543 6.311835765838623 5.620415687561035 5.6805500984191895 4.797508716583252 3.399482011795044
        2.9796156883239746 4.17514705657959 3.7267777919769287 4.858306407928467 4.603386878967285 6.10785436630249
        6.232521057128906 7.035970211029053 7.497182846069336 8.317509651184082 10.1671724319458 11.834460258483887
        12.725966453552246 12.609374046325684 2.904296636581421 2.6005148887634277 2.146411180496216 1.1893759965896606
        0.7607327699661255 0.578074038028717 0.609767496585846 0.505215048789978 1.075393795967102 1.1693700551986694
        1.8947553634643555 1.9018841981887817 0.9201563000679016 1.3175138235092163 3.000037670135498 4.744045734405518
        5.027105808258057 4.8202667236328125 3.997948408126831 3.5855183601379395 3.6297271251678467 2.8592991828918457
        1.5556082725524902 1.156630277633667 0.8270397782325745 1.0541805028915405 0.23310716450214386 0.6130991578102112
        0.10410928726196289 0.3952861726284027 0.8710473775863647 0.4799821376800537 0.3750496506690979 0.8761999011039734
        0.9673079252243042 1.1212784051895142 1.6171220541000366 1.6925804615020752 2.297297477722168 2.2402451038360596
        2.7466938495635986 2.8629798889160156 2.812300682067871 3.2050089836120605 3.907470464706421 5.817839622497559
        6.8709893226623535 7.535084247589111 7.870425701141357 9.292054176330566 10.15854549407959 9.721102714538574
        8.431232452392578 8.536904335021973 8.497641563415527 8.61762809753418 8.47158145904541 8.458113670349121
        8.369941711425781 7.931570529937744 7.639804840087891 7.611316680908203 7.557895183563232 7.519554615020752
        7.273347854614258 7.10890007019043 7.15574836730957 6.937708377838135 7.165144443511963 6.881296634674072
        6.890501976013184 7.130746841430664 7.41300106048584 7.7052178382873535 7.759295463562012 8.066380500793457
        8.414064407348633 8.248686790466309 8.2980375289917 8.354522705078125 8.241822242736816 8.105623245239258
        8.247017860412598 8.494504928588867 8.375041961669922 8.417393684387207 8.803384780883789 8.901589393615723
        8.964285850524902 9.4855318069458 9.888114929199219 9.861391067504883 9.315460205078125 8.950161933898926
        8.906051635742188 8.834465026855469 9.048084259033203 8.508218765258789 8.470307350158691 7.876071929931641
        7.6836419105529785 7.688553810119629 7.2828192710876465 6.640503883361816 6.340423583984375 6.421611785888672
        6.535929203033447 6.395254135131836 6.6256303787231445 6.859676361083984 6.457995891571045 6.559186935424805
        6.531631946563721 6.772838592529297 6.28640079498291 5.92179012298584 5.797109127044678 5.396459579467773
        4.800686836242676 4.554290294647217 4.396175861358643 4.427765369415283 3.9574124813079834 3.3115944862365723
        2.7775142192840576 1.9647636413574219 1.2252779006958008 0.6754533052444458 1.2369492053985596 1.1451350450515747
        1.1314173936843872 1.9174134731292725 2.9813895225524902 4.163632869720459 4.0185370445251465 5.615001201629639
        7.070948600769043 8.351387977600098 7.825260162353516 7.9226179122924805 7.584165096282959 8.010163307189941
        7.64489221572876 6.736245155334473 4.8559794425964355 2.974841594696045 3.5522313117980957 3.2432003021240234
        2.8315963745117188 4.078597068786621 4.595489978790283 4.892461776733398 5.280040264129639 4.808012008666992
        4.670357704162598 5.443551063537598 8.238680839538574 10.22338581085205 11.044438362121582 11.056695938110352
        3.0052895545959473 2.479156494140625 1.7418736219406128 0.4709298014640808 0.3145751953125 0.12815964221954346
        0.570317804813385 0.37678349018096924 1.0082944631576538 1.012459635734558 1.7732012271881104 1.770009994506836
        0.7149115204811096 1.447645664215088 2.7722136974334717 3.972970962524414 3.8538432121276855 4.414877414703369
        4.102601051330566 4.2224836349487305 4.154475212097168 3.2942326068878174 1.3212344646453857 0.40597498416900635
        0.7304471135139465 0.7456267476081848 0.7798243761062622 0.4163321852684021 0.39570364356040955 0.5801279544830322
        0.9523540735244751 0.9198129773139954 0.8019360899925232 0.6408642530441284 0.7126600742340088 0.9391731023788452
        1.3093012571334839 1.5030525922775269 1.756005048751831 2.01115345954895 2.362917900085449 2.525840997695923
        1.8661431074142456 2.2103540897369385 2.3727314472198486 4.3177032470703125 5.301691055297852 6.858173847198486
        7.795018672943115 9.110283851623535 9.58156681060791 9.125882148742676 7.988788604736328 8.234068870544434
        8.402107238769531 8.623570442199707 8.284764289855957 8.055116653442383 8.067145347595215 7.512028694152832
        7.426609992980957 7.433708667755127 7.3446044921875 7.270899295806885 7.107757568359375 7.192868232727051
        7.327131748199463 6.9250335693359375 7.055053234100342 6.701251029968262 7.015750408172607 7.024366855621338
        7.085485935211182 7.327638149261475 7.413424015045166 8.04790210723877 8.199493408203125 8.15970516204834
        8.132261276245117 8.099913597106934 8.108563423156738 7.888604164123535 8.018547058105469 8.090617179870605
        8.20341682434082 8.704635620117188 8.898332595825195 8.753636360168457 8.622743606567383 9.232955932617188
        9.81904411315918 9.719425201416016 9.445326805114746 9.185303688049316 8.93880844116211 8.782663345336914
        8.777277946472168 8.499045372009277 8.427986145019531 7.773281097412109 7.593480110168457 7.541266441345215
        7.243042469024658 6.671849727630615 6.417172908782959 6.749207973480225 6.462839603424072 6.150893211364746
        6.53992223739624 6.594083309173584 6.472516059875488 6.278326988220215 6.4352850914001465 6.483057498931885
        6.346703052520752 6.2144341468811035 5.8198418617248535 5.450598239898682 5.211705207824707 5.252107620239258
        4.978362083435059 4.565881252288818 4.1962690353393555 3.875488042831421 3.1789636611938477 2.0958986282348633
        1.5958858728408813 0.7134929299354553 1.4141803979873657 1.2571392059326172 1.391658067703247 2.2531213760375977
        2.3201022148132324 2.4275476932525635 1.6151937246322632 2.9769294261932373 4.332976818084717 7.2438788414001465
        6.870635032653809 6.917333602905273 7.274936199188232 8.524365425109863 8.583247184753418 7.8766889572143555
        7.088590621948242 6.780952453613281 6.230181694030762 3.0747392177581787 1.428952932357788 1.7148587703704834
        2.3806848526000977 2.2929370403289795 3.7218987941741943 4.856532573699951 3.710601568222046 3.445462226867676
        4.823483467102051 8.032774925231934 9.051513671875 9.383302688598633 2.2860488891601562 2.107726573944092
        1.345815658569336 0.2740755081176758 0.2968403100967407 0.1932457834482193 0.24102044105529785 0.8418536186218262
        1.0799366235733032 1.0186244249343872 1.292196273803711 0.7502664923667908 0.9238536357879639 2.2950828075408936
        2.292146921157837 2.5387823581695557 2.9649534225463867 4.1443586349487305 4.371873378753662 4.538392543792725
        3.475830316543579 2.964846611022949 2.150078296661377 1.0645430088043213 0.12966568768024445 0.2382626086473465
        0.5045533776283264 0.6266044974327087 0.48939210176467896 1.027152419090271 0.9469422698020935 1.1030014753341675
        1.0828237533569336 0.6414769887924194 0.4058876931667328 0.4994738698005676 1.0184589624404907 1.2694717645645142
        1.2912871837615967 2.220085859298706 2.77461838722229 2.9116923809051514 1.8609589338302612 1.507786750793457
        1.57095205783844 3.4008047580718994 5.117461204528809 7.539155006408691 8.373909950256348 9.381991386413574
        9.486842155456543 9.516117095947266 8.47976016998291 8.350065231323242 8.372420310974121 8.477880477905273
        8.109966278076172 7.984885215759277 8.013663291931152 7.537647247314453 7.396929740905762 7.220303535461426
        7.204280853271484 6.987926006317139 6.856184959411621 6.830227375030518 6.920591354370117 6.803791522979736
        6.943777084350586 6.8784003257751465 7.15647029876709 6.905486583709717 6.934916019439697 7.10912561416626
        7.473161697387695 7.966878414154053 7.8899030685424805 8.01611042022705 7.894874095916748 7.87076997756958
        8.012929916381836 7.858012676239014 7.798157215118408 7.653970241546631 8.102843284606934 8.632689476013184
        8.588374137878418 8.666739463806152 8.670451164245605 9.286885261535645 9.404683113098145 9.282565116882324
        9.18101978302002 9.191186904907227 8.941010475158691 8.568961143493652 8.398615837097168 8.463977813720703
        8.41495418548584 8.169942855834961 8.137993812561035 7.774265766143799 7.591988563537598 7.327902793884277
        6.917898178100586 6.787822246551514 5.963766098022461 6.0350518226623535 6.199309825897217 6.57774019241333
        6.437678337097168 6.23415470123291 6.179387092590332 6.152340412139893 6.007966995239258 6.016734600067139
        5.90097713470459 5.646667003631592 5.802897930145264 5.940405368804932 5.854785919189453 4.967737674713135
        4.66630744934082 4.398720741271973 3.7773163318634033 2.5014545917510986 1.651097059249878 0.3565981090068817
        1.3771427869796753 1.4285603761672974 0.7351200580596924 1.623600959777832 1.5523591041564941 2.1092395782470703
        1.8024944067001343 1.8500176668167114 2.7699460983276367 6.279341697692871 6.710117816925049 6.5570173263549805
        6.470175266265869 7.828765392303467 8.829195022583008 8.179645538330078 8.481023788452148 9.206061363220215
        8.270858764648438 4.740133285522461 3.451768636703491 4.230205535888672 3.75685715675354 1.2819606065750122
        1.9218069314956665 2.946153163909912 2.5730538368225098 3.084160327911377 2.9305553436279297 4.988957405090332
        5.567512035369873 6.819921970367432 1.7519465684890747 1.6188008785247803 1.3364496231079102 0.6647542715072632
        0.9027448892593384 0.8934153914451599 0.6933889985084534 0.9185675978660583 1.0916849374771118 1.0696139335632324
        0.5456483364105225 0.7764067053794861 1.7907472848892212 2.18833327293396 1.5955522060394287 2.0524697303771973
        2.927277088165283 3.484858274459839 3.6379122734069824 4.4213457107543945 3.876718521118164 3.5956313610076904
        2.2652246952056885 2.325491428375244 1.4474416971206665 1.299950361251831 1.1696668863296509 1.7275481224060059
        0.8814853429794312 1.3420321941375732 1.3296328783035278 1.5856549739837646 1.022025227546692 0.4543927311897278
        0.3161500096321106 0.5622686743736267 1.2483006715774536 1.368234395980835 1.6550266742706299 2.6061081886291504
        2.8994174003601074 2.7464118003845215 1.6192023754119873 0.7764537334442139 0.5758801698684692 1.3590540885925293
        2.5702853202819824 5.74865198135376 7.342098712921143 8.644733428955078 8.85670280456543 8.602200508117676
        8.065649032592773 8.078568458557129 8.200364112854004 8.104223251342773 7.7809739112854 7.7108659744262695
        7.647247314453125 7.468586444854736 7.262387275695801 6.912222862243652 6.972810745239258 6.728003025054932
        6.493674278259277 6.462968349456787 6.669330596923828 6.69498872756958 6.7091064453125 6.6734843254089355
        7.237880706787109 7.126427173614502 7.159765720367432 7.320763111114502 7.503254413604736 8.06436538696289
        8.07568359375 8.223658561706543 8.016913414001465 8.023285865783691 8.287154197692871 7.985508441925049
        7.927459239959717 7.983081817626953 8.461318016052246 8.850852966308594 8.575216293334961 8.934210777282715
        8.848209381103516 9.288284301757812 9.268064498901367 9.05069637298584 9.023616790771484 9.17540168762207
        8.842635154724121 8.464492797851562 8.303559303283691 8.490887641906738 8.57214069366455 8.205896377563477
        7.9162373542785645 7.583603858947754 7.726871490478516 7.711180686950684 7.043054580688477 6.709227085113525
        6.170742988586426 6.445820331573486 6.27808141708374 6.547889709472656 6.327803134918213 6.147423267364502
        6.353339195251465 6.235299587249756 6.154379844665527 6.247015476226807 6.436514377593994 5.967714786529541
        6.161755084991455 6.205927848815918 6.075807571411133 5.622973918914795 5.139336109161377 5.037424564361572
        4.4577226638793945 3.540588140487671 2.565312385559082 0.8656076788902283 0.26952001452445984 0.6243895292282104
        0.28979235887527466 0.423921674489975 0.5284311175346375 1.5441912412643433 2.370836019515991 2.513298749923706
        3.241992712020874 5.122305393218994 5.969035625457764 5.902891159057617 5.748020172119141 7.4472503662109375
        8.594481468200684 8.123289108276367 8.60384750366211 9.451010704040527 9.264230728149414 5.91790246963501
        5.499889850616455 6.763667583465576 6.419409275054932 3.7710330486297607 2.0933847427368164 1.7406998872756958
        3.1278326511383057 2.2088286876678467 2.182950019836426 3.507460117340088 3.869335174560547 4.609342098236084
        2.014782428741455 1.341820240020752 1.5712918043136597 1.3883789777755737 1.5170124769210815 1.4945552349090576
        1.1769227981567383 1.3140052556991577 1.294995665550232 0.8910591006278992 0.5048075318336487 1.5340007543563843
        2.41618013381958 1.8603942394256592 1.275477647781372 1.673112392425537 2.5639376640319824 2.770538806915283
        3.278549909591675 4.150702953338623 3.527202844619751 2.6113240718841553 1.6466697454452515 2.220787763595581
        2.3622536659240723 2.056591272354126 0.9297224283218384 1.6128143072128296 1.145325779914856 1.261511206626892
        0.7151625156402588 0.8441762924194336 1.0252693891525269 0.6538965702056885 0.6645256280899048 0.8975445628166199
        1.7235093116760254 1.8073234558105469 2.2051854133605957 3.3013765811920166 3.516619920730591 3.336890697479248
        2.305036783218384 1.7232298851013184 1.4263279438018799 1.8256657123565674 1.2150269746780396 4.008410453796387
        6.064803123474121 7.993800640106201 8.64538860321045 8.076799392700195 7.666635513305664 7.6667256355285645
        7.704031944274902 7.480045318603516 7.416882038116455 7.1356377601623535 7.082747459411621 7.250196933746338
        7.124795436859131 6.687483787536621 6.538793087005615 6.617023944854736 6.3974127769470215 6.283132553100586
        6.315927982330322 6.25602912902832 6.499804973602295 6.483433723449707 6.957805633544922 6.899807453155518
        7.091026782989502 7.573246955871582 7.718406677246094 8.127259254455566 7.980429649353027 8.001093864440918
        8.103558540344238 8.308892250061035 8.44897174835205 8.119303703308105 8.032705307006836 8.404653549194336
        8.878263473510742 9.103249549865723 8.872939109802246 8.981574058532715 8.980462074279785 9.057451248168945
        8.944255828857422 8.814903259277344 8.634374618530273 8.838074684143066 8.575167655944824 8.337164878845215
        8.17565631866455 8.198652267456055 8.327722549438477 7.92288064956665 7.705180644989014 7.439495086669922
        7.577014923095703 7.712299823760986 6.679480075836182 6.340615272521973 5.814107894897461 6.1971354484558105
        6.168062210083008 6.265246868133545 6.1280059814453125 6.13120698928833 6.457269191741943 6.528972148895264
        6.179576873779297 6.359524726867676 6.637301921844482 6.19941520690918 6.312554836273193 5.964582920074463
        6.0720624923706055 5.437803745269775 4.860680103302002 4.759558200836182 4.926717281341553 4.761255741119385
        3.753619909286499 3.241178035736084 2.580203056335449 1.6891834735870361 0.9276081323623657 0.7281932830810547
        1.2158068418502808 1.9798096418380737 2.5449767112731934 2.6621017456054688 3.444194793701172 4.790719985961914
        6.163148403167725 5.431182384490967 4.953134059906006 6.427000045776367 7.650069713592529 7.402008056640625
        6.3840250968933105 7.169591903686523 7.904911041259766 7.052026271820068 7.678299427032471 7.124590873718262
        6.2344231605529785 4.576444149017334 5.13587760925293 5.3234758377075195 4.303654670715332 2.664539098739624
        1.9918787479400635 2.654388904571533 3.04368257522583 3.717026710510254 2.8503289222717285 1.994940161705017
        2.0596423149108887 1.3964345455169678 1.9025471210479736 1.7898228168487549 1.7464606761932373 1.1747405529022217
        0.9363260269165039 0.6314621567726135 0.7156090140342712 1.3121122121810913 1.9515968561172485 1.6259808540344238
        0.834575355052948 1.6899785995483398 2.316533327102661 2.7292590141296387 2.6396822929382324 3.419025421142578
        3.2211945056915283 2.210742235183716 2.2412121295928955 2.961256265640259 3.267803430557251 2.318375825881958
        1.1291279792785645 1.710991382598877 1.7218836545944214 2.081981897354126 0.8334444165229797 0.7534749507904053
        1.4005557298660278 1.3958333730697632 1.1607359647750854 0.9096155762672424 1.2270187139511108 1.4966150522232056
        2.262061834335327 2.9674882888793945 3.1856367588043213 3.312408447265625 2.6380043029785156 2.151779890060425
        1.8100255727767944 1.9914145469665527 1.6288704872131348 2.8601038455963135 4.3793487548828125 6.571345329284668
        7.510575771331787 7.620832443237305 8.011157989501953 8.090478897094727 8.001235008239746 7.387814521789551
        6.928696155548096 6.76235294342041 6.9335503578186035 7.1125640869140625 7.036586761474609 6.632259845733643
        6.480052947998047 6.64813756942749 6.683570861816406 6.667551517486572 6.756464004516602 6.501072406768799
        6.4464497566223145 6.721682071685791 6.862091541290283 6.9349212646484375 7.078639030456543 7.659838676452637
        7.7997541427612305 8.138484001159668 8.333257675170898 8.349530220031738 8.35214900970459 8.275566101074219
        8.635272979736328 8.761155128479004 8.877948760986328 8.984580039978027 9.215446472167969 9.207067489624023
        9.215189933776855 9.259056091308594 9.070613861083984 8.842978477478027 8.635533332824707 8.667837142944336
        8.645605087280273 8.77853012084961 8.386693000793457 8.117030143737793 8.017997741699219 8.024291038513184
        8.168100357055664 7.941069602966309 7.498456001281738 7.293429851531982 7.2428107261657715 7.445155143737793
        6.754392623901367 6.248655796051025 5.9822163581848145 5.954415321350098 5.992500305175781 5.985281467437744
        5.965085029602051 6.129261493682861 6.327534198760986 6.641104221343994 6.586508750915527 6.659030437469482
        6.857723236083984 6.501486301422119 5.828756809234619 5.786688804626465 5.655098915100098 5.153306484222412
        4.64736795425415 4.90383768081665 5.960651397705078 5.7924957275390625 5.065972805023193 4.220362663269043
        4.009710311889648 3.0764012336730957 1.9147093296051025 1.6068458557128906 1.7528873682022095 2.000685214996338
        1.9419400691986084 2.3018715381622314 3.106666088104248 4.356766223907471 5.364205360412598 5.444245338439941
        5.971511363983154 6.748849391937256 8.413307189941406 7.929380416870117 6.489055633544922 6.843837261199951
        7.640121936798096 9.20917797088623 8.61866283416748 6.600449562072754 5.084083080291748 5.397706031799316
        6.091460704803467 5.20453405380249 3.849525213241577 2.4336912631988525 0.6556472778320312 1.6801166534423828
        2.73732852935791 2.5953333377838135 2.7035434246063232 2.156975030899048 1.945845127105713 1.2395365238189697
        1.694615364074707 1.7619742155075073 2.150096893310547 1.5182510614395142 1.272248387336731 0.9236006736755371
        1.1860262155532837 1.6250759363174438 1.8727331161499023 1.6709064245224 0.43472519516944885 1.0529825687408447
        1.683874487876892 2.281965494155884 2.5004560947418213 3.2296926975250244 3.3955113887786865 2.6194260120391846
        2.9874401092529297 3.1830220222473145 3.65854811668396 2.998638391494751 2.040104627609253 1.0916588306427002
        0.6350250244140625 0.572776734828949 1.2410961389541626 1.1808141469955444 1.666515827178955 1.60957670211792
        1.7141655683517456 1.1823713779449463 0.9055145978927612 0.9654300808906555 1.5066649913787842 2.638442277908325
        2.5785446166992188 2.098127603530884 1.7718195915222168 1.7217886447906494 1.3170195817947388 1.2899166345596313
        1.7105157375335693 2.8831393718719482 4.8676934242248535 6.309788703918457 6.748191833496094 7.071866035461426
        7.491682052612305 7.677907466888428 7.545835018157959 6.951998710632324 6.425184726715088 6.277807712554932
        6.6785888671875 6.632084369659424 6.81740665435791 6.5397138595581055 6.393359661102295 6.5072479248046875
        6.572227478027344 7.170860767364502 7.25856876373291 6.940925598144531 6.742740631103516 7.005011558532715
        7.112279891967773 7.244609355926514 7.2816996574401855 7.762130260467529 7.684356689453125 7.968350410461426
        8.156196594238281 8.15610408782959 8.224849700927734 8.209505081176758 8.915900230407715 8.963088035583496
        9.147696495056152 9.246111869812012 9.375544548034668 9.334722518920898 9.265230178833008 9.14103889465332
        8.864556312561035 8.512805938720703 8.424708366394043 8.419820785522461 8.520711898803711 8.685247421264648
        8.250035285949707 8.193694114685059 7.975835800170898 8.106974601745605 8.183072090148926 7.9763360023498535
        7.898714542388916 7.573901176452637 7.4375128746032715 7.368778228759766 6.469248294830322 5.984848499298096
        5.8615336418151855 5.940426826477051 5.854763031005859 5.702946186065674 5.773043632507324 5.769363880157471
        5.871024131774902 6.269320964813232 6.147231578826904 6.742127895355225 6.700023651123047 6.594045162200928
        5.633056640625 5.722652435302734 5.8382344245910645 5.336958408355713 5.057007789611816 5.353627681732178
        6.0770673751831055 5.979372024536133 5.684399127960205 4.971096038818359 4.803053855895996 3.6899266242980957
        2.5672082901000977 2.2342443466186523 2.70424485206604 2.8540661334991455 2.3195559978485107 2.5372140407562256
        2.9198086261749268 3.9107775688171387 5.1301069259643555 4.720390796661377 5.157590389251709 5.188232898712158
        7.7644524574279785 6.827193260192871 5.932565212249756 7.209345817565918 8.160298347473145 10.066154479980469
        8.789746284484863 7.703625202178955 5.940581798553467 5.925513744354248 5.706463813781738 4.957420825958252
        4.642938613891602 3.590202569961548 1.4939117431640625 0.45049282908439636 1.7453720569610596 2.028590202331543
        1.996462106704712 1.9813519716262817 1.8465919494628906 1.5182673931121826 1.563360333442688 1.5818299055099487
        1.625680923461914 1.2189931869506836 0.950376570224762 0.7224425077438354 1.6653255224227905 2.2135097980499268
        1.890447735786438 1.5356595516204834 1.3760724067687988 2.0272326469421387 2.4206738471984863 2.4921669960021973
        2.7143521308898926 3.585881233215332 3.6511523723602295 3.6843855381011963 4.3041090965271 3.7941880226135254
        3.879861354827881 3.5345144271850586 3.5696566104888916 1.6569736003875732 0.5507652759552002 0.5986332893371582
        2.240485668182373 2.2592356204986572 1.9891812801361084 1.1699262857437134 1.3192354440689087 0.7899971604347229
        0.6381404995918274 0.5698532462120056 0.7431020736694336 1.788265347480774 1.4023154973983765 1.0700637102127075
        1.3590325117111206 1.420644760131836 1.3130571842193604 1.5199387073516846 1.6551607847213745 2.7920796871185303
        4.265481948852539 5.3431878089904785 5.963687896728516 6.936350345611572 7.746191024780273 7.821308612823486
        7.376468181610107 6.563344478607178 6.301126956939697 6.167590141296387 6.402380466461182 6.151947975158691
        6.471754550933838 6.435368537902832 6.505383014678955 6.36445951461792 6.394184112548828 7.047460079193115
        7.100429058074951 7.300037860870361 7.204689979553223 7.149584770202637 6.9632649421691895 6.989798545837402
        7.570378303527832 7.952412128448486 7.738323211669922 7.935518264770508 8.157279014587402 8.29698371887207
        8.33297348022461 8.494609832763672 9.051528930664062 9.16268253326416 9.329145431518555 9.345416069030762
        9.351449012756348 9.573054313659668 9.452775955200195 9.186258316040039 8.726780891418457 8.558404922485352
        8.48320198059082 8.49520206451416 8.59471607208252 8.648454666137695 8.298711776733398 8.301281929016113
        7.937882900238037 8.073237419128418 8.155742645263672 8.112892150878906 8.026996612548828 7.530200481414795
        7.52946662902832 7.347611904144287 6.727722644805908 6.363362789154053 6.0372538566589355 6.1461896896362305
        5.877408504486084 5.711626052856445 5.616568565368652 5.246367931365967 5.51848840713501 5.916853427886963
        6.193365097045898 7.022724151611328 7.021763324737549 6.828303813934326 5.824799060821533 6.049564361572266
        6.180423736572266 5.873476505279541 5.732687950134277 5.808007717132568 6.100149631500244 5.767225742340088
        5.759014129638672 5.548729419708252 5.336328506469727 4.1339592933654785 3.688662528991699 3.550853729248047
        3.798755645751953 3.9132063388824463 3.9744083881378174 3.7505929470062256 3.792210578918457 4.50869607925415
        5.553800106048584 4.435614109039307 3.9991843700408936 3.6798923015594482 6.5832977294921875 6.444303512573242
        5.841361999511719 7.163548946380615 7.633738040924072 8.014106750488281 6.57037878036499 6.766376972198486
        6.147774696350098 5.511555194854736 4.774118900299072 4.355348587036133 4.476598739624023 3.915494441986084
        1.5129350423812866 0.6813900470733643 1.1393388509750366 1.8599978685379028 1.3265823125839233 1.5426660776138306
        1.807489037513733 2.008749008178711 2.37564754486084 2.102907657623291 1.8227487802505493 1.2775774002075195
        0.8337095379829407 1.2433568239212036 2.1562905311584473 1.714434027671814 1.157749891281128 1.0811713933944702
        1.620022177696228 2.084810495376587 2.0182759761810303 1.8264554738998413 2.1669721603393555 3.307598352432251
        3.699043035507202 3.950770378112793 4.205053329467773 3.727417469024658 4.060280799865723 4.035668849945068
        4.124900817871094 2.1886677742004395 1.2769725322723389 1.7770251035690308 3.1014106273651123 3.257403612136841
        2.6775362491607666 1.603222131729126 1.1778697967529297 0.25615766644477844 0.3371686041355133 0.6979711651802063
        0.5548475980758667 1.3353443145751953 1.152733564376831 0.8577203750610352 0.8629017472267151 1.1685576438903809
        1.5174344778060913 1.6523815393447876 1.6819580793380737 2.720524787902832 3.835322856903076 5.1603684425354
        6.14879846572876 6.579623222351074 6.804966449737549 6.463057994842529 6.196193218231201 5.8678436279296875
        5.9676194190979 5.702691078186035 5.631581783294678 5.482553005218506 6.15450382232666 6.356878280639648
        6.221508979797363 5.991545677185059 6.032255172729492 6.654172897338867 6.85166597366333 7.232101917266846
        7.3430562019348145 6.946781158447266 6.930456161499023 6.9892473220825195 7.5113019943237305 7.509130001068115
        7.345812797546387 7.58060359954834 7.605706214904785 7.811256408691406 7.93718147277832 8.348358154296875
        8.69422721862793 8.837414741516113 9.178791046142578 9.226821899414062 9.296731948852539 9.515896797180176
        9.257611274719238 8.965250015258789 8.735075950622559 8.463486671447754 8.289193153381348 8.188339233398438
        8.385137557983398 8.588674545288086 8.180023193359375 8.192634582519531 7.862030506134033 7.934844970703125
        7.895374298095703 7.874312400817871 7.858217716217041 7.449371337890625 7.565708160400391 7.617812156677246
        6.72541618347168 6.208899974822998 5.883061408996582 6.289122104644775 6.264614105224609 5.784074783325195
        5.600711345672607 5.108463287353516 5.323588848114014 5.534295082092285 5.652534008026123 6.216904640197754
        6.3416428565979 6.368417263031006 5.913556098937988 6.11936092376709 6.096246719360352 5.923018455505371
        5.955379009246826 5.757152557373047 5.700556755065918 5.237071990966797 5.685515403747559 5.369734764099121
        4.94501256942749 4.035435199737549 4.161283493041992 4.484317779541016 4.275540828704834 4.16876220703125
        4.52976131439209 4.666631698608398 4.678398132324219 4.9028425216674805 5.199355602264404 3.8343091011047363
        3.1403443813323975 3.0143280029296875 4.578187465667725 5.2423810958862305 5.521483898162842 6.200387954711914
        6.245858669281006 5.128045558929443 4.534139156341553 5.334700584411621 5.251068115234375 4.959486961364746
        4.21931266784668 4.789547920227051 4.5375800132751465 3.6627018451690674 1.7382863759994507 0.19703947007656097
        0.6565122008323669 2.1147420406341553 1.6802254915237427 1.5231863260269165 2.112135171890259 2.3635239601135254
        2.691455125808716 2.2713189125061035 1.769527792930603 0.8156753778457642 0.354796439409256 1.2545236349105835
        1.9917631149291992 1.034053921699524 0.3721506893634796 0.8214552402496338 1.502191185951233 1.7991747856140137
        1.9311155080795288 1.3498810529708862 1.426156997680664 2.1268324851989746 2.6542301177978516 3.278822660446167
        3.5271012783050537 3.500232696533203 3.6805732250213623 3.444955825805664 3.912742853164673 3.9183402061462402
        3.450247049331665 3.2622885704040527 3.6701738834381104 3.575917959213257 2.6227986812591553 1.6213884353637695
        1.1697990894317627 0.8226417303085327 0.4875018298625946 0.4335554540157318 0.9663277864456177 1.578556776046753
        1.5947284698486328 1.540740966796875 1.3418762683868408 1.7129924297332764 2.3388826847076416 2.4721477031707764
        2.38358736038208 2.4358627796173096 3.2340312004089355 4.885100364685059 5.910555839538574 6.409725189208984
        6.149835586547852 5.8057942390441895 5.642646789550781 5.531023025512695 5.890628337860107 5.6647114753723145
        5.835572242736816 5.474877834320068 5.780767440795898 6.0785956382751465 6.108964920043945 6.074841499328613
        5.60492467880249 5.918847560882568 6.232455730438232 6.946861267089844 7.228390216827393 6.484929084777832
        6.434786796569824 6.541903972625732 7.04619836807251 7.0766706466674805 6.969598770141602 7.327656269073486
        7.512052536010742 7.68958044052124 7.979264259338379 8.130916595458984 8.35978889465332 8.579854011535645
        8.868532180786133 9.080090522766113 8.973816871643066 8.859402656555176 8.642343521118164 8.547226905822754
        8.805066108703613 8.554049491882324 8.313253402709961 8.099394798278809 8.142394065856934 8.52379322052002
        8.090210914611816 8.069380760192871 7.718068599700928 7.763420104980469 8.020663261413574 7.794154167175293
        7.631575107574463 7.153890609741211 7.312509059906006 7.526482582092285 6.860557556152344 6.575533866882324
        6.092203140258789 6.2217254638671875 6.40728235244751 5.69260311126709 5.5762457847595215 5.066637992858887
        5.286404609680176 5.361034393310547 5.282628536224365 5.685113906860352 5.8047308921813965 5.899738788604736
        5.880425930023193 5.711411952972412 5.731895923614502 5.642151355743408 5.769052028656006 5.467306613922119
        5.212828159332275 4.939251899719238 5.156351566314697 4.484051704406738 4.563015460968018 4.540677547454834
        4.844071865081787 4.608891010284424 4.621549606323242 4.916169166564941 5.566764831542969 5.3170318603515625
        5.090977191925049 4.684900283813477 4.655409336090088 3.8206803798675537 3.0475478172302246 3.6167068481445312
        4.3026838302612305 4.937833309173584 5.011361598968506 5.01526403427124 5.463912487030029 4.613802433013916
        4.7262725830078125 4.525552749633789 4.369133949279785 3.7498061656951904 3.7242305278778076 4.800841331481934
        4.217770099639893 3.7095277309417725 2.488330364227295 0.8743788003921509 0.31851160526275635 1.9314886331558228
        2.0543630123138428 1.6631324291229248 2.3136909008026123 1.8846402168273926 2.4148764610290527 2.2847483158111572
        1.953247308731079 0.1815197467803955 1.0105342864990234 1.2690075635910034 1.1907256841659546 0.4240541458129883
        0.468843936920166 0.5239048600196838 0.5952395796775818 1.1715235710144043 1.778652310371399 1.3587416410446167
        1.61333429813385 1.1596717834472656 1.5816289186477661 1.8295644521713257 3.0205237865448 3.7094953060150146
        3.9292008876800537 3.2763442993164062 3.842864751815796 4.7494354248046875 4.755075931549072 4.515478610992432
        4.511212348937988 4.1407790184021 3.3459105491638184 2.7871875762939453 2.3315699100494385 0.93070387840271
        0.7716677784919739 0.5416894555091858 1.2039623260498047 1.9446783065795898 2.0680091381073 1.7811994552612305
        1.3868693113327026 1.7906471490859985 2.4955713748931885 2.986067295074463 2.8123745918273926 2.884279727935791
        3.929788112640381 5.127542018890381 5.778979778289795 5.953368663787842 5.513556957244873 5.295871734619141
        5.366094589233398 5.6138715744018555 5.626585483551025 5.929760932922363 6.364275932312012 6.176722049713135
        5.8488969802856445 5.795159339904785 5.7367143630981445 5.746603488922119 5.559056758880615 5.687889099121094
        6.071404457092285 6.270976543426514 6.412314414978027 6.212154865264893 6.558063983917236 6.767675876617432
        6.670639514923096 6.537475109100342 6.528392791748047 7.008663177490234 7.206827163696289 7.40553092956543
        7.667058944702148 7.788536071777344 7.817649841308594 8.226659774780273 8.528535842895508 8.892680168151855
        8.687633514404297 8.426299095153809 8.315573692321777 8.372808456420898 8.764307975769043 8.513883590698242
        8.341024398803711 8.181780815124512 8.246719360351562 8.339961051940918 7.8862104415893555 7.822379112243652
        7.909162998199463 7.963265419006348 8.09520149230957 7.760459899902344 7.415769100189209 7.079208850860596
        7.154479026794434 7.345592975616455 7.142176151275635 6.728242874145508 6.449765682220459 6.1159539222717285
        6.272575855255127 5.644216060638428 5.25877571105957 5.118731498718262 5.075078964233398 4.936358451843262
        4.652738571166992 4.910552501678467 4.872160911560059 5.123059272766113 5.465305328369141 5.763229846954346
        5.843080997467041 5.925606727600098 5.658892631530762 5.182665824890137 5.0313568115234375 4.714038848876953
        4.417808532714844 4.343026161193848 4.516679763793945 5.450310707092285 5.5378851890563965 5.034525394439697
        5.243893146514893 5.216216564178467 5.615362644195557 5.201326370239258 5.05547571182251 4.289586544036865
        3.96506667137146 2.756535053253174 2.359102725982666 2.672140121459961 3.410790205001831 3.454050302505493
        3.6230263710021973 3.9698891639709473 4.749017715454102 4.38553524017334 4.502593994140625 4.261043071746826
        4.495097637176514 3.6894052028656006 3.827606439590454 4.165392875671387 3.99436092376709 3.8990280628204346
        3.5821571350097656 2.2375295162200928 0.7018638253211975 1.0276621580123901 1.5273232460021973 1.5319416522979736
        1.8666564226150513 1.7158540487289429 2.041869878768921 2.129375696182251 1.4966377019882202 0.25074660778045654
        0.9909008145332336 0.8689350485801697 0.49757564067840576 0.0717172622680664 0.2696555554866791 0.32351088523864746
        0.5546537041664124 0.35981640219688416 0.7660843133926392 1.0200966596603394 1.9650814533233643 1.5304335355758667
        1.1782032251358032 1.5446449518203735 2.3989579677581787 3.2148776054382324 3.831894874572754 4.017587661743164
        5.011227130889893 5.338298797607422 5.094687461853027 4.645764350891113 4.578337669372559 4.230352878570557
        3.2750296592712402 3.0321033000946045 2.790069103240967 2.321915626525879 1.4056872129440308 0.6704296469688416
        1.3829389810562134 2.6316070556640625 2.732811212539673 2.2058353424072266 1.9292842149734497 2.2135403156280518
        2.573317766189575 2.9190876483917236 3.1162936687469482 3.354743242263794 4.160994529724121 4.821887493133545
        5.5192341804504395 5.395791530609131 4.931027412414551 4.859585762023926 5.056529521942139 5.395529270172119
        5.309965133666992 5.683145046234131 6.1415205001831055 6.174860954284668 5.895860195159912 5.677552700042725
        5.530073165893555 5.643917083740234 5.5768232345581055 5.602558135986328 5.949138164520264 5.969322204589844
        6.176206588745117 6.1033711433410645 6.495083808898926 6.500581741333008 6.277507781982422 6.330554008483887
        6.524388313293457 6.786757946014404 6.789737224578857 6.98406457901001 7.348350524902344 7.463672161102295
        7.3589277267456055 7.796260356903076 8.144521713256836 8.59816837310791 8.278022766113281 8.292450904846191
        8.237836837768555 8.39805793762207 8.629212379455566 8.39663314819336 8.407371520996094 8.165135383605957
        8.259784698486328 8.344964981079102 7.988337516784668 8.0711030960083 7.9520182609558105 8.070062637329102
        8.132187843322754 7.6230854988098145 7.337352275848389 7.005208969116211 7.228501796722412 7.291632175445557
        7.026683807373047 6.79973840713501 6.570476055145264 6.258671760559082 6.17352294921875 5.379641056060791
        4.929419994354248 4.832192897796631 4.883387565612793 4.841461181640625 4.467021465301514 4.593446254730225
        4.416110515594482 4.9171342849731445 5.385887145996094 5.483265399932861 5.622466087341309 5.7015604972839355
        5.421719074249268 5.119734287261963 4.834854602813721 4.996375560760498 4.626943111419678 4.729733467102051
        4.651344299316406 5.422015190124512 5.731492042541504 5.272430896759033 5.450405120849609 5.132630825042725
        5.464179992675781 5.010169506072998 4.6764020919799805 4.340600490570068 4.128631114959717 2.7103428840637207
        2.356513500213623 2.3958048820495605 2.9668002128601074 3.2931013107299805 3.615748882293701 3.48612380027771
        4.0607171058654785 4.048563480377197 4.210771083831787 3.274348735809326 3.767744541168213 3.692415714263916
        3.935120105743408 2.7923405170440674 3.1240901947021484 3.3632237911224365 3.097740650177002 2.0255355834960938
        1.1682466268539429 0.9717741012573242 2.0328242778778076 2.1369028091430664 2.213876485824585 2.2042105197906494
        2.289717674255371 2.1537816524505615 1.1521828174591064 0.5487209558486938 0.6036982536315918 0.7902269959449768
        0.8133881688117981 0.8168842196464539 0.9526976346969604 1.1593761444091797 0.8564103841781616 0.39948856830596924
        0.37152376770973206 1.3875893354415894 2.4455912113189697 1.998058557510376 1.8936702013015747 2.175443172454834
        2.3809046745300293 2.587770462036133 3.5281822681427 3.9690957069396973 5.124992370605469 5.823911666870117
        5.141308307647705 4.2539896965026855 4.168674468994141 4.025085926055908 3.250901699066162 2.726443290710449
        2.4484119415283203 2.264085054397583 1.9936134815216064 1.2478150129318237 1.617355465888977 2.4304778575897217
        2.3908097743988037 1.9624073505401611 1.7439844608306885 1.794704794883728 2.023815631866455 1.9895827770233154
        2.5946311950683594 3.2297885417938232 3.8570456504821777 4.391576766967773 4.860340118408203 5.039042949676514
        4.823460102081299 4.684701442718506 4.9915452003479 5.274651050567627 5.483222007751465 5.781369209289551
        5.93276309967041 6.115340232849121 5.840877532958984 5.704145431518555 5.562089443206787 5.6026740074157715
        5.645252704620361 5.552859783172607 5.571703910827637 5.524541854858398 5.803567409515381 6.139982223510742
        6.489566326141357 6.289144039154053 6.084056377410889 6.153359413146973 6.373294353485107 6.355260372161865
        6.392462253570557 6.796970844268799 7.08197546005249 7.117883205413818 7.113394737243652 7.643702030181885
        7.890705108642578 8.204751968383789 8.01098346710205 8.31775951385498 8.27175235748291 8.35463809967041
        8.387770652770996 8.27316665649414 8.293484687805176 8.162087440490723 8.322046279907227 8.279587745666504
        8.027149200439453 8.101415634155273 7.963068962097168 8.052947998046875 7.986745357513428 7.573887825012207
        7.337544918060303 6.911416530609131 7.115741729736328 7.077821254730225 6.728000640869141 6.603998184204102
        6.379098892211914 6.2682085037231445 6.015181064605713 5.552044868469238 5.169552326202393 4.703311920166016
        4.773223400115967 4.69374418258667 4.416642189025879 4.216407775878906 3.820754051208496 4.50313138961792
        5.166247844696045 5.631898403167725 5.850117206573486 5.968081474304199 5.185065269470215 4.878078460693359
        4.461234092712402 4.941534042358398 4.672490119934082 4.920519828796387 4.796667575836182 5.110459327697754
        5.269015789031982 5.013028144836426 4.7745280265808105 4.350804805755615 4.364994525909424 4.529147148132324
        4.416148662567139 4.508793830871582 4.312345504760742 3.4429993629455566 2.7686374187469482 2.4834790229797363
        3.2471933364868164 4.159830570220947 4.548619747161865 4.359241008758545 3.8853509426116943 3.4811222553253174
        3.872471570968628 2.933567523956299 3.2254533767700195 3.202908754348755 3.6632843017578125 2.4768476486206055
        2.461293935775757 2.279407024383545 2.13411545753479 1.3937665224075317 1.450713872909546 1.34123957157135
        2.634666681289673 2.6423327922821045 2.8456273078918457 3.0774879455566406 2.2958266735076904 1.3586703538894653
        0.7793359160423279 0.36521753668785095 0.31926429271698 1.3626593351364136 1.4839469194412231 1.6529005765914917
        1.5595595836639404 2.1565351486206055 1.4899746179580688 0.7927733063697815 0.47191110253334045 1.1717543601989746
        2.078774929046631 2.253713369369507 2.1889162063598633 1.882278561592102 1.540433645248413 1.404527187347412
        2.3154730796813965 3.2331056594848633 5.029401779174805 5.188192844390869 4.1753830909729 4.0093560218811035
        4.237188816070557 4.167006969451904 3.111386299133301 1.9450132846832275 2.090219497680664 2.3773305416107178
        2.7110586166381836 2.123258113861084 2.105672597885132 2.3516762256622314 2.3585433959960938 1.568137526512146
        1.6307324171066284 1.7630102634429932 2.0198471546173096 2.2137653827667236 2.898350715637207 3.669736623764038
        4.0704216957092285 4.212373733520508 4.2580885887146 4.507745265960693 4.67736291885376 4.4561567306518555
        4.731847286224365 4.905898571014404 5.045496463775635 5.36940336227417 5.64734411239624 5.651918888092041
        5.64145040512085 5.791945457458496 5.833534240722656 5.8056254386901855 5.604074954986572 5.549337387084961
        5.3839430809021 5.481836795806885 5.734528541564941 5.923928737640381 6.069282054901123 5.862586498260498
        5.92521858215332 6.107792854309082 6.16032600402832 6.233776092529297 6.1775994300842285 6.58475399017334
        6.830428600311279 6.87782621383667 7.140139579772949 7.292482376098633 7.398704528808594 7.570860862731934
        7.521856784820557 7.916325569152832 7.8813796043396 8.001242637634277 8.030893325805664 7.960413932800293
        8.011271476745605 7.947640895843506 8.003939628601074 8.127851486206055 7.930745601654053 8.048127174377441
        7.752516746520996 7.746329307556152 7.818600654602051 7.565523624420166 7.423737049102783 6.883493900299072
        6.874447822570801 6.703007698059082 6.492422103881836 6.673227310180664 6.503503799438477 6.487227439880371
        6.282382488250732 5.652887344360352 5.284945964813232 4.8786468505859375 5.153106689453125 4.873154640197754
        4.629328727722168 4.276659965515137 3.981440544128418 4.4867095947265625 4.921960353851318 5.20226526260376
        5.410772800445557 5.438845634460449 4.837673664093018 4.527820110321045 4.681423187255859 5.203649520874023
        5.331814289093018 5.535787105560303 5.538149356842041 5.332118034362793 5.080774307250977 5.067255020141602
        4.856032371520996 4.580166816711426 4.606284141540527 5.041899681091309 4.946803569793701 4.64315128326416
        4.289376258850098 4.143659591674805 3.1971654891967773 2.51283860206604 2.714313507080078 3.531522512435913
        3.866007089614868 3.7755448818206787 3.4767518043518066 3.210649251937866 3.932727098464966 3.1566646099090576
        2.615903377532959 2.220738172531128 2.301259756088257 2.215132713317871 1.9231173992156982 1.4642198085784912
        1.7041473388671875 1.461269736289978 2.269096612930298 2.412304401397705 3.2634687423706055 2.8272552490234375
        3.1947638988494873 2.7318012714385986 1.4125773906707764 0.3739265203475952 0.1733095347881317 0.3447704315185547
        0.045609623193740845 1.1626465320587158 1.6026835441589355 1.6499477624893188 1.366703987121582 1.6101031303405762
        1.141228199005127 0.3744214177131653 0.3462478816509247 1.0950257778167725 1.7474275827407837 2.0285756587982178
        1.131737470626831 0.7570071220397949 0.7820096611976624 0.9457047581672668 1.3433603048324585 2.3994975090026855
        4.127556800842285 4.153598308563232 3.7146663665771484 3.6779260635375977 4.134389877319336 4.114649772644043
        3.0341603755950928 1.7578158378601074 1.3733081817626953 1.5641804933547974 1.6321487426757812 1.3552334308624268
        1.456059217453003 1.9776593446731567 2.1945595741271973 1.9088789224624634 2.027195692062378 2.2803444862365723
        2.807373046875 3.239354372024536 3.9268388748168945 4.218094348907471 3.9657063484191895 3.8247950077056885
        3.9483590126037598 4.3879780769348145 4.493200302124023 4.2156829833984375 4.484949111938477 4.346163272857666
        4.735197067260742 5.171724796295166 5.678515911102295 5.477240562438965 5.259524822235107 5.727930545806885
        5.828342914581299 5.928478717803955 5.387361526489258 5.337871074676514 5.170693397521973 5.272165298461914
        5.565045356750488 5.528339862823486 5.703604698181152 5.782940864562988 6.042335033416748 6.294815540313721
        5.928048133850098 5.89694356918335 6.075075626373291 6.364078998565674 6.611919403076172 6.416243553161621
        6.696605205535889 7.0759687423706055 7.22495698928833 7.459996223449707 7.345399379730225 7.679104804992676
        7.792532920837402 7.843783378601074 8.064360618591309 7.915339469909668 8.001352310180664 7.968157768249512
        7.887048721313477 8.068756103515625 7.84060001373291 7.877050876617432 7.593564987182617 7.502219200134277
        7.8020477294921875 7.532339096069336 7.405322074890137 6.796573162078857 6.7196455001831055 6.827821254730225
        6.671957492828369 6.870726108551025 6.385137557983398 6.3528289794921875 6.327536582946777 5.7535600662231445
        5.545880317687988 5.034397602081299 5.095921039581299 4.838333606719971 4.7000508308410645 4.657092094421387
        4.187994480133057 4.495038032531738 5.108077049255371 5.498464584350586 5.4756760597229 5.421941757202148
        4.72243595123291 4.378513813018799 4.806638717651367 5.619659423828125 5.799277305603027 6.0927958488464355
        6.101386070251465 5.957184791564941 5.550032138824463 5.275905132293701 4.782713413238525 4.760722637176514
        4.691648960113525 4.713315963745117 4.816666126251221 4.615842342376709 4.796359062194824 4.787509918212891
        4.096161365509033 2.9725093841552734 2.447207450866699 2.9643056392669678 2.5477488040924072 2.995028018951416
        2.832268238067627 2.820084810256958 3.3642160892486572 3.017685651779175 1.7997268438339233 1.4051424264907837
        1.464463710784912 2.253610372543335 1.3105180263519287 0.9999269843101501 1.2758203744888306 1.7738118171691895
        2.6360061168670654 3.48903226852417 3.359194278717041 2.578700542449951 2.6422324180603027 1.4773517847061157
        0.5116226673126221 0.2046733796596527 0.2916180193424225 0.334722638130188 0.21774180233478546 0.31238263845443726
        0.35476431250572205 0.6759621500968933 0.6381055116653442 0.8865948915481567 0.8115744590759277 0.1826867163181305
        0.9422990083694458 1.8943005800247192 1.988196611404419 1.3773012161254883 0.5467373728752136 0.849039614200592
        0.8014736771583557 0.6669453382492065 1.0667732954025269 2.514402151107788 3.659822702407837 3.740267753601074
        4.062983512878418 4.113410472869873 3.9124372005462646 3.721386671066284 3.7389931678771973 3.2448325157165527
        2.35893177986145 1.8533929586410522 1.2908920049667358 1.5975595712661743 1.7410320043563843 2.309133768081665
        2.7490034103393555 3.0067138671875 2.8303921222686768 3.179405450820923 3.495558500289917 3.8965070247650146
        4.257294654846191 4.363101005554199 4.257571697235107 3.9554989337921143 4.009063720703125 4.214545249938965
        4.233987331390381 4.296383857727051 4.461681365966797 4.378093719482422 4.483338356018066 5.102085113525391
        5.637583255767822 5.671148777008057 5.418097019195557 5.718502521514893 5.737985610961914 5.703435897827148
        5.347514629364014 5.314449787139893 5.333492279052734 5.350500583648682 5.588169574737549 5.620363712310791
        5.848870277404785 6.0207343101501465 6.171389579772949 6.23060417175293 6.020679473876953 5.830816745758057
        5.988402366638184 6.072699546813965 6.369462490081787 6.269466876983643 6.447639465332031 6.880692005157471
        7.159467697143555 7.346683025360107 7.451158046722412 7.638670444488525 7.845276832580566 7.87081241607666
        8.159619331359863 8.024066925048828 7.93927526473999 7.9967145919799805 7.911885738372803 7.938541889190674
        7.578652381896973 7.5549421310424805 7.575443744659424 7.599306106567383 7.635761737823486 7.283549785614014
        7.000766754150391 6.89207124710083 6.835646152496338 6.974440574645996 6.750436782836914 6.631618022918701
        6.388749599456787 6.331075668334961 6.3912200927734375 6.036466121673584 5.645439147949219 5.41048002243042
        5.288857460021973 5.094939708709717 4.844390392303467 4.617539405822754 4.48404598236084 4.75747013092041
        5.146047592163086 5.192558765411377 5.358010768890381 5.377058506011963 4.8381571769714355 4.457141876220703
        5.27139139175415 5.805792808532715 6.170319080352783 6.348653316497803 6.334924221038818 6.152100563049316
        5.824588775634766 5.482332229614258 4.620964527130127 4.333504676818848 4.532320499420166 4.744291305541992
        4.679516315460205 4.534626007080078 4.924465656280518 4.6335883140563965 4.134146213531494 3.432016611099243
        2.7356038093566895 2.6081485748291016 1.6886714696884155 1.9399627447128296 2.086599826812744 2.5581700801849365
        2.5856099128723145 2.32368803024292 1.7795838117599487 1.4388068914413452 1.1368051767349243 1.5136290788650513
        0.9484776258468628 0.9444260597229004 0.8577044010162354 1.2816678285598755 1.5987887382507324 2.760774612426758
        3.227299928665161 2.902690887451172 2.525499105453491 1.3319307565689087 0.4545343220233917 0.2492089569568634
        0.5134356021881104 0.5479208827018738 0.5067712664604187 0.2044537365436554 0.4813375473022461 0.20983943343162537
        0.47226810455322266 0.8143765926361084 0.29057776927948 0.5492485165596008 1.1602269411087036 2.237687349319458
        2.3016669750213623 1.398637294769287 0.8271728754043579 1.0792285203933716 1.3180763721466064 0.983458936214447
        1.4926023483276367 2.41699481010437 3.010925531387329 3.4628262519836426 4.114400863647461 4.16485071182251
        3.4857594966888428 3.6114988327026367 3.686579465866089 3.345717668533325 2.479963541030884 2.407863140106201
        2.3466672897338867 2.5273098945617676 2.4872851371765137 2.709864616394043 3.198517084121704 3.5118823051452637
        2.9579179286956787 2.840423107147217 3.2691636085510254 3.8688673973083496 4.185253143310547 3.915661334991455
        3.733050584793091 3.753136157989502 3.965993881225586 4.200619220733643 4.011530876159668 4.233254909515381
        4.305891513824463 4.66460657119751 4.859129905700684 5.298141002655029 5.458639144897461 5.4605183601379395
        5.420863628387451 5.531038284301758 5.432413578033447 5.404604911804199 5.087002754211426 5.136359214782715
        5.16594123840332 5.2233195304870605 5.521506309509277 5.582505702972412 5.981153964996338 6.050670623779297
        6.150590419769287 6.1627888679504395 6.039748191833496 5.857152462005615 5.9444780349731445 5.990516662597656
        6.368960857391357 6.2910943031311035 6.6111626625061035 6.801965236663818 7.03271484375 7.239641189575195
        7.340595245361328 7.643279075622559 7.69009256362915 7.832941055297852 8.13275146484375 7.933189392089844
        7.957419395446777 7.866156578063965 7.912109851837158 7.8228607177734375 7.424861431121826 7.512133598327637
        7.489582061767578 7.612713813781738 7.647022247314453 7.2264814376831055 7.086456775665283 6.879363059997559
        6.981628894805908 7.004044532775879 6.668661594390869 6.611411094665527 6.493552207946777 6.526918888092041
        6.515551567077637 6.184955596923828 5.8141069412231445 5.616123676300049 5.493547439575195 5.329827785491943
        4.767636299133301 4.3911824226379395 4.110960483551025 4.416889667510986 4.958299160003662 5.213801860809326
        5.731460094451904 5.476291179656982 4.92074728012085 4.798813343048096 5.419930458068848 5.775717735290527
        5.85134744644165 6.341926097869873 6.288324356079102 6.149618625640869 6.2446136474609375 6.037325859069824
        4.655879974365234 3.9573001861572266 4.125186920166016 4.278266906738281 3.896399974822998 3.6209568977355957
        3.6645267009735107 3.5917766094207764 3.2937464714050293 2.86301851272583 2.2427399158477783 2.2701399326324463
        1.6164950132369995 1.7151798009872437 1.994807481765747 2.1672651767730713 2.006568670272827 1.6841524839401245
        1.5930421352386475 1.1396052837371826 0.8412715196609497 1.023986577987671 0.5050815343856812 0.6571318507194519
        0.9660635590553284 1.5095622539520264 1.7516471147537231 1.6156569719314575 3.378859758377075 3.442425489425659
        2.6237528324127197 1.7482147216796875 0.605959415435791 0.19160540401935577 0.3030244708061218 0.6241176128387451
        0.6055667400360107 0.4425118565559387 0.4262620508670807 0.35956764221191406 0.19213184714317322 0.3246421217918396
        0.9703155159950256 1.2479338645935059 1.9901257753372192 2.3501462936401367 1.9586654901504517 1.4282481670379639
        1.1640836000442505 1.113072156906128 1.2455389499664307 1.0930559635162354 1.1070947647094727 1.852046012878418
        2.3564844131469727 3.220893144607544 3.726261854171753 3.6542465686798096 2.8729147911071777 3.1944808959960938
        3.5473999977111816 3.527601718902588 3.42991042137146 3.3001186847686768 3.3657326698303223 3.2216458320617676
        3.090851068496704 3.07867169380188 3.373365640640259 3.200138807296753 2.781611919403076 2.667003870010376
        3.2656965255737305 3.5631158351898193 3.7117438316345215 3.5386650562286377 3.4155433177948 3.484760284423828
        3.62778377532959 4.295016288757324 4.207885265350342 4.476919651031494 4.399348735809326 4.793293476104736
        5.213584899902344 5.560293674468994 5.419527530670166 5.51767110824585 5.513188362121582 5.443203926086426
        5.298194408416748 5.226146697998047 5.048157691955566 5.117265224456787 5.172460079193115 5.305373191833496
        5.579151630401611 5.833843231201172 6.099776268005371 5.990721702575684 6.0863847732543945 6.087517738342285
        6.008272171020508 5.783620834350586 5.670444488525391 5.95112419128418 6.2677903175354 6.373958110809326
        6.494929790496826 6.715936183929443 7.193797588348389 7.368185520172119 7.3430047035217285 7.4679765701293945
        7.57561731338501 7.905817985534668 8.045517921447754 7.842031955718994 7.857684135437012 7.664550304412842
        7.679514408111572 7.579347610473633 7.403299808502197 7.508383750915527 7.374066352844238 7.47588586807251
        7.444986820220947 7.318253040313721 7.174475193023682 6.774595260620117 6.848378658294678 6.803781032562256
        6.62452507019043 6.544546127319336 6.490457534790039 6.562706470489502 6.481324195861816 6.190124988555908
        5.803454875946045 5.510897636413574 5.657609462738037 5.463955879211426 4.843491077423096 4.120917320251465
        3.737365961074829 4.361335277557373 4.852356910705566 5.133627414703369 5.635537147521973 5.366313934326172
        5.375836372375488 5.368196964263916 5.4294657707214355 5.4539971351623535 5.874048233032227 6.6175618171691895
        6.510568618774414 6.095737934112549 5.898983478546143 5.5262346267700195 4.561147212982178 4.078598976135254
        3.92179274559021 3.8022191524505615 3.1260461807250977 3.236128091812134 4.340228080749512 4.674875259399414
        3.870145082473755 2.45339298248291 2.1014716625213623 1.5237479209899902 1.8689193725585938 1.9994897842407227
        2.5735390186309814 2.5726535320281982 2.2464702129364014 1.777592420578003 1.2507168054580688 0.9428006410598755
        0.9708477854728699 0.9990054965019226 0.46543121337890625 0.8100382685661316 1.1048316955566406 1.2146761417388916
        1.614230990409851 0.5503351092338562 2.246969223022461 2.5976667404174805 2.2434911727905273 1.9797146320343018
        1.1664677858352661 0.6566060185432434 0.3893311023712158 0.5269928574562073 0.6107721924781799 0.37255579233169556
        0.37102481722831726 0.5503090620040894 0.9070600867271423 1.4951590299606323 1.9254621267318726 1.7030978202819824
        1.2384114265441895 1.2071975469589233 0.6061013340950012 1.0752300024032593 1.3739930391311646 1.3889765739440918
        0.9883548617362976 0.6216225624084473 0.9960767030715942 1.6465482711791992 1.8566633462905884 2.400688648223877
        2.6980183124542236 2.9650697708129883 2.0011136531829834 1.8356817960739136 2.0429437160491943 3.1008875370025635
        3.4261536598205566 3.4406301975250244 3.674588680267334 3.273618698120117 3.315427303314209 3.619657278060913
        3.5551538467407227 3.122297525405884 2.9812989234924316 2.973173141479492 3.4009761810302734 3.4816882610321045
        3.5433454513549805 3.302910089492798 3.171724796295166 3.508111000061035 3.4842281341552734 3.7745370864868164
        3.7725672721862793 3.9723775386810303 4.244781017303467 4.596333980560303 5.339602470397949 5.5915141105651855
        5.571792125701904 5.315361022949219 5.275908470153809 5.260113716125488 5.142284870147705 5.201858997344971
        4.979147911071777 5.1146416664123535 5.119810581207275 5.317014694213867 5.554206371307373 5.681557655334473
        5.8824615478515625 5.778400897979736 5.90094518661499 6.0842061042785645 5.847476005554199 5.734713077545166
        5.543005466461182 5.823655605316162 6.212314605712891 6.19027853012085 6.393625259399414 6.6017608642578125
        7.00521993637085 7.325763702392578 7.237091064453125 7.36932897567749 7.355020999908447 7.479536533355713
        7.6606764793396 7.48882532119751 7.6331095695495605 7.4409027099609375 7.311021327972412 7.514681816101074
        7.465938091278076 7.5646209716796875 7.1987128257751465 7.200981140136719 7.450101852416992 7.416529178619385
        7.277750492095947 6.7067341804504395 6.668888092041016 6.757166862487793 6.667956829071045 6.780762195587158
        6.554858684539795 6.637179374694824 6.6073760986328125 6.232669353485107 5.949860095977783 5.608865261077881
        5.641806602478027 5.460594654083252 4.93468713760376 4.342901706695557 4.0259552001953125 4.86740779876709
        5.21287727355957 5.275400161743164 5.343809604644775 5.537027835845947 5.781978607177734 5.452117919921875
        5.155065059661865 5.273669719696045 5.570229530334473 6.00036096572876 6.100449562072754 5.652116298675537
        5.965722560882568 6.250145435333252 5.3496809005737305 4.394545078277588 4.076242446899414 3.4773569107055664
        2.2445921897888184 2.366838216781616 3.4308512210845947 3.8915789127349854 3.715582847595215 2.856282949447632
        2.531543493270874 1.687286376953125 2.0912013053894043 2.1974692344665527 2.495358943939209 2.1300199031829834
        2.0768165588378906 1.5555487871170044 1.3592007160186768 1.2841700315475464 1.1334973573684692 1.1962947845458984
        0.7972973585128784 0.7292911410331726 0.7832233905792236 0.753218948841095 0.9802637100219727 0.4502390921115875
        1.8416543006896973 1.6141717433929443 1.1465885639190674 1.331884741783142 1.1437314748764038 0.9818747043609619
        0.23290236294269562 0.17801475524902344 0.5010555386543274 0.4948118031024933 0.6342805624008179 1.066424012184143
        1.695435643196106 2.4118754863739014 1.8589832782745361 0.6084209680557251 0.5951723456382751 0.8006776571273804
        0.10880119353532791 0.3047466576099396 0.7064527869224548 0.9738914370536804 0.8294551968574524 1.1262601613998413
        1.5353288650512695 1.7969180345535278 2.0723512172698975 2.237942934036255 2.4697909355163574 2.0815398693084717
        1.0965757369995117 1.3899325132369995 2.1672353744506836 3.2383391857147217 3.2302658557891846 3.469306230545044
        3.7701025009155273 3.6154966354370117 3.3171749114990234 3.415376901626587 3.5108470916748047 3.2693355083465576
        3.3330488204956055 3.2938449382781982 3.1980140209198 3.1037344932556152 3.2801451683044434 3.0416626930236816
        2.681448221206665 2.686337471008301 2.9305880069732666 3.5581746101379395 3.738481044769287 3.90531325340271
        4.418078899383545 4.534874439239502 5.247931480407715 5.306136608123779 5.510507583618164 5.2257771492004395
        5.046888828277588 5.031803131103516 4.932694435119629 5.081335067749023 4.948764801025391 5.07863712310791
        5.128238677978516 5.234676837921143 5.548504829406738 5.534995079040527 5.685812473297119 5.683563709259033
        5.7442755699157715 5.990753650665283 5.734465599060059 5.627093315124512 5.525700092315674 5.661074638366699
        6.096601963043213 6.088882923126221 6.2667236328125 6.5630927085876465 6.77475643157959 7.156055927276611
        7.129634380340576 7.178055286407471 7.214537143707275 7.164079189300537 7.483424663543701 7.337310314178467
        7.3925042152404785 7.3543477058410645 7.165838718414307 7.481688022613525 7.395480155944824 7.404688358306885
        7.143218517303467 7.0829691886901855 7.352849960327148 7.251060962677002 7.084694862365723 6.665994644165039
        6.66983699798584 6.973060607910156 6.76953125 6.7224907875061035 6.365093231201172 6.432018756866455
        6.673520565032959 6.3096747398376465 6.003195762634277 5.48704195022583 5.589329719543457 5.875130653381348
        5.38334846496582 5.038962364196777 4.760245323181152 5.26554012298584 5.602444648742676 5.801891803741455
        5.942177772521973 5.969305992126465 5.323302268981934 4.931602954864502 4.964000701904297 4.920990943908691
        4.934775352478027 5.271742343902588 5.895342826843262 5.344661712646484 5.908205509185791 6.4748406410217285
        5.703439235687256 4.822361946105957 4.171121597290039 3.477220296859741 2.7345829010009766 3.1748924255371094
        3.231276273727417 2.822866678237915 3.5631659030914307 3.8807361125946045 3.3094899654388428 2.3412625789642334
        2.39650559425354 2.564178943634033 2.7054009437561035 2.248537063598633 2.006439208984375 1.4209314584732056
        1.2924360036849976 1.2894700765609741 1.2818849086761475 1.4507657289505005 0.960259199142456 0.3586021363735199
        1.0016571283340454 0.7187724113464355 1.1453508138656616 1.1143099069595337 1.5784940719604492 1.1000008583068848
        0.9316871166229248 1.0449810028076172 1.4250173568725586 1.1904098987579346 0.24708645045757294 0.5174447894096375
        0.6878534555435181 0.7786663770675659 0.9078342318534851 0.8227442502975464 1.6782362461090088 2.3171985149383545
        0.9960001111030579 0.25353583693504333 0.25109630823135376 0.90008944272995 0.5411060452461243 0.6244117617607117
        0.5076693296432495 0.8303065896034241 1.047767996788025 1.4072306156158447 1.6153498888015747 1.6765518188476562
        2.262050151824951 2.196500539779663 2.4273433685302734 2.0929811000823975 1.5561836957931519 1.9219855070114136
        2.8357460498809814 3.5000860691070557 3.2149157524108887 3.3163561820983887 3.990192174911499 4.315600872039795
        3.815810203552246 3.5891692638397217 3.7335968017578125 3.7068240642547607 3.179546594619751 2.846510887145996
        2.843546152114868 3.163877487182617 3.0804271697998047 2.7466542720794678 2.6319971084594727 2.6445651054382324
        2.9620180130004883 3.320075273513794 3.7212932109832764 3.862118721008301 4.251485347747803 4.433640003204346
        5.048093318939209 5.158680438995361 5.538244724273682 5.293482303619385 5.106225490570068 4.9059014320373535
        5.077762126922607 5.237084865570068 5.204243183135986 5.2007551193237305 5.2565765380859375 5.25233268737793
        5.432159423828125 5.426021575927734 5.617460250854492 5.770389556884766 5.728734970092773 5.788214206695557
        5.856076717376709 5.806436061859131 5.928489685058594 5.850392818450928 6.227970600128174 6.444520950317383
        6.5651702880859375 6.627254962921143 6.602478981018066 6.843295574188232 6.944329738616943 7.0277934074401855
        7.049607753753662 7.00139045715332 7.234699726104736 7.11064338684082 7.0829243659973145 7.269428253173828
        7.245895862579346 7.474765300750732 7.314218044281006 7.248453140258789 7.1978440284729 7.268933296203613
        7.314444541931152 6.982454776763916 6.681722164154053 6.693258762359619 6.847314357757568 6.950290203094482
        6.592994689941406 6.433784008026123 6.51811408996582 6.508262634277344 6.574390411376953 6.20429801940918
        5.844552993774414 5.789766311645508 5.89211368560791 6.183333873748779 5.774936676025391 5.572341442108154
        5.395804405212402 5.5389204025268555 5.533601760864258 5.8839826583862305 5.690999507904053 5.8453168869018555
        4.9166131019592285 4.678774356842041 4.4639811515808105 4.321197032928467 4.056445121765137 4.973142147064209
        5.866957187652588 5.271574974060059 5.35028076171875 6.153875350952148 6.184626579284668 5.086105823516846
        4.097118377685547 4.332274913787842 4.185149669647217 3.595703125 1.8029180765151978 1.4687674045562744
        2.4019529819488525 3.4999701976776123 3.274233341217041 2.4296963214874268 1.8898543119430542 2.2201874256134033
        2.4468483924865723 2.1621499061584473 2.026313543319702 1.5884102582931519 1.5487267971038818 1.5020866394042969
        1.460278034210205 1.3911765813827515 0.8129382729530334 0.30769339203834534 0.48702433705329895 0.3727337718009949
        1.0769591331481934 0.9299129843711853 1.9420490264892578 1.2958734035491943 0.7748693823814392 0.6786521673202515
        0.8854268193244934 0.7581685781478882 0.5917112231254578 0.7039511203765869 0.7022201418876648 0.5390496850013733
        1.1766414642333984 1.2804713249206543 1.507055640220642 1.2962003946304321 0.4848053455352783 0.6375775337219238
        0.9651418924331665 1.0283266305923462 0.9469825029373169 1.158179521560669 1.0868316888809204 1.1990963220596313
        1.5127803087234497 1.63421630859375 1.8096286058425903 1.7452605962753296 2.253237724304199 2.0133800506591797
        2.255445718765259 1.8303065299987793 2.2426869869232178 2.792034149169922 3.344266414642334 3.4038162231445312
        3.3289272785186768 3.422366142272949 4.038079738616943 4.531988143920898 4.296013355255127 4.262800693511963
        4.242213249206543 4.037233352661133 3.067542552947998 2.7502849102020264 3.1295995712280273 3.1710188388824463
        3.0085289478302 2.440852403640747 2.668781042098999 2.7508063316345215 3.2351162433624268 3.3145182132720947
        3.7197165489196777 3.7509872913360596 3.8791744709014893 4.288118839263916 4.836329460144043 5.072933673858643
        5.228184223175049 5.0508904457092285 5.037816047668457 4.9524993896484375 5.180199146270752 5.153238296508789
        5.041059970855713 5.137190341949463 5.237590312957764 5.305906295776367 5.394228935241699 5.352137565612793
        5.549542427062988 5.635128498077393 5.642388343811035 5.66947603225708 5.721039295196533 5.839563846588135
        5.879300117492676 5.875795364379883 6.209296703338623 6.359307289123535 6.516014099121094 6.476355075836182
        6.603062629699707 6.834277629852295 6.824432373046875 6.931147575378418 6.904425144195557 6.978965759277344
        7.123780250549316 7.013494968414307 7.153360366821289 7.171885013580322 7.194289684295654 7.3627824783325195
        7.189510345458984 7.2211222648620605 7.223211288452148 7.346491813659668 7.175065994262695 6.69095516204834
        6.71000337600708 6.7069010734558105 6.93349027633667 6.856379508972168 6.482855796813965 6.445750713348389
        6.48127555847168 6.5887837409973145 6.553309917449951 6.340152263641357 6.20543909072876 6.010412216186523
        6.047701835632324 6.294627666473389 6.012942790985107 5.98004150390625 5.713536739349365 5.795224189758301
        5.639646053314209 5.868043899536133 5.6990814208984375 5.922878265380859 5.164700508117676 4.696252822875977
        4.293037414550781 4.30845832824707 4.187981128692627 4.984633922576904 5.904132843017578 5.345312595367432
        4.553369998931885 4.888514041900635 5.662743091583252 4.848280429840088 4.339271068572998 4.61500883102417
        5.722439289093018 4.9370598793029785 3.2674665451049805 2.4415438175201416 3.0517542362213135 3.1210217475891113
        3.174919366836548 2.440321445465088 1.8223384618759155 2.262812376022339 2.670334577560425 2.3281733989715576
        1.9769448041915894 1.6818925142288208 1.7858761548995972 1.7767130136489868 1.6366562843322754 1.51149582862854
        1.1289640665054321 1.0872844457626343 0.6912460327148438 1.3982973098754883 1.2450451850891113 0.7320405840873718
        1.7818000316619873 1.5955753326416016 1.1121416091918945 1.1883469820022583 1.1966654062271118 0.8428421020507812
        0.861618161201477 0.49210941791534424 0.6229038834571838 0.7444908022880554 1.3732621669769287 1.4613980054855347
        0.7861921787261963 0.7257494926452637 0.8371008038520813 1.2954057455062866 1.4351400136947632 1.0122430324554443
        0.8531895875930786 1.28703773021698 1.5954930782318115 1.5594923496246338 1.6920063495635986 1.4400687217712402
        1.9624133110046387 1.8352477550506592 2.1676278114318848 2.068594455718994 2.222140073776245 2.142591953277588
        2.3940396308898926 2.8574182987213135 3.3633782863616943 3.3382604122161865 3.611575126647949 3.4536256790161133
        4.029024600982666 4.366735458374023 4.399631500244141 4.291403293609619 4.253950595855713 3.860361337661743
        3.1661508083343506 3.0212385654449463 3.391160249710083 3.043344497680664 2.9131126403808594 2.8519723415374756
        3.0700511932373047 3.113659143447876 3.0222525596618652 3.1059720516204834 3.309244394302368 3.443324565887451
        3.8011553287506104 4.365170001983643 4.865386486053467 5.118717670440674 5.024702072143555 4.949644088745117
        4.9708685874938965 5.110071659088135 5.231464385986328 5.060934543609619 4.998185634613037 5.150500774383545
        5.274421215057373 5.377151966094971 5.366302967071533 5.365969657897949 5.49974250793457 5.505545616149902
        5.5905938148498535 5.637451648712158 5.737133502960205 5.8953142166137695 5.876281261444092 6.0275654792785645
        6.1612982749938965 6.266552448272705 6.393415451049805 6.3980793952941895 6.637444496154785 6.808680057525635
        6.721890449523926 6.7475690841674805 6.713724136352539 6.956414699554443 7.046571731567383 6.985531330108643
        7.081103324890137 7.000915050506592 7.016728401184082 7.1571044921875 7.0727057456970215 7.116709232330322
        7.054579257965088 7.148705005645752 7.006098747253418 6.729116439819336 6.810664653778076 6.751566410064697
        6.946029186248779 6.922923564910889 6.601461410522461 6.555410861968994 6.51109504699707 6.690101623535156
        6.657277584075928 6.554219722747803 6.549079418182373 6.369386672973633 6.255254745483398 6.188053131103516
        6.155785083770752 6.276481628417969 5.972963333129883 6.202264785766602 6.10630464553833 6.049685955047607
        5.707425117492676 5.88034725189209 5.754597187042236 5.29124116897583 4.494132041931152 4.202685356140137
        4.15555477142334 4.965974807739258 5.677087783813477 5.103346347808838 4.638678073883057 4.202478885650635
        4.920320987701416 4.701063632965088 5.444518089294434 5.579622268676758 6.435850143432617 5.7499680519104
        4.548696041107178 3.49029541015625 3.2387523651123047 2.606034755706787 3.3734347820281982 3.5329489707946777
        2.73915958404541 2.2026021480560303 2.333371162414551 2.245603561401367 2.087846279144287 2.071077346801758
        2.270703077316284 2.4212698936462402 2.199134111404419 2.0729496479034424 1.5066946744918823 1.4225177764892578
        0.894338846206665 1.2255306243896484 0.9776809215545654 0.5873671770095825 1.6903973817825317 1.496077060699463
        1.431288242340088 1.5511735677719116 1.269841194152832 1.086338758468628 0.9657037258148193 0.9509789943695068
        0.7224517464637756 0.4733918309211731 1.203173279762268 0.8259596824645996 0.7840353846549988 1.1988393068313599
        0.8814148902893066 1.2036027908325195 1.5740985870361328 1.0724650621414185 0.9604810476303101 1.2995363473892212
        1.5869442224502563 1.6505751609802246 1.847665786743164 2.106311798095703 2.2740793228149414 2.188810110092163
        2.2081429958343506 2.122854471206665 1.8701274394989014 1.8388975858688354 1.79360032081604 1.9908844232559204
        2.3103458881378174 2.7107431888580322 3.4797439575195312 3.567598581314087 3.8141798973083496 3.8842720985412598
        4.021761894226074 4.168686866760254 4.110827445983887 3.9265387058258057 3.621488332748413 3.4870593547821045
        3.6910579204559326 3.199638605117798 3.029038190841675 2.984961986541748 2.807854175567627 2.707974433898926
        3.2849931716918945 3.7414729595184326 3.8480210304260254 3.3589439392089844 3.977461814880371 4.51249885559082
        4.653406143188477 4.80366849899292 4.598729610443115 4.620913028717041 4.729852199554443 4.953627109527588
        5.024935722351074 4.996999263763428 5.043534755706787 5.187381744384766 5.234655380249023 5.350038528442383
        5.4771857261657715 5.354630470275879 5.4345703125 5.407437324523926 5.508004188537598 5.700739860534668
        5.654223918914795 5.839054584503174 5.814326286315918 5.953446865081787 6.00316047668457 6.003828048706055
        6.233828544616699 6.342869758605957 6.398575782775879 6.5544328689575195 6.334952354431152 6.455941677093506
        6.420629024505615 6.546814441680908 6.749035358428955 6.828822135925293 7.048539161682129 6.806370258331299
        6.659069538116455 6.900143146514893 6.929464340209961 7.131593227386475 6.883689880371094 6.933833599090576
        7.0238728523254395 6.804306983947754 6.724286079406738 6.62032413482666 6.728063583374023 6.86526346206665
        6.604788303375244 6.643558979034424 6.483170509338379 6.56420373916626 6.669227600097656 6.498106956481934
        6.668343544006348 6.520930290222168 6.466684341430664 6.433902740478516 6.266165256500244 6.418740272521973
        6.337545871734619 6.54378604888916 6.3047404289245605 6.028738498687744 5.886219024658203 5.882741928100586
        5.791494846343994 5.475680828094482 5.088378429412842 4.970588684082031 4.635103702545166 4.7124457359313965
        4.9494524002075195 4.884069442749023 4.705615520477295 4.1132330894470215 4.735034465789795 4.878450870513916
        6.1221795082092285 5.814496994018555 6.657660961151123 5.627699375152588 4.346827507019043 3.6519381999969482
        3.6973695755004883 2.9541239738464355 2.820587158203125 3.1595888137817383 3.2540485858917236 2.234147310256958
        2.3086297512054443 2.4507863521575928 2.47878098487854 2.2147891521453857 2.1727311611175537 2.28558611869812
        2.1839141845703125 2.1362602710723877 1.8238136768341064 1.6048849821090698 1.279630422592163 1.1653952598571777
        1.0285342931747437 0.7516943216323853 1.5697264671325684 1.2637217044830322 1.5233736038208008 1.8002897500991821
        1.3084670305252075 0.9931942224502563 0.8209027647972107 1.1502028703689575 1.1044859886169434 0.3147459030151367
        0.09145405888557434 0.17946510016918182 0.7039085626602173 0.9332420229911804 0.7684269547462463 1.1291769742965698
        1.679335355758667 1.044508457183838 0.8937171697616577 1.2146713733673096 1.4931341409683228 1.9494746923446655
        2.0886118412017822 2.1688857078552246 1.798532247543335 1.7963883876800537 2.168076276779175 1.8879164457321167
        1.4350285530090332 1.5319243669509888 1.280549168586731 1.469920039176941 1.6554040908813477 2.2497963905334473
        2.6799073219299316 2.981619119644165 3.251221179962158 3.4955711364746094 3.772052049636841 3.538557767868042
        3.812875270843506 3.9531097412109375 3.881636381149292 3.625178575515747 3.4055612087249756 3.07357120513916
        2.973482370376587 2.988064765930176 2.6954100131988525 2.3632876873016357 3.3366000652313232 3.8428828716278076
        3.8881895542144775 3.5505051612854004 4.160886764526367 4.615350246429443 4.65911340713501 4.699042797088623
        4.668741703033447 4.628652095794678 4.627799987792969 4.821687698364258 4.926487922668457 4.981250286102295
        5.029983043670654 5.110671520233154 5.238818645477295 5.237303733825684 5.382343292236328 5.236280918121338
        5.3630852699279785 5.453610897064209 5.5165791511535645 5.736926078796387 5.649106979370117 5.7616801261901855
        5.7576494216918945 5.756858825683594 5.914845943450928 5.9568586349487305 6.139080047607422 6.25892448425293
        6.155334949493408 6.445059299468994 6.231454849243164 6.287642955780029 6.324976921081543 6.304445743560791
        6.625596523284912 6.6336894035339355 6.7051682472229 6.598705768585205 6.413313865661621 6.688405513763428
        6.565334796905518 6.6757121086120605 6.442382335662842 6.495494842529297 6.804506778717041 6.457919120788574
        6.158895492553711 6.263925552368164 6.443169116973877 6.729554653167725 6.406252861022949 6.406933784484863
        6.401122093200684 6.459991931915283 6.7441277503967285 6.320163249969482 6.374495506286621 6.41888952255249
        6.516096115112305 6.689238548278809 6.109555244445801 6.21961784362793 6.3900933265686035 6.6458258628845215
        6.41610860824585 6.108170509338379 5.866403102874756 5.621896743774414 5.413852691650391 5.461958408355713
        5.17951774597168 4.897825717926025 4.56910514831543 4.581506252288818 4.594316482543945 4.38947868347168
        4.581429958343506 4.332692623138428 4.805877685546875 5.226203918457031 6.112765312194824 6.070993900299072
        6.110577583312988 5.267295837402344 4.697774410247803 4.469868183135986 4.459100723266602 4.1083245277404785
        3.099533796310425 2.8698501586914062 2.8252155780792236 2.1351218223571777 1.9875563383102417 2.31099271774292
        2.4944212436676025 2.4218320846557617 2.5089268684387207 2.5814907550811768 2.2206296920776367 2.1329822540283203
        1.9653993844985962 1.6961737871170044 1.3602988719940186 1.300916075706482 1.417138934135437 0.8358520865440369
        1.0659123659133911 0.9479804039001465 1.1803146600723267 1.6318190097808838 1.367366075515747 0.8394740223884583
        0.6104459166526794 1.0051859617233276 0.7247223258018494 0.43740740418434143 0.40730294585227966 0.4547704756259918
        0.41664642095565796 0.5203049778938293 0.52702796459198 0.7056897282600403 1.2769639492034912 0.8000946640968323
        0.5319565534591675 1.0792829990386963 1.5440165996551514 1.9367220401763916 2.1671109199523926 2.2742388248443604
        2.148036003112793 2.0118634700775146 2.3798584938049316 2.214057207107544 1.6658422946929932 1.4863616228103638
        1.0232633352279663 0.9392383694648743 1.2841899394989014 1.9048471450805664 2.330754280090332 2.7610421180725098
        2.935690402984619 3.4711551666259766 3.569610357284546 3.5256717205047607 3.777925729751587 3.9832427501678467
        3.8776819705963135 3.680349111557007 3.5062739849090576 3.460247278213501 3.2804698944091797 3.023961067199707
        2.8046152591705322 2.657850742340088 3.457829713821411 3.936490058898926 4.176449298858643 4.140516757965088
        4.404380798339844 4.608153343200684 4.608546257019043 4.775330543518066 4.863836288452148 4.778103828430176
        4.748165607452393 4.779176235198975 4.9875569343566895 5.178185939788818 5.280362606048584 5.116962909698486
        5.088107109069824 5.070958614349365 5.295048713684082 5.31245231628418 5.478775501251221 5.564460754394531
        5.519352436065674 5.557314872741699 5.509182929992676 5.578128337860107 5.635875225067139 5.613377571105957
        5.793585777282715 5.962940692901611 6.035831928253174 6.1026225090026855 6.026320457458496 6.1235575675964355
        6.011605739593506 6.095794677734375 6.2365546226501465 6.2221221923828125 6.296453475952148 6.195803165435791
        6.2357025146484375 6.226256370544434 6.114745140075684 6.27591609954834 6.365593433380127 6.381819248199463
        6.35382080078125 6.517946720123291 6.653809070587158 6.278059482574463 5.947264194488525 6.264994144439697
        6.600529670715332 6.689600467681885 6.38340425491333 6.276954650878906 6.53324031829834 6.4806060791015625
        6.536129474639893 6.16084623336792 6.274609088897705 6.439870834350586 6.568345069885254 6.555298328399658
        5.957736492156982 6.141371250152588 6.6466569900512695 6.680689811706543 6.286569595336914 5.966015815734863
        5.71219539642334 5.760599613189697 5.529208660125732 5.49227237701416 5.108371257781982 4.868927955627441
        4.745543479919434 4.488827228546143 4.2940287590026855 3.7456703186035156 4.0562357902526855 4.60271692276001
        5.457675933837891 5.610513687133789 5.590493202209473 4.962719440460205 5.475538730621338 4.89810037612915
        5.5795111656188965 4.933126926422119 5.400959014892578 4.537779808044434 3.494083881378174 2.2295265197753906
        2.0745325088500977 2.259244680404663 2.2850708961486816 2.517500877380371 2.756826639175415 2.7312257289886475
        2.664332389831543 2.4630606174468994 2.145979404449463 2.2369301319122314 2.2799577713012695 1.9042755365371704
        1.443942904472351 1.173450231552124 1.1866832971572876 0.6077524423599243 1.126873254776001 1.4238367080688477
        2.0864036083221436 2.554758310317993 1.6495610475540161 0.40574347972869873 0.40268734097480774 0.5202787518501282
        0.2623527944087982 0.5866785049438477 0.42400026321411133 0.3250552713871002 0.49331551790237427 0.7403489947319031
        0.9648758769035339 1.1470558643341064 1.3730614185333252 0.9976837038993835 0.45026126503944397 0.7422208189964294
        1.149438738822937 1.6176527738571167 1.9111031293869019 1.9304683208465576 2.169011116027832 2.2179605960845947
        2.72574520111084 2.5007424354553223 1.9116109609603882 1.4613852500915527 1.3104865550994873 1.158587098121643
        1.5455976724624634 2.0047249794006348 2.4806199073791504 2.6457862854003906 2.622380256652832 3.2287771701812744
        3.2596595287323 3.3879764080047607 3.633023977279663 4.038867950439453 3.778517007827759 3.6584818363189697
        3.4466707706451416 3.1985578536987305 3.121267080307007 3.1299021244049072 3.0240120887756348 2.9576492309570312
        2.9432504177093506 3.2999441623687744 3.4675400257110596 3.894810438156128 4.128459453582764 4.506991386413574
        4.520719528198242 4.664167881011963 4.77146577835083 4.692364692687988 4.741818904876709 4.746042728424072
        4.936268329620361 5.061698913574219 5.085785388946533 5.017861843109131 4.966164588928223 4.944777011871338
        5.096728801727295 5.119710922241211 5.359553337097168 5.469088077545166 5.447869777679443 5.47353458404541
        5.469504356384277 5.578128337860107 5.4986572265625 5.474148273468018 5.7057204246521 5.812593936920166
        5.882341384887695 5.95529317855835 6.040066719055176 6.142226696014404 5.910295486450195 5.947082042694092
        6.065789222717285 6.197556495666504 6.2887043952941895 6.0846099853515625 6.188441753387451 6.167953968048096
        6.132142543792725 6.201531410217285 6.285182952880859 6.330979824066162 6.239611625671387 6.299746990203857
        6.429229259490967 6.186967372894287 6.120278358459473 6.189760684967041 6.50314474105835 6.633276462554932
        6.440011978149414 6.499547481536865 6.495444297790527 6.299093246459961 6.329246520996094 6.105316162109375
        6.33390998840332 6.3792195320129395 6.368892192840576 6.268278121948242 5.992342948913574 6.224465847015381
        6.3793745040893555 6.245884418487549 5.969793796539307 5.714432239532471 5.54191780090332 5.6545281410217285
        5.4139404296875 5.307301998138428 5.175965309143066 5.098585605621338 4.7680230140686035 4.059702396392822
        4.083645343780518 3.6367850303649902 3.6445839405059814 3.9491536617279053 5.007154941558838 5.140902996063232
        5.273118495941162 4.556139945983887 5.247938632965088 5.684743404388428 6.518316268920898 5.507429599761963
        5.453433990478516 4.423940658569336 3.2249584197998047 2.054358959197998 2.233009099960327 2.8054935932159424
        2.883906602859497 2.8718924522399902 2.80686616897583 2.920295238494873 2.9979658126831055 2.649641275405884
        2.3375072479248047 2.3617124557495117 1.9854919910430908 1.4663907289505005 0.8372235894203186 0.8650547862052917
        0.7054103016853333 0.3634704053401947 1.9388620853424072 2.5928750038146973 3.775954008102417 3.569830894470215
        1.4362905025482178 0.7855204343795776 1.3704134225845337 1.1329845190048218 0.694196343421936 0.7138343453407288
        0.6051946878433228 0.320926696062088 0.3916352093219757 0.6110823154449463 1.146512746810913 1.0521820783615112
        1.2308285236358643 0.9169951677322388 0.582509458065033 0.6318814158439636 0.7293461561203003 1.1414241790771484
        1.6980074644088745 1.9783035516738892 2.357637405395508 2.638606071472168 3.0955331325531006 2.718585968017578
        2.455765962600708 1.9043850898742676 1.3170799016952515 0.9753250479698181 1.5332475900650024 2.046748638153076
        2.446141004562378 2.347106456756592 2.339817762374878 3.0361907482147217 3.133584499359131 3.136002540588379
        3.3265299797058105 3.8893041610717773 3.91291880607605 3.6765432357788086 3.286123275756836 2.848430871963501
        2.9213805198669434 3.3182854652404785 3.2665886878967285 3.0930912494659424 2.940713405609131 3.1523289680480957
        3.4808900356292725 3.5862021446228027 3.8980631828308105 4.277474880218506 4.516712188720703 4.657249450683594
        4.617974758148193 4.673122882843018 4.769760608673096 4.903166770935059 5.062054634094238 5.080678462982178
        5.182440280914307 5.001955986022949 4.946906089782715 4.976751327514648 4.974541664123535 5.025548934936523
        5.228878498077393 5.332759380340576 5.361752510070801 5.384631156921387 5.463924884796143 5.5302414894104
        5.423935890197754 5.514906883239746 5.582728862762451 5.597415447235107 5.614158630371094 5.746371269226074
        6.035361289978027 6.0736002922058105 5.777424335479736 5.681865692138672 5.799612998962402 6.146947860717773
        6.137398719787598 6.0010881423950195 6.006815433502197 5.982368469238281 6.121286869049072 6.155616760253906
        6.21806001663208 6.227564334869385 6.168995380401611 6.268760681152344 6.427585601806641 6.358354568481445
        6.294393062591553 6.164824485778809 6.372555255889893 6.483832359313965 6.430486679077148 6.552853107452393
        6.482606887817383 6.281401634216309 6.255237102508545 6.362537384033203 6.505679607391357 6.440310955047607
        6.333962917327881 6.2699971199035645 6.142472743988037 6.210446357727051 6.101608753204346 5.956788539886475
        5.543889045715332 5.262238025665283 5.183475494384766 5.263350963592529 5.0802435874938965 4.974239349365234
        5.005878448486328 5.251614093780518 4.775446891784668 4.315775394439697 3.6948163509368896 3.334623098373413
        3.2911558151245117 3.999847173690796 4.526814937591553 4.812906742095947 5.677332401275635 5.330401420593262
        5.6765923500061035 5.395662307739258 5.901675224304199 5.181149959564209 4.85179328918457 4.268279552459717
        3.6835670471191406 2.899634838104248 3.0302629470825195 3.8019208908081055 3.756188154220581 3.2971084117889404
        3.277592182159424 3.2361204624176025 3.0054447650909424 2.220100164413452 2.1128015518188477 2.170698642730713
        1.8994243144989014 1.1522648334503174 0.6981944441795349 1.0061869621276855 0.6156493425369263 0.6739133596420288
        2.5641915798187256 3.129256010055542 4.082804203033447 2.8893373012542725 0.7081103920936584 0.5856481194496155
        1.1578842401504517 1.125802755355835 0.6914513111114502 0.47071555256843567 0.6449059247970581 0.7166903614997864
        0.8990785479545593 0.9595624804496765 1.503170132637024 1.4062590599060059 1.6703839302062988 1.2793306112289429
        1.274488925933838 1.1891889572143555 0.9749215245246887 1.5516455173492432 1.9352971315383911 2.063840627670288
        2.3201022148132324 2.9329581260681152 3.4483230113983154 2.97691011428833 2.341193914413452 1.7466485500335693
        1.3249497413635254 1.0362671613693237 1.829886555671692 2.5023248195648193 2.8791892528533936 2.2690939903259277
        2.1989870071411133 2.700206756591797 3.024224281311035 3.086988925933838 3.1800570487976074 3.5738444328308105
        3.5851242542266846 3.3780272006988525 2.933082103729248 2.6530685424804688 2.777289867401123 3.103292942047119
        3.1507647037506104 2.943551778793335 2.8326363563537598 2.8770029544830322 3.0599265098571777 3.1309328079223633
        3.517686128616333 4.083520412445068 4.343695640563965 4.337343215942383 4.3241658210754395 4.656525135040283
        4.966352462768555 5.028521537780762 5.106075763702393 5.065171241760254 5.055020809173584 4.899225234985352
        4.883565902709961 4.910638332366943 4.98234224319458 4.805983543395996 4.927253246307373 5.099323749542236
        5.192744255065918 5.409053802490234 5.4572930335998535 5.551639556884766 5.319285869598389 5.38046932220459
        5.461704730987549 5.224059581756592 5.369090557098389 5.554948329925537 5.867023468017578 5.929041385650635
        5.57858943939209 5.638247489929199 5.635217666625977 5.922209739685059 5.979828834533691 5.852712154388428
        5.906662464141846 5.861207008361816 5.955878257751465 5.942775726318359 5.9487223625183105 6.253482341766357
        6.075946807861328 6.1337361335754395 6.285728454589844 6.3173394203186035 6.22280216217041 6.002366542816162
        6.193793773651123 6.469388008117676 6.566193580627441 6.747250556945801 6.563268184661865 6.274737358093262
        6.409311771392822 6.3777031898498535 6.465156078338623 6.240078926086426 6.14087438583374 6.21756649017334
        6.105731964111328 6.264261245727539 6.19028902053833 6.130928039550781 5.669631004333496 5.100085735321045
        5.240225315093994 5.001311302185059 4.511903285980225 4.439220428466797 4.811514854431152 4.944186687469482
        4.564095497131348 4.5230255126953125 3.8375020027160645 3.679757595062256 4.387747287750244 5.092900276184082
        5.410999774932861 5.285181522369385 6.516936302185059 6.660796165466309 6.242475986480713 5.311086654663086
        5.053753852844238 5.11519718170166 4.7556233406066895 4.894640922546387 4.586921215057373 4.050393104553223
        3.9305336475372314 4.232459545135498 4.4831624031066895 4.17984676361084 3.6877872943878174 3.09330153465271
        3.113288402557373 2.4206719398498535 2.511791229248047 2.4833319187164307 2.089416027069092 1.1751569509506226
        0.7033122777938843 1.1313393115997314 1.1529042720794678 1.2329983711242676 2.307690382003784 2.484757900238037
        2.6307201385498047 1.2820594310760498 0.4707498252391815 1.2014977931976318 1.468542218208313 1.1838575601577759
        0.9859415888786316 0.7977969646453857 0.9216881990432739 1.2241724729537964 1.3198577165603638 1.5545082092285156
        2.0990567207336426 2.109229803085327 2.0785138607025146 1.5154329538345337 1.5776736736297607 1.4413542747497559
        1.2142268419265747 1.584600567817688 1.7203799486160278 1.6446001529693604 1.7562580108642578 2.6051082611083984
        2.9307031631469727 2.6204328536987305 2.3120410442352295 1.844029188156128 1.4510624408721924 1.8394590616226196
        2.480133295059204 2.600104808807373 2.225536346435547 1.802004337310791 2.0513815879821777 2.1375832557678223
        2.4955711364746094 2.664365291595459 3.2117209434509277 3.392625093460083 3.1284499168395996 2.748150110244751
        2.395792245864868 2.5101065635681152 2.596827745437622 2.8097023963928223 2.8663241863250732 2.6698222160339355
        2.558232545852661 2.7254981994628906 2.99454927444458 3.251863718032837 3.499894857406616 3.9213836193084717
        4.254270553588867 4.303578853607178 4.358028888702393 4.595943927764893 4.835716724395752 4.986277103424072
        5.004626274108887 5.0539774894714355 5.03141450881958 4.821945667266846 4.745483875274658 4.774800777435303
        4.926648139953613 4.770866870880127 4.887818336486816 5.099909782409668 5.136408805847168 5.381257057189941
        5.360903739929199 5.418489456176758 5.302969455718994 5.324867248535156 5.499187469482422 5.2139892578125
        5.353729724884033 5.538524627685547 5.637546539306641 5.705162525177002 5.384832382202148 5.4426398277282715
        5.46861457824707 5.556853294372559 5.5815043449401855 5.455625057220459 5.464009761810303 5.342142581939697
        5.522904396057129 5.730931282043457 5.97489070892334 6.281053066253662 6.147519588470459 6.14137601852417
        6.139998912811279 6.173670768737793 6.123633861541748 6.259607315063477 6.327569484710693 6.565688133239746
        6.564088344573975 6.5756120681762695 6.4416093826293945 6.028808116912842 6.262480735778809 6.0167059898376465
        6.040175914764404 5.875511169433594 5.895051956176758 5.944114685058594 5.711339473724365 5.995262145996094
        6.22537088394165 6.200483798980713 5.888759136199951 5.047285556793213 4.942386150360107 4.906523704528809
        4.518441677093506 4.487637996673584 4.166325569152832 4.738220691680908 4.748667240142822 5.110345840454102
        4.194324970245361 4.140320301055908 5.316300392150879 6.00093412399292 6.052591800689697 5.262620449066162
        5.577736854553223 5.652993202209473 5.629791736602783 4.803757667541504 4.459534645080566 4.388844966888428
        4.548343181610107 4.812467098236084 4.509843826293945 4.424458980560303 4.716075420379639 4.9864349365234375
        5.229101657867432 4.876887321472168 4.376677513122559 3.9435837268829346 4.107571601867676 3.3065314292907715
        3.0893373489379883 2.7005510330200195 1.9581876993179321 1.228987455368042 0.7733075022697449 1.2668310403823853
        1.1619210243225098 1.0622061491012573 2.253863573074341 1.9027888774871826 1.6335880756378174 0.6011910438537598
        0.9436401724815369 1.179544448852539 1.1553304195404053 1.1258946657180786 1.1882712841033936 0.9736967086791992
        1.0466138124465942 1.3472175598144531 1.665507435798645 1.7937102317810059 2.275076389312744 2.0733346939086914
        1.9714564085006714 1.6540906429290771 1.7166805267333984 1.6179417371749878 1.6689138412475586 1.7325762510299683
        1.5013041496276855 1.3478312492370605 1.3424216508865356 1.8797852993011475 1.8658497333526611 1.5501734018325806
        1.184035062789917 1.4684853553771973 1.8874739408493042 2.8011648654937744 3.1903486251831055 2.9100558757781982
        2.3365933895111084 1.8294397592544556 1.7953802347183228 1.9750416278839111 2.3782100677490234 2.7888824939727783
        3.0515060424804688 3.2664387226104736 3.0033013820648193 2.595611333847046 2.479649782180786 2.644186019897461
        2.559293508529663 2.438525438308716 2.518306016921997 2.5200209617614746 2.53877592086792 2.672046422958374
        2.7693448066711426 3.1783971786499023 3.494614362716675 3.9741787910461426 4.2565107345581055 4.416801452636719
        4.574553489685059 4.775587558746338 4.947577953338623 5.096854209899902 5.1013383865356445 5.182981014251709
        5.204538822174072 4.953862190246582 4.778669834136963 4.775266647338867 4.877665042877197 4.794432163238525
        4.941376209259033 5.225247383117676 5.236868381500244 5.441195011138916 5.4124674797058105 5.3761444091796875
        5.2869672775268555 5.276707649230957 5.473671913146973 5.422408103942871 5.561897277832031 5.638308048248291
        5.57257080078125 5.587646007537842 5.379623889923096 5.338823318481445 5.367675304412842 5.264404296875
        5.264075756072998 5.241464614868164 5.269489765167236 5.344146251678467 5.508425712585449 5.821472644805908
        6.124692440032959 6.315970420837402 6.358717918395996 6.393102169036865 6.421121597290039 6.449427604675293
        6.235793113708496 6.347262382507324 6.406834602355957 6.619886875152588 6.595790863037109 6.363036632537842
        6.344717979431152 6.085107803344727 6.294318675994873 6.010342597961426 5.782112121582031 5.7645416259765625
        5.741574287414551 5.741569519042969 5.672363758087158 5.752473831176758 6.138199806213379 6.054457664489746
        5.8084635734558105 5.043046474456787 4.715945720672607 5.021388053894043 4.829170227050781 4.63582706451416
        4.189189434051514 4.6233811378479 4.97935152053833 5.2855353355407715 5.0682549476623535 4.797001361846924
        5.33733606338501 5.822111129760742 6.267423629760742 5.194472312927246 4.589494228363037 4.657054901123047
        5.196850776672363 5.032891273498535 4.629190921783447 4.380274295806885 4.418190956115723 4.556682109832764
        4.234529972076416 4.634581565856934 5.196591377258301 5.397520542144775 5.764865875244141 5.109813213348389
        4.9300336837768555 4.868928909301758 5.095681190490723 4.685219764709473 4.186778545379639 3.3658225536346436
        1.994354248046875 1.5066132545471191 1.0230107307434082 1.3557761907577515 0.8716475367546082 0.7203174829483032
        2.0495429039001465 1.834417462348938 0.9388598799705505 0.747880220413208 1.5980409383773804 1.404646396636963
        1.3664880990982056 1.444901704788208 1.431876301765442 1.42694091796875 1.3304439783096313 1.5626671314239502
        1.8485920429229736 1.8616273403167725 2.006915330886841 1.7438850402832031 1.7829347848892212 1.7789802551269531
        1.816594123840332 1.909751534461975 2.069424629211426 1.7635924816131592 1.4178683757781982 1.2063246965408325
        1.1061712503433228 1.084848403930664 0.8780753016471863 0.8651192784309387 0.9078965783119202 2.119746446609497
        2.6558732986450195 3.1860249042510986 2.7839176654815674 2.590970754623413 1.8469842672348022 1.393736720085144
        1.0076311826705933 1.7926084995269775 2.1280508041381836 2.6461613178253174 2.7594637870788574 3.0203614234924316
        2.900505781173706 2.5138843059539795 2.508115291595459 2.7130961418151855 2.6180460453033447 2.3841712474823
        2.37300968170166 2.3784923553466797 2.5095858573913574 2.6624088287353516 2.7918262481689453 3.176452398300171
        3.4188144207000732 3.855637311935425 4.100724697113037 4.357439041137695 4.518716812133789 4.623100280761719
        4.870785236358643 5.032858848571777 5.095027923583984 5.143965244293213 5.027790069580078 4.943695545196533
        4.7631707191467285 4.75695276260376 4.789216041564941 4.7855939865112305 5.008742809295654 5.183095932006836
        5.218045234680176 5.378880023956299 5.29836893081665 5.326632022857666 5.211334228515625 5.240787029266357
        5.460507392883301 5.501246929168701 5.592733860015869 5.527182102203369 5.506697177886963 5.609026908874512
        5.439209461212158 5.36150598526001 5.247021675109863 5.2126851081848145 5.2644362449646 5.193933963775635
        5.2953009605407715 5.374370098114014 5.713985919952393 6.024225234985352 6.003782272338867 6.12067174911499
        6.116810321807861 6.449784278869629 6.5777788162231445 6.441926002502441 6.20365047454834 6.1375508308410645
        6.375462055206299 6.457231044769287 6.2337965965271 6.138615608215332 6.1289167404174805 6.27236270904541
        6.448636054992676 6.151408672332764 5.84115743637085 5.785235404968262 5.986116886138916 6.103991985321045
        5.902769088745117 5.72768497467041 5.6894073486328125 5.671779632568359 5.632394313812256 5.290875434875488
        4.96090841293335 5.014163970947266 5.179478168487549 5.173144340515137 4.815744876861572 4.884601593017578
        5.113659381866455 5.5330610275268555 5.756063938140869 5.483677387237549 5.367434978485107 5.402327537536621
        5.373445510864258 4.620269775390625 4.44853401184082 4.761482238769531 4.975925922393799 4.564270496368408
        4.149655342102051 4.045340538024902 4.549166679382324 4.773592472076416 4.444281578063965 4.935385227203369
        5.53105354309082 6.024049758911133 5.56809139251709 5.023150444030762 5.047806739807129 5.164793968200684
        5.314603805541992 4.971114635467529 4.413874626159668 3.600890874862671 2.538936138153076 2.150545835494995
        1.7768446207046509 1.7741831541061401 1.3738759756088257 1.3139801025390625 1.6376737356185913 1.6005500555038452
        0.7924272418022156 1.151207685470581 1.8769783973693848 1.4231078624725342 1.4517537355422974 1.6931581497192383
        1.9007126092910767 1.8325529098510742 1.2945542335510254 1.4996020793914795 1.7813172340393066 1.887871265411377
        2.1054298877716064 1.8301445245742798 2.1038970947265625 2.13921856880188 2.080937623977661 1.9256787300109863
        1.7032454013824463 1.5385276079177856 1.5312455892562866 1.2565996646881104 1.1574885845184326 1.1953046321868896
        1.4464055299758911 1.1083009243011475 1.3098047971725464 2.9729554653167725 3.678899049758911 3.2356245517730713
        2.461787462234497 2.3855247497558594 1.7614351511001587 1.309067726135254 0.9722627401351929 1.9559223651885986
        2.289640188217163 2.599656581878662 2.4295012950897217 2.7190463542938232 2.5847787857055664 2.4378607273101807
        2.5824272632598877 2.6538867950439453 2.740227699279785 2.6633670330047607 2.3630599975585938 2.1934309005737305
        2.245973587036133 2.5171515941619873 2.788357734680176 2.852509021759033 3.193598985671997 3.6206250190734863
        4.022129535675049 4.200650691986084 4.355278015136719 4.724946975708008 5.07111120223999 5.286182880401611
        5.283825397491455 5.05821418762207 5.011364459991455 4.893205642700195 4.841119289398193 4.838539123535156
        4.781223297119141 4.936529636383057 5.123587131500244 5.234251022338867 5.303802490234375 5.389007568359375
        5.302933216094971 5.286108016967773 5.225296974182129 5.386423110961914 5.492259502410889 5.516763210296631
        5.567885398864746 5.607873439788818 5.638331890106201 5.622720718383789 5.437169075012207 5.33259391784668
        5.21064567565918 5.355464458465576 5.359756946563721 5.28383731842041 5.295243740081787 5.4656805992126465
        5.877654552459717 6.0580973625183105 6.0843634605407715 6.3269476890563965 6.272980690002441 6.625337600708008
        6.691619396209717 6.5555877685546875 6.29166841506958 6.143243312835693 6.368189334869385 6.517637729644775
        6.3091936111450195 6.265517234802246 6.167240619659424 6.392615795135498 6.494177341461182 6.357161521911621
        6.16429328918457 6.0121750831604 6.172072887420654 6.238173961639404 6.0140509605407715 5.879185199737549
        5.638617515563965 5.643825531005859 5.625846862792969 5.483477592468262 5.364111423492432 5.1841654777526855
        5.498863220214844 5.435664653778076 5.306921482086182 5.037635803222656 5.229902267456055 5.815853595733643
        6.265244960784912 5.934816837310791 5.539498805999756 5.421241760253906 5.275381565093994 5.163358211517334
        5.388278961181641 5.130121231079102 4.459488868713379 3.8712940216064453 3.626887559890747 4.209320068359375
        4.639810085296631 4.776629447937012 4.892587184906006 5.284945011138916 5.4201154708862305 5.652399063110352
        5.557359218597412 4.9741740226745605 4.755772590637207 4.389177322387695 5.1747283935546875 5.303980827331543
        5.210047721862793 4.002203464508057 3.3218610286712646 3.445200204849243 3.164707660675049 2.8561782836914062
        2.2558724880218506 2.057070732116699 1.266890048980713 1.2571810483932495 0.8342025279998779 1.3824920654296875
        2.2664568424224854 2.026021957397461 1.6092565059661865 1.9051421880722046 2.085944175720215 1.8449242115020752
        1.386608600616455 1.5996949672698975 1.8938995599746704 2.0217783451080322 2.1547136306762695 2.2233734130859375
        2.64410400390625 2.513249158859253 2.2528269290924072 1.9735053777694702 1.338523030281067 0.9328755140304565
        1.1906849145889282 1.2285336256027222 1.3242394924163818 1.7733497619628906 2.465153932571411 2.4812731742858887
        2.7833800315856934 3.6627321243286133 3.605138063430786 3.211758852005005 2.7092247009277344 2.599691152572632
        1.7524994611740112 1.2626404762268066 1.5654445886611938 2.0993635654449463 2.2851874828338623 2.437274217605591
        2.602872133255005 2.627553939819336 2.4709672927856445 2.393761157989502 2.4379022121429443 2.5865414142608643
        2.7539565563201904 2.930184841156006 2.5691959857940674 2.319556474685669 2.331380605697632 2.536637544631958
        2.7102608680725098 2.707935333251953 3.0346407890319824 3.461432456970215 3.838899850845337 3.921653985977173
        4.09293794631958 4.453409194946289 5.022243976593018 5.080621719360352 5.133552074432373 4.851559162139893
        4.945204734802246 4.982156753540039 4.959217071533203 4.930004596710205 4.954595565795898 5.087216854095459
        5.07511568069458 5.197813510894775 5.24010705947876 5.433883190155029 5.275942325592041 5.316277980804443
        5.247809410095215 5.394801139831543 5.4906721115112305 5.351195335388184 5.503643035888672 5.557958126068115
        5.516079425811768 5.528614044189453 5.100236892700195 5.129323959350586 4.963760852813721 5.195889472961426
        5.278157711029053 5.0374755859375 5.151043891906738 5.295666217803955 5.653158664703369 5.840378284454346
        6.07741641998291 6.595407962799072 6.4902448654174805 6.42756986618042 6.177910804748535 6.104094505310059
        6.1386189460754395 6.143883228302002 6.274324417114258 6.449459075927734 6.19927453994751 6.248413562774658
        6.156003952026367 6.34490966796875 6.455478668212891 6.259792804718018 6.1354241371154785 6.085803985595703
        6.166434288024902 6.125239849090576 5.9078264236450195 5.904537677764893 5.734548091888428 5.412716388702393
        5.418149471282959 5.3232598304748535 5.426060676574707 5.223333358764648 5.595731258392334 5.532503128051758
        5.466064453125 5.639211177825928 5.7451324462890625 6.17999792098999 6.060503959655762 5.950129985809326
        5.5603790283203125 5.230510234832764 5.044520854949951 5.027696132659912 5.21738862991333 4.602954864501953
        3.899019718170166 3.3048741817474365 3.2683815956115723 4.057086944580078 4.637828350067139 4.732334613800049
        5.217404365539551 5.700067520141602 5.519435405731201 5.051077842712402 5.0468974113464355 4.509119510650635
        4.119859218597412 4.029385089874268 4.698477268218994 5.151860237121582 4.860772132873535 3.792659282684326
        3.512688636779785 4.091290473937988 3.9964919090270996 3.622631311416626 3.0741639137268066 2.7899982929229736
        0.857038676738739 0.8817394971847534 0.8950780034065247 0.7911779284477234 2.0999186038970947 2.236767530441284
        1.8181391954421997 1.4110568761825562 1.382946252822876 1.4159324169158936 1.127570629119873 1.3350398540496826
        1.6398415565490723 1.7084167003631592 1.83161461353302 2.2603135108947754 2.794663429260254 2.4005560874938965
        1.9322211742401123 1.7916778326034546 1.2144607305526733 1.0157917737960815 1.076441764831543 1.0830827951431274
        1.2132270336151123 1.9569460153579712 2.73274302482605 2.8452486991882324 3.197388172149658 3.2074837684631348
        2.844404935836792 2.6093757152557373 2.4330620765686035 2.500464916229248 2.1903913021087646 1.5771663188934326
        1.6443300247192383 1.679863452911377 1.820850133895874 1.9224416017532349 2.5664706230163574 2.8290202617645264
        2.735078811645508 2.5635902881622314 2.5387816429138184 2.617039442062378 2.693605899810791 2.767983913421631
        2.4580237865448 2.2038190364837646 2.1506459712982178 2.362027645111084 2.488518714904785 2.5204899311065674
        2.8377931118011475 3.199779748916626 3.569572687149048 3.650604248046875 3.975656509399414 4.30940055847168
        4.820071697235107 4.894681453704834 5.1312665939331055 4.960427761077881 5.036808490753174 5.05063533782959
        5.087052345275879 4.952663421630859 5.052690029144287 5.0598464012146 5.053536415100098 5.188547611236572
        5.196846961975098 5.437957286834717 5.339489936828613 5.344184875488281 5.247573375701904 5.332047939300537
        5.46273946762085 5.31032133102417 5.44257116317749 5.441964626312256 5.358335018157959 5.356813907623291
        4.9456939697265625 4.9332356452941895 4.882002830505371 5.0742268562316895 5.076198577880859 4.758389472961426
        4.921998023986816 5.210169315338135 5.526058673858643 5.73725700378418 5.9559502601623535 6.250226020812988
        6.179345607757568 6.0851287841796875 5.974878311157227 5.897693634033203 6.0380425453186035 6.174999713897705
        6.247509479522705 6.479916095733643 6.296440124511719 6.4053874015808105 6.332191467285156 6.458221435546875
        6.732140064239502 6.480484962463379 6.289517879486084 6.095461368560791 6.028049468994141 6.022251605987549
        5.859275817871094 6.031744480133057 6.079318046569824 5.776246070861816 5.842430591583252 5.656320095062256
        5.593143939971924 5.494739055633545 5.608956336975098 5.545620918273926 5.370442867279053 5.643034934997559
        5.668276786804199 5.613272190093994 5.675394058227539 5.533390522003174 5.252748012542725 4.977654933929443
        4.9518585205078125 5.01702880859375 4.871626853942871 4.270973205566406 3.8520915508270264 3.5354974269866943
        3.7924671173095703 4.1275858879089355 4.532569885253906 4.802123546600342 5.415592193603516 5.955253601074219
        5.208360195159912 4.402724266052246 4.299995422363281 4.227785110473633 4.066333770751953 3.541757106781006
        3.9836528301239014 4.747249603271484 4.589081764221191 4.247128486633301 4.1147661209106445 4.5642266273498535
        4.094034194946289 3.5405213832855225 3.2629456520080566 2.2866127490997314 0.8171353340148926 0.6249151825904846
        0.676055908203125 1.1826575994491577 2.021869421005249 2.326307535171509 1.8937044143676758 1.4225549697875977
        1.4529045820236206 1.6100928783416748 1.2572543621063232 1.1774357557296753 1.5655475854873657 1.7074530124664307
        1.7805678844451904 2.4088990688323975 2.729773759841919 2.430884599685669 2.062689781188965 1.9048240184783936
        1.472856879234314 1.146163821220398 1.168768286705017 1.223914384841919 1.530350923538208 2.1243295669555664
        2.763943672180176 3.196917772293091 3.3394734859466553 3.277681350708008 2.3763105869293213 2.2194361686706543
        2.172677516937256 2.547250270843506 2.726012706756592 2.197265625 1.7131227254867554 1.564510703086853
        1.8801367282867432 1.9486037492752075 2.4943811893463135 2.8361570835113525 3.0243234634399414 3.136396646499634
        2.939052104949951 2.784817695617676 2.644122362136841 2.7382986545562744 2.6713201999664307 2.746739149093628
        2.6453821659088135 2.6673052310943604 2.5189058780670166 2.6766507625579834 2.9543919563293457 3.1254212856292725
        3.324108362197876 3.4884374141693115 3.9934935569763184 4.214917182922363 4.540696620941162 4.704480171203613
        5.1389384269714355 5.13034725189209 5.168128967285156 5.3268561363220215 5.483865737915039 5.36551570892334
        5.381114959716797 5.2795186042785645 5.2518181800842285 5.228283405303955 5.219915390014648 5.35113000869751
        5.388671398162842 5.307150840759277 5.292886734008789 5.306325435638428 5.423763751983643 5.297253131866455
        5.365653038024902 5.328142166137695 5.2628278732299805 5.28550386428833 5.0812764167785645 4.995002746582031
        4.981473922729492 5.005513668060303 5.015262126922607 4.932125568389893 5.156937599182129 5.449578285217285
        5.5773115158081055 5.855862140655518 5.9289631843566895 5.951633930206299 5.962554454803467 6.13267707824707
        6.203343868255615 6.040391445159912 6.041075706481934 6.0912322998046875 6.2677106857299805 6.479848384857178
        6.5504255294799805 6.513064384460449 6.470042705535889 6.388248443603516 6.742509841918945 6.652230262756348
        6.467947959899902 6.146869659423828 5.9464874267578125 5.888674259185791 5.878962516784668 6.145834445953369
        6.251404762268066 5.993272304534912 5.878387928009033 5.843596458435059 5.556333541870117 5.384832382202148
        5.159692287445068 5.23041296005249 5.299875736236572 5.517973899841309 5.517900466918945 5.208141803741455
        5.258485794067383 5.069958686828613 4.826152324676514 4.703719139099121 4.755953311920166 4.570507526397705
        4.65241003036499 4.290457725524902 4.336587429046631 3.9717092514038086 4.040439605712891 4.140010833740234
        4.737624645233154 5.480104446411133 5.50442361831665 5.5632734298706055 4.6934404373168945 4.000664234161377
        3.462817668914795 3.775902509689331 3.7661266326904297 3.506751298904419 3.3282461166381836 3.613656520843506
        3.8034801483154297 4.2480621337890625 4.469150066375732 4.421566963195801 3.76335072517395 3.23305344581604
        2.9088635444641113 2.2711212635040283 0.5229421854019165 0.7741267085075378 0.9975006580352783 1.588546633720398
        1.967635989189148 2.2456088066101074 1.9436819553375244 1.5755114555358887 1.6357616186141968 1.5884069204330444
        1.2294687032699585 1.160291075706482 1.4391359090805054 1.623529314994812 1.9224529266357422 2.530743360519409
        2.5500547885894775 2.3146824836730957 2.104008913040161 1.9998351335525513 1.6855967044830322 1.3355215787887573
        1.4767612218856812 1.5073598623275757 1.8717221021652222 2.2139976024627686 2.4737653732299805 2.990546226501465
        2.927625894546509 3.1226539611816406 2.5791492462158203 2.3092668056488037 2.064971923828125 2.0133678913116455
        2.74654221534729 2.745684862136841 2.0664196014404297 1.3616491556167603 1.6431519985198975 1.953079342842102
        2.593383312225342 2.911879777908325 3.041539192199707 3.020179510116577 2.859316110610962 2.8369643688201904
        2.8002073764801025 2.785698652267456 2.676480531692505 2.6950294971466064 2.646038770675659 2.6773712635040283
        2.5926783084869385 2.809227466583252 3.0568835735321045 3.088162422180176 3.1585097312927246 3.2479567527770996
        3.7401483058929443 3.804023027420044 4.051663875579834 4.2641801834106445 4.911559581756592 5.1404876708984375
        5.15585470199585 5.30052375793457 5.463987350463867 5.39661169052124 5.411749362945557 5.285248279571533
        5.351646423339844 5.2769246101379395 5.271892547607422 5.228011131286621 5.2722272872924805 5.29920768737793
        5.29725456237793 5.267845153808594 5.351263046264648 5.239691734313965 5.458583354949951 5.313144683837891
        5.292323112487793 5.350048065185547 5.406085014343262 5.238448619842529 5.010700702667236 4.947244167327881
        5.087240219116211 5.090611457824707 5.251095294952393 5.208022594451904 5.36847448348999 5.810891628265381
        5.8064680099487305 5.805190086364746 5.691010475158691 6.063835620880127 6.223437786102295 6.014237880706787
        5.944311618804932 5.886730194091797 6.188379764556885 6.544286727905273 6.593551158905029 6.482777118682861
        6.315918445587158 6.234429836273193 6.664343357086182 6.546739101409912 6.426413059234619 5.9177327156066895
        5.911149501800537 6.018322467803955 5.974316120147705 6.06951904296875 5.864422798156738 6.07063102722168
        5.9809770584106445 5.76615047454834 5.242611885070801 5.053371906280518 4.860062599182129 4.864048480987549
        5.094970226287842 5.304581642150879 5.226863861083984 4.975557327270508 5.111147880554199 4.805740833282471
        4.546101093292236 4.3650383949279785 4.508721351623535 4.52891731262207 4.747583866119385 4.636736869812012
        4.590487480163574 4.377607822418213 4.281619548797607 4.218295097351074 4.883223533630371 5.467292785644531
        5.044172763824463 4.719463348388672 4.048300743103027 3.8956496715545654 3.292715311050415 3.338928461074829
        3.153214693069458 3.1327333450317383 3.499159097671509 3.6761014461517334 3.872396945953369 4.037594318389893
        4.503022193908691 4.945454120635986 4.809141159057617 3.8352882862091064 3.219888687133789 2.099308967590332
        0.518062174320221 0.650287926197052 0.8060071468353271 1.4499244689941406 1.5286701917648315 1.6333200931549072
        1.7566120624542236 1.7135430574417114 1.8822441101074219 1.8496923446655273 1.4053202867507935 1.4354249238967896
        1.510200023651123 1.6414997577667236 2.1386361122131348 2.373109817504883 2.513218641281128 2.3189573287963867
        2.0631518363952637 2.0103940963745117 1.7126123905181885 1.4054263830184937 1.482076644897461 1.3982871770858765
        1.833246111869812 2.117459774017334 2.4737374782562256 2.9116389751434326 2.7755167484283447 2.7847588062286377
        2.4175126552581787 1.9630564451217651 1.7697614431381226 1.803924322128296 2.409613847732544 2.173440933227539
        1.8217108249664307 1.1436264514923096 1.7477234601974487 2.2905514240264893 2.426051139831543 2.93674373626709
        3.0652379989624023 2.949808359146118 2.6042795181274414 2.430781126022339 2.55295729637146 2.74613356590271
        2.6872634887695312 2.581757068634033 2.5239109992980957 2.6510016918182373 2.87168288230896 2.919987916946411
        2.9860939979553223 2.937227487564087 3.17496919631958 3.346421957015991 3.607198476791382 3.7966196537017822
        4.148143291473389 4.3720502853393555 4.866456985473633 5.0608649253845215 5.1347479820251465 5.240361213684082
        5.457456111907959 5.585506439208984 5.478160381317139 5.440714359283447 5.347130298614502 5.292688369750977
        5.31325101852417 5.30531644821167 5.366809844970703 5.336369514465332 5.24688720703125 5.337738990783691
        5.417956829071045 5.438590049743652 5.537572383880615 5.289212703704834 5.2410807609558105 5.28779411315918
        5.283145904541016 5.055081367492676 4.840578556060791 4.983703136444092 5.113152980804443 4.910943031311035
        4.776325702667236 4.735472679138184 5.222416877746582 5.556411266326904 5.661360740661621 5.7500128746032715
        5.711182117462158 6.078484535217285 6.110591411590576 6.036242961883545 5.9791483879089355 5.9914727210998535
        6.344308853149414 6.50425386428833 6.551529407501221 6.325811386108398 6.231050968170166 6.253480911254883
        6.483874320983887 6.3924031257629395 6.326340198516846 6.009649276733398 6.107830047607422 6.182103157043457
        6.055178165435791 5.89312219619751 5.723024845123291 5.777228832244873 5.614696979522705 5.169404983520508
        4.866888999938965 4.728939533233643 4.776823043823242 4.621938228607178 4.729214668273926 4.935063362121582
        4.970057487487793 4.861989974975586 4.7522807121276855 4.355357646942139 4.08217716217041 4.046957969665527
        4.514887809753418 4.617706775665283 4.811370372772217 4.757241725921631 4.572317600250244 4.165932655334473
        4.0319952964782715 4.268672466278076 4.890067100524902 4.897052764892578 4.437306880950928 3.9345381259918213
        3.6164073944091797 3.6091508865356445 3.280672311782837 3.254147529602051 2.904285430908203 2.9812066555023193
        3.4817943572998047 3.4418179988861084 3.2010247707366943 3.2443954944610596 3.6154134273529053 4.744693756103516
        4.8718180656433105 4.350428581237793 3.61668062210083 2.653625011444092 0.6264633536338806 0.9449005722999573
        0.8126140832901001 0.8832218647003174 1.0445630550384521 1.2310359477996826 1.2633230686187744 1.3470430374145508
        1.4491149187088013 1.41280198097229 1.2621253728866577 1.4192310571670532 1.5266238451004028 1.6555896997451782
        2.0726804733276367 2.2104763984680176 2.4254355430603027 2.223580837249756 1.9035826921463013 2.016879081726074
        1.6954394578933716 1.4378628730773926 1.3490321636199951 1.5489702224731445 1.6599403619766235 1.9230992794036865
        2.3496479988098145 2.6959149837493896 2.537689447402954 2.420804738998413 2.2386531829833984 1.7008229494094849
        1.5566794872283936 1.6359882354736328 2.137272596359253 1.8815869092941284 1.5404388904571533 1.0429998636245728
        1.4832974672317505 2.093385696411133 2.3246054649353027 2.8014612197875977 2.8903555870056152 2.6806914806365967
        2.2636001110076904 1.8398120403289795 1.9349324703216553 2.1752190589904785 2.390949010848999 2.066805362701416
        2.1582093238830566 2.49079966545105 2.7720589637756348 2.761479377746582 2.819598436355591 3.0900990962982178
        3.217747688293457 3.2114784717559814 3.356306552886963 3.7900218963623047 3.91984224319458 3.9569766521453857
        4.506481170654297 4.886517524719238 5.038407802581787 5.3181071281433105 5.325418472290039 5.362979888916016
        5.374871253967285 5.461695194244385 5.3356451988220215 5.207325458526611 5.188117980957031 5.389077663421631
        5.36840295791626 5.292137145996094 5.1369781494140625 5.257696628570557 5.441728591918945 5.48528528213501
        5.572710037231445 5.319584846496582 5.203845500946045 5.33091926574707 5.030801773071289 4.882306098937988
        4.757975101470947 4.923624515533447 5.140946388244629 4.625397205352783 4.350451469421387 4.2857584953308105
        4.799298286437988 5.276508808135986 5.201962947845459 5.435987949371338 5.331964015960693 5.810576438903809
        5.9201340675354 5.828491687774658 5.81554651260376 5.938021659851074 6.2337870597839355 6.300175189971924
        6.122390270233154 6.061282157897949 6.039536476135254 6.175702095031738 6.310136795043945 6.141593933105469
        6.044744968414307 5.993194580078125 6.0462799072265625 6.1418232917785645 5.883101940155029 5.701925754547119
        5.5829267501831055 5.740785598754883 5.721040725708008 5.228796005249023 4.956714153289795 4.652990818023682
        4.448894023895264 4.192118167877197 4.399971961975098 4.773157119750977 4.800899028778076 4.7128167152404785
        4.623351573944092 4.260531902313232 3.9831466674804688 3.9944233894348145 4.392541885375977 4.607049465179443
        4.741720676422119 4.84222412109375 4.4295878410339355 3.928213119506836 3.75209379196167 4.102509021759033
        4.515129566192627 4.375416278839111 3.914055824279785 3.427175998687744 3.3287205696105957 3.4319446086883545
        3.5889813899993896 3.5084996223449707 3.281216621398926 3.379131555557251 3.628331422805786 3.48575496673584
        2.797008752822876 2.828916549682617 3.169022560119629 3.9582300186157227 4.292593955993652 4.065445423126221
        3.7825424671173096 2.953472375869751 0.7468969821929932 0.7101166248321533 0.43055838346481323 0.27875250577926636
        0.48415660858154297 0.7145691514015198 0.858970046043396 1.2286064624786377 1.2905906438827515 1.2346560955047607
        0.9938067197799683 1.4018502235412598 1.7343649864196777 1.8430031538009644 1.969159722328186 2.1154823303222656
        2.3496456146240234 2.019207239151001 1.6038005352020264 1.5780773162841797 1.3393160104751587 1.2156091928482056
        1.0956875085830688 1.3154842853546143 1.3911432027816772 1.785274863243103 2.0426833629608154 2.3049240112304688
        2.2288589477539062 2.0861568450927734 2.015784502029419 1.5996686220169067 1.6458992958068848 1.6521358489990234
        2.1740050315856934 2.2396788597106934 2.282524347305298 1.9883118867874146 2.0166335105895996 1.9785085916519165
        2.0862205028533936 2.4087069034576416 2.591651201248169 2.422940492630005 1.868567943572998 1.2741624116897583
        1.4502639770507812 1.5325769186019897 1.8268580436706543 1.6878100633621216 2.260432004928589 2.6161508560180664
        2.7876875400543213 2.4620189666748047 2.4076669216156006 2.829995632171631 3.2485973834991455 3.271890163421631
        3.389930248260498 3.616502285003662 3.6143317222595215 3.739795207977295 4.112904071807861 4.44954252243042
        4.482598304748535 4.852447032928467 5.00786828994751 5.180027961730957 5.361213684082031 5.559468746185303
        5.430025577545166 5.336282253265381 5.2675323486328125 5.41234016418457 5.218306064605713 5.108922958374023
        5.1001973152160645 5.215489864349365 5.481719017028809 5.528992176055908 5.608745574951172 5.422717094421387
        5.256616592407227 5.412198543548584 5.062114715576172 4.920159339904785 4.87053108215332 5.087702751159668
        5.246073246002197 4.6214070320129395 4.212924003601074 4.100766658782959 4.567999362945557 4.928074359893799
        4.593070030212402 4.989166259765625 5.153903484344482 5.771955490112305 5.964244365692139 5.854940891265869
        5.8572821617126465 5.9461469650268555 6.083499431610107 6.214646816253662 5.9720587730407715 5.905600070953369
        5.866817951202393 5.954286575317383 6.175323963165283 6.052867889404297 6.0170369148254395 5.997134685516357
        5.890009880065918 5.96121883392334 5.663641929626465 5.630313396453857 5.617398262023926 5.582741737365723
        5.644878387451172 5.229773998260498 5.015058517456055 4.6786699295043945 4.217103004455566 4.145998001098633
        4.101406097412109 4.493791103363037 4.582005977630615 4.595976829528809 4.5690484046936035 4.29888391494751
        4.226661205291748 4.328070640563965 4.492159843444824 4.620917797088623 4.625983715057373 4.680323123931885
        4.360955715179443 4.048989772796631 3.968614339828491 3.979027509689331 4.064014911651611 4.226380825042725
        4.023134231567383 3.7093210220336914 3.4715676307678223 3.4981837272644043 3.6413345336914062 3.6920628547668457
        3.803717851638794 3.6338682174682617 3.6043457984924316 3.2637388706207275 2.5253827571868896 2.6296799182891846
        2.3986897468566895 3.3615474700927734 3.560210943222046 3.602174997329712 3.3259437084198 2.9810845851898193
        0.8915041089057922 0.6607605814933777 0.4361698031425476 0.11853758245706558 0.3743806481361389 0.5116159319877625
        0.67341548204422 1.1147514581680298 1.2099173069000244 1.0582555532455444 0.8961840867996216 1.1675853729248047
        1.696405053138733 2.209596633911133 2.2432570457458496 2.3813843727111816 2.2034833431243896 2.0224692821502686
        1.6899293661117554 1.7028095722198486 1.3385652303695679 1.1884586811065674 1.267128825187683 1.4280306100845337
        1.655970811843872 1.7455204725265503 1.924355387687683 2.0611555576324463 2.1224236488342285 2.053494691848755
        2.1036412715911865 1.9372061491012573 1.9415169954299927 1.6902565956115723 2.2968475818634033 2.4032697677612305
        2.8021788597106934 2.5269453525543213 2.5621140003204346 2.471506357192993 2.421834707260132 2.326165199279785
        2.500978708267212 2.209012269973755 1.5944273471832275 0.8248975872993469 0.9074791073799133 0.9830723404884338
        1.4417468309402466 1.7655603885650635 2.435222864151001 2.739426612854004 2.568939685821533 2.336778163909912
        2.373591423034668 2.7597193717956543 3.1989922523498535 3.281662940979004 3.3990983963012695 3.19083309173584
        3.1578643321990967 3.476532220840454 3.8909828662872314 4.097415924072266 4.246631145477295 4.6023736000061035
        4.7858734130859375 5.035586833953857 5.301951885223389 5.575075626373291 5.50852108001709 5.532041072845459
        5.514012336730957 5.512373924255371 5.291616439819336 5.142063140869141 5.185698986053467 5.183686256408691
        5.422786235809326 5.504394054412842 5.52042293548584 5.4826273918151855 5.317735195159912 5.487333297729492
        5.371124267578125 5.131337642669678 5.410143852233887 5.434998512268066 5.621567726135254 5.058645725250244
        4.624586582183838 4.462103843688965 4.548492431640625 4.743682861328125 4.544864177703857 4.829473972320557
        4.979910373687744 5.59920597076416 6.08952522277832 6.159492015838623 6.062650203704834 6.098968505859375
        6.139930248260498 6.255762577056885 6.097686290740967 5.987865924835205 5.905998706817627 5.936037063598633
        6.04444694519043 5.968277454376221 5.796605110168457 5.739256858825684 5.7097063064575195 5.81371545791626
        5.688215732574463 5.65545654296875 5.713868618011475 5.730412483215332 5.728760242462158 5.500011920928955
        5.009151458740234 4.605900764465332 4.026076316833496 4.1725664138793945 4.328726768493652 4.5157670974731445
        4.552972793579102 4.561326503753662 4.516640663146973 4.448035717010498 4.489161968231201 4.805817127227783
        4.693274021148682 4.687970161437988 4.5163774490356445 4.270307540893555 4.320201873779297 4.177407264709473
        4.248243808746338 3.987114429473877 3.843761920928955 4.096798419952393 4.003239631652832 3.871807813644409
        3.938617706298828 4.103139400482178 4.044966220855713 3.7969276905059814 3.7352538108825684 3.513063907623291
        3.4054229259490967 3.292243242263794 2.8312578201293945 2.7936196327209473 2.7233152389526367 3.5168328285217285
        3.595005989074707 3.59661865234375 3.110135793685913 2.7528347969055176 0.7576584219932556 0.5991840958595276
        0.40721622109413147 0.284346342086792 0.5182918310165405 0.7320156097412109 0.6531062722206116 0.8989240527153015
        1.0451078414916992 1.0493239164352417 0.9934236407279968 1.0382508039474487 1.56368088722229 2.1642794609069824
        2.3485350608825684 2.50459361076355 2.2031590938568115 2.1561810970306396 1.9684581756591797 1.8697519302368164
        1.5245075225830078 1.3957905769348145 1.5141836404800415 1.5540649890899658 1.713944435119629 1.7999147176742554
        1.9308428764343262 2.0390210151672363 2.0127267837524414 1.8959951400756836 2.0747034549713135 1.844390630722046
        1.5902283191680908 1.4479058980941772 2.033076047897339 2.289198637008667 2.5858755111694336 2.584122896194458
        2.6758193969726562 2.7439160346984863 2.7773449420928955 2.6105706691741943 2.487726926803589 2.1124777793884277
        1.7244030237197876 1.151995301246643 1.1324957609176636 1.1077080965042114 1.502720594406128 1.9516749382019043
        2.532752513885498 2.6477158069610596 2.550615072250366 2.4384045600891113 2.5478241443634033 2.8763551712036133
        3.251737117767334 3.452871322631836 3.62471604347229 3.333005905151367 3.3547160625457764 3.500889778137207
        3.790720224380493 4.004128456115723 4.40813684463501 4.6336822509765625 4.583181858062744 4.58573579788208
        4.830735683441162 5.037887096405029 5.185146331787109 5.429572582244873 5.691532135009766 5.651919364929199
        5.316403865814209 5.110509872436523 5.03538703918457 5.179862022399902 5.488320350646973 5.462191581726074
        5.4186248779296875 5.355985641479492 5.372244358062744 5.600668430328369 5.616703033447266 5.592282295227051
        5.667489528656006 5.714105606079102 5.897836208343506 5.477262020111084 5.142960548400879 4.6730427742004395
        4.519619941711426 4.725144386291504 4.647911548614502 4.840368747711182 4.897979736328125 5.518707752227783
        6.192806720733643 6.252275466918945 6.335878372192383 6.189645290374756 6.338047027587891 6.386724948883057
        6.182306289672852 6.143248081207275 5.927247524261475 5.923940658569336 6.0436177253723145 5.88890266418457
        5.747866153717041 5.552857398986816 5.697831630706787 5.886630058288574 5.779125690460205 5.760549545288086
        5.773869514465332 5.795840263366699 5.837893486022949 5.464334964752197 4.958598613739014 4.401276111602783
        4.386592864990234 4.7243194580078125 4.7439470291137695 4.5042524337768555 4.4386067390441895 4.501794815063477
        4.567104816436768 4.635457515716553 4.807093143463135 4.901264190673828 4.77910852432251 4.665320873260498
        4.484243869781494 4.410505294799805 4.366908550262451 4.090071678161621 4.121260643005371 3.839893341064453
        3.8457276821136475 3.7230470180511475 3.6068215370178223 3.755901336669922 3.988544225692749 4.396900177001953
        4.345634937286377 4.140444278717041 3.8770740032196045 3.441924810409546 3.251675605773926 3.159148931503296
        2.7098746299743652 2.646345853805542 2.7646644115448 3.6126232147216797 3.516000270843506 3.3158655166625977
        2.6708476543426514 2.2263119220733643 0.8623296618461609 0.5187240242958069 0.26825475692749023 0.543212354183197
        0.6261667013168335 0.6303201913833618 0.6511889100074768 0.8149399757385254 0.9320554733276367 1.0594245195388794
        1.075118064880371 1.0922621488571167 1.5463780164718628 2.111551523208618 2.426679849624634 2.431116819381714
        2.290499210357666 2.3312737941741943 2.0374698638916016 2.011873960494995 1.5427584648132324 1.4442821741104126
        1.5487842559814453 1.4218621253967285 1.6852725744247437 1.6976988315582275 1.8953009843826294 1.8665776252746582
        1.752138376235962 1.7739986181259155 1.7566537857055664 1.7590440511703491 1.562893271446228 1.492313027381897
        1.8097164630889893 1.8650344610214233 1.9117153882980347 2.079850435256958 2.335792303085327 2.863403081893921
        3.1056833267211914 3.018160343170166 2.649096965789795 2.3874762058258057 2.2179391384124756 1.7398732900619507
        1.6849340200424194 1.7151802778244019 1.7375404834747314 2.0497963428497314 2.103154182434082 2.33693265914917
        2.386178970336914 2.560349941253662 2.790099620819092 2.9755373001098633 3.2244412899017334 3.460951089859009
        3.528871774673462 3.495255947113037 3.459773063659668 3.5565569400787354 3.7460765838623047 4.086771488189697
        4.653904438018799 4.754616737365723 4.625221252441406 4.3486833572387695 4.484119415283203 4.6954731941223145
        5.046186447143555 5.543056488037109 5.834360122680664 5.641852378845215 5.39946985244751 5.088342666625977
        5.02998161315918 5.28278923034668 5.423205375671387 5.323663234710693 5.2939229011535645 5.341824531555176
        5.4180989265441895 5.649998664855957 5.9153337478637695 5.834168434143066 5.731291770935059 5.630636692047119
        5.789511680603027 5.8186516761779785 5.644074440002441 5.150995254516602 4.864613056182861 4.778908729553223
        4.6538519859313965 4.758138179779053 5.093430042266846 5.7213640213012695 6.232754707336426 6.293663501739502
        6.3610734939575195 6.447583198547363 6.531452655792236 6.346545696258545 6.174013614654541 6.154535293579102
        6.025358200073242 6.052550792694092 6.079598426818848 5.924949645996094 5.8542633056640625 5.6123809814453125
        5.751049041748047 5.774462699890137 5.802126407623291 5.760733604431152 5.7945475578308105 5.68576192855835
        5.506654262542725 5.239170074462891 5.1877241134643555 4.8637213706970215 4.821054458618164 5.002195835113525
        4.8113532066345215 4.62861967086792 4.588582515716553 4.57887077331543 4.56953763961792 4.661807537078857
        4.782244682312012 4.865208148956299 4.88201379776001 4.5803141593933105 4.43792724609375 4.4641804695129395
        4.426277160644531 4.159228801727295 3.958768367767334 3.56404447555542 3.547858476638794 3.2320024967193604
        3.1655590534210205 3.3138933181762695 3.6952977180480957 4.0847697257995605 4.268460273742676 4.209991931915283
        3.928865671157837 3.6247029304504395 3.278306245803833 3.057976484298706 3.0393500328063965 3.109041213989258
        3.050821304321289 2.824213743209839 2.5638818740844727 2.627195119857788 2.357780694961548 1.6836411952972412
        0.6560772061347961 0.3522932529449463 0.088632732629776 0.5504507422447205 0.800158679485321 0.7023119330406189
        0.7054702639579773 0.6317589282989502 1.0746815204620361 0.9405256509780884 1.1047059297561646 1.2682266235351562
        1.7393434047698975 1.9375905990600586 2.131791114807129 2.1975176334381104 2.324911594390869 2.3695642948150635
        2.081070899963379 1.7894957065582275 1.2871679067611694 1.2594650983810425 1.3005906343460083 1.1196171045303345
        1.4185035228729248 1.6601756811141968 1.8129061460494995 1.6203621625900269 1.4344482421875 1.5326862335205078
        1.5002135038375854 1.6760398149490356 1.4572703838348389 1.5112175941467285 1.6819602251052856 1.8560222387313843
        1.7753816843032837 1.9315983057022095 2.190173864364624 2.6852283477783203 3.021599292755127 2.881971836090088
        2.511340379714966 2.3933842182159424 2.5424437522888184 2.4479663372039795 2.402297019958496 2.2336297035217285
        1.973217487335205 2.1698737144470215 2.162581205368042 2.5454061031341553 2.6475675106048584 2.815315008163452
        2.839437961578369 2.90814471244812 3.166041612625122 3.181509017944336 3.1991519927978516 3.5525784492492676
        3.5945591926574707 3.6714060306549072 4.034399509429932 4.623388290405273 4.985272407531738 4.750197887420654
        4.533299922943115 4.243318557739258 4.302651405334473 4.488966464996338 4.8602681159973145 5.040163516998291
        5.19577693939209 5.304701328277588 5.261039733886719 5.0157880783081055 5.063483238220215 5.195776462554932
        5.464776992797852 5.320792198181152 5.482596397399902 5.563045978546143 5.553233623504639 5.803264617919922
        5.965325832366943 6.002407073974609 5.842980861663818 5.695740222930908 5.796382904052734 5.807831287384033
        5.704148292541504 5.467421531677246 5.379647254943848 5.173605442047119 4.849152088165283 4.761578559875488
        5.01778507232666 5.522368431091309 6.000561237335205 6.140365123748779 6.340062618255615 6.404744625091553
        6.4016523361206055 6.467227458953857 6.28678035736084 6.205706596374512 6.055770397186279 6.012272834777832
        6.135896682739258 5.933365345001221 5.876120090484619 5.612420082092285 5.661529064178467 5.686040878295898
        5.721339702606201 5.73934268951416 5.747649192810059 5.474701881408691 5.339284420013428 5.333463191986084
        5.505914688110352 5.327564239501953 5.293153762817383 5.299851894378662 4.94350528717041 4.747059345245361
        4.541158199310303 4.460066795349121 4.548312187194824 4.563770294189453 4.543396472930908 4.537147045135498
        4.524472713470459 4.439632892608643 4.272089958190918 4.317794322967529 4.237837791442871 4.048854827880859
        3.8550195693969727 3.6429073810577393 3.520052194595337 3.21311092376709 2.769310235977173 2.7255871295928955
        3.0787150859832764 3.6133310794830322 3.874406099319458 3.7642099857330322 3.5616817474365234 3.567692756652832
        3.437349557876587 3.1226117610931396 3.0327906608581543 3.0916759967803955 2.9529364109039307 2.373840570449829
        2.0337345600128174 2.152419328689575 2.0442183017730713 1.798728346824646
      </DataArray>
    </PointData>
    <CellData>
    </CellData>
  </Piece>
  </ImageData>
</VTKFile>
